P3
400 225
255
204 226 255 
204 226 255 
204 226 255 
204 226 255 
204 226 255 
204 226 255 
204 226 255 
204 226 255 
204 226 255 
204 226 255 
204 226 255 
204 226 255 
204 226 255 
204 226 255 
204 226 255 
203 226 255 
203 226 255 
203 226 255 
203 226 255 
203 226 255 
194 215 254 
188 209 253 
176 195 250 
165 183 250 
154 172 252 
143 159 249 
143 159 249 
133 148 250 
113 125 248 
109 121 242 
88 98 236 
99 110 246 
75 84 240 
60 67 244 
40 45 245 
45 50 246 
20 22 241 
45 50 236 
0 0 237 
0 0 242 
0 0 241 
0 0 246 
0 0 242 
20 22 241 
20 22 245 
40 45 244 
49 55 242 
53 59 240 
69 77 238 
83 92 241 
90 100 244 
98 110 248 
125 140 246 
133 149 252 
127 142 250 
138 154 250 
154 172 253 
154 172 249 
168 188 253 
171 192 253 
190 213 254 
194 217 254 
201 224 255 
200 224 255 
200 224 255 
200 224 255 
200 224 255 
200 224 255 
200 224 255 
200 224 255 
200 224 255 
200 224 255 
200 224 255 
200 224 255 
200 224 255 
200 224 255 
200 224 255 
200 224 255 
199 224 255 
199 224 255 
199 223 255 
199 223 255 
199 223 255 
199 223 255 
199 223 255 
199 223 255 
199 223 255 
199 223 255 
199 223 255 
199 223 255 
199 223 255 
199 223 255 
198 223 255 
198 223 255 
198 223 255 
198 223 255 
198 223 255 
198 223 255 
198 223 255 
198 223 255 
198 223 255 
198 223 255 
198 223 255 
198 223 255 
198 223 255 
198 223 255 
197 223 255 
197 222 255 
197 222 255 
197 222 255 
197 222 255 
197 222 255 
197 222 255 
197 222 255 
197 222 255 
197 222 255 
197 222 255 
197 222 255 
197 222 255 
197 222 255 
197 222 255 
196 222 255 
196 222 255 
196 222 255 
196 222 255 
196 222 255 
196 222 255 
196 222 255 
196 222 255 
196 222 255 
196 222 255 
196 222 255 
196 222 255 
196 222 255 
196 222 255 
196 221 255 
196 221 255 
195 221 255 
195 221 255 
195 221 255 
195 221 255 
195 221 255 
195 221 255 
195 221 255 
195 221 255 
195 221 255 
195 221 255 
195 221 255 
195 221 255 
195 221 255 
195 221 255 
195 221 255 
195 221 255 
195 221 255 
195 221 255 
194 221 255 
194 221 255 
194 221 255 
194 221 255 
194 221 255 
194 221 255 
194 221 255 
194 221 255 
194 221 255 
194 221 255 
194 221 255 
194 221 255 
194 221 255 
194 221 255 
194 221 255 
194 221 255 
194 221 255 
194 221 255 
194 221 255 
194 221 255 
194 221 255 
194 221 255 
194 220 255 
194 220 255 
194 220 255 
194 220 255 
194 220 255 
194 220 255 
194 220 255 
194 220 255 
194 220 255 
194 220 255 
193 220 255 
193 220 255 
193 220 255 
193 220 255 
193 220 255 
193 220 255 
193 220 255 
193 220 255 
193 220 255 
193 220 255 
193 220 255 
193 220 255 
193 220 255 
193 220 255 
193 220 255 
193 220 255 
193 220 255 
193 220 255 
193 220 255 
193 220 255 
193 220 255 
193 220 255 
193 220 255 
193 220 255 
193 220 255 
193 220 255 
193 220 255 
194 220 255 
194 220 255 
194 220 255 
194 220 255 
194 220 255 
194 220 255 
194 220 255 
194 220 255 
194 220 255 
194 221 255 
194 221 255 
194 221 255 
194 221 255 
194 221 255 
194 221 255 
194 221 255 
194 221 255 
194 221 255 
194 221 255 
194 221 255 
194 221 255 
194 221 255 
194 221 255 
194 221 255 
194 221 255 
194 221 255 
194 221 255 
194 221 255 
194 221 255 
194 221 255 
194 221 255 
195 221 255 
195 221 255 
195 221 255 
195 221 255 
195 221 255 
195 221 255 
195 221 255 
195 221 255 
195 221 255 
195 221 255 
195 221 255 
195 221 255 
195 221 255 
195 221 255 
195 221 255 
195 221 255 
195 221 255 
195 221 255 
196 221 255 
196 221 255 
196 222 255 
196 222 255 
196 222 255 
196 222 255 
196 222 255 
196 222 255 
196 222 255 
196 222 255 
196 222 255 
196 222 255 
196 222 255 
196 222 255 
196 222 255 
196 222 255 
197 222 255 
197 222 255 
197 222 255 
197 222 255 
197 222 255 
197 222 255 
197 222 255 
197 222 255 
197 222 255 
197 222 255 
197 222 255 
197 222 255 
197 222 255 
197 222 255 
197 222 255 
198 223 255 
198 223 255 
198 223 255 
198 223 255 
198 223 255 
198 223 255 
198 223 255 
198 223 255 
198 223 255 
198 223 255 
198 223 255 
198 223 255 
198 223 255 
198 223 255 
199 223 255 
199 223 255 
199 223 255 
199 223 255 
199 223 255 
199 223 255 
199 223 255 
199 223 255 
199 223 255 
199 223 255 
199 223 255 
199 223 255 
199 224 255 
199 224 255 
200 224 255 
200 224 255 
200 224 255 
200 224 255 
200 224 255 
200 224 255 
200 224 255 
200 224 255 
200 224 255 
200 224 255 
200 224 255 
200 224 255 
200 224 255 
200 224 255 
200 224 255 
201 224 255 
200 217 248 
200 200 228 
200 198 226 
198 166 189 
199 181 206 
199 178 203 
202 152 173 
197 145 165 
196 138 157 
198 131 149 
198 121 137 
200 90 102 
199 103 117 
199 63 72 
200 74 84 
199 55 62 
199 55 62 
199 22 25 
198 0 0 
198 0 0 
198 0 0 
199 0 0 
197 0 0 
199 0 0 
197 22 25 
197 45 51 
197 50 57 
198 59 67 
201 78 88 
199 93 105 
201 98 111 
197 98 111 
199 121 137 
202 139 157 
196 148 167 
200 151 171 
200 166 188 
200 183 207 
202 187 212 
201 202 228 
203 199 226 
203 219 248 
203 226 255 
203 226 255 
203 226 255 
203 226 255 
203 226 255 
204 226 255 
204 226 255 
204 226 255 
204 226 255 
204 226 255 
204 226 255 
204 226 255 
204 226 255 
204 226 255 
204 226 255 
204 226 255 
204 226 255 
204 226 255 
204 226 255 
204 226 255 
204 226 255 
204 226 255 
204 226 255 
204 226 255 
204 226 255 
204 226 255 
204 226 255 
204 226 255 
204 226 255 
204 226 255 
204 226 255 
198 219 252 
182 202 252 
170 189 254 
151 167 246 
138 153 246 
122 135 242 
109 121 248 
61 67 244 
40 45 244 
0 0 249 
0 0 240 
0 0 236 
0 0 236 
0 0 237 
0 0 238 
0 0 246 
0 0 240 
0 0 234 
0 0 242 
0 0 237 
0 0 241 
0 0 242 
0 0 236 
0 0 241 
0 0 242 
0 0 245 
0 0 230 
0 0 241 
0 0 246 
0 0 230 
0 0 238 
0 0 242 
0 0 245 
0 0 245 
0 0 248 
0 0 240 
0 0 241 
0 0 244 
0 0 238 
0 0 241 
0 0 241 
0 0 248 
0 0 242 
0 0 244 
0 0 245 
0 0 244 
0 0 240 
0 0 240 
0 0 246 
0 0 236 
0 0 240 
20 22 245 
77 87 241 
106 118 249 
108 120 249 
139 155 248 
147 164 250 
158 176 254 
181 203 254 
195 218 255 
200 224 255 
200 224 255 
200 224 255 
200 224 255 
200 224 255 
200 224 255 
200 224 255 
200 224 255 
200 224 255 
199 224 255 
199 224 255 
199 223 255 
199 223 255 
199 223 255 
199 223 255 
199 223 255 
199 223 255 
199 223 255 
199 223 255 
199 223 255 
199 223 255 
199 223 255 
199 223 255 
198 223 255 
198 223 255 
198 223 255 
198 223 255 
198 223 255 
198 223 255 
198 223 255 
198 223 255 
198 223 255 
198 223 255 
198 223 255 
198 223 255 
198 223 255 
198 223 255 
197 223 255 
197 222 255 
197 222 255 
197 222 255 
197 222 255 
197 222 255 
197 222 255 
197 222 255 
197 222 255 
197 222 255 
197 222 255 
197 222 255 
197 222 255 
197 222 255 
197 222 255 
196 222 255 
196 222 255 
196 222 255 
196 222 255 
196 222 255 
196 222 255 
196 222 255 
196 222 255 
196 222 255 
196 222 255 
196 222 255 
196 222 255 
196 222 255 
196 222 255 
196 222 255 
196 221 255 
195 221 255 
195 221 255 
195 221 255 
195 221 255 
195 221 255 
195 221 255 
195 221 255 
195 221 255 
195 221 255 
195 221 255 
195 221 255 
195 221 255 
195 221 255 
195 221 255 
195 221 255 
195 221 255 
195 221 255 
195 221 255 
195 221 255 
194 221 255 
194 221 255 
194 221 255 
194 221 255 
194 221 255 
194 221 255 
194 221 255 
194 221 255 
194 221 255 
194 221 255 
194 221 255 
194 221 255 
194 221 255 
194 221 255 
194 221 255 
194 221 255 
194 221 255 
194 221 255 
194 221 255 
194 221 255 
194 221 255 
194 221 255 
194 221 255 
194 221 255 
194 221 255 
194 220 255 
194 220 255 
194 220 255 
194 220 255 
194 220 255 
194 220 255 
194 220 255 
194 220 255 
194 220 255 
194 220 255 
194 220 255 
194 220 255 
194 220 255 
194 220 255 
194 220 255 
194 220 255 
194 220 255 
194 220 255 
194 220 255 
194 220 255 
194 220 255 
194 220 255 
194 220 255 
194 220 255 
194 220 255 
194 220 255 
194 220 255 
194 220 255 
194 220 255 
194 220 255 
194 220 255 
194 220 255 
194 220 255 
194 220 255 
194 221 255 
194 221 255 
194 221 255 
194 221 255 
194 221 255 
194 221 255 
194 221 255 
194 221 255 
194 221 255 
194 221 255 
194 221 255 
194 221 255 
194 221 255 
194 221 255 
194 221 255 
194 221 255 
194 221 255 
194 221 255 
194 221 255 
194 221 255 
194 221 255 
194 221 255 
194 221 255 
194 221 255 
194 221 255 
195 221 255 
195 221 255 
195 221 255 
195 221 255 
195 221 255 
195 221 255 
195 221 255 
195 221 255 
195 221 255 
195 221 255 
195 221 255 
195 221 255 
195 221 255 
195 221 255 
195 221 255 
195 221 255 
195 221 255 
195 221 255 
195 221 255 
196 221 255 
196 222 255 
196 222 255 
196 222 255 
196 222 255 
196 222 255 
196 222 255 
196 222 255 
196 222 255 
196 222 255 
196 222 255 
196 222 255 
196 222 255 
196 222 255 
196 222 255 
196 222 255 
197 222 255 
197 222 255 
197 222 255 
197 222 255 
197 222 255 
197 222 255 
197 222 255 
197 222 255 
197 222 255 
197 222 255 
197 222 255 
197 222 255 
197 222 255 
197 222 255 
197 223 255 
198 223 255 
198 223 255 
198 223 255 
198 223 255 
198 223 255 
198 223 255 
198 223 255 
198 223 255 
198 223 255 
198 223 255 
198 223 255 
198 223 255 
198 223 255 
198 223 255 
199 223 255 
199 223 255 
199 223 255 
199 223 255 
199 223 255 
199 223 255 
199 223 255 
199 223 255 
199 223 255 
199 223 255 
199 223 255 
199 223 255 
199 224 255 
199 224 255 
200 224 255 
200 224 255 
200 224 255 
200 224 255 
200 224 255 
200 224 255 
200 224 255 
200 224 255 
200 224 255 
200 221 252 
200 202 230 
198 179 204 
199 173 198 
198 148 169 
199 125 142 
197 120 137 
197 92 105 
195 31 36 
198 0 0 
197 0 0 
197 0 0 
199 0 0 
196 0 0 
197 0 0 
200 0 0 
199 0 0 
197 0 0 
195 0 0 
197 0 0 
199 0 0 
199 0 0 
197 0 0 
197 0 0 
196 0 0 
198 0 0 
201 0 0 
197 0 0 
199 0 0 
198 0 0 
198 0 0 
197 0 0 
198 0 0 
199 0 0 
197 0 0 
199 0 0 
197 0 0 
200 0 0 
194 0 0 
197 0 0 
196 0 0 
199 0 0 
200 0 0 
200 0 0 
197 0 0 
200 0 0 
198 0 0 
198 0 0 
198 0 0 
196 0 0 
198 0 0 
198 45 51 
197 103 117 
199 87 99 
199 127 144 
200 144 163 
200 158 179 
204 185 209 
202 211 238 
204 224 253 
204 226 255 
204 226 255 
204 226 255 
204 226 255 
204 226 255 
204 226 255 
204 226 255 
204 226 255 
204 226 255 
204 226 255 
204 226 255 
205 226 255 
205 226 255 
204 226 255 
204 226 255 
203 225 254 
186 206 253 
162 179 249 
151 168 246 
113 126 240 
95 106 240 
57 64 246 
0 0 236 
0 0 237 
0 0 234 
0 0 238 
0 0 230 
0 0 234 
0 0 231 
0 0 241 
0 0 241 
0 0 238 
0 0 236 
0 0 244 
0 0 233 
0 0 244 
0 0 237 
0 0 241 
0 0 238 
0 0 246 
0 0 237 
0 0 237 
0 0 237 
0 0 233 
0 0 242 
0 0 228 
0 0 238 
0 0 237 
0 0 244 
0 0 236 
0 0 241 
0 0 241 
0 0 240 
0 0 230 
0 0 244 
0 0 242 
0 0 233 
0 0 240 
0 0 227 
0 0 242 
0 0 231 
0 0 242 
0 0 241 
0 0 238 
0 0 245 
0 0 237 
0 0 241 
0 0 245 
0 0 241 
0 0 240 
0 0 242 
0 0 241 
0 0 234 
0 0 241 
0 0 245 
0 0 244 
0 0 238 
0 0 238 
0 0 245 
0 0 250 
0 0 245 
0 0 244 
77 86 248 
104 116 244 
121 136 245 
144 161 252 
170 190 250 
184 206 254 
198 221 255 
200 224 255 
200 224 255 
200 224 255 
200 224 255 
199 224 255 
199 224 255 
199 223 255 
199 223 255 
199 223 255 
199 223 255 
199 223 255 
199 223 255 
199 223 255 
199 223 255 
199 223 255 
199 223 255 
199 223 255 
199 223 255 
198 223 255 
198 223 255 
198 223 255 
198 223 255 
198 223 255 
198 223 255 
198 223 255 
198 223 255 
198 223 255 
198 223 255 
198 223 255 
198 223 255 
198 223 255 
198 223 255 
197 223 255 
197 222 255 
197 222 255 
197 222 255 
197 222 255 
197 222 255 
197 222 255 
197 222 255 
197 222 255 
197 222 255 
197 222 255 
197 222 255 
197 222 255 
197 222 255 
197 222 255 
196 222 255 
196 222 255 
196 222 255 
196 222 255 
196 222 255 
196 222 255 
196 222 255 
196 222 255 
196 222 255 
196 222 255 
196 222 255 
196 222 255 
196 222 255 
196 222 255 
196 222 255 
196 221 255 
195 221 255 
195 221 255 
195 221 255 
195 221 255 
195 221 255 
195 221 255 
195 221 255 
195 221 255 
195 221 255 
195 221 255 
195 221 255 
195 221 255 
195 221 255 
195 221 255 
195 221 255 
195 221 255 
195 221 255 
195 221 255 
195 221 255 
195 221 255 
194 221 255 
194 221 255 
194 221 255 
194 221 255 
194 221 255 
194 221 255 
194 221 255 
194 221 255 
194 221 255 
194 221 255 
194 221 255 
194 221 255 
194 221 255 
194 221 255 
194 221 255 
194 221 255 
194 221 255 
194 221 255 
194 221 255 
194 221 255 
194 221 255 
194 221 255 
194 221 255 
194 221 255 
194 221 255 
194 221 255 
194 221 255 
194 221 255 
194 221 255 
194 221 255 
194 221 255 
194 221 255 
194 220 255 
194 220 255 
194 220 255 
194 220 255 
194 220 255 
194 220 255 
194 220 255 
194 220 255 
194 220 255 
194 220 255 
194 220 255 
194 220 255 
194 220 255 
194 220 255 
194 221 255 
194 221 255 
194 221 255 
194 221 255 
194 221 255 
194 221 255 
194 221 255 
194 221 255 
194 221 255 
194 221 255 
194 221 255 
194 221 255 
194 221 255 
194 221 255 
194 221 255 
194 221 255 
194 221 255 
194 221 255 
194 221 255 
194 221 255 
194 221 255 
194 221 255 
194 221 255 
194 221 255 
194 221 255 
194 221 255 
194 221 255 
194 221 255 
194 221 255 
194 221 255 
194 221 255 
194 221 255 
195 221 255 
195 221 255 
195 221 255 
195 221 255 
195 221 255 
195 221 255 
195 221 255 
195 221 255 
195 221 255 
195 221 255 
195 221 255 
195 221 255 
195 221 255 
195 221 255 
195 221 255 
195 221 255 
195 221 255 
195 221 255 
195 221 255 
196 221 255 
196 221 255 
196 222 255 
196 222 255 
196 222 255 
196 222 255 
196 222 255 
196 222 255 
196 222 255 
196 222 255 
196 222 255 
196 222 255 
196 222 255 
196 222 255 
196 222 255 
196 222 255 
196 222 255 
197 222 255 
197 222 255 
197 222 255 
197 222 255 
197 222 255 
197 222 255 
197 222 255 
197 222 255 
197 222 255 
197 222 255 
197 222 255 
197 222 255 
197 222 255 
197 222 255 
197 223 255 
198 223 255 
198 223 255 
198 223 255 
198 223 255 
198 223 255 
198 223 255 
198 223 255 
198 223 255 
198 223 255 
198 223 255 
198 223 255 
198 223 255 
198 223 255 
198 223 255 
199 223 255 
199 223 255 
199 223 255 
199 223 255 
199 223 255 
199 223 255 
199 223 255 
199 223 255 
199 223 255 
199 223 255 
199 223 255 
199 223 255 
199 224 255 
199 224 255 
199 224 255 
200 224 255 
200 224 255 
200 224 255 
200 221 253 
200 203 231 
199 195 223 
198 170 194 
199 134 153 
196 112 128 
195 77 88 
197 0 0 
200 0 0 
198 0 0 
197 0 0 
196 0 0 
196 0 0 
196 0 0 
197 0 0 
199 0 0 
198 0 0 
196 0 0 
197 0 0 
197 0 0 
198 0 0 
200 0 0 
197 0 0 
195 0 0 
198 0 0 
195 0 0 
200 0 0 
197 0 0 
196 0 0 
199 0 0 
196 0 0 
197 0 0 
199 0 0 
197 0 0 
200 0 0 
195 0 0 
198 0 0 
196 0 0 
197 0 0 
197 0 0 
194 0 0 
198 0 0 
198 0 0 
194 0 0 
198 0 0 
197 0 0 
195 0 0 
196 0 0 
198 0 0 
197 0 0 
197 0 0 
198 0 0 
198 0 0 
200 0 0 
196 0 0 
197 0 0 
198 0 0 
198 0 0 
197 0 0 
200 0 0 
197 0 0 
197 0 0 
198 0 0 
198 0 0 
199 0 0 
196 0 0 
197 0 0 
199 59 67 
202 106 120 
198 139 157 
201 156 177 
202 181 204 
202 200 226 
204 223 252 
204 226 255 
204 226 255 
205 226 255 
205 226 255 
174 192 250 
152 168 252 
114 126 242 
67 75 238 
28 32 236 
0 0 240 
0 0 240 
0 0 237 
0 0 244 
0 0 240 
0 0 240 
0 0 240 
0 0 245 
0 0 230 
0 0 236 
0 0 231 
0 0 244 
0 0 236 
0 0 230 
0 0 241 
0 0 234 
0 0 237 
0 0 244 
0 0 238 
0 0 233 
0 0 246 
0 0 237 
0 0 234 
0 0 234 
0 0 241 
0 0 244 
0 0 223 
0 0 233 
0 0 237 
0 0 238 
0 0 230 
0 0 221 
0 0 236 
0 0 240 
0 0 240 
0 0 238 
0 0 242 
0 0 241 
0 0 240 
0 0 238 
0 0 237 
0 0 241 
0 0 240 
0 0 241 
0 0 238 
0 0 240 
0 0 237 
0 0 242 
0 0 230 
0 0 236 
0 0 241 
0 0 242 
0 0 230 
0 0 238 
0 0 242 
0 0 234 
0 0 237 
0 0 245 
0 0 236 
0 0 242 
0 0 242 
0 0 248 
0 0 236 
0 0 245 
0 0 248 
0 0 238 
0 0 242 
0 0 245 
0 0 253 
0 0 250 
0 0 248 
0 0 244 
0 0 242 
72 80 250 
121 136 245 
135 152 250 
168 188 250 
182 204 253 
200 224 255 
199 224 255 
199 224 255 
199 223 255 
199 223 255 
199 223 255 
199 223 255 
199 223 255 
199 223 255 
199 223 255 
199 223 255 
199 223 255 
199 223 255 
199 223 255 
199 223 255 
198 223 255 
198 223 255 
198 223 255 
198 223 255 
198 223 255 
198 223 255 
198 223 255 
198 223 255 
198 223 255 
198 223 255 
198 223 255 
198 223 255 
198 223 255 
198 223 255 
197 223 255 
197 222 255 
197 222 255 
197 222 255 
197 222 255 
197 222 255 
197 222 255 
197 222 255 
197 222 255 
197 222 255 
197 222 255 
197 222 255 
197 222 255 
197 222 255 
197 222 255 
196 222 255 
196 222 255 
196 222 255 
196 222 255 
196 222 255 
196 222 255 
196 222 255 
196 222 255 
196 222 255 
196 222 255 
196 222 255 
196 222 255 
196 222 255 
196 222 255 
196 222 255 
196 222 255 
196 221 255 
195 221 255 
195 221 255 
195 221 255 
195 221 255 
195 221 255 
195 221 255 
195 221 255 
195 221 255 
195 221 255 
195 221 255 
195 221 255 
195 221 255 
195 221 255 
195 221 255 
195 221 255 
195 221 255 
195 221 255 
195 221 255 
195 221 255 
195 221 255 
195 221 255 
194 221 255 
194 221 255 
194 221 255 
194 221 255 
194 221 255 
194 221 255 
194 221 255 
194 221 255 
194 221 255 
194 221 255 
194 221 255 
194 221 255 
194 221 255 
194 221 255 
194 221 255 
194 221 255 
194 221 255 
194 221 255 
194 221 255 
194 221 255 
194 221 255 
194 221 255 
194 221 255 
194 221 255 
194 221 255 
194 221 255 
194 221 255 
194 221 255 
194 221 255 
194 221 255 
194 221 255 
194 221 255 
194 221 255 
194 221 255 
194 221 255 
194 221 255 
194 221 255 
194 221 255 
194 221 255 
194 221 255 
194 221 255 
194 221 255 
194 221 255 
194 221 255 
194 221 255 
194 221 255 
194 221 255 
194 221 255 
194 221 255 
194 221 255 
194 221 255 
194 221 255 
194 221 255 
194 221 255 
194 221 255 
194 221 255 
194 221 255 
194 221 255 
194 221 255 
194 221 255 
194 221 255 
194 221 255 
194 221 255 
194 221 255 
194 221 255 
194 221 255 
194 221 255 
194 221 255 
194 221 255 
194 221 255 
195 221 255 
195 221 255 
195 221 255 
195 221 255 
195 221 255 
195 221 255 
195 221 255 
195 221 255 
195 221 255 
195 221 255 
195 221 255 
195 221 255 
195 221 255 
195 221 255 
195 221 255 
195 221 255 
195 221 255 
195 221 255 
195 221 255 
195 221 255 
195 221 255 
196 221 255 
196 222 255 
196 222 255 
196 222 255 
196 222 255 
196 222 255 
196 222 255 
196 222 255 
196 222 255 
196 222 255 
196 222 255 
196 222 255 
196 222 255 
196 222 255 
196 222 255 
196 222 255 
196 222 255 
197 222 255 
197 222 255 
197 222 255 
197 222 255 
197 222 255 
197 222 255 
197 222 255 
197 222 255 
197 222 255 
197 222 255 
197 222 255 
197 222 255 
197 222 255 
197 222 255 
197 223 255 
198 223 255 
198 223 255 
198 223 255 
198 223 255 
198 223 255 
198 223 255 
198 223 255 
198 223 255 
198 223 255 
198 223 255 
198 223 255 
198 223 255 
198 223 255 
198 223 255 
199 223 255 
199 223 255 
199 223 255 
199 223 255 
199 223 255 
199 223 255 
199 223 255 
199 223 255 
199 223 255 
199 223 255 
199 223 255 
199 223 255 
199 224 255 
199 224 255 
200 224 255 
199 210 240 
199 201 230 
199 166 189 
198 140 159 
198 102 117 
196 44 51 
197 0 0 
195 0 0 
195 0 0 
194 0 0 
197 0 0 
199 0 0 
200 0 0 
197 0 0 
198 0 0 
196 0 0 
197 0 0 
196 0 0 
198 0 0 
196 0 0 
199 0 0 
198 0 0 
196 0 0 
198 0 0 
196 0 0 
197 0 0 
200 0 0 
198 0 0 
197 0 0 
200 0 0 
199 0 0 
195 0 0 
198 0 0 
198 0 0 
196 0 0 
199 0 0 
196 0 0 
199 0 0 
195 0 0 
198 0 0 
195 0 0 
199 0 0 
196 0 0 
198 0 0 
193 0 0 
197 0 0 
197 0 0 
199 0 0 
198 0 0 
196 0 0 
200 0 0 
199 0 0 
195 0 0 
199 0 0 
196 0 0 
200 0 0 
199 0 0 
198 0 0 
197 0 0 
196 0 0 
198 0 0 
195 0 0 
194 0 0 
196 0 0 
201 0 0 
194 0 0 
197 0 0 
198 0 0 
196 0 0 
200 0 0 
198 0 0 
198 0 0 
196 0 0 
196 0 0 
195 0 0 
199 0 0 
196 0 0 
198 0 0 
196 32 36 
199 113 128 
201 134 151 
201 157 177 
203 178 201 
0 0 238 
0 0 242 
0 0 240 
0 0 231 
0 0 230 
0 0 237 
0 0 234 
0 0 233 
0 0 234 
0 0 231 
0 0 237 
0 0 237 
0 0 236 
0 0 241 
0 0 237 
0 0 238 
0 0 237 
0 0 241 
0 0 234 
0 0 236 
0 0 238 
0 0 221 
0 0 236 
0 0 240 
0 0 233 
0 0 242 
0 0 238 
0 0 238 
0 0 231 
0 0 236 
0 0 231 
0 0 231 
0 0 240 
0 0 234 
0 0 238 
0 0 233 
0 0 227 
0 0 233 
0 0 238 
0 0 236 
0 0 236 
0 0 241 
0 0 237 
0 0 227 
0 0 241 
0 0 241 
0 0 237 
0 0 233 
0 0 238 
0 0 238 
0 0 241 
0 0 241 
0 0 238 
0 0 245 
0 0 237 
0 0 237 
0 0 236 
0 0 234 
0 0 238 
0 0 237 
0 0 242 
0 0 238 
0 0 230 
0 0 244 
0 0 238 
0 0 236 
0 0 242 
0 0 238 
0 0 246 
0 0 244 
0 0 244 
0 0 241 
0 0 246 
0 0 237 
0 0 245 
0 0 248 
0 0 245 
0 0 246 
0 0 248 
0 0 250 
0 0 241 
0 0 248 
0 0 241 
56 63 249 
120 134 250 
145 163 249 
169 190 255 
197 221 254 
199 223 255 
199 223 255 
199 223 255 
199 223 255 
199 223 255 
199 223 255 
199 223 255 
199 223 255 
199 223 255 
199 223 255 
199 223 255 
199 223 255 
198 223 255 
198 223 255 
198 223 255 
198 223 255 
198 223 255 
198 223 255 
198 223 255 
198 223 255 
198 223 255 
198 223 255 
198 223 255 
198 223 255 
198 223 255 
198 223 255 
197 223 255 
197 222 255 
197 222 255 
197 222 255 
197 222 255 
197 222 255 
197 222 255 
197 222 255 
197 222 255 
197 222 255 
197 222 255 
197 222 255 
197 222 255 
197 222 255 
197 222 255 
197 222 255 
196 222 255 
196 222 255 
196 222 255 
196 222 255 
196 222 255 
196 222 255 
196 222 255 
196 222 255 
196 222 255 
196 222 255 
196 222 255 
196 222 255 
196 222 255 
196 222 255 
196 222 255 
196 221 255 
196 221 255 
195 221 255 
195 221 255 
195 221 255 
195 221 255 
195 221 255 
195 221 255 
195 221 255 
195 221 255 
195 221 255 
195 221 255 
195 221 255 
195 221 255 
195 221 255 
195 221 255 
195 221 255 
195 221 255 
195 221 255 
195 221 255 
195 221 255 
195 221 255 
195 221 255 
195 221 255 
194 221 255 
194 221 255 
194 221 255 
194 221 255 
194 221 255 
194 221 255 
194 221 255 
194 221 255 
194 221 255 
194 221 255 
194 221 255 
194 221 255 
194 221 255 
194 221 255 
194 221 255 
194 221 255 
194 221 255 
194 221 255 
194 221 255 
194 221 255 
194 221 255 
194 221 255 
194 221 255 
194 221 255 
194 221 255 
194 221 255 
194 221 255 
194 221 255 
194 221 255 
194 221 255 
194 221 255 
194 221 255 
194 221 255 
194 221 255 
194 221 255 
194 221 255 
194 221 255 
194 221 255 
194 221 255 
194 221 255 
194 221 255 
194 221 255 
194 221 255 
194 221 255 
194 221 255 
194 221 255 
194 221 255 
194 221 255 
194 221 255 
194 221 255 
194 221 255 
194 221 255 
194 221 255 
194 221 255 
194 221 255 
194 221 255 
194 221 255 
194 221 255 
194 221 255 
194 221 255 
194 221 255 
194 221 255 
195 221 255 
195 221 255 
195 221 255 
195 221 255 
195 221 255 
195 221 255 
195 221 255 
195 221 255 
195 221 255 
195 221 255 
195 221 255 
195 221 255 
195 221 255 
195 221 255 
195 221 255 
195 221 255 
195 221 255 
195 221 255 
195 221 255 
195 221 255 
195 221 255 
195 221 255 
196 221 255 
196 221 255 
196 222 255 
196 222 255 
196 222 255 
196 222 255 
196 222 255 
196 222 255 
196 222 255 
196 222 255 
196 222 255 
196 222 255 
196 222 255 
196 222 255 
196 222 255 
196 222 255 
196 222 255 
197 222 255 
197 222 255 
197 222 255 
197 222 255 
197 222 255 
197 222 255 
197 222 255 
197 222 255 
197 222 255 
197 222 255 
197 222 255 
197 222 255 
197 222 255 
197 222 255 
197 222 255 
197 223 255 
198 223 255 
198 223 255 
198 223 255 
198 223 255 
198 223 255 
198 223 255 
198 223 255 
198 223 255 
198 223 255 
198 223 255 
198 223 255 
198 223 255 
198 223 255 
198 223 255 
199 223 255 
199 223 255 
199 223 255 
199 223 255 
199 223 255 
199 223 255 
199 223 255 
199 223 255 
199 223 255 
199 223 255 
199 223 255 
199 223 255 
199 221 253 
199 182 207 
199 167 191 
197 126 144 
196 80 92 
197 22 25 
196 0 0 
197 0 0 
196 0 0 
198 0 0 
198 0 0 
197 0 0 
196 0 0 
197 0 0 
200 0 0 
199 0 0 
195 0 0 
198 0 0 
198 0 0 
196 0 0 
194 0 0 
198 0 0 
197 0 0 
196 0 0 
197 0 0 
202 0 0 
197 0 0 
198 0 0 
198 0 0 
199 0 0 
198 0 0 
199 0 0 
199 0 0 
199 0 0 
197 0 0 
198 0 0 
198 0 0 
197 0 0 
197 0 0 
199 0 0 
199 0 0 
198 0 0 
197 0 0 
197 0 0 
198 0 0 
196 0 0 
199 0 0 
194 0 0 
198 0 0 
196 0 0 
200 0 0 
197 0 0 
198 0 0 
198 0 0 
195 0 0 
200 0 0 
195 0 0 
196 0 0 
196 0 0 
200 0 0 
200 0 0 
198 0 0 
194 0 0 
197 0 0 
199 0 0 
200 0 0 
199 0 0 
196 0 0 
197 0 0 
198 0 0 
198 0 0 
196 0 0 
198 0 0 
198 0 0 
197 0 0 
199 0 0 
198 0 0 
198 0 0 
194 0 0 
199 0 0 
198 0 0 
196 0 0 
195 0 0 
198 0 0 
194 0 0 
195 0 0 
199 0 0 
198 0 0 
0 0 237 
0 0 234 
0 0 237 
0 0 234 
0 0 242 
0 0 236 
0 0 231 
0 0 241 
0 0 236 
0 0 231 
0 0 242 
0 0 233 
0 0 234 
0 0 234 
0 0 228 
0 0 238 
0 0 234 
0 0 240 
0 0 236 
0 0 236 
0 0 234 
0 0 238 
0 0 237 
0 0 240 
0 0 245 
0 0 236 
0 0 236 
0 0 244 
0 0 237 
0 0 240 
0 0 220 
0 0 230 
0 0 230 
0 0 236 
0 0 234 
0 0 240 
0 0 240 
0 0 236 
0 0 236 
0 0 234 
0 0 233 
0 0 228 
0 0 242 
0 0 231 
0 0 240 
0 0 234 
0 0 231 
0 0 237 
0 0 236 
0 0 237 
0 0 231 
0 0 230 
0 0 228 
0 0 237 
0 0 234 
0 0 240 
0 0 238 
0 0 240 
0 0 241 
0 0 238 
0 0 241 
0 0 238 
0 0 242 
0 0 240 
0 0 238 
0 0 236 
0 0 240 
0 0 231 
0 0 240 
0 0 237 
0 0 244 
0 0 242 
0 0 230 
0 0 246 
0 0 245 
0 0 233 
0 0 245 
0 0 238 
0 0 246 
0 0 245 
0 0 236 
0 0 245 
0 0 241 
0 0 244 
0 0 244 
0 0 238 
0 0 246 
19 22 246 
77 86 248 
118 132 252 
146 164 255 
177 199 254 
199 223 255 
199 223 255 
199 223 255 
199 223 255 
199 223 255 
199 223 255 
199 223 255 
199 223 255 
199 223 255 
199 223 255 
198 223 255 
198 223 255 
198 223 255 
198 223 255 
198 223 255 
198 223 255 
198 223 255 
198 223 255 
198 223 255 
198 223 255 
198 223 255 
198 223 255 
198 223 255 
198 223 255 
198 223 255 
197 222 255 
197 222 255 
197 222 255 
197 222 255 
197 222 255 
197 222 255 
197 222 255 
197 222 255 
197 222 255 
197 222 255 
197 222 255 
197 222 255 
197 222 255 
197 222 255 
197 222 255 
196 222 255 
196 222 255 
196 222 255 
196 222 255 
196 222 255 
196 222 255 
196 222 255 
196 222 255 
196 222 255 
196 222 255 
196 222 255 
196 222 255 
196 222 255 
196 222 255 
196 222 255 
196 222 255 
196 221 255 
195 221 255 
195 221 255 
195 221 255 
195 221 255 
195 221 255 
195 221 255 
195 221 255 
195 221 255 
195 221 255 
195 221 255 
195 221 255 
195 221 255 
195 221 255 
195 221 255 
195 221 255 
195 221 255 
195 221 255 
195 221 255 
195 221 255 
195 221 255 
195 221 255 
195 221 255 
195 221 255 
195 221 255 
194 221 255 
194 221 255 
194 221 255 
194 221 255 
194 221 255 
194 221 255 
194 221 255 
194 221 255 
194 221 255 
194 221 255 
194 221 255 
194 221 255 
194 221 255 
194 221 255 
194 221 255 
194 221 255 
194 221 255 
194 221 255 
194 221 255 
194 221 255 
194 221 255 
194 221 255 
194 221 255 
194 221 255 
194 221 255 
194 221 255 
194 221 255 
194 221 255 
194 221 255 
194 221 255 
194 221 255 
194 221 255 
194 221 255 
194 221 255 
194 221 255 
194 221 255 
194 221 255 
194 221 255 
194 221 255 
194 221 255 
194 221 255 
194 221 255 
194 221 255 
194 221 255 
194 221 255 
194 221 255 
194 221 255 
194 221 255 
194 221 255 
194 221 255 
194 221 255 
194 221 255 
194 221 255 
194 221 255 
195 221 255 
195 221 255 
195 221 255 
195 221 255 
195 221 255 
195 221 255 
195 221 255 
195 221 255 
195 221 255 
195 221 255 
195 221 255 
195 221 255 
195 221 255 
195 221 255 
195 221 255 
195 221 255 
195 221 255 
195 221 255 
195 221 255 
195 221 255 
195 221 255 
195 221 255 
195 221 255 
195 221 255 
196 221 255 
196 222 255 
196 222 255 
196 222 255 
196 222 255 
196 222 255 
196 222 255 
196 222 255 
196 222 255 
196 222 255 
196 222 255 
196 222 255 
196 222 255 
196 222 255 
196 222 255 
196 222 255 
196 222 255 
197 222 255 
197 222 255 
197 222 255 
197 222 255 
197 222 255 
197 222 255 
197 222 255 
197 222 255 
197 222 255 
197 222 255 
197 222 255 
197 222 255 
197 222 255 
197 222 255 
197 222 255 
198 223 255 
198 223 255 
198 223 255 
198 223 255 
198 223 255 
198 223 255 
198 223 255 
198 223 255 
198 223 255 
198 223 255 
198 223 255 
198 223 255 
198 223 255 
198 223 255 
198 223 255 
199 223 255 
199 223 255 
199 223 255 
199 223 255 
199 223 255 
199 223 255 
199 223 255 
199 223 255 
199 223 255 
199 222 254 
199 201 230 
198 176 201 
197 136 155 
196 83 95 
198 0 0 
198 0 0 
198 0 0 
197 0 0 
197 0 0 
200 0 0 
197 0 0 
197 0 0 
196 0 0 
196 0 0 
194 0 0 
199 0 0 
196 0 0 
198 0 0 
199 0 0 
198 0 0 
196 0 0 
198 0 0 
192 0 0 
196 0 0 
196 0 0 
198 0 0 
198 0 0 
197 0 0 
199 0 0 
196 0 0 
197 0 0 
195 0 0 
195 0 0 
197 0 0 
197 0 0 
196 0 0 
196 0 0 
200 0 0 
195 0 0 
195 0 0 
200 0 0 
197 0 0 
200 0 0 
195 0 0 
199 0 0 
199 0 0 
194 0 0 
197 0 0 
197 0 0 
195 0 0 
197 0 0 
198 0 0 
199 0 0 
198 0 0 
199 0 0 
197 0 0 
196 0 0 
198 0 0 
195 0 0 
196 0 0 
199 0 0 
199 0 0 
198 0 0 
198 0 0 
197 0 0 
198 0 0 
198 0 0 
197 0 0 
195 0 0 
199 0 0 
199 0 0 
198 0 0 
197 0 0 
199 0 0 
199 0 0 
199 0 0 
198 0 0 
197 0 0 
200 0 0 
195 0 0 
196 0 0 
199 0 0 
198 0 0 
198 0 0 
198 0 0 
197 0 0 
200 0 0 
197 0 0 
198 0 0 
197 0 0 
198 0 0 
199 0 0 
0 0 241 
0 0 231 
0 0 242 
0 0 234 
0 0 230 
0 0 230 
0 0 231 
0 0 241 
0 0 237 
0 0 240 
0 0 228 
0 0 241 
0 0 231 
0 0 237 
0 0 231 
0 0 233 
0 0 238 
0 0 234 
0 0 226 
0 0 237 
0 0 234 
0 0 237 
0 0 228 
0 0 226 
0 0 226 
0 0 224 
0 0 230 
0 0 238 
0 0 234 
0 0 234 
0 0 241 
0 0 240 
0 0 230 
0 0 217 
0 0 234 
0 0 240 
0 0 237 
0 0 240 
0 0 226 
0 0 236 
0 0 234 
0 0 236 
0 0 231 
0 0 237 
0 0 230 
0 0 241 
0 0 244 
0 0 238 
0 0 233 
0 0 228 
0 0 240 
0 0 246 
0 0 238 
0 0 242 
0 0 244 
0 0 238 
0 0 240 
0 0 236 
0 0 228 
0 0 236 
0 0 242 
0 0 238 
0 0 244 
0 0 237 
0 0 233 
0 0 242 
0 0 240 
0 0 244 
0 0 249 
0 0 244 
0 0 238 
0 0 233 
0 0 233 
0 0 244 
0 0 238 
0 0 231 
0 0 250 
0 0 246 
0 0 245 
0 0 238 
0 0 237 
0 0 248 
0 0 237 
0 0 244 
0 0 226 
0 0 246 
0 0 240 
0 0 245 
0 0 238 
0 0 242 
0 0 238 
0 0 248 
66 74 248 
127 143 250 
152 170 253 
175 196 253 
199 223 255 
199 223 255 
199 223 255 
199 223 255 
199 223 255 
199 223 255 
199 223 255 
199 223 255 
198 223 255 
198 223 255 
198 223 255 
198 223 255 
198 223 255 
198 223 255 
198 223 255 
198 223 255 
198 223 255 
198 223 255 
198 223 255 
198 223 255 
198 223 255 
198 223 255 
198 223 255 
197 222 255 
197 222 255 
197 222 255 
197 222 255 
197 222 255 
197 222 255 
197 222 255 
197 222 255 
197 222 255 
197 222 255 
197 222 255 
197 222 255 
197 222 255 
197 222 255 
197 222 255 
197 222 255 
196 222 255 
196 222 255 
196 222 255 
196 222 255 
196 222 255 
196 222 255 
196 222 255 
196 222 255 
196 222 255 
196 222 255 
196 222 255 
196 222 255 
196 222 255 
196 222 255 
196 222 255 
196 222 255 
196 221 255 
195 221 255 
195 221 255 
195 221 255 
195 221 255 
195 221 255 
195 221 255 
195 221 255 
195 221 255 
195 221 255 
195 221 255 
195 221 255 
195 221 255 
195 221 255 
195 221 255 
195 221 255 
195 221 255 
195 221 255 
195 221 255 
195 221 255 
195 221 255 
195 221 255 
195 221 255 
195 221 255 
195 221 255 
195 221 255 
195 221 255 
194 221 255 
194 221 255 
194 221 255 
194 221 255 
194 221 255 
194 221 255 
194 221 255 
194 221 255 
194 221 255 
194 221 255 
194 221 255 
194 221 255 
194 221 255 
194 221 255 
194 221 255 
194 221 255 
194 221 255 
194 221 255 
194 221 255 
194 221 255 
194 221 255 
194 221 255 
194 221 255 
194 221 255 
194 221 255 
194 221 255 
194 221 255 
194 221 255 
194 221 255 
194 221 255 
194 221 255 
194 221 255 
194 221 255 
194 221 255 
194 221 255 
194 221 255 
194 221 255 
194 221 255 
194 221 255 
194 221 255 
194 221 255 
194 221 255 
194 221 255 
194 221 255 
195 221 255 
195 221 255 
195 221 255 
195 221 255 
195 221 255 
195 221 255 
195 221 255 
195 221 255 
195 221 255 
195 221 255 
195 221 255 
195 221 255 
195 221 255 
195 221 255 
195 221 255 
195 221 255 
195 221 255 
195 221 255 
195 221 255 
195 221 255 
195 221 255 
195 221 255 
195 221 255 
195 221 255 
195 221 255 
195 221 255 
196 221 255 
196 221 255 
196 222 255 
196 222 255 
196 222 255 
196 222 255 
196 222 255 
196 222 255 
196 222 255 
196 222 255 
196 222 255 
196 222 255 
196 222 255 
196 222 255 
196 222 255 
196 222 255 
196 222 255 
196 222 255 
197 222 255 
197 222 255 
197 222 255 
197 222 255 
197 222 255 
197 222 255 
197 222 255 
197 222 255 
197 222 255 
197 222 255 
197 222 255 
197 222 255 
197 222 255 
197 222 255 
197 222 255 
198 223 255 
198 223 255 
198 223 255 
198 223 255 
198 223 255 
198 223 255 
198 223 255 
198 223 255 
198 223 255 
198 223 255 
198 223 255 
198 223 255 
198 223 255 
198 223 255 
198 223 255 
199 223 255 
199 223 255 
199 223 255 
199 223 255 
199 223 255 
199 223 255 
199 223 255 
199 221 253 
199 203 233 
196 176 201 
199 118 135 
196 59 67 
198 0 0 
198 0 0 
196 0 0 
198 0 0 
196 0 0 
194 0 0 
200 0 0 
199 0 0 
195 0 0 
201 0 0 
196 0 0 
198 0 0 
197 0 0 
199 0 0 
199 0 0 
194 0 0 
197 0 0 
197 0 0 
198 0 0 
196 0 0 
196 0 0 
198 0 0 
200 0 0 
197 0 0 
193 0 0 
198 0 0 
196 0 0 
197 0 0 
197 0 0 
199 0 0 
199 0 0 
198 0 0 
196 0 0 
193 0 0 
198 0 0 
198 0 0 
198 0 0 
199 0 0 
202 0 0 
196 0 0 
196 0 0 
194 0 0 
195 0 0 
198 0 0 
197 0 0 
196 0 0 
196 0 0 
195 0 0 
202 0 0 
198 0 0 
198 0 0 
196 0 0 
198 0 0 
197 0 0 
195 0 0 
196 0 0 
198 0 0 
194 0 0 
197 0 0 
199 0 0 
198 0 0 
196 0 0 
199 0 0 
198 0 0 
200 0 0 
196 0 0 
198 0 0 
198 0 0 
198 0 0 
199 0 0 
200 0 0 
193 0 0 
197 0 0 
195 0 0 
197 0 0 
200 0 0 
200 0 0 
196 0 0 
198 0 0 
195 0 0 
197 0 0 
194 0 0 
194 0 0 
200 0 0 
201 0 0 
196 0 0 
198 0 0 
199 0 0 
202 0 0 
193 0 0 
196 0 0 
199 0 0 
0 0 230 
0 0 227 
0 0 230 
0 0 241 
0 0 240 
0 0 238 
0 0 237 
0 0 237 
0 0 231 
0 0 234 
0 0 228 
0 0 227 
0 0 228 
0 0 240 
0 0 233 
0 0 231 
0 0 240 
0 0 228 
0 0 240 
0 0 241 
0 0 226 
0 0 238 
0 0 233 
0 0 230 
0 0 233 
0 0 233 
0 0 236 
0 0 230 
0 0 233 
0 0 236 
0 0 236 
0 0 230 
0 0 218 
0 0 221 
0 0 242 
0 0 240 
0 0 231 
0 0 242 
0 0 241 
0 0 234 
0 0 240 
0 0 233 
0 0 238 
0 0 238 
0 0 234 
0 0 246 
0 0 237 
0 0 228 
0 0 236 
0 0 238 
0 0 233 
0 0 248 
0 0 237 
0 0 230 
0 0 240 
0 0 240 
0 0 245 
0 0 240 
0 0 244 
0 0 236 
0 0 249 
0 0 248 
0 0 224 
0 0 236 
0 0 234 
0 0 240 
0 0 240 
0 0 237 
0 0 240 
0 0 240 
0 0 237 
0 0 233 
0 0 236 
0 0 242 
0 0 240 
0 0 230 
0 0 230 
0 0 237 
0 0 244 
0 0 240 
0 0 244 
0 0 242 
0 0 238 
0 0 246 
0 0 240 
0 0 242 
0 0 242 
0 0 241 
0 0 246 
0 0 245 
0 0 244 
0 0 244 
0 0 246 
0 0 252 
0 0 246 
0 0 249 
56 63 250 
121 136 253 
160 180 252 
193 216 255 
199 223 255 
199 223 255 
199 223 255 
199 223 255 
199 223 255 
199 223 255 
198 223 255 
198 223 255 
198 223 255 
198 223 255 
198 223 255 
198 223 255 
198 223 255 
198 223 255 
198 223 255 
198 223 255 
198 223 255 
198 223 255 
198 223 255 
198 223 255 
198 223 255 
197 223 255 
197 222 255 
197 222 255 
197 222 255 
197 222 255 
197 222 255 
197 222 255 
197 222 255 
197 222 255 
197 222 255 
197 222 255 
197 222 255 
197 222 255 
197 222 255 
197 222 255 
197 222 255 
196 222 255 
196 222 255 
196 222 255 
196 222 255 
196 222 255 
196 222 255 
196 222 255 
196 222 255 
196 222 255 
196 222 255 
196 222 255 
196 222 255 
196 222 255 
196 222 255 
196 222 255 
196 222 255 
196 222 255 
196 221 255 
195 221 255 
195 221 255 
195 221 255 
195 221 255 
195 221 255 
195 221 255 
195 221 255 
195 221 255 
195 221 255 
195 221 255 
195 221 255 
195 221 255 
195 221 255 
195 221 255 
195 221 255 
195 221 255 
195 221 255 
195 221 255 
195 221 255 
195 221 255 
195 221 255 
195 221 255 
195 221 255 
195 221 255 
195 221 255 
195 221 255 
195 221 255 
195 221 255 
195 221 255 
195 221 255 
194 221 255 
194 221 255 
194 221 255 
194 221 255 
194 221 255 
194 221 255 
194 221 255 
194 221 255 
194 221 255 
194 221 255 
194 221 255 
194 221 255 
194 221 255 
194 221 255 
194 221 255 
194 221 255 
194 221 255 
194 221 255 
194 221 255 
194 221 255 
194 221 255 
194 221 255 
194 221 255 
194 221 255 
194 221 255 
194 221 255 
194 221 255 
194 221 255 
194 221 255 
194 221 255 
195 221 255 
195 221 255 
195 221 255 
195 221 255 
195 221 255 
195 221 255 
195 221 255 
195 221 255 
195 221 255 
195 221 255 
195 221 255 
195 221 255 
195 221 255 
195 221 255 
195 221 255 
195 221 255 
195 221 255 
195 221 255 
195 221 255 
195 221 255 
195 221 255 
195 221 255 
195 221 255 
195 221 255 
195 221 255 
195 221 255 
195 221 255 
195 221 255 
195 221 255 
195 221 255 
196 221 255 
196 222 255 
196 222 255 
196 222 255 
196 222 255 
196 222 255 
196 222 255 
196 222 255 
196 222 255 
196 222 255 
196 222 255 
196 222 255 
196 222 255 
196 222 255 
196 222 255 
196 222 255 
196 222 255 
196 222 255 
197 222 255 
197 222 255 
197 222 255 
197 222 255 
197 222 255 
197 222 255 
197 222 255 
197 222 255 
197 222 255 
197 222 255 
197 222 255 
197 222 255 
197 222 255 
197 222 255 
197 222 255 
197 223 255 
198 223 255 
198 223 255 
198 223 255 
198 223 255 
198 223 255 
198 223 255 
198 223 255 
198 223 255 
198 223 255 
198 223 255 
198 223 255 
198 223 255 
198 223 255 
198 223 255 
198 223 255 
199 223 255 
199 223 255 
199 223 255 
199 223 255 
199 223 255 
199 223 255 
199 214 245 
199 170 194 
197 146 167 
195 44 51 
199 0 0 
197 0 0 
193 0 0 
196 0 0 
196 0 0 
199 0 0 
199 0 0 
197 0 0 
198 0 0 
198 0 0 
196 0 0 
197 0 0 
199 0 0 
200 0 0 
197 0 0 
196 0 0 
194 0 0 
195 0 0 
199 0 0 
197 0 0 
198 0 0 
200 0 0 
195 0 0 
198 0 0 
197 0 0 
198 0 0 
195 0 0 
201 0 0 
197 0 0 
198 0 0 
195 0 0 
197 0 0 
196 0 0 
196 0 0 
197 0 0 
197 0 0 
193 0 0 
196 0 0 
199 0 0 
200 0 0 
198 0 0 
197 0 0 
197 0 0 
197 0 0 
195 0 0 
198 0 0 
196 0 0 
193 0 0 
199 0 0 
196 0 0 
196 0 0 
196 0 0 
199 0 0 
197 0 0 
198 0 0 
196 0 0 
200 0 0 
198 0 0 
198 0 0 
198 0 0 
195 0 0 
196 0 0 
199 0 0 
198 0 0 
199 0 0 
200 0 0 
196 0 0 
197 0 0 
196 0 0 
196 0 0 
199 0 0 
200 0 0 
197 0 0 
196 0 0 
197 0 0 
197 0 0 
196 0 0 
196 0 0 
197 0 0 
196 0 0 
197 0 0 
197 0 0 
195 0 0 
196 0 0 
200 0 0 
198 0 0 
193 0 0 
194 0 0 
194 0 0 
199 0 0 
193 0 0 
197 0 0 
196 0 0 
198 0 0 
198 0 0 
197 0 0 
0 0 228 
0 0 242 
0 0 227 
0 0 223 
0 0 233 
0 0 237 
0 0 237 
0 0 231 
0 0 234 
0 0 227 
0 0 233 
0 0 230 
0 0 234 
0 0 237 
0 0 233 
0 0 233 
0 0 238 
0 0 234 
0 0 228 
0 0 227 
0 0 236 
0 0 231 
0 0 228 
0 0 230 
0 0 231 
0 0 233 
0 0 230 
0 0 241 
0 0 217 
0 0 233 
0 0 230 
0 0 241 
0 0 237 
0 0 237 
0 0 228 
0 0 224 
0 0 231 
0 0 233 
0 0 241 
0 0 238 
0 0 237 
0 0 240 
0 0 242 
0 0 228 
0 0 241 
0 0 245 
0 0 238 
0 0 233 
0 0 237 
0 0 238 
0 0 234 
0 0 226 
0 0 233 
0 0 234 
0 0 236 
0 0 236 
0 0 242 
0 0 238 
0 0 231 
0 0 241 
0 0 237 
0 0 237 
0 0 241 
0 0 226 
0 0 233 
0 0 237 
0 0 233 
0 0 238 
0 0 233 
0 0 238 
0 0 236 
0 0 228 
0 0 242 
0 0 231 
0 0 234 
0 0 237 
0 0 245 
0 0 237 
0 0 241 
0 0 241 
0 0 234 
0 0 242 
0 0 238 
0 0 244 
0 0 240 
0 0 244 
0 0 240 
0 0 240 
0 0 237 
0 0 240 
0 0 241 
0 0 242 
0 0 242 
0 0 248 
0 0 241 
0 0 246 
0 0 245 
0 0 234 
0 0 245 
19 22 248 
71 80 248 
135 151 252 
181 203 253 
199 223 255 
199 223 255 
199 223 255 
199 223 255 
199 223 255 
199 223 255 
198 223 255 
198 223 255 
198 223 255 
198 223 255 
198 223 255 
198 223 255 
198 223 255 
198 223 255 
198 223 255 
198 223 255 
198 223 255 
198 223 255 
198 223 255 
198 223 255 
197 223 255 
197 222 255 
197 222 255 
197 222 255 
197 222 255 
197 222 255 
197 222 255 
197 222 255 
197 222 255 
197 222 255 
197 222 255 
197 222 255 
197 222 255 
197 222 255 
197 222 255 
197 222 255 
196 222 255 
196 222 255 
196 222 255 
196 222 255 
196 222 255 
196 222 255 
196 222 255 
196 222 255 
196 222 255 
196 222 255 
196 222 255 
196 222 255 
196 222 255 
196 222 255 
196 222 255 
196 222 255 
196 222 255 
196 222 255 
196 221 255 
196 221 255 
195 221 255 
195 221 255 
195 221 255 
195 221 255 
195 221 255 
195 221 255 
195 221 255 
195 221 255 
195 221 255 
195 221 255 
195 221 255 
195 221 255 
195 221 255 
195 221 255 
195 221 255 
195 221 255 
195 221 255 
195 221 255 
195 221 255 
195 221 255 
195 221 255 
195 221 255 
195 221 255 
195 221 255 
195 221 255 
195 221 255 
195 221 255 
195 221 255 
195 221 255 
195 221 255 
195 221 255 
195 221 255 
195 221 255 
195 221 255 
195 221 255 
195 221 255 
195 221 255 
195 221 255 
195 221 255 
195 221 255 
195 221 255 
195 221 255 
195 221 255 
195 221 255 
195 221 255 
195 221 255 
195 221 255 
195 221 255 
195 221 255 
195 221 255 
195 221 255 
195 221 255 
195 221 255 
195 221 255 
195 221 255 
195 221 255 
195 221 255 
195 221 255 
195 221 255 
195 221 255 
195 221 255 
195 221 255 
195 221 255 
195 221 255 
195 221 255 
195 221 255 
195 221 255 
195 221 255 
195 221 255 
195 221 255 
195 221 255 
195 221 255 
195 221 255 
195 221 255 
195 221 255 
195 221 255 
195 221 255 
195 221 255 
195 221 255 
195 221 255 
195 221 255 
195 221 255 
195 221 255 
196 221 255 
196 222 255 
196 222 255 
196 222 255 
196 222 255 
196 222 255 
196 222 255 
196 222 255 
196 222 255 
196 222 255 
196 222 255 
196 222 255 
196 222 255 
196 222 255 
196 222 255 
196 222 255 
196 222 255 
196 222 255 
196 222 255 
197 222 255 
197 222 255 
197 222 255 
197 222 255 
197 222 255 
197 222 255 
197 222 255 
197 222 255 
197 222 255 
197 222 255 
197 222 255 
197 222 255 
197 222 255 
197 222 255 
197 222 255 
197 223 255 
198 223 255 
198 223 255 
198 223 255 
198 223 255 
198 223 255 
198 223 255 
198 223 255 
198 223 255 
198 223 255 
198 223 255 
198 223 255 
198 223 255 
198 223 255 
198 223 255 
199 223 255 
199 223 255 
199 223 255 
199 223 255 
199 223 255 
199 222 254 
198 197 226 
199 165 189 
196 92 105 
195 22 25 
198 0 0 
196 0 0 
196 0 0 
197 0 0 
196 0 0 
196 0 0 
198 0 0 
197 0 0 
197 0 0 
197 0 0 
198 0 0 
197 0 0 
196 0 0 
197 0 0 
195 0 0 
195 0 0 
197 0 0 
195 0 0 
197 0 0 
201 0 0 
198 0 0 
197 0 0 
199 0 0 
198 0 0 
197 0 0 
195 0 0 
197 0 0 
200 0 0 
196 0 0 
198 0 0 
199 0 0 
198 0 0 
195 0 0 
196 0 0 
200 0 0 
197 0 0 
198 0 0 
196 0 0 
198 0 0 
196 0 0 
195 0 0 
200 0 0 
196 0 0 
194 0 0 
199 0 0 
198 0 0 
197 0 0 
192 0 0 
197 0 0 
197 0 0 
198 0 0 
197 0 0 
200 0 0 
196 0 0 
199 0 0 
200 0 0 
196 0 0 
195 0 0 
198 0 0 
196 0 0 
197 0 0 
197 0 0 
197 0 0 
195 0 0 
200 0 0 
199 0 0 
194 0 0 
198 0 0 
200 0 0 
198 0 0 
198 0 0 
194 0 0 
199 0 0 
198 0 0 
196 0 0 
196 0 0 
199 0 0 
197 0 0 
199 0 0 
195 0 0 
199 0 0 
196 0 0 
199 0 0 
196 0 0 
200 0 0 
197 0 0 
196 0 0 
199 0 0 
198 0 0 
197 0 0 
197 0 0 
196 0 0 
199 0 0 
199 0 0 
197 0 0 
194 0 0 
200 0 0 
197 0 0 
200 0 0 
0 0 224 
0 0 228 
0 0 237 
0 0 227 
0 0 237 
0 0 223 
0 0 240 
0 0 236 
0 0 233 
0 0 228 
0 0 236 
0 0 231 
0 0 230 
0 0 233 
0 0 227 
0 0 228 
0 0 227 
0 0 234 
0 0 228 
0 0 230 
0 0 238 
0 0 236 
0 0 230 
0 0 236 
0 0 233 
0 0 233 
0 0 237 
0 0 230 
0 0 236 
0 0 236 
0 0 231 
0 0 237 
0 0 221 
0 0 224 
0 0 240 
0 0 237 
0 0 234 
0 0 228 
0 0 227 
0 0 238 
0 0 231 
0 0 238 
0 0 233 
0 0 241 
0 0 227 
0 0 238 
0 0 224 
0 0 231 
0 0 245 
0 0 237 
0 0 238 
0 0 238 
0 0 224 
0 0 241 
0 0 238 
0 0 230 
0 0 234 
0 0 234 
0 0 234 
0 0 230 
0 0 237 
0 0 237 
0 0 228 
0 0 234 
0 0 233 
0 0 240 
0 0 228 
0 0 236 
0 0 237 
0 0 242 
0 0 233 
0 0 233 
0 0 244 
0 0 233 
0 0 245 
0 0 234 
0 0 242 
0 0 236 
0 0 242 
0 0 221 
0 0 236 
0 0 233 
0 0 244 
0 0 240 
0 0 238 
0 0 241 
0 0 228 
0 0 237 
0 0 245 
0 0 242 
0 0 244 
0 0 231 
0 0 240 
0 0 241 
0 0 236 
0 0 248 
0 0 240 
0 0 244 
0 0 246 
0 0 242 
0 0 241 
0 0 240 
0 0 249 
52 59 245 
132 148 250 
169 189 253 
195 219 255 
199 223 255 
199 223 255 
199 223 255 
199 223 255 
198 223 255 
198 223 255 
198 223 255 
198 223 255 
198 223 255 
198 223 255 
198 223 255 
198 223 255 
198 223 255 
198 223 255 
198 223 255 
198 223 255 
198 223 255 
198 223 255 
198 223 255 
197 222 255 
197 222 255 
197 222 255 
197 222 255 
197 222 255 
197 222 255 
197 222 255 
197 222 255 
197 222 255 
197 222 255 
197 222 255 
197 222 255 
197 222 255 
197 222 255 
197 222 255 
197 222 255 
196 222 255 
196 222 255 
196 222 255 
196 222 255 
196 222 255 
196 222 255 
196 222 255 
196 222 255 
196 222 255 
196 222 255 
196 222 255 
196 222 255 
196 222 255 
196 222 255 
196 222 255 
196 222 255 
196 222 255 
196 222 255 
196 221 255 
196 221 255 
195 221 255 
195 221 255 
195 221 255 
195 221 255 
195 221 255 
195 221 255 
195 221 255 
195 221 255 
195 221 255 
195 221 255 
195 221 255 
195 221 255 
195 221 255 
195 221 255 
195 221 255 
195 221 255 
195 221 255 
195 221 255 
195 221 255 
195 221 255 
195 221 255 
195 221 255 
195 221 255 
195 221 255 
195 221 255 
195 221 255 
195 221 255 
195 221 255 
195 221 255 
195 221 255 
195 221 255 
195 221 255 
195 221 255 
195 221 255 
195 221 255 
195 221 255 
195 221 255 
195 221 255 
195 221 255 
195 221 255 
195 221 255 
195 221 255 
195 221 255 
195 221 255 
195 221 255 
195 221 255 
195 221 255 
195 221 255 
195 221 255 
195 221 255 
195 221 255 
195 221 255 
195 221 255 
195 221 255 
195 221 255 
195 221 255 
195 221 255 
195 221 255 
195 221 255 
195 221 255 
195 221 255 
195 221 255 
195 221 255 
195 221 255 
195 221 255 
195 221 255 
195 221 255 
195 221 255 
195 221 255 
195 221 255 
195 221 255 
195 221 255 
195 221 255 
195 221 255 
195 221 255 
195 221 255 
196 221 255 
196 221 255 
196 222 255 
196 222 255 
196 222 255 
196 222 255 
196 222 255 
196 222 255 
196 222 255 
196 222 255 
196 222 255 
196 222 255 
196 222 255 
196 222 255 
196 222 255 
196 222 255 
196 222 255 
196 222 255 
196 222 255 
196 222 255 
197 222 255 
197 222 255 
197 222 255 
197 222 255 
197 222 255 
197 222 255 
197 222 255 
197 222 255 
197 222 255 
197 222 255 
197 222 255 
197 222 255 
197 222 255 
197 222 255 
197 222 255 
197 222 255 
198 223 255 
198 223 255 
198 223 255 
198 223 255 
198 223 255 
198 223 255 
198 223 255 
198 223 255 
198 223 255 
198 223 255 
198 223 255 
198 223 255 
198 223 255 
198 223 255 
198 223 255 
199 223 255 
199 223 255 
199 223 255 
199 223 255 
199 218 249 
199 185 212 
198 151 173 
194 67 76 
197 0 0 
197 0 0 
194 0 0 
196 0 0 
194 0 0 
194 0 0 
197 0 0 
198 0 0 
198 0 0 
197 0 0 
199 0 0 
197 0 0 
197 0 0 
199 0 0 
197 0 0 
199 0 0 
197 0 0 
196 0 0 
198 0 0 
197 0 0 
196 0 0 
199 0 0 
196 0 0 
198 0 0 
194 0 0 
193 0 0 
195 0 0 
196 0 0 
197 0 0 
192 0 0 
194 0 0 
196 0 0 
198 0 0 
193 0 0 
198 0 0 
195 0 0 
198 0 0 
198 0 0 
197 0 0 
198 0 0 
198 0 0 
198 0 0 
197 0 0 
194 0 0 
195 0 0 
196 0 0 
197 0 0 
197 0 0 
199 0 0 
194 0 0 
197 0 0 
194 0 0 
199 0 0 
197 0 0 
197 0 0 
196 0 0 
196 0 0 
194 0 0 
196 0 0 
199 0 0 
195 0 0 
198 0 0 
197 0 0 
197 0 0 
198 0 0 
197 0 0 
197 0 0 
197 0 0 
199 0 0 
198 0 0 
197 0 0 
198 0 0 
198 0 0 
199 0 0 
198 0 0 
196 0 0 
197 0 0 
199 0 0 
197 0 0 
196 0 0 
195 0 0 
199 0 0 
198 0 0 
200 0 0 
195 0 0 
199 0 0 
198 0 0 
196 0 0 
199 0 0 
197 0 0 
199 0 0 
196 0 0 
197 0 0 
197 0 0 
198 0 0 
200 0 0 
197 0 0 
193 0 0 
196 0 0 
198 0 0 
200 0 0 
198 0 0 
200 0 0 
0 0 214 
0 0 228 
0 0 237 
0 0 228 
0 0 240 
0 0 233 
0 0 227 
0 0 230 
0 0 230 
0 0 238 
0 0 218 
0 0 230 
0 0 226 
0 0 237 
0 0 231 
0 0 236 
0 0 240 
0 0 233 
0 0 233 
0 0 231 
0 0 234 
0 0 241 
0 0 233 
0 0 230 
0 0 233 
0 0 233 
0 0 233 
0 0 233 
0 0 224 
0 0 227 
0 0 231 
0 0 233 
0 0 234 
0 0 233 
0 0 228 
0 0 230 
0 0 221 
0 0 228 
0 0 221 
0 0 228 
0 0 223 
0 0 228 
0 0 223 
0 0 228 
0 0 221 
0 0 240 
0 0 237 
0 0 227 
0 0 236 
0 0 230 
0 0 233 
0 0 224 
0 0 234 
0 0 241 
0 0 231 
0 0 245 
0 0 238 
0 0 242 
0 0 246 
0 0 234 
0 0 227 
0 0 241 
0 0 241 
0 0 231 
0 0 230 
0 0 234 
0 0 244 
0 0 233 
0 0 230 
0 0 238 
0 0 233 
0 0 238 
0 0 242 
0 0 236 
0 0 231 
0 0 231 
0 0 230 
0 0 238 
0 0 240 
0 0 234 
0 0 238 
0 0 244 
0 0 236 
0 0 240 
0 0 236 
0 0 241 
0 0 246 
0 0 240 
0 0 234 
0 0 234 
0 0 234 
0 0 234 
0 0 238 
0 0 241 
0 0 230 
0 0 242 
0 0 241 
0 0 236 
0 0 238 
0 0 242 
0 0 246 
0 0 241 
0 0 252 
0 0 248 
0 0 242 
0 0 241 
19 22 248 
105 118 245 
172 193 252 
193 216 254 
199 223 255 
199 223 255 
199 223 255 
198 223 255 
198 223 255 
198 223 255 
198 223 255 
198 223 255 
198 223 255 
198 223 255 
198 223 255 
198 223 255 
198 223 255 
198 223 255 
198 223 255 
198 223 255 
198 223 255 
198 223 255 
197 223 255 
197 222 255 
197 222 255 
197 222 255 
197 222 255 
197 222 255 
197 222 255 
197 222 255 
197 222 255 
197 222 255 
197 222 255 
197 222 255 
197 222 255 
197 222 255 
197 222 255 
197 222 255 
197 222 255 
196 222 255 
196 222 255 
196 222 255 
196 222 255 
196 222 255 
196 222 255 
196 222 255 
196 222 255 
196 222 255 
196 222 255 
196 222 255 
196 222 255 
196 222 255 
196 222 255 
196 222 255 
196 222 255 
196 222 255 
196 222 255 
196 222 255 
196 221 255 
196 221 255 
195 221 255 
195 221 255 
195 221 255 
195 221 255 
195 221 255 
195 221 255 
195 221 255 
195 221 255 
195 221 255 
195 221 255 
195 221 255 
195 221 255 
195 221 255 
195 221 255 
195 221 255 
195 221 255 
195 221 255 
195 221 255 
195 221 255 
195 221 255 
195 221 255 
195 221 255 
195 221 255 
195 221 255 
195 221 255 
195 221 255 
195 221 255 
195 221 255 
195 221 255 
195 221 255 
195 221 255 
195 221 255 
195 221 255 
195 221 255 
195 221 255 
195 221 255 
195 221 255 
195 221 255 
195 221 255 
195 221 255 
195 221 255 
195 221 255 
195 221 255 
195 221 255 
195 221 255 
195 221 255 
195 221 255 
195 221 255 
195 221 255 
195 221 255 
195 221 255 
195 221 255 
195 221 255 
195 221 255 
195 221 255 
195 221 255 
195 221 255 
195 221 255 
195 221 255 
195 221 255 
195 221 255 
195 221 255 
195 221 255 
195 221 255 
195 221 255 
195 221 255 
195 221 255 
195 221 255 
196 221 255 
196 221 255 
196 222 255 
196 222 255 
196 222 255 
196 222 255 
196 222 255 
196 222 255 
196 222 255 
196 222 255 
196 222 255 
196 222 255 
196 222 255 
196 222 255 
196 222 255 
196 222 255 
196 222 255 
196 222 255 
196 222 255 
196 222 255 
196 222 255 
197 222 255 
197 222 255 
197 222 255 
197 222 255 
197 222 255 
197 222 255 
197 222 255 
197 222 255 
197 222 255 
197 222 255 
197 222 255 
197 222 255 
197 222 255 
197 222 255 
197 222 255 
197 222 255 
197 223 255 
198 223 255 
198 223 255 
198 223 255 
198 223 255 
198 223 255 
198 223 255 
198 223 255 
198 223 255 
198 223 255 
198 223 255 
198 223 255 
198 223 255 
198 223 255 
198 223 255 
198 223 255 
199 223 255 
199 223 255 
199 223 255 
198 218 249 
198 168 193 
198 130 149 
196 44 51 
198 0 0 
198 0 0 
197 0 0 
199 0 0 
193 0 0 
197 0 0 
194 0 0 
198 0 0 
197 0 0 
196 0 0 
196 0 0 
197 0 0 
196 0 0 
195 0 0 
196 0 0 
198 0 0 
196 0 0 
196 0 0 
198 0 0 
196 0 0 
196 0 0 
195 0 0 
198 0 0 
199 0 0 
198 0 0 
199 0 0 
196 0 0 
196 0 0 
195 0 0 
195 0 0 
196 0 0 
198 0 0 
197 0 0 
195 0 0 
196 0 0 
192 0 0 
200 0 0 
192 0 0 
198 0 0 
199 0 0 
197 0 0 
196 0 0 
195 0 0 
197 0 0 
194 0 0 
198 0 0 
199 0 0 
194 0 0 
198 0 0 
195 0 0 
198 0 0 
197 0 0 
197 0 0 
194 0 0 
195 0 0 
196 0 0 
197 0 0 
199 0 0 
196 0 0 
197 0 0 
196 0 0 
199 0 0 
195 0 0 
199 0 0 
200 0 0 
196 0 0 
199 0 0 
198 0 0 
200 0 0 
198 0 0 
198 0 0 
196 0 0 
197 0 0 
199 0 0 
199 0 0 
197 0 0 
193 0 0 
194 0 0 
197 0 0 
199 0 0 
196 0 0 
197 0 0 
196 0 0 
198 0 0 
197 0 0 
196 0 0 
195 0 0 
199 0 0 
195 0 0 
198 0 0 
196 0 0 
199 0 0 
199 0 0 
195 0 0 
200 0 0 
196 0 0 
197 0 0 
198 0 0 
198 0 0 
197 0 0 
198 0 0 
197 0 0 
195 0 0 
195 0 0 
199 0 0 
198 0 0 
0 0 227 
0 0 227 
0 0 224 
0 0 228 
0 0 231 
0 0 237 
0 0 237 
0 0 241 
0 0 224 
0 0 231 
0 0 230 
0 0 227 
0 0 231 
0 0 230 
0 0 230 
0 0 227 
0 0 228 
0 0 230 
0 0 228 
0 0 233 
0 0 227 
0 0 231 
0 0 231 
0 0 234 
0 0 230 
0 0 241 
0 0 230 
0 0 214 
0 0 227 
0 0 223 
0 0 224 
0 0 237 
0 0 234 
0 0 224 
0 0 230 
0 0 241 
0 0 237 
0 0 228 
0 0 226 
0 0 228 
0 0 233 
0 0 230 
0 0 234 
0 0 246 
0 0 242 
0 0 237 
0 0 240 
0 0 231 
0 0 226 
0 0 234 
0 0 228 
0 0 237 
0 0 237 
0 0 221 
0 0 231 
0 0 236 
0 0 237 
0 0 231 
0 0 238 
0 0 234 
0 0 234 
0 0 233 
0 0 240 
0 0 240 
0 0 234 
0 0 242 
0 0 237 
0 0 238 
0 0 227 
0 0 236 
0 0 226 
0 0 237 
0 0 226 
0 0 242 
0 0 240 
0 0 230 
0 0 231 
0 0 233 
0 0 233 
0 0 233 
0 0 242 
0 0 238 
0 0 238 
0 0 236 
0 0 245 
0 0 240 
0 0 234 
0 0 238 
0 0 242 
0 0 238 
0 0 230 
0 0 240 
0 0 241 
0 0 244 
0 0 246 
0 0 233 
0 0 236 
0 0 241 
0 0 240 
0 0 241 
0 0 246 
0 0 234 
0 0 246 
0 0 241 
0 0 246 
0 0 240 
0 0 244 
0 0 237 
0 0 240 
44 50 246 
116 130 252 
155 174 253 
196 220 254 
199 223 255 
199 223 255 
198 223 255 
198 223 255 
198 223 255 
198 223 255 
198 223 255 
198 223 255 
198 223 255 
198 223 255 
198 223 255 
198 223 255 
198 223 255 
198 223 255 
198 223 255 
198 223 255 
198 223 255 
198 223 255 
197 222 255 
197 222 255 
197 222 255 
197 222 255 
197 222 255 
197 222 255 
197 222 255 
197 222 255 
197 222 255 
197 222 255 
197 222 255 
197 222 255 
197 222 255 
197 222 255 
197 222 255 
197 222 255 
197 222 255 
196 222 255 
196 222 255 
196 222 255 
196 222 255 
196 222 255 
196 222 255 
196 222 255 
196 222 255 
196 222 255 
196 222 255 
196 222 255 
196 222 255 
196 222 255 
196 222 255 
196 222 255 
196 222 255 
196 222 255 
196 222 255 
196 222 255 
196 222 255 
196 221 255 
196 221 255 
195 221 255 
195 221 255 
195 221 255 
195 221 255 
195 221 255 
195 221 255 
195 221 255 
195 221 255 
195 221 255 
195 221 255 
195 221 255 
195 221 255 
195 221 255 
195 221 255 
195 221 255 
195 221 255 
195 221 255 
195 221 255 
195 221 255 
195 221 255 
195 221 255 
195 221 255 
195 221 255 
195 221 255 
195 221 255 
195 221 255 
195 221 255 
195 221 255 
195 221 255 
195 221 255 
195 221 255 
195 221 255 
195 221 255 
195 221 255 
195 221 255 
195 221 255 
195 221 255 
195 221 255 
195 221 255 
195 221 255 
195 221 255 
195 221 255 
195 221 255 
195 221 255 
195 221 255 
195 221 255 
195 221 255 
195 221 255 
195 221 255 
195 221 255 
195 221 255 
195 221 255 
195 221 255 
195 221 255 
195 221 255 
195 221 255 
195 221 255 
195 221 255 
195 221 255 
195 221 255 
196 221 255 
196 221 255 
196 222 255 
196 222 255 
196 222 255 
196 222 255 
196 222 255 
196 222 255 
196 222 255 
196 222 255 
196 222 255 
196 222 255 
196 222 255 
196 222 255 
196 222 255 
196 222 255 
196 222 255 
196 222 255 
196 222 255 
196 222 255 
196 222 255 
196 222 255 
197 222 255 
197 222 255 
197 222 255 
197 222 255 
197 222 255 
197 222 255 
197 222 255 
197 222 255 
197 222 255 
197 222 255 
197 222 255 
197 222 255 
197 222 255 
197 222 255 
197 222 255 
197 222 255 
197 222 255 
198 223 255 
198 223 255 
198 223 255 
198 223 255 
198 223 255 
198 223 255 
198 223 255 
198 223 255 
198 223 255 
198 223 255 
198 223 255 
198 223 255 
198 223 255 
198 223 255 
198 223 255 
198 223 255 
199 223 255 
199 223 255 
199 222 254 
198 177 203 
196 124 142 
198 54 62 
195 0 0 
194 0 0 
197 0 0 
198 0 0 
196 0 0 
200 0 0 
194 0 0 
196 0 0 
194 0 0 
196 0 0 
195 0 0 
194 0 0 
195 0 0 
196 0 0 
199 0 0 
194 0 0 
197 0 0 
196 0 0 
192 0 0 
200 0 0 
198 0 0 
194 0 0 
196 0 0 
198 0 0 
193 0 0 
196 0 0 
197 0 0 
195 0 0 
193 0 0 
198 0 0 
194 0 0 
194 0 0 
196 0 0 
197 0 0 
196 0 0 
198 0 0 
196 0 0 
197 0 0 
196 0 0 
199 0 0 
198 0 0 
193 0 0 
199 0 0 
199 0 0 
198 0 0 
198 0 0 
194 0 0 
200 0 0 
199 0 0 
200 0 0 
195 0 0 
198 0 0 
196 0 0 
199 0 0 
196 0 0 
198 0 0 
194 0 0 
196 0 0 
198 0 0 
197 0 0 
198 0 0 
195 0 0 
200 0 0 
196 0 0 
197 0 0 
197 0 0 
197 0 0 
198 0 0 
196 0 0 
197 0 0 
194 0 0 
195 0 0 
196 0 0 
196 0 0 
196 0 0 
196 0 0 
198 0 0 
195 0 0 
196 0 0 
200 0 0 
198 0 0 
199 0 0 
197 0 0 
200 0 0 
196 0 0 
199 0 0 
198 0 0 
197 0 0 
196 0 0 
199 0 0 
195 0 0 
198 0 0 
198 0 0 
198 0 0 
200 0 0 
196 0 0 
195 0 0 
199 0 0 
198 0 0 
196 0 0 
196 0 0 
199 0 0 
196 0 0 
197 0 0 
198 0 0 
198 0 0 
196 0 0 
197 0 0 
197 0 0 
0 0 230 
0 0 228 
0 0 233 
0 0 224 
0 0 238 
0 0 230 
0 0 228 
0 0 228 
0 0 224 
0 0 221 
0 0 227 
0 0 234 
0 0 224 
0 0 238 
0 0 228 
0 0 233 
0 0 228 
0 0 234 
0 0 227 
0 0 236 
0 0 233 
0 0 234 
0 0 234 
0 0 233 
0 0 234 
0 0 224 
0 0 220 
0 0 231 
0 0 236 
0 0 234 
0 0 231 
0 0 227 
0 0 224 
0 0 228 
0 0 238 
0 0 234 
0 0 234 
0 0 236 
0 0 236 
0 0 226 
0 0 226 
0 0 234 
0 0 233 
0 0 241 
0 0 231 
0 0 233 
0 0 227 
0 0 230 
0 0 241 
0 0 238 
0 0 230 
0 0 228 
0 0 237 
0 0 237 
0 0 233 
0 0 242 
0 0 230 
0 0 233 
0 0 238 
0 0 234 
0 0 233 
0 0 228 
0 0 234 
0 0 230 
0 0 241 
0 0 233 
0 0 233 
0 0 238 
0 0 234 
0 0 228 
0 0 231 
0 0 236 
0 0 236 
0 0 237 
0 0 242 
0 0 230 
0 0 236 
0 0 244 
0 0 236 
0 0 238 
0 0 237 
0 0 240 
0 0 226 
0 0 237 
0 0 238 
0 0 233 
0 0 233 
0 0 238 
0 0 240 
0 0 237 
0 0 238 
0 0 244 
0 0 237 
0 0 236 
0 0 236 
0 0 234 
0 0 241 
0 0 237 
0 0 240 
0 0 234 
0 0 242 
0 0 236 
0 0 241 
0 0 240 
0 0 240 
0 0 240 
0 0 244 
0 0 244 
0 0 242 
0 0 245 
0 0 246 
0 0 244 
44 50 249 
121 136 252 
173 194 252 
198 222 255 
199 223 255 
199 223 255 
198 223 255 
198 223 255 
198 223 255 
198 223 255 
198 223 255 
198 223 255 
198 223 255 
198 223 255 
198 223 255 
198 223 255 
198 223 255 
198 223 255 
198 223 255 
198 223 255 
198 223 255 
197 223 255 
197 222 255 
197 222 255 
197 222 255 
197 222 255 
197 222 255 
197 222 255 
197 222 255 
197 222 255 
197 222 255 
197 222 255 
197 222 255 
197 222 255 
197 222 255 
197 222 255 
197 222 255 
197 222 255 
197 222 255 
196 222 255 
196 222 255 
196 222 255 
196 222 255 
196 222 255 
196 222 255 
196 222 255 
196 222 255 
196 222 255 
196 222 255 
196 222 255 
196 222 255 
196 222 255 
196 222 255 
196 222 255 
196 222 255 
196 222 255 
196 222 255 
196 222 255 
196 222 255 
196 222 255 
196 221 255 
196 221 255 
196 221 255 
195 221 255 
195 221 255 
195 221 255 
195 221 255 
195 221 255 
195 221 255 
195 221 255 
195 221 255 
195 221 255 
195 221 255 
195 221 255 
195 221 255 
195 221 255 
195 221 255 
195 221 255 
195 221 255 
195 221 255 
195 221 255 
195 221 255 
195 221 255 
195 221 255 
195 221 255 
195 221 255 
195 221 255 
195 221 255 
195 221 255 
195 221 255 
195 221 255 
195 221 255 
195 221 255 
195 221 255 
195 221 255 
195 221 255 
195 221 255 
195 221 255 
195 221 255 
195 221 255 
195 221 255 
195 221 255 
195 221 255 
195 221 255 
195 221 255 
195 221 255 
195 221 255 
195 221 255 
195 221 255 
195 221 255 
195 221 255 
195 221 255 
195 221 255 
196 221 255 
196 221 255 
196 221 255 
196 222 255 
196 222 255 
196 222 255 
196 222 255 
196 222 255 
196 222 255 
196 222 255 
196 222 255 
196 222 255 
196 222 255 
196 222 255 
196 222 255 
196 222 255 
196 222 255 
196 222 255 
196 222 255 
196 222 255 
196 222 255 
196 222 255 
196 222 255 
196 222 255 
197 222 255 
197 222 255 
197 222 255 
197 222 255 
197 222 255 
197 222 255 
197 222 255 
197 222 255 
197 222 255 
197 222 255 
197 222 255 
197 222 255 
197 222 255 
197 222 255 
197 222 255 
197 222 255 
197 222 255 
197 223 255 
198 223 255 
198 223 255 
198 223 255 
198 223 255 
198 223 255 
198 223 255 
198 223 255 
198 223 255 
198 223 255 
198 223 255 
198 223 255 
198 223 255 
198 223 255 
198 223 255 
198 223 255 
199 223 255 
199 223 255 
199 223 255 
198 193 221 
197 148 169 
196 59 67 
199 0 0 
194 0 0 
196 0 0 
197 0 0 
195 0 0 
198 0 0 
197 0 0 
196 0 0 
196 0 0 
198 0 0 
198 0 0 
194 0 0 
198 0 0 
194 0 0 
198 0 0 
197 0 0 
197 0 0 
195 0 0 
198 0 0 
194 0 0 
197 0 0 
199 0 0 
197 0 0 
198 0 0 
197 0 0 
200 0 0 
197 0 0 
197 0 0 
196 0 0 
196 0 0 
199 0 0 
196 0 0 
195 0 0 
198 0 0 
198 0 0 
197 0 0 
195 0 0 
201 0 0 
197 0 0 
197 0 0 
199 0 0 
196 0 0 
198 0 0 
197 0 0 
197 0 0 
196 0 0 
197 0 0 
199 0 0 
195 0 0 
196 0 0 
198 0 0 
198 0 0 
198 0 0 
191 0 0 
192 0 0 
195 0 0 
196 0 0 
198 0 0 
198 0 0 
198 0 0 
196 0 0 
198 0 0 
198 0 0 
195 0 0 
200 0 0 
195 0 0 
195 0 0 
197 0 0 
199 0 0 
194 0 0 
196 0 0 
200 0 0 
197 0 0 
198 0 0 
193 0 0 
197 0 0 
200 0 0 
196 0 0 
199 0 0 
197 0 0 
200 0 0 
196 0 0 
197 0 0 
197 0 0 
196 0 0 
197 0 0 
198 0 0 
199 0 0 
198 0 0 
195 0 0 
197 0 0 
199 0 0 
195 0 0 
197 0 0 
192 0 0 
196 0 0 
196 0 0 
196 0 0 
198 0 0 
197 0 0 
199 0 0 
199 0 0 
191 0 0 
197 0 0 
199 0 0 
196 0 0 
197 0 0 
198 0 0 
196 0 0 
196 0 0 
197 0 0 
194 0 0 
0 0 234 
0 0 230 
0 0 228 
0 0 238 
0 0 237 
0 0 233 
0 0 234 
0 0 226 
0 0 234 
0 0 234 
0 0 234 
0 0 236 
0 0 228 
0 0 221 
0 0 221 
0 0 220 
0 0 227 
0 0 220 
0 0 226 
0 0 218 
0 0 227 
0 0 234 
0 0 230 
0 0 233 
0 0 226 
0 0 227 
0 0 233 
0 0 233 
0 0 231 
0 0 234 
0 0 230 
0 0 236 
0 0 228 
0 0 233 
0 0 234 
0 0 227 
0 0 233 
0 0 227 
0 0 221 
0 0 231 
0 0 236 
0 0 236 
0 0 224 
0 0 220 
0 0 228 
0 0 218 
0 0 234 
0 0 233 
0 0 223 
0 0 233 
0 0 236 
0 0 240 
0 0 233 
0 0 228 
0 0 217 
0 0 223 
0 0 224 
0 0 236 
0 0 231 
0 0 234 
0 0 231 
0 0 233 
0 0 240 
0 0 223 
0 0 236 
0 0 230 
0 0 230 
0 0 224 
0 0 237 
0 0 228 
0 0 237 
0 0 230 
0 0 230 
0 0 234 
0 0 230 
0 0 228 
0 0 227 
0 0 237 
0 0 231 
0 0 238 
0 0 236 
0 0 231 
0 0 242 
0 0 237 
0 0 236 
0 0 233 
0 0 245 
0 0 244 
0 0 236 
0 0 230 
0 0 237 
0 0 244 
0 0 233 
0 0 234 
0 0 246 
0 0 234 
0 0 234 
0 0 240 
0 0 236 
0 0 236 
0 0 230 
0 0 246 
0 0 238 
0 0 248 
0 0 244 
0 0 237 
0 0 238 
0 0 242 
0 0 240 
0 0 238 
0 0 244 
0 0 244 
0 0 238 
0 0 242 
0 0 245 
69 77 252 
150 168 253 
185 208 255 
199 223 255 
199 223 255 
198 223 255 
198 223 255 
198 223 255 
198 223 255 
198 223 255 
198 223 255 
198 223 255 
198 223 255 
198 223 255 
198 223 255 
198 223 255 
198 223 255 
198 223 255 
198 223 255 
198 223 255 
198 223 255 
197 222 255 
197 222 255 
197 222 255 
197 222 255 
197 222 255 
197 222 255 
197 222 255 
197 222 255 
197 222 255 
197 222 255 
197 222 255 
197 222 255 
197 222 255 
197 222 255 
197 222 255 
197 222 255 
197 222 255 
197 222 255 
196 222 255 
196 222 255 
196 222 255 
196 222 255 
196 222 255 
196 222 255 
196 222 255 
196 222 255 
196 222 255 
196 222 255 
196 222 255 
196 222 255 
196 222 255 
196 222 255 
196 222 255 
196 222 255 
196 222 255 
196 222 255 
196 222 255 
196 222 255 
196 222 255 
196 222 255 
196 222 255 
196 221 255 
196 221 255 
196 221 255 
196 221 255 
195 221 255 
195 221 255 
195 221 255 
195 221 255 
195 221 255 
195 221 255 
195 221 255 
195 221 255 
195 221 255 
195 221 255 
195 221 255 
195 221 255 
195 221 255 
195 221 255 
195 221 255 
195 221 255 
195 221 255 
195 221 255 
195 221 255 
195 221 255 
195 221 255 
195 221 255 
195 221 255 
195 221 255 
195 221 255 
195 221 255 
195 221 255 
195 221 255 
195 221 255 
195 221 255 
195 221 255 
195 221 255 
195 221 255 
195 221 255 
195 221 255 
195 221 255 
195 221 255 
195 221 255 
196 221 255 
196 221 255 
196 221 255 
196 221 255 
196 222 255 
196 222 255 
196 222 255 
196 222 255 
196 222 255 
196 222 255 
196 222 255 
196 222 255 
196 222 255 
196 222 255 
196 222 255 
196 222 255 
196 222 255 
196 222 255 
196 222 255 
196 222 255 
196 222 255 
196 222 255 
196 222 255 
196 222 255 
196 222 255 
196 222 255 
196 222 255 
197 222 255 
197 222 255 
197 222 255 
197 222 255 
197 222 255 
197 222 255 
197 222 255 
197 222 255 
197 222 255 
197 222 255 
197 222 255 
197 222 255 
197 222 255 
197 222 255 
197 222 255 
197 222 255 
197 222 255 
197 222 255 
198 223 255 
198 223 255 
198 223 255 
198 223 255 
198 223 255 
198 223 255 
198 223 255 
198 223 255 
198 223 255 
198 223 255 
198 223 255 
198 223 255 
198 223 255 
198 223 255 
198 223 255 
198 223 255 
199 223 255 
199 223 255 
199 209 240 
197 153 175 
198 102 117 
196 0 0 
196 0 0 
195 0 0 
198 0 0 
195 0 0 
195 0 0 
195 0 0 
194 0 0 
195 0 0 
193 0 0 
196 0 0 
194 0 0 
194 0 0 
196 0 0 
198 0 0 
197 0 0 
194 0 0 
197 0 0 
195 0 0 
190 0 0 
195 0 0 
196 0 0 
195 0 0 
192 0 0 
198 0 0 
197 0 0 
197 0 0 
199 0 0 
196 0 0 
199 0 0 
196 0 0 
201 0 0 
195 0 0 
196 0 0 
197 0 0 
197 0 0 
197 0 0 
195 0 0 
199 0 0 
200 0 0 
198 0 0 
197 0 0 
197 0 0 
196 0 0 
194 0 0 
198 0 0 
197 0 0 
194 0 0 
194 0 0 
198 0 0 
193 0 0 
196 0 0 
199 0 0 
197 0 0 
199 0 0 
199 0 0 
196 0 0 
198 0 0 
194 0 0 
200 0 0 
197 0 0 
194 0 0 
197 0 0 
197 0 0 
194 0 0 
199 0 0 
196 0 0 
198 0 0 
199 0 0 
197 0 0 
198 0 0 
198 0 0 
196 0 0 
197 0 0 
198 0 0 
197 0 0 
194 0 0 
197 0 0 
197 0 0 
196 0 0 
199 0 0 
195 0 0 
196 0 0 
197 0 0 
200 0 0 
200 0 0 
199 0 0 
195 0 0 
197 0 0 
198 0 0 
199 0 0 
194 0 0 
194 0 0 
198 0 0 
197 0 0 
196 0 0 
197 0 0 
197 0 0 
200 0 0 
198 0 0 
198 0 0 
197 0 0 
199 0 0 
197 0 0 
198 0 0 
195 0 0 
199 0 0 
195 0 0 
196 0 0 
198 0 0 
196 0 0 
196 0 0 
195 0 0 
196 0 0 
196 0 0 
0 0 227 
0 0 223 
0 0 236 
0 0 228 
0 0 227 
0 0 238 
0 0 220 
0 0 226 
0 0 226 
0 0 227 
0 0 233 
0 0 238 
0 0 218 
0 0 224 
0 0 230 
0 0 233 
0 0 209 
0 0 236 
0 0 228 
0 0 226 
0 0 230 
0 0 236 
0 0 226 
0 0 221 
0 0 233 
0 0 233 
0 0 228 
0 0 223 
0 0 228 
0 0 230 
0 0 226 
0 0 234 
0 0 217 
0 0 230 
0 0 234 
0 0 242 
0 0 234 
0 0 227 
0 0 238 
0 0 227 
0 0 230 
0 0 226 
0 0 228 
0 0 227 
0 0 228 
0 0 230 
0 0 231 
0 0 230 
0 0 226 
0 0 237 
0 0 231 
0 0 231 
0 0 234 
0 0 228 
0 0 237 
0 0 226 
0 0 234 
0 0 233 
0 0 234 
0 0 228 
0 0 233 
0 0 231 
0 0 233 
0 0 226 
0 0 242 
0 0 230 
0 0 233 
0 0 236 
0 0 228 
0 0 236 
0 0 231 
0 0 240 
0 0 230 
0 0 233 
0 0 233 
0 0 231 
0 0 244 
0 0 230 
0 0 221 
0 0 234 
0 0 236 
0 0 226 
0 0 240 
0 0 233 
0 0 230 
0 0 240 
0 0 240 
0 0 226 
0 0 236 
0 0 240 
0 0 228 
0 0 230 
0 0 227 
0 0 234 
0 0 234 
0 0 249 
0 0 233 
0 0 237 
0 0 227 
0 0 241 
0 0 238 
0 0 242 
0 0 241 
0 0 250 
0 0 236 
0 0 242 
0 0 230 
0 0 241 
0 0 244 
0 0 233 
0 0 246 
0 0 242 
0 0 240 
0 0 241 
0 0 246 
0 0 241 
0 0 245 
0 0 248 
91 102 245 
159 178 253 
198 222 255 
199 223 255 
198 223 255 
198 223 255 
198 223 255 
198 223 255 
198 223 255 
198 223 255 
198 223 255 
198 223 255 
198 223 255 
198 223 255 
198 223 255 
198 223 255 
198 223 255 
198 223 255 
198 223 255 
198 223 255 
198 223 255 
197 222 255 
197 222 255 
197 222 255 
197 222 255 
197 222 255 
197 222 255 
197 222 255 
197 222 255 
197 222 255 
197 222 255 
197 222 255 
197 222 255 
197 222 255 
197 222 255 
197 222 255 
197 222 255 
197 222 255 
197 222 255 
196 222 255 
196 222 255 
196 222 255 
196 222 255 
196 222 255 
196 222 255 
196 222 255 
196 222 255 
196 222 255 
196 222 255 
196 222 255 
196 222 255 
196 222 255 
196 222 255 
196 222 255 
196 222 255 
196 222 255 
196 222 255 
196 222 255 
196 222 255 
196 222 255 
196 222 255 
196 222 255 
196 222 255 
196 222 255 
196 222 255 
196 222 255 
196 221 255 
196 221 255 
196 221 255 
196 221 255 
196 221 255 
196 221 255 
195 221 255 
195 221 255 
195 221 255 
195 221 255 
195 221 255 
195 221 255 
195 221 255 
195 221 255 
195 221 255 
195 221 255 
195 221 255 
195 221 255 
195 221 255 
195 221 255 
195 221 255 
195 221 255 
195 221 255 
195 221 255 
195 221 255 
196 221 255 
196 221 255 
196 221 255 
196 221 255 
196 221 255 
196 221 255 
196 221 255 
196 222 255 
196 222 255 
196 222 255 
196 222 255 
196 222 255 
196 222 255 
196 222 255 
196 222 255 
196 222 255 
196 222 255 
196 222 255 
196 222 255 
196 222 255 
196 222 255 
196 222 255 
196 222 255 
196 222 255 
196 222 255 
196 222 255 
196 222 255 
196 222 255 
196 222 255 
196 222 255 
196 222 255 
196 222 255 
196 222 255 
196 222 255 
197 222 255 
197 222 255 
197 222 255 
197 222 255 
197 222 255 
197 222 255 
197 222 255 
197 222 255 
197 222 255 
197 222 255 
197 222 255 
197 222 255 
197 222 255 
197 222 255 
197 222 255 
197 222 255 
197 222 255 
197 222 255 
198 223 255 
198 223 255 
198 223 255 
198 223 255 
198 223 255 
198 223 255 
198 223 255 
198 223 255 
198 223 255 
198 223 255 
198 223 255 
198 223 255 
198 223 255 
198 223 255 
198 223 255 
198 223 255 
199 223 255 
199 223 255 
199 221 253 
199 180 206 
196 114 130 
194 22 25 
195 0 0 
194 0 0 
197 0 0 
197 0 0 
194 0 0 
198 0 0 
196 0 0 
196 0 0 
197 0 0 
193 0 0 
197 0 0 
194 0 0 
197 0 0 
197 0 0 
199 0 0 
200 0 0 
197 0 0 
196 0 0 
198 0 0 
194 0 0 
197 0 0 
191 0 0 
194 0 0 
198 0 0 
196 0 0 
198 0 0 
194 0 0 
198 0 0 
197 0 0 
197 0 0 
199 0 0 
193 0 0 
192 0 0 
198 0 0 
195 0 0 
195 0 0 
194 0 0 
197 0 0 
193 0 0 
195 0 0 
197 0 0 
197 0 0 
199 0 0 
197 0 0 
200 0 0 
197 0 0 
193 0 0 
193 0 0 
197 0 0 
198 0 0 
193 0 0 
197 0 0 
195 0 0 
198 0 0 
198 0 0 
197 0 0 
195 0 0 
199 0 0 
197 0 0 
197 0 0 
201 0 0 
195 0 0 
197 0 0 
195 0 0 
196 0 0 
199 0 0 
197 0 0 
196 0 0 
198 0 0 
198 0 0 
199 0 0 
198 0 0 
194 0 0 
199 0 0 
197 0 0 
197 0 0 
197 0 0 
198 0 0 
198 0 0 
198 0 0 
195 0 0 
195 0 0 
197 0 0 
198 0 0 
198 0 0 
199 0 0 
198 0 0 
199 0 0 
197 0 0 
196 0 0 
196 0 0 
199 0 0 
197 0 0 
194 0 0 
198 0 0 
198 0 0 
198 0 0 
195 0 0 
198 0 0 
199 0 0 
195 0 0 
198 0 0 
197 0 0 
192 0 0 
196 0 0 
198 0 0 
195 0 0 
194 0 0 
196 0 0 
196 0 0 
198 0 0 
196 0 0 
197 0 0 
197 0 0 
197 0 0 
197 0 0 
196 0 0 
0 0 233 
0 0 220 
0 0 224 
0 0 227 
0 0 233 
0 0 240 
0 0 240 
0 0 227 
0 0 220 
0 0 236 
0 0 230 
0 0 227 
0 0 227 
0 0 224 
0 0 226 
0 0 227 
0 0 224 
0 0 218 
0 0 223 
0 0 236 
0 0 228 
0 0 236 
0 0 227 
0 0 230 
0 0 224 
0 0 230 
0 0 230 
0 0 226 
0 0 227 
0 0 234 
0 0 223 
0 0 230 
0 0 224 
0 0 244 
0 0 227 
0 0 224 
0 0 227 
0 0 223 
0 0 236 
0 0 227 
0 0 233 
0 0 227 
0 0 233 
0 0 233 
0 0 228 
0 0 227 
0 0 224 
0 0 224 
0 0 231 
0 0 230 
0 0 227 
0 0 230 
0 0 236 
0 0 231 
0 0 236 
0 0 233 
0 0 240 
0 0 228 
0 0 237 
0 0 233 
0 0 221 
0 0 228 
0 0 244 
0 0 230 
0 0 242 
0 0 227 
0 0 236 
0 0 242 
0 0 231 
0 0 234 
0 0 238 
0 0 233 
0 0 226 
0 0 236 
0 0 236 
0 0 234 
0 0 236 
0 0 240 
0 0 236 
0 0 238 
0 0 227 
0 0 234 
0 0 233 
0 0 240 
0 0 234 
0 0 228 
0 0 230 
0 0 237 
0 0 240 
0 0 238 
0 0 240 
0 0 233 
0 0 241 
0 0 237 
0 0 228 
0 0 244 
0 0 231 
0 0 236 
0 0 244 
0 0 236 
0 0 233 
0 0 238 
0 0 228 
0 0 245 
0 0 236 
0 0 246 
0 0 236 
0 0 240 
0 0 241 
0 0 246 
0 0 236 
0 0 233 
0 0 238 
0 0 250 
0 0 237 
0 0 245 
0 0 250 
0 0 238 
0 0 240 
0 0 236 
74 83 245 
133 150 242 
189 213 255 
199 223 255 
199 223 255 
198 223 255 
198 223 255 
198 223 255 
198 223 255 
198 223 255 
198 223 255 
198 223 255 
198 223 255 
198 223 255 
198 223 255 
198 223 255 
198 223 255 
198 223 255 
198 223 255 
198 223 255 
198 223 255 
197 223 255 
197 222 255 
197 222 255 
197 222 255 
197 222 255 
197 222 255 
197 222 255 
197 222 255 
197 222 255 
197 222 255 
197 222 255 
197 222 255 
197 222 255 
197 222 255 
197 222 255 
197 222 255 
197 222 255 
197 222 255 
197 222 255 
197 222 255 
196 222 255 
196 222 255 
196 222 255 
196 222 255 
196 222 255 
196 222 255 
196 222 255 
196 222 255 
196 222 255 
196 222 255 
196 222 255 
196 222 255 
196 222 255 
196 222 255 
196 222 255 
196 222 255 
196 222 255 
196 222 255 
196 222 255 
196 222 255 
196 222 255 
196 222 255 
196 222 255 
196 222 255 
196 222 255 
196 222 255 
196 222 255 
196 222 255 
196 222 255 
196 222 255 
196 222 255 
196 222 255 
196 222 255 
196 222 255 
196 222 255 
196 222 255 
196 222 255 
196 222 255 
196 222 255 
196 222 255 
196 222 255 
196 222 255 
196 222 255 
196 222 255 
196 222 255 
196 222 255 
196 222 255 
196 222 255 
196 222 255 
196 222 255 
196 222 255 
196 222 255 
196 222 255 
196 222 255 
196 222 255 
196 222 255 
196 222 255 
196 222 255 
196 222 255 
196 222 255 
196 222 255 
196 222 255 
196 222 255 
196 222 255 
196 222 255 
196 222 255 
196 222 255 
196 222 255 
196 222 255 
196 222 255 
196 222 255 
196 222 255 
196 222 255 
196 222 255 
196 222 255 
196 222 255 
196 222 255 
196 222 255 
197 222 255 
197 222 255 
197 222 255 
197 222 255 
197 222 255 
197 222 255 
197 222 255 
197 222 255 
197 222 255 
197 222 255 
197 222 255 
197 222 255 
197 222 255 
197 222 255 
197 222 255 
197 222 255 
197 222 255 
197 222 255 
197 222 255 
197 223 255 
198 223 255 
198 223 255 
198 223 255 
198 223 255 
198 223 255 
198 223 255 
198 223 255 
198 223 255 
198 223 255 
198 223 255 
198 223 255 
198 223 255 
198 223 255 
198 223 255 
198 223 255 
198 223 255 
199 223 255 
199 223 255 
199 208 238 
199 156 179 
190 70 80 
195 0 0 
192 0 0 
191 0 0 
195 0 0 
194 0 0 
196 0 0 
196 0 0 
199 0 0 
193 0 0 
195 0 0 
196 0 0 
194 0 0 
197 0 0 
198 0 0 
195 0 0 
196 0 0 
194 0 0 
195 0 0 
197 0 0 
196 0 0 
198 0 0 
197 0 0 
191 0 0 
191 0 0 
197 0 0 
192 0 0 
195 0 0 
194 0 0 
198 0 0 
199 0 0 
196 0 0 
197 0 0 
197 0 0 
195 0 0 
195 0 0 
192 0 0 
195 0 0 
195 0 0 
194 0 0 
195 0 0 
197 0 0 
194 0 0 
199 0 0 
198 0 0 
198 0 0 
197 0 0 
196 0 0 
196 0 0 
197 0 0 
196 0 0 
198 0 0 
198 0 0 
197 0 0 
193 0 0 
195 0 0 
196 0 0 
196 0 0 
197 0 0 
200 0 0 
194 0 0 
200 0 0 
196 0 0 
197 0 0 
195 0 0 
196 0 0 
195 0 0 
200 0 0 
196 0 0 
199 0 0 
198 0 0 
200 0 0 
194 0 0 
195 0 0 
199 0 0 
194 0 0 
196 0 0 
197 0 0 
198 0 0 
195 0 0 
198 0 0 
197 0 0 
200 0 0 
197 0 0 
197 0 0 
199 0 0 
196 0 0 
196 0 0 
196 0 0 
202 0 0 
199 0 0 
197 0 0 
196 0 0 
197 0 0 
197 0 0 
201 0 0 
196 0 0 
198 0 0 
196 0 0 
199 0 0 
200 0 0 
193 0 0 
199 0 0 
195 0 0 
197 0 0 
200 0 0 
197 0 0 
196 0 0 
196 0 0 
197 0 0 
197 0 0 
198 0 0 
196 0 0 
199 0 0 
195 0 0 
196 0 0 
197 0 0 
196 0 0 
195 0 0 
198 0 0 
196 0 0 
0 0 236 
0 0 224 
0 0 228 
0 0 220 
0 0 236 
0 0 238 
0 0 224 
0 0 231 
0 0 218 
0 0 233 
0 0 224 
0 0 234 
0 0 228 
0 0 234 
0 0 217 
0 0 224 
0 0 223 
0 0 228 
0 0 215 
0 0 240 
0 0 227 
0 0 228 
0 0 221 
0 0 228 
0 0 236 
0 0 221 
0 0 234 
0 0 231 
0 0 238 
0 0 236 
0 0 228 
0 0 234 
0 0 227 
0 0 223 
0 0 238 
0 0 228 
0 0 228 
0 0 230 
0 0 227 
0 0 220 
0 0 236 
0 0 233 
0 0 227 
0 0 236 
0 0 231 
0 0 227 
0 0 233 
0 0 228 
0 0 228 
0 0 227 
0 0 215 
0 0 218 
0 0 228 
0 0 233 
0 0 231 
0 0 224 
0 0 227 
0 0 228 
0 0 234 
0 0 234 
0 0 228 
0 0 217 
0 0 221 
0 0 237 
0 0 240 
0 0 231 
0 0 234 
0 0 241 
0 0 241 
0 0 236 
0 0 236 
0 0 231 
0 0 234 
0 0 238 
0 0 231 
0 0 228 
0 0 237 
0 0 233 
0 0 227 
0 0 236 
0 0 233 
0 0 234 
0 0 226 
0 0 230 
0 0 233 
0 0 226 
0 0 237 
0 0 236 
0 0 244 
0 0 234 
0 0 234 
0 0 223 
0 0 234 
0 0 242 
0 0 236 
0 0 228 
0 0 230 
0 0 234 
0 0 233 
0 0 237 
0 0 230 
0 0 237 
0 0 238 
0 0 238 
0 0 238 
0 0 236 
0 0 245 
0 0 233 
0 0 238 
0 0 240 
0 0 241 
0 0 242 
0 0 241 
0 0 233 
0 0 246 
0 0 242 
0 0 241 
0 0 245 
0 0 240 
0 0 240 
0 0 242 
0 0 236 
28 31 244 
124 139 252 
183 206 254 
199 223 255 
199 223 255 
198 223 255 
198 223 255 
198 223 255 
198 223 255 
198 223 255 
198 223 255 
198 223 255 
198 223 255 
198 223 255 
198 223 255 
198 223 255 
198 223 255 
198 223 255 
198 223 255 
198 223 255 
198 223 255 
198 223 255 
197 223 255 
197 222 255 
197 222 255 
197 222 255 
197 222 255 
197 222 255 
197 222 255 
197 222 255 
197 222 255 
197 222 255 
197 222 255 
197 222 255 
197 222 255 
197 222 255 
197 222 255 
197 222 255 
197 222 255 
197 222 255 
197 222 255 
197 222 255 
197 222 255 
196 222 255 
196 222 255 
196 222 255 
196 222 255 
196 222 255 
196 222 255 
196 222 255 
196 222 255 
196 222 255 
196 222 255 
196 222 255 
196 222 255 
196 222 255 
196 222 255 
196 222 255 
196 222 255 
196 222 255 
196 222 255 
196 222 255 
196 222 255 
196 222 255 
196 222 255 
196 222 255 
196 222 255 
196 222 255 
196 222 255 
196 222 255 
196 222 255 
196 222 255 
196 222 255 
196 222 255 
196 222 255 
196 222 255 
196 222 255 
196 222 255 
196 222 255 
196 222 255 
196 222 255 
196 222 255 
196 222 255 
196 222 255 
196 222 255 
196 222 255 
196 222 255 
196 222 255 
196 222 255 
196 222 255 
196 222 255 
196 222 255 
196 222 255 
196 222 255 
196 222 255 
196 222 255 
196 222 255 
196 222 255 
196 222 255 
196 222 255 
196 222 255 
196 222 255 
196 222 255 
196 222 255 
196 222 255 
196 222 255 
196 222 255 
196 222 255 
196 222 255 
196 222 255 
196 222 255 
196 222 255 
196 222 255 
197 222 255 
197 222 255 
197 222 255 
197 222 255 
197 222 255 
197 222 255 
197 222 255 
197 222 255 
197 222 255 
197 222 255 
197 222 255 
197 222 255 
197 222 255 
197 222 255 
197 222 255 
197 222 255 
197 222 255 
197 222 255 
197 222 255 
197 222 255 
197 223 255 
198 223 255 
198 223 255 
198 223 255 
198 223 255 
198 223 255 
198 223 255 
198 223 255 
198 223 255 
198 223 255 
198 223 255 
198 223 255 
198 223 255 
198 223 255 
198 223 255 
198 223 255 
198 223 255 
199 223 255 
199 223 255 
199 223 255 
199 193 221 
198 130 149 
193 38 44 
198 0 0 
194 0 0 
196 0 0 
196 0 0 
193 0 0 
198 0 0 
196 0 0 
195 0 0 
191 0 0 
196 0 0 
193 0 0 
193 0 0 
198 0 0 
197 0 0 
192 0 0 
195 0 0 
195 0 0 
195 0 0 
193 0 0 
197 0 0 
194 0 0 
196 0 0 
196 0 0 
192 0 0 
198 0 0 
198 0 0 
194 0 0 
192 0 0 
196 0 0 
201 0 0 
193 0 0 
200 0 0 
193 0 0 
197 0 0 
199 0 0 
195 0 0 
195 0 0 
196 0 0 
197 0 0 
196 0 0 
196 0 0 
196 0 0 
195 0 0 
196 0 0 
196 0 0 
196 0 0 
197 0 0 
196 0 0 
199 0 0 
196 0 0 
197 0 0 
201 0 0 
195 0 0 
196 0 0 
196 0 0 
196 0 0 
195 0 0 
195 0 0 
194 0 0 
200 0 0 
195 0 0 
196 0 0 
197 0 0 
199 0 0 
192 0 0 
194 0 0 
197 0 0 
199 0 0 
197 0 0 
195 0 0 
199 0 0 
195 0 0 
197 0 0 
194 0 0 
197 0 0 
199 0 0 
199 0 0 
194 0 0 
198 0 0 
198 0 0 
197 0 0 
194 0 0 
197 0 0 
197 0 0 
197 0 0 
199 0 0 
199 0 0 
194 0 0 
197 0 0 
196 0 0 
195 0 0 
196 0 0 
195 0 0 
197 0 0 
196 0 0 
196 0 0 
199 0 0 
199 0 0 
194 0 0 
196 0 0 
197 0 0 
194 0 0 
198 0 0 
196 0 0 
198 0 0 
197 0 0 
195 0 0 
198 0 0 
197 0 0 
196 0 0 
198 0 0 
196 0 0 
196 0 0 
198 0 0 
198 0 0 
196 0 0 
196 0 0 
198 0 0 
193 0 0 
193 0 0 
198 0 0 
198 0 0 
0 0 228 
0 0 238 
0 0 224 
0 0 226 
0 0 224 
0 0 228 
0 0 236 
0 0 214 
0 0 234 
0 0 242 
0 0 224 
0 0 230 
0 0 212 
0 0 221 
0 0 218 
0 0 224 
0 0 226 
0 0 227 
0 0 234 
0 0 234 
0 0 221 
0 0 227 
0 0 228 
0 0 231 
0 0 226 
0 0 238 
0 0 230 
0 0 224 
0 0 228 
0 0 236 
0 0 244 
0 0 221 
0 0 236 
0 0 226 
0 0 223 
0 0 234 
0 0 214 
0 0 223 
0 0 228 
0 0 218 
0 0 231 
0 0 233 
0 0 233 
0 0 228 
0 0 230 
0 0 236 
0 0 230 
0 0 228 
0 0 241 
0 0 221 
0 0 234 
0 0 238 
0 0 230 
0 0 230 
0 0 230 
0 0 237 
0 0 236 
0 0 230 
0 0 223 
0 0 231 
0 0 227 
0 0 218 
0 0 237 
0 0 218 
0 0 230 
0 0 237 
0 0 224 
0 0 230 
0 0 228 
0 0 221 
0 0 241 
0 0 238 
0 0 234 
0 0 231 
0 0 227 
0 0 242 
0 0 234 
0 0 231 
0 0 228 
0 0 224 
0 0 238 
0 0 227 
0 0 231 
0 0 233 
0 0 240 
0 0 231 
0 0 237 
0 0 231 
0 0 234 
0 0 241 
0 0 227 
0 0 224 
0 0 227 
0 0 233 
0 0 237 
0 0 233 
0 0 244 
0 0 230 
0 0 238 
0 0 234 
0 0 238 
0 0 242 
0 0 245 
0 0 242 
0 0 242 
0 0 236 
0 0 234 
0 0 234 
0 0 242 
0 0 237 
0 0 240 
0 0 236 
0 0 230 
0 0 242 
0 0 246 
0 0 240 
0 0 238 
0 0 238 
0 0 240 
0 0 240 
0 0 242 
0 0 244 
0 0 242 
0 0 244 
0 0 248 
105 118 249 
171 192 255 
199 223 255 
199 223 255 
199 223 255 
198 223 255 
198 223 255 
198 223 255 
198 223 255 
198 223 255 
198 223 255 
198 223 255 
198 223 255 
198 223 255 
198 223 255 
198 223 255 
198 223 255 
198 223 255 
198 223 255 
198 223 255 
198 223 255 
198 223 255 
197 223 255 
197 222 255 
197 222 255 
197 222 255 
197 222 255 
197 222 255 
197 222 255 
197 222 255 
197 222 255 
197 222 255 
197 222 255 
197 222 255 
197 222 255 
197 222 255 
197 222 255 
197 222 255 
197 222 255 
197 222 255 
197 222 255 
197 222 255 
197 222 255 
197 222 255 
196 222 255 
196 222 255 
196 222 255 
196 222 255 
196 222 255 
196 222 255 
196 222 255 
196 222 255 
196 222 255 
196 222 255 
196 222 255 
196 222 255 
196 222 255 
196 222 255 
196 222 255 
196 222 255 
196 222 255 
196 222 255 
196 222 255 
196 222 255 
196 222 255 
196 222 255 
196 222 255 
196 222 255 
196 222 255 
196 222 255 
196 222 255 
196 222 255 
196 222 255 
196 222 255 
196 222 255 
196 222 255 
196 222 255 
196 222 255 
196 222 255 
196 222 255 
196 222 255 
196 222 255 
196 222 255 
196 222 255 
196 222 255 
196 222 255 
196 222 255 
196 222 255 
196 222 255 
196 222 255 
196 222 255 
196 222 255 
196 222 255 
196 222 255 
196 222 255 
196 222 255 
196 222 255 
196 222 255 
196 222 255 
196 222 255 
196 222 255 
196 222 255 
196 222 255 
196 222 255 
196 222 255 
196 222 255 
197 222 255 
197 222 255 
197 222 255 
197 222 255 
197 222 255 
197 222 255 
197 222 255 
197 222 255 
197 222 255 
197 222 255 
197 222 255 
197 222 255 
197 222 255 
197 222 255 
197 222 255 
197 222 255 
197 222 255 
197 222 255 
197 222 255 
197 222 255 
197 222 255 
197 223 255 
198 223 255 
198 223 255 
198 223 255 
198 223 255 
198 223 255 
198 223 255 
198 223 255 
198 223 255 
198 223 255 
198 223 255 
198 223 255 
198 223 255 
198 223 255 
198 223 255 
198 223 255 
198 223 255 
198 223 255 
199 223 255 
199 223 255 
199 220 252 
198 188 215 
198 111 128 
191 0 0 
199 0 0 
190 0 0 
192 0 0 
196 0 0 
194 0 0 
199 0 0 
196 0 0 
198 0 0 
193 0 0 
200 0 0 
196 0 0 
194 0 0 
198 0 0 
197 0 0 
193 0 0 
192 0 0 
196 0 0 
198 0 0 
195 0 0 
196 0 0 
197 0 0 
196 0 0 
194 0 0 
194 0 0 
197 0 0 
193 0 0 
194 0 0 
196 0 0 
194 0 0 
193 0 0 
194 0 0 
197 0 0 
195 0 0 
193 0 0 
198 0 0 
196 0 0 
196 0 0 
194 0 0 
196 0 0 
193 0 0 
197 0 0 
197 0 0 
193 0 0 
194 0 0 
194 0 0 
195 0 0 
194 0 0 
195 0 0 
198 0 0 
199 0 0 
197 0 0 
197 0 0 
198 0 0 
196 0 0 
195 0 0 
196 0 0 
199 0 0 
196 0 0 
194 0 0 
197 0 0 
196 0 0 
192 0 0 
197 0 0 
194 0 0 
198 0 0 
196 0 0 
196 0 0 
199 0 0 
195 0 0 
198 0 0 
195 0 0 
199 0 0 
197 0 0 
198 0 0 
195 0 0 
196 0 0 
195 0 0 
197 0 0 
197 0 0 
198 0 0 
199 0 0 
198 0 0 
197 0 0 
196 0 0 
196 0 0 
194 0 0 
195 0 0 
200 0 0 
200 0 0 
197 0 0 
196 0 0 
191 0 0 
197 0 0 
200 0 0 
199 0 0 
199 0 0 
197 0 0 
199 0 0 
196 0 0 
199 0 0 
199 0 0 
196 0 0 
197 0 0 
198 0 0 
197 0 0 
197 0 0 
195 0 0 
195 0 0 
194 0 0 
196 0 0 
199 0 0 
198 0 0 
197 0 0 
198 0 0 
194 0 0 
197 0 0 
197 0 0 
200 0 0 
200 0 0 
196 0 0 
195 0 0 
196 0 0 
195 0 0 
195 0 0 
0 0 218 
0 0 231 
0 0 215 
0 0 226 
0 0 217 
0 0 226 
0 0 228 
0 0 231 
0 0 231 
0 0 233 
0 0 237 
0 0 224 
0 0 226 
0 0 220 
0 0 220 
0 0 224 
0 0 240 
0 0 230 
0 0 236 
0 0 230 
0 0 224 
0 0 231 
0 0 236 
0 0 231 
0 0 215 
0 0 227 
0 0 231 
0 0 228 
0 0 224 
0 0 223 
0 0 227 
0 0 228 
0 0 227 
0 0 238 
0 0 230 
0 0 230 
0 0 227 
0 0 218 
0 0 215 
0 0 227 
0 0 226 
0 0 220 
0 0 228 
0 0 242 
0 0 227 
0 0 223 
0 0 227 
0 0 227 
0 0 234 
0 0 230 
0 0 226 
0 0 218 
0 0 231 
0 0 228 
0 0 224 
0 0 237 
0 0 224 
0 0 236 
0 0 234 
0 0 223 
0 0 234 
0 0 231 
0 0 236 
0 0 226 
0 0 227 
0 0 223 
0 0 234 
0 0 228 
0 0 221 
0 0 231 
0 0 218 
0 0 236 
0 0 230 
0 0 234 
0 0 234 
0 0 238 
0 0 231 
0 0 230 
0 0 228 
0 0 234 
0 0 230 
0 0 231 
0 0 231 
0 0 238 
0 0 237 
0 0 237 
0 0 233 
0 0 230 
0 0 240 
0 0 242 
0 0 233 
0 0 230 
0 0 227 
0 0 231 
0 0 228 
0 0 234 
0 0 231 
0 0 234 
0 0 242 
0 0 233 
0 0 226 
0 0 246 
0 0 233 
0 0 237 
0 0 231 
0 0 230 
0 0 241 
0 0 230 
0 0 244 
0 0 226 
0 0 241 
0 0 233 
0 0 242 
0 0 230 
0 0 244 
0 0 237 
0 0 241 
0 0 242 
0 0 241 
0 0 234 
0 0 231 
0 0 236 
0 0 242 
0 0 252 
0 0 236 
0 0 246 
0 0 241 
71 80 245 
155 174 254 
196 220 255 
199 223 255 
199 223 255 
199 223 255 
198 223 255 
198 223 255 
198 223 255 
198 223 255 
198 223 255 
198 223 255 
198 223 255 
198 223 255 
198 223 255 
198 223 255 
198 223 255 
198 223 255 
198 223 255 
198 223 255 
198 223 255 
198 223 255 
198 223 255 
197 223 255 
197 222 255 
197 222 255 
197 222 255 
197 222 255 
197 222 255 
197 222 255 
197 222 255 
197 222 255 
197 222 255 
197 222 255 
197 222 255 
197 222 255 
197 222 255 
197 222 255 
197 222 255 
197 222 255 
197 222 255 
197 222 255 
197 222 255 
197 222 255 
197 222 255 
197 222 255 
197 222 255 
196 222 255 
196 222 255 
196 222 255 
196 222 255 
196 222 255 
196 222 255 
196 222 255 
196 222 255 
196 222 255 
196 222 255 
196 222 255 
196 222 255 
196 222 255 
196 222 255 
196 222 255 
196 222 255 
196 222 255 
196 222 255 
196 222 255 
196 222 255 
196 222 255 
196 222 255 
196 222 255 
196 222 255 
196 222 255 
196 222 255 
196 222 255 
196 222 255 
196 222 255 
196 222 255 
196 222 255 
196 222 255 
196 222 255 
196 222 255 
196 222 255 
196 222 255 
196 222 255 
196 222 255 
196 222 255 
196 222 255 
196 222 255 
196 222 255 
196 222 255 
196 222 255 
196 222 255 
196 222 255 
196 222 255 
196 222 255 
196 222 255 
196 222 255 
196 222 255 
196 222 255 
197 222 255 
197 222 255 
197 222 255 
197 222 255 
197 222 255 
197 222 255 
197 222 255 
197 222 255 
197 222 255 
197 222 255 
197 222 255 
197 222 255 
197 222 255 
197 222 255 
197 222 255 
197 222 255 
197 222 255 
197 222 255 
197 222 255 
197 222 255 
197 222 255 
197 222 255 
197 222 255 
197 223 255 
198 223 255 
198 223 255 
198 223 255 
198 223 255 
198 223 255 
198 223 255 
198 223 255 
198 223 255 
198 223 255 
198 223 255 
198 223 255 
198 223 255 
198 223 255 
198 223 255 
198 223 255 
198 223 255 
198 223 255 
199 223 255 
199 223 255 
199 223 255 
199 220 252 
199 176 201 
195 89 102 
195 0 0 
193 0 0 
197 0 0 
197 0 0 
192 0 0 
196 0 0 
194 0 0 
197 0 0 
194 0 0 
195 0 0 
198 0 0 
192 0 0 
193 0 0 
197 0 0 
198 0 0 
196 0 0 
195 0 0 
192 0 0 
195 0 0 
195 0 0 
190 0 0 
193 0 0 
197 0 0 
192 0 0 
194 0 0 
194 0 0 
194 0 0 
193 0 0 
195 0 0 
195 0 0 
193 0 0 
196 0 0 
199 0 0 
196 0 0 
198 0 0 
196 0 0 
200 0 0 
195 0 0 
199 0 0 
196 0 0 
197 0 0 
197 0 0 
197 0 0 
196 0 0 
195 0 0 
193 0 0 
195 0 0 
194 0 0 
196 0 0 
194 0 0 
195 0 0 
197 0 0 
196 0 0 
195 0 0 
195 0 0 
198 0 0 
192 0 0 
195 0 0 
193 0 0 
195 0 0 
198 0 0 
197 0 0 
195 0 0 
194 0 0 
195 0 0 
198 0 0 
197 0 0 
197 0 0 
198 0 0 
196 0 0 
197 0 0 
196 0 0 
194 0 0 
192 0 0 
195 0 0 
195 0 0 
199 0 0 
196 0 0 
195 0 0 
201 0 0 
194 0 0 
196 0 0 
197 0 0 
195 0 0 
193 0 0 
197 0 0 
196 0 0 
197 0 0 
196 0 0 
198 0 0 
198 0 0 
195 0 0 
197 0 0 
199 0 0 
195 0 0 
199 0 0 
193 0 0 
196 0 0 
195 0 0 
195 0 0 
199 0 0 
196 0 0 
195 0 0 
198 0 0 
195 0 0 
198 0 0 
197 0 0 
195 0 0 
196 0 0 
195 0 0 
195 0 0 
197 0 0 
193 0 0 
193 0 0 
201 0 0 
195 0 0 
197 0 0 
197 0 0 
194 0 0 
195 0 0 
199 0 0 
198 0 0 
193 0 0 
194 0 0 
196 0 0 
197 0 0 
200 0 0 
0 0 230 
0 0 224 
0 0 226 
0 0 234 
0 0 231 
0 0 220 
0 0 215 
0 0 233 
0 0 224 
0 0 227 
0 0 228 
0 0 231 
0 0 226 
0 0 231 
0 0 227 
0 0 236 
0 0 234 
0 0 236 
0 0 233 
0 0 238 
0 0 230 
0 0 230 
0 0 230 
0 0 228 
0 0 236 
0 0 234 
0 0 236 
0 0 236 
0 0 237 
0 0 237 
0 0 226 
0 0 227 
0 0 234 
0 0 227 
0 0 230 
0 0 223 
0 0 234 
0 0 226 
0 0 231 
0 0 230 
0 0 226 
0 0 220 
0 0 226 
0 0 221 
0 0 227 
0 0 233 
0 0 238 
0 0 227 
0 0 228 
0 0 218 
0 0 227 
0 0 234 
0 0 226 
0 0 233 
0 0 238 
0 0 217 
0 0 223 
0 0 233 
0 0 223 
0 0 240 
0 0 221 
0 0 230 
0 0 236 
0 0 223 
0 0 227 
0 0 231 
0 0 226 
0 0 234 
0 0 233 
0 0 230 
0 0 231 
0 0 227 
0 0 237 
0 0 223 
0 0 218 
0 0 223 
0 0 238 
0 0 223 
0 0 221 
0 0 231 
0 0 217 
0 0 230 
0 0 226 
0 0 227 
0 0 236 
0 0 237 
0 0 237 
0 0 226 
0 0 233 
0 0 238 
0 0 236 
0 0 237 
0 0 228 
0 0 224 
0 0 226 
0 0 233 
0 0 231 
0 0 231 
0 0 238 
0 0 233 
0 0 226 
0 0 231 
0 0 236 
0 0 246 
0 0 238 
0 0 233 
0 0 240 
0 0 245 
0 0 234 
0 0 231 
0 0 240 
0 0 241 
0 0 242 
0 0 241 
0 0 231 
0 0 245 
0 0 233 
0 0 231 
0 0 234 
0 0 246 
0 0 231 
0 0 240 
0 0 246 
0 0 242 
0 0 242 
0 0 246 
0 0 245 
0 0 246 
0 0 244 
69 77 248 
158 177 253 
193 216 255 
199 223 255 
199 223 255 
199 223 255 
199 223 255 
198 223 255 
198 223 255 
198 223 255 
198 223 255 
198 223 255 
198 223 255 
198 223 255 
198 223 255 
198 223 255 
198 223 255 
198 223 255 
198 223 255 
198 223 255 
198 223 255 
198 223 255 
198 223 255 
198 223 255 
198 223 255 
197 222 255 
197 222 255 
197 222 255 
197 222 255 
197 222 255 
197 222 255 
197 222 255 
197 222 255 
197 222 255 
197 222 255 
197 222 255 
197 222 255 
197 222 255 
197 222 255 
197 222 255 
197 222 255 
197 222 255 
197 222 255 
197 222 255 
197 222 255 
197 222 255 
197 222 255 
197 222 255 
197 222 255 
197 222 255 
197 222 255 
196 222 255 
196 222 255 
196 222 255 
196 222 255 
196 222 255 
196 222 255 
196 222 255 
196 222 255 
196 222 255 
196 222 255 
196 222 255 
196 222 255 
196 222 255 
196 222 255 
196 222 255 
196 222 255 
196 222 255 
196 222 255 
196 222 255 
196 222 255 
196 222 255 
196 222 255 
196 222 255 
196 222 255 
196 222 255 
196 222 255 
196 222 255 
196 222 255 
196 222 255 
196 222 255 
196 222 255 
196 222 255 
196 222 255 
196 222 255 
196 222 255 
196 222 255 
196 222 255 
196 222 255 
196 222 255 
196 222 255 
197 222 255 
197 222 255 
197 222 255 
197 222 255 
197 222 255 
197 222 255 
197 222 255 
197 222 255 
197 222 255 
197 222 255 
197 222 255 
197 222 255 
197 222 255 
197 222 255 
197 222 255 
197 222 255 
197 222 255 
197 222 255 
197 222 255 
197 222 255 
197 222 255 
197 222 255 
197 222 255 
197 222 255 
197 222 255 
197 222 255 
198 223 255 
198 223 255 
198 223 255 
198 223 255 
198 223 255 
198 223 255 
198 223 255 
198 223 255 
198 223 255 
198 223 255 
198 223 255 
198 223 255 
198 223 255 
198 223 255 
198 223 255 
198 223 255 
198 223 255 
198 223 255 
198 223 255 
199 223 255 
199 223 255 
199 223 255 
199 219 250 
198 174 199 
195 63 72 
196 0 0 
197 0 0 
193 0 0 
199 0 0 
195 0 0 
197 0 0 
193 0 0 
198 0 0 
193 0 0 
191 0 0 
197 0 0 
196 0 0 
198 0 0 
195 0 0 
191 0 0 
193 0 0 
193 0 0 
195 0 0 
189 0 0 
195 0 0 
195 0 0 
192 0 0 
196 0 0 
199 0 0 
196 0 0 
197 0 0 
198 0 0 
196 0 0 
197 0 0 
194 0 0 
197 0 0 
201 0 0 
191 0 0 
193 0 0 
191 0 0 
197 0 0 
195 0 0 
193 0 0 
197 0 0 
198 0 0 
195 0 0 
196 0 0 
197 0 0 
192 0 0 
193 0 0 
200 0 0 
191 0 0 
197 0 0 
197 0 0 
196 0 0 
195 0 0 
191 0 0 
194 0 0 
194 0 0 
196 0 0 
193 0 0 
197 0 0 
197 0 0 
193 0 0 
197 0 0 
192 0 0 
194 0 0 
196 0 0 
196 0 0 
198 0 0 
196 0 0 
196 0 0 
195 0 0 
197 0 0 
194 0 0 
196 0 0 
197 0 0 
196 0 0 
196 0 0 
198 0 0 
192 0 0 
198 0 0 
197 0 0 
197 0 0 
198 0 0 
197 0 0 
195 0 0 
196 0 0 
198 0 0 
196 0 0 
194 0 0 
196 0 0 
196 0 0 
189 0 0 
199 0 0 
198 0 0 
196 0 0 
194 0 0 
198 0 0 
193 0 0 
195 0 0 
200 0 0 
198 0 0 
199 0 0 
191 0 0 
197 0 0 
198 0 0 
198 0 0 
197 0 0 
195 0 0 
198 0 0 
198 0 0 
195 0 0 
196 0 0 
197 0 0 
201 0 0 
196 0 0 
198 0 0 
195 0 0 
197 0 0 
195 0 0 
196 0 0 
195 0 0 
195 0 0 
199 0 0 
199 0 0 
196 0 0 
196 0 0 
199 0 0 
197 0 0 
198 0 0 
196 0 0 
200 0 0 
196 0 0 
0 0 215 
0 0 226 
0 0 223 
0 0 234 
0 0 231 
0 0 227 
0 0 217 
0 0 218 
0 0 223 
0 0 218 
0 0 224 
0 0 218 
0 0 236 
0 0 221 
0 0 226 
0 0 226 
0 0 237 
0 0 230 
0 0 230 
0 0 220 
0 0 227 
0 0 238 
0 0 236 
0 0 234 
0 0 230 
0 0 231 
0 0 228 
0 0 228 
0 0 231 
0 0 223 
0 0 223 
0 0 228 
0 0 237 
0 0 221 
0 0 226 
0 0 228 
0 0 226 
0 0 233 
0 0 224 
0 0 224 
0 0 221 
0 0 228 
0 0 224 
0 0 237 
0 0 220 
0 0 231 
0 0 223 
0 0 231 
0 0 234 
0 0 227 
0 0 223 
0 0 220 
0 0 234 
0 0 230 
0 0 234 
0 0 223 
0 0 227 
0 0 224 
0 0 233 
0 0 234 
0 0 231 
0 0 226 
0 0 221 
0 0 218 
0 0 233 
0 0 234 
0 0 226 
0 0 221 
0 0 220 
0 0 221 
0 0 224 
0 0 223 
0 0 228 
0 0 228 
0 0 234 
0 0 237 
0 0 227 
0 0 231 
0 0 233 
0 0 234 
0 0 236 
0 0 228 
0 0 221 
0 0 233 
0 0 227 
0 0 237 
0 0 231 
0 0 236 
0 0 226 
0 0 236 
0 0 238 
0 0 227 
0 0 233 
0 0 231 
0 0 244 
0 0 226 
0 0 228 
0 0 228 
0 0 236 
0 0 221 
0 0 234 
0 0 221 
0 0 227 
0 0 233 
0 0 238 
0 0 234 
0 0 237 
0 0 236 
0 0 241 
0 0 236 
0 0 228 
0 0 240 
0 0 233 
0 0 237 
0 0 230 
0 0 231 
0 0 237 
0 0 224 
0 0 245 
0 0 237 
0 0 241 
0 0 248 
0 0 241 
0 0 231 
0 0 244 
0 0 241 
0 0 245 
0 0 230 
0 0 241 
0 0 253 
0 0 248 
48 54 246 
143 161 254 
195 219 254 
199 223 255 
199 223 255 
199 223 255 
199 223 255 
198 223 255 
198 223 255 
198 223 255 
198 223 255 
198 223 255 
198 223 255 
198 223 255 
198 223 255 
198 223 255 
198 223 255 
198 223 255 
198 223 255 
198 223 255 
198 223 255 
198 223 255 
198 223 255 
198 223 255 
198 223 255 
198 223 255 
197 223 255 
197 222 255 
197 222 255 
197 222 255 
197 222 255 
197 222 255 
197 222 255 
197 222 255 
197 222 255 
197 222 255 
197 222 255 
197 222 255 
197 222 255 
197 222 255 
197 222 255 
197 222 255 
197 222 255 
197 222 255 
197 222 255 
197 222 255 
197 222 255 
197 222 255 
197 222 255 
197 222 255 
197 222 255 
197 222 255 
197 222 255 
197 222 255 
197 222 255 
197 222 255 
197 222 255 
197 222 255 
196 222 255 
196 222 255 
196 222 255 
196 222 255 
196 222 255 
196 222 255 
196 222 255 
196 222 255 
196 222 255 
196 222 255 
196 222 255 
196 222 255 
196 222 255 
196 222 255 
196 222 255 
196 222 255 
196 222 255 
196 222 255 
196 222 255 
196 222 255 
196 222 255 
196 222 255 
197 222 255 
197 222 255 
197 222 255 
197 222 255 
197 222 255 
197 222 255 
197 222 255 
197 222 255 
197 222 255 
197 222 255 
197 222 255 
197 222 255 
197 222 255 
197 222 255 
197 222 255 
197 222 255 
197 222 255 
197 222 255 
197 222 255 
197 222 255 
197 222 255 
197 222 255 
197 222 255 
197 222 255 
197 222 255 
197 222 255 
197 222 255 
197 222 255 
197 222 255 
197 222 255 
197 222 255 
197 223 255 
198 223 255 
198 223 255 
198 223 255 
198 223 255 
198 223 255 
198 223 255 
198 223 255 
198 223 255 
198 223 255 
198 223 255 
198 223 255 
198 223 255 
198 223 255 
198 223 255 
198 223 255 
198 223 255 
198 223 255 
198 223 255 
199 223 255 
199 223 255 
199 223 255 
199 223 255 
199 223 255 
199 223 255 
197 156 179 
199 70 80 
193 0 0 
195 0 0 
195 0 0 
195 0 0 
197 0 0 
194 0 0 
197 0 0 
198 0 0 
193 0 0 
195 0 0 
193 0 0 
196 0 0 
195 0 0 
196 0 0 
195 0 0 
198 0 0 
192 0 0 
197 0 0 
187 0 0 
194 0 0 
195 0 0 
192 0 0 
193 0 0 
190 0 0 
196 0 0 
195 0 0 
192 0 0 
194 0 0 
195 0 0 
193 0 0 
197 0 0 
195 0 0 
193 0 0 
197 0 0 
198 0 0 
189 0 0 
194 0 0 
194 0 0 
196 0 0 
192 0 0 
194 0 0 
197 0 0 
191 0 0 
196 0 0 
192 0 0 
194 0 0 
199 0 0 
191 0 0 
197 0 0 
194 0 0 
196 0 0 
197 0 0 
197 0 0 
194 0 0 
195 0 0 
192 0 0 
195 0 0 
197 0 0 
193 0 0 
197 0 0 
196 0 0 
195 0 0 
197 0 0 
201 0 0 
196 0 0 
199 0 0 
195 0 0 
201 0 0 
198 0 0 
195 0 0 
195 0 0 
200 0 0 
195 0 0 
193 0 0 
195 0 0 
197 0 0 
194 0 0 
199 0 0 
198 0 0 
198 0 0 
198 0 0 
193 0 0 
197 0 0 
196 0 0 
198 0 0 
196 0 0 
195 0 0 
196 0 0 
199 0 0 
197 0 0 
197 0 0 
194 0 0 
195 0 0 
196 0 0 
194 0 0 
195 0 0 
200 0 0 
194 0 0 
194 0 0 
199 0 0 
198 0 0 
198 0 0 
195 0 0 
196 0 0 
197 0 0 
196 0 0 
198 0 0 
193 0 0 
196 0 0 
196 0 0 
192 0 0 
197 0 0 
197 0 0 
197 0 0 
197 0 0 
199 0 0 
197 0 0 
196 0 0 
196 0 0 
198 0 0 
198 0 0 
195 0 0 
199 0 0 
196 0 0 
194 0 0 
194 0 0 
194 0 0 
197 0 0 
199 0 0 
196 0 0 
196 0 0 
0 0 221 
0 0 221 
0 0 231 
0 0 228 
0 0 223 
0 0 234 
0 0 215 
0 0 215 
0 0 217 
0 0 223 
0 0 234 
0 0 233 
0 0 231 
0 0 233 
0 0 231 
0 0 233 
0 0 224 
0 0 223 
0 0 233 
0 0 234 
0 0 226 
0 0 226 
0 0 230 
0 0 226 
0 0 226 
0 0 234 
0 0 226 
0 0 231 
0 0 228 
0 0 230 
0 0 228 
0 0 228 
0 0 212 
0 0 230 
0 0 224 
0 0 224 
0 0 236 
0 0 228 
0 0 212 
0 0 224 
0 0 228 
0 0 218 
0 0 230 
0 0 233 
0 0 223 
0 0 237 
0 0 230 
0 0 238 
0 0 215 
0 0 230 
0 0 228 
0 0 236 
0 0 230 
0 0 233 
0 0 218 
0 0 236 
0 0 226 
0 0 228 
0 0 228 
0 0 223 
0 0 228 
0 0 234 
0 0 228 
0 0 227 
0 0 230 
0 0 233 
0 0 224 
0 0 233 
0 0 236 
0 0 218 
0 0 227 
0 0 226 
0 0 233 
0 0 228 
0 0 234 
0 0 228 
0 0 230 
0 0 233 
0 0 236 
0 0 238 
0 0 230 
0 0 223 
0 0 228 
0 0 230 
0 0 230 
0 0 230 
0 0 226 
0 0 241 
0 0 224 
0 0 224 
0 0 233 
0 0 221 
0 0 238 
0 0 228 
0 0 236 
0 0 236 
0 0 238 
0 0 240 
0 0 234 
0 0 227 
0 0 237 
0 0 230 
0 0 226 
0 0 226 
0 0 234 
0 0 227 
0 0 223 
0 0 246 
0 0 231 
0 0 236 
0 0 236 
0 0 242 
0 0 241 
0 0 241 
0 0 237 
0 0 238 
0 0 238 
0 0 240 
0 0 231 
0 0 228 
0 0 236 
0 0 233 
0 0 245 
0 0 245 
0 0 238 
0 0 230 
0 0 245 
0 0 240 
0 0 241 
0 0 245 
0 0 248 
0 0 249 
0 0 244 
48 54 245 
138 155 250 
193 216 255 
199 223 255 
199 223 255 
199 223 255 
199 223 255 
199 223 255 
199 223 255 
198 223 255 
198 223 255 
198 223 255 
198 223 255 
198 223 255 
198 223 255 
198 223 255 
198 223 255 
198 223 255 
198 223 255 
198 223 255 
198 223 255 
198 223 255 
198 223 255 
198 223 255 
198 223 255 
198 223 255 
198 223 255 
198 223 255 
197 223 255 
197 222 255 
197 222 255 
197 222 255 
197 222 255 
197 222 255 
197 222 255 
197 222 255 
197 222 255 
197 222 255 
197 222 255 
197 222 255 
197 222 255 
197 222 255 
197 222 255 
197 222 255 
197 222 255 
197 222 255 
197 222 255 
197 222 255 
197 222 255 
197 222 255 
197 222 255 
197 222 255 
197 222 255 
197 222 255 
197 222 255 
197 222 255 
197 222 255 
197 222 255 
197 222 255 
197 222 255 
197 222 255 
197 222 255 
197 222 255 
197 222 255 
197 222 255 
197 222 255 
197 222 255 
197 222 255 
197 222 255 
197 222 255 
197 222 255 
197 222 255 
197 222 255 
197 222 255 
197 222 255 
197 222 255 
197 222 255 
197 222 255 
197 222 255 
197 222 255 
197 222 255 
197 222 255 
197 222 255 
197 222 255 
197 222 255 
197 222 255 
197 222 255 
197 222 255 
197 222 255 
197 222 255 
197 222 255 
197 222 255 
197 222 255 
197 222 255 
197 222 255 
197 222 255 
197 222 255 
197 222 255 
197 222 255 
197 222 255 
197 222 255 
197 222 255 
197 222 255 
197 222 255 
197 222 255 
197 223 255 
198 223 255 
198 223 255 
198 223 255 
198 223 255 
198 223 255 
198 223 255 
198 223 255 
198 223 255 
198 223 255 
198 223 255 
198 223 255 
198 223 255 
198 223 255 
198 223 255 
198 223 255 
198 223 255 
198 223 255 
198 223 255 
198 223 255 
198 223 255 
199 223 255 
199 223 255 
199 223 255 
199 223 255 
199 223 255 
198 220 252 
197 156 179 
197 63 72 
192 0 0 
191 0 0 
198 0 0 
194 0 0 
194 0 0 
200 0 0 
195 0 0 
197 0 0 
196 0 0 
191 0 0 
194 0 0 
195 0 0 
190 0 0 
197 0 0 
196 0 0 
195 0 0 
196 0 0 
195 0 0 
195 0 0 
195 0 0 
192 0 0 
194 0 0 
197 0 0 
193 0 0 
194 0 0 
193 0 0 
195 0 0 
191 0 0 
194 0 0 
194 0 0 
196 0 0 
192 0 0 
194 0 0 
198 0 0 
190 0 0 
194 0 0 
193 0 0 
198 0 0 
194 0 0 
197 0 0 
194 0 0 
192 0 0 
196 0 0 
194 0 0 
191 0 0 
197 0 0 
194 0 0 
196 0 0 
195 0 0 
196 0 0 
193 0 0 
194 0 0 
197 0 0 
197 0 0 
197 0 0 
198 0 0 
195 0 0 
196 0 0 
196 0 0 
196 0 0 
193 0 0 
196 0 0 
196 0 0 
196 0 0 
198 0 0 
194 0 0 
196 0 0 
199 0 0 
196 0 0 
197 0 0 
201 0 0 
195 0 0 
197 0 0 
198 0 0 
197 0 0 
195 0 0 
195 0 0 
198 0 0 
194 0 0 
198 0 0 
197 0 0 
195 0 0 
196 0 0 
195 0 0 
194 0 0 
194 0 0 
199 0 0 
198 0 0 
197 0 0 
195 0 0 
192 0 0 
196 0 0 
195 0 0 
198 0 0 
191 0 0 
197 0 0 
195 0 0 
196 0 0 
198 0 0 
195 0 0 
196 0 0 
196 0 0 
197 0 0 
197 0 0 
198 0 0 
199 0 0 
194 0 0 
194 0 0 
197 0 0 
194 0 0 
199 0 0 
196 0 0 
195 0 0 
194 0 0 
198 0 0 
198 0 0 
197 0 0 
199 0 0 
192 0 0 
195 0 0 
198 0 0 
196 0 0 
194 0 0 
199 0 0 
194 0 0 
196 0 0 
195 0 0 
198 0 0 
199 0 0 
199 0 0 
197 0 0 
197 0 0 
199 0 0 
0 0 211 
0 0 217 
0 0 234 
0 0 228 
0 0 224 
0 0 227 
0 0 224 
0 0 217 
0 0 230 
0 0 223 
0 0 214 
0 0 233 
0 0 227 
0 0 218 
0 0 228 
0 0 212 
0 0 226 
0 0 231 
0 0 233 
0 0 218 
0 0 226 
0 0 217 
0 0 237 
0 0 218 
0 0 220 
0 0 233 
0 0 224 
0 0 224 
0 0 220 
0 0 228 
0 0 214 
0 0 217 
0 0 223 
0 0 221 
0 0 223 
0 0 223 
0 0 221 
0 0 227 
0 0 230 
0 0 223 
0 0 224 
0 0 226 
0 0 228 
0 0 227 
0 0 217 
0 0 231 
0 0 233 
0 0 221 
0 0 220 
0 0 223 
0 0 233 
0 0 233 
0 0 223 
0 0 231 
0 0 228 
0 0 234 
0 0 236 
0 0 231 
0 0 237 
0 0 228 
0 0 221 
0 0 230 
0 0 236 
0 0 233 
0 0 223 
0 0 226 
0 0 228 
0 0 221 
0 0 233 
0 0 223 
0 0 227 
0 0 231 
0 0 233 
0 0 237 
0 0 230 
0 0 223 
0 0 227 
0 0 227 
0 0 231 
0 0 233 
0 0 228 
0 0 237 
0 0 234 
0 0 233 
0 0 230 
0 0 231 
0 0 231 
0 0 228 
0 0 231 
0 0 231 
0 0 231 
0 0 242 
0 0 231 
0 0 231 
0 0 237 
0 0 224 
0 0 227 
0 0 220 
0 0 237 
0 0 223 
0 0 234 
0 0 237 
0 0 227 
0 0 230 
0 0 238 
0 0 233 
0 0 237 
0 0 241 
0 0 233 
0 0 234 
0 0 236 
0 0 227 
0 0 230 
0 0 231 
0 0 236 
0 0 241 
0 0 238 
0 0 242 
0 0 240 
0 0 236 
0 0 234 
0 0 244 
0 0 238 
0 0 242 
0 0 234 
0 0 241 
0 0 233 
0 0 234 
0 0 231 
0 0 237 
0 0 248 
0 0 242 
0 0 244 
0 0 240 
0 0 245 
52 59 248 
154 173 254 
197 221 255 
199 223 255 
199 223 255 
199 223 255 
199 223 255 
199 223 255 
199 223 255 
199 223 255 
198 223 255 
198 223 255 
198 223 255 
198 223 255 
198 223 255 
198 223 255 
198 223 255 
198 223 255 
198 223 255 
198 223 255 
198 223 255 
198 223 255 
198 223 255 
198 223 255 
198 223 255 
198 223 255 
198 223 255 
198 223 255 
198 223 255 
198 223 255 
197 223 255 
197 222 255 
197 222 255 
197 222 255 
197 222 255 
197 222 255 
197 222 255 
197 222 255 
197 222 255 
197 222 255 
197 222 255 
197 222 255 
197 222 255 
197 222 255 
197 222 255 
197 222 255 
197 222 255 
197 222 255 
197 222 255 
197 222 255 
197 222 255 
197 222 255 
197 222 255 
197 222 255 
197 222 255 
197 222 255 
197 222 255 
197 222 255 
197 222 255 
197 222 255 
197 222 255 
197 222 255 
197 222 255 
197 222 255 
197 222 255 
197 222 255 
197 222 255 
197 222 255 
197 222 255 
197 222 255 
197 222 255 
197 222 255 
197 222 255 
197 222 255 
197 222 255 
197 222 255 
197 222 255 
197 222 255 
197 222 255 
197 222 255 
197 222 255 
197 222 255 
197 222 255 
197 222 255 
197 222 255 
197 222 255 
197 222 255 
197 222 255 
197 222 255 
197 222 255 
197 222 255 
197 222 255 
197 222 255 
197 222 255 
197 222 255 
197 222 255 
197 222 255 
197 222 255 
197 222 255 
197 223 255 
198 223 255 
198 223 255 
198 223 255 
198 223 255 
198 223 255 
198 223 255 
198 223 255 
198 223 255 
198 223 255 
198 223 255 
198 223 255 
198 223 255 
198 223 255 
198 223 255 
198 223 255 
198 223 255 
198 223 255 
198 223 255 
198 223 255 
198 223 255 
199 223 255 
199 223 255 
199 223 255 
199 223 255 
199 223 255 
199 223 255 
199 223 255 
199 220 252 
199 164 188 
192 83 95 
197 0 0 
194 0 0 
193 0 0 
196 0 0 
194 0 0 
195 0 0 
194 0 0 
197 0 0 
193 0 0 
195 0 0 
192 0 0 
194 0 0 
195 0 0 
197 0 0 
193 0 0 
192 0 0 
190 0 0 
198 0 0 
196 0 0 
191 0 0 
197 0 0 
194 0 0 
197 0 0 
194 0 0 
189 0 0 
196 0 0 
197 0 0 
194 0 0 
195 0 0 
195 0 0 
197 0 0 
197 0 0 
193 0 0 
194 0 0 
191 0 0 
194 0 0 
191 0 0 
197 0 0 
200 0 0 
195 0 0 
197 0 0 
193 0 0 
194 0 0 
197 0 0 
194 0 0 
196 0 0 
195 0 0 
195 0 0 
197 0 0 
193 0 0 
198 0 0 
195 0 0 
197 0 0 
196 0 0 
198 0 0 
192 0 0 
196 0 0 
191 0 0 
197 0 0 
195 0 0 
198 0 0 
196 0 0 
192 0 0 
194 0 0 
195 0 0 
192 0 0 
194 0 0 
196 0 0 
194 0 0 
194 0 0 
198 0 0 
196 0 0 
196 0 0 
193 0 0 
200 0 0 
194 0 0 
196 0 0 
198 0 0 
199 0 0 
195 0 0 
197 0 0 
198 0 0 
196 0 0 
198 0 0 
197 0 0 
195 0 0 
195 0 0 
193 0 0 
195 0 0 
196 0 0 
198 0 0 
196 0 0 
195 0 0 
198 0 0 
197 0 0 
194 0 0 
197 0 0 
197 0 0 
197 0 0 
200 0 0 
196 0 0 
196 0 0 
202 0 0 
196 0 0 
196 0 0 
199 0 0 
197 0 0 
196 0 0 
197 0 0 
198 0 0 
194 0 0 
195 0 0 
197 0 0 
196 0 0 
195 0 0 
193 0 0 
197 0 0 
196 0 0 
194 0 0 
199 0 0 
199 0 0 
196 0 0 
200 0 0 
196 0 0 
196 0 0 
197 0 0 
196 0 0 
198 0 0 
194 0 0 
195 0 0 
198 0 0 
197 0 0 
196 0 0 
198 0 0 
198 0 0 
0 0 226 
0 0 220 
0 0 221 
0 0 228 
0 0 228 
0 0 212 
0 0 227 
0 0 231 
0 0 226 
0 0 221 
0 0 218 
0 0 231 
0 0 226 
0 0 209 
0 0 226 
0 0 212 
0 0 228 
0 0 228 
0 0 236 
0 0 215 
0 0 224 
0 0 218 
0 0 228 
0 0 220 
0 0 217 
0 0 226 
0 0 227 
0 0 224 
0 0 231 
0 0 221 
0 0 223 
0 0 224 
0 0 221 
0 0 230 
0 0 224 
0 0 226 
0 0 223 
0 0 227 
0 0 227 
0 0 224 
0 0 217 
0 0 231 
0 0 236 
0 0 221 
0 0 226 
0 0 215 
0 0 221 
0 0 244 
0 0 236 
0 0 212 
0 0 220 
0 0 227 
0 0 217 
0 0 230 
0 0 230 
0 0 226 
0 0 238 
0 0 240 
0 0 237 
0 0 231 
0 0 218 
0 0 233 
0 0 223 
0 0 230 
0 0 215 
0 0 218 
0 0 226 
0 0 236 
0 0 230 
0 0 220 
0 0 226 
0 0 226 
0 0 230 
0 0 215 
0 0 231 
0 0 223 
0 0 227 
0 0 233 
0 0 236 
0 0 214 
0 0 227 
0 0 227 
0 0 231 
0 0 231 
0 0 226 
0 0 236 
0 0 226 
0 0 240 
0 0 226 
0 0 223 
0 0 233 
0 0 237 
0 0 227 
0 0 228 
0 0 233 
0 0 240 
0 0 228 
0 0 236 
0 0 237 
0 0 231 
0 0 238 
0 0 233 
0 0 233 
0 0 234 
0 0 227 
0 0 221 
0 0 227 
0 0 233 
0 0 234 
0 0 230 
0 0 231 
0 0 241 
0 0 231 
0 0 241 
0 0 226 
0 0 234 
0 0 234 
0 0 237 
0 0 236 
0 0 237 
0 0 236 
0 0 234 
0 0 236 
0 0 233 
0 0 240 
0 0 242 
0 0 231 
0 0 237 
0 0 234 
0 0 240 
0 0 237 
0 0 238 
0 0 228 
0 0 236 
0 0 245 
0 0 248 
0 0 245 
71 80 250 
163 183 252 
199 223 255 
199 223 255 
199 223 255 
199 223 255 
199 223 255 
199 223 255 
199 223 255 
199 223 255 
199 223 255 
198 223 255 
198 223 255 
198 223 255 
198 223 255 
198 223 255 
198 223 255 
198 223 255 
198 223 255 
198 223 255 
198 223 255 
198 223 255 
198 223 255 
198 223 255 
198 223 255 
198 223 255 
198 223 255 
198 223 255 
198 223 255 
198 223 255 
198 223 255 
198 223 255 
198 223 255 
197 223 255 
197 222 255 
197 222 255 
197 222 255 
197 222 255 
197 222 255 
197 222 255 
197 222 255 
197 222 255 
197 222 255 
197 222 255 
197 222 255 
197 222 255 
197 222 255 
197 222 255 
197 222 255 
197 222 255 
197 222 255 
197 222 255 
197 222 255 
197 222 255 
197 222 255 
197 222 255 
197 222 255 
197 222 255 
197 222 255 
197 222 255 
197 222 255 
197 222 255 
197 222 255 
197 222 255 
197 222 255 
197 222 255 
197 222 255 
197 222 255 
197 222 255 
197 222 255 
197 222 255 
197 222 255 
197 222 255 
197 222 255 
197 222 255 
197 222 255 
197 222 255 
197 222 255 
197 222 255 
197 222 255 
197 222 255 
197 222 255 
197 222 255 
197 222 255 
197 222 255 
197 222 255 
197 222 255 
197 222 255 
197 222 255 
197 222 255 
197 222 255 
197 222 255 
197 223 255 
198 223 255 
198 223 255 
198 223 255 
198 223 255 
198 223 255 
198 223 255 
198 223 255 
198 223 255 
198 223 255 
198 223 255 
198 223 255 
198 223 255 
198 223 255 
198 223 255 
198 223 255 
198 223 255 
198 223 255 
198 223 255 
198 223 255 
198 223 255 
198 223 255 
198 223 255 
199 223 255 
199 223 255 
199 223 255 
199 223 255 
199 223 255 
199 223 255 
199 223 255 
199 223 255 
199 223 255 
198 173 198 
196 89 102 
192 0 0 
198 0 0 
196 0 0 
192 0 0 
194 0 0 
193 0 0 
199 0 0 
190 0 0 
187 0 0 
193 0 0 
194 0 0 
194 0 0 
192 0 0 
193 0 0 
195 0 0 
196 0 0 
194 0 0 
197 0 0 
189 0 0 
194 0 0 
196 0 0 
191 0 0 
194 0 0 
195 0 0 
194 0 0 
196 0 0 
192 0 0 
191 0 0 
195 0 0 
195 0 0 
193 0 0 
197 0 0 
194 0 0 
195 0 0 
193 0 0 
195 0 0 
195 0 0 
192 0 0 
194 0 0 
198 0 0 
194 0 0 
196 0 0 
196 0 0 
196 0 0 
198 0 0 
195 0 0 
197 0 0 
197 0 0 
196 0 0 
191 0 0 
196 0 0 
195 0 0 
195 0 0 
199 0 0 
195 0 0 
196 0 0 
196 0 0 
193 0 0 
193 0 0 
195 0 0 
193 0 0 
195 0 0 
190 0 0 
195 0 0 
194 0 0 
194 0 0 
195 0 0 
198 0 0 
194 0 0 
197 0 0 
198 0 0 
197 0 0 
193 0 0 
192 0 0 
198 0 0 
197 0 0 
196 0 0 
199 0 0 
192 0 0 
197 0 0 
197 0 0 
199 0 0 
195 0 0 
195 0 0 
198 0 0 
194 0 0 
197 0 0 
194 0 0 
197 0 0 
196 0 0 
196 0 0 
197 0 0 
197 0 0 
193 0 0 
195 0 0 
193 0 0 
199 0 0 
196 0 0 
197 0 0 
196 0 0 
198 0 0 
195 0 0 
197 0 0 
197 0 0 
196 0 0 
197 0 0 
195 0 0 
196 0 0 
195 0 0 
197 0 0 
198 0 0 
198 0 0 
196 0 0 
197 0 0 
198 0 0 
193 0 0 
197 0 0 
197 0 0 
198 0 0 
199 0 0 
197 0 0 
198 0 0 
199 0 0 
197 0 0 
194 0 0 
196 0 0 
197 0 0 
196 0 0 
195 0 0 
199 0 0 
198 0 0 
200 0 0 
198 0 0 
194 0 0 
194 0 0 
196 0 0 
196 0 0 
0 0 227 
0 0 226 
0 0 233 
0 0 220 
0 0 227 
0 0 214 
0 0 228 
0 0 227 
0 0 226 
0 0 224 
0 0 226 
0 0 217 
0 0 230 
0 0 215 
0 0 226 
0 0 231 
0 0 223 
0 0 223 
0 0 228 
0 0 231 
0 0 227 
0 0 214 
0 0 220 
0 0 217 
0 0 220 
0 0 220 
0 0 224 
0 0 226 
0 0 226 
0 0 226 
0 0 227 
0 0 230 
0 0 215 
0 0 224 
0 0 226 
0 0 223 
0 0 233 
0 0 224 
0 0 218 
0 0 231 
0 0 226 
0 0 237 
0 0 227 
0 0 226 
0 0 233 
0 0 212 
0 0 228 
0 0 228 
0 0 230 
0 0 223 
0 0 233 
0 0 238 
0 0 224 
0 0 223 
0 0 223 
0 0 218 
0 0 228 
0 0 221 
0 0 224 
0 0 227 
0 0 234 
0 0 227 
0 0 231 
0 0 226 
0 0 223 
0 0 230 
0 0 233 
0 0 230 
0 0 218 
0 0 220 
0 0 231 
0 0 227 
0 0 236 
0 0 231 
0 0 212 
0 0 230 
0 0 224 
0 0 231 
0 0 223 
0 0 233 
0 0 224 
0 0 233 
0 0 226 
0 0 226 
0 0 227 
0 0 230 
0 0 228 
0 0 227 
0 0 231 
0 0 230 
0 0 227 
0 0 226 
0 0 227 
0 0 234 
0 0 241 
0 0 228 
0 0 226 
0 0 223 
0 0 231 
0 0 234 
0 0 228 
0 0 228 
0 0 237 
0 0 236 
0 0 234 
0 0 224 
0 0 231 
0 0 231 
0 0 231 
0 0 238 
0 0 230 
0 0 234 
0 0 226 
0 0 230 
0 0 233 
0 0 233 
0 0 228 
0 0 231 
0 0 237 
0 0 236 
0 0 233 
0 0 234 
0 0 238 
0 0 241 
0 0 226 
0 0 237 
0 0 224 
0 0 234 
0 0 242 
0 0 231 
0 0 238 
0 0 240 
0 0 241 
0 0 236 
0 0 234 
0 0 233 
0 0 242 
0 0 240 
0 0 238 
95 107 244 
171 192 254 
199 223 255 
199 223 255 
199 223 255 
199 223 255 
199 223 255 
199 223 255 
199 223 255 
199 223 255 
199 223 255 
199 223 255 
198 223 255 
198 223 255 
198 223 255 
198 223 255 
198 223 255 
198 223 255 
198 223 255 
198 223 255 
198 223 255 
198 223 255 
198 223 255 
198 223 255 
198 223 255 
198 223 255 
198 223 255 
198 223 255 
198 223 255 
198 223 255 
198 223 255 
198 223 255 
198 223 255 
198 223 255 
198 223 255 
198 223 255 
198 223 255 
197 223 255 
197 222 255 
197 222 255 
197 222 255 
197 222 255 
197 222 255 
197 222 255 
197 222 255 
197 222 255 
197 222 255 
197 222 255 
197 222 255 
197 222 255 
197 222 255 
197 222 255 
197 222 255 
197 222 255 
197 222 255 
197 222 255 
197 222 255 
197 222 255 
197 222 255 
197 222 255 
197 222 255 
197 222 255 
197 222 255 
197 222 255 
197 222 255 
197 222 255 
197 222 255 
197 222 255 
197 222 255 
197 222 255 
197 222 255 
197 222 255 
197 222 255 
197 222 255 
197 222 255 
197 222 255 
197 222 255 
197 222 255 
197 222 255 
197 222 255 
197 222 255 
197 222 255 
197 222 255 
197 222 255 
197 222 255 
197 223 255 
198 223 255 
198 223 255 
198 223 255 
198 223 255 
198 223 255 
198 223 255 
198 223 255 
198 223 255 
198 223 255 
198 223 255 
198 223 255 
198 223 255 
198 223 255 
198 223 255 
198 223 255 
198 223 255 
198 223 255 
198 223 255 
198 223 255 
198 223 255 
198 223 255 
198 223 255 
198 223 255 
198 223 255 
199 223 255 
199 223 255 
199 223 255 
199 223 255 
199 223 255 
199 223 255 
199 223 255 
199 223 255 
199 223 255 
199 223 255 
196 193 221 
196 104 120 
193 0 0 
194 0 0 
193 0 0 
194 0 0 
193 0 0 
190 0 0 
193 0 0 
195 0 0 
191 0 0 
196 0 0 
184 0 0 
193 0 0 
195 0 0 
196 0 0 
195 0 0 
195 0 0 
194 0 0 
194 0 0 
192 0 0 
193 0 0 
195 0 0 
194 0 0 
194 0 0 
193 0 0 
188 0 0 
194 0 0 
196 0 0 
194 0 0 
197 0 0 
194 0 0 
197 0 0 
193 0 0 
191 0 0 
195 0 0 
193 0 0 
195 0 0 
197 0 0 
197 0 0 
194 0 0 
197 0 0 
198 0 0 
195 0 0 
194 0 0 
195 0 0 
193 0 0 
196 0 0 
194 0 0 
190 0 0 
193 0 0 
196 0 0 
194 0 0 
195 0 0 
196 0 0 
194 0 0 
194 0 0 
198 0 0 
199 0 0 
195 0 0 
193 0 0 
198 0 0 
196 0 0 
195 0 0 
200 0 0 
197 0 0 
196 0 0 
193 0 0 
195 0 0 
194 0 0 
196 0 0 
196 0 0 
195 0 0 
196 0 0 
197 0 0 
195 0 0 
193 0 0 
191 0 0 
193 0 0 
196 0 0 
198 0 0 
196 0 0 
196 0 0 
196 0 0 
197 0 0 
199 0 0 
195 0 0 
196 0 0 
196 0 0 
195 0 0 
196 0 0 
196 0 0 
198 0 0 
195 0 0 
198 0 0 
200 0 0 
195 0 0 
198 0 0 
198 0 0 
199 0 0 
198 0 0 
195 0 0 
196 0 0 
197 0 0 
196 0 0 
194 0 0 
198 0 0 
196 0 0 
195 0 0 
195 0 0 
197 0 0 
199 0 0 
195 0 0 
197 0 0 
196 0 0 
195 0 0 
196 0 0 
195 0 0 
196 0 0 
195 0 0 
197 0 0 
196 0 0 
196 0 0 
198 0 0 
199 0 0 
197 0 0 
195 0 0 
194 0 0 
197 0 0 
195 0 0 
198 0 0 
199 0 0 
194 0 0 
195 0 0 
198 0 0 
194 0 0 
199 0 0 
198 0 0 
193 0 0 
199 0 0 
193 0 0 
0 0 230 
0 0 231 
0 0 212 
0 0 220 
0 0 220 
0 0 228 
0 0 221 
0 0 218 
0 0 221 
0 0 221 
0 0 217 
0 0 228 
0 0 224 
0 0 224 
0 0 217 
0 0 230 
0 0 224 
0 0 214 
0 0 221 
0 0 215 
0 0 209 
0 0 227 
0 0 234 
0 0 224 
0 0 215 
0 0 234 
0 0 220 
0 0 220 
0 0 227 
0 0 223 
0 0 228 
0 0 230 
0 0 227 
0 0 223 
0 0 228 
0 0 226 
0 0 227 
0 0 224 
0 0 226 
0 0 234 
0 0 236 
0 0 221 
0 0 234 
0 0 212 
0 0 218 
0 0 224 
0 0 226 
0 0 223 
0 0 230 
0 0 233 
0 0 218 
0 0 217 
0 0 223 
0 0 228 
0 0 230 
0 0 230 
0 0 228 
0 0 228 
0 0 226 
0 0 227 
0 0 226 
0 0 218 
0 0 230 
0 0 233 
0 0 221 
0 0 228 
0 0 237 
0 0 230 
0 0 236 
0 0 226 
0 0 237 
0 0 221 
0 0 221 
0 0 224 
0 0 227 
0 0 221 
0 0 227 
0 0 217 
0 0 236 
0 0 234 
0 0 231 
0 0 224 
0 0 227 
0 0 228 
0 0 224 
0 0 217 
0 0 244 
0 0 227 
0 0 228 
0 0 231 
0 0 227 
0 0 231 
0 0 234 
0 0 227 
0 0 236 
0 0 230 
0 0 223 
0 0 228 
0 0 234 
0 0 230 
0 0 230 
0 0 224 
0 0 226 
0 0 234 
0 0 228 
0 0 230 
0 0 226 
0 0 237 
0 0 226 
0 0 227 
0 0 228 
0 0 234 
0 0 233 
0 0 230 
0 0 227 
0 0 227 
0 0 234 
0 0 220 
0 0 240 
0 0 234 
0 0 231 
0 0 227 
0 0 242 
0 0 227 
0 0 227 
0 0 230 
0 0 238 
0 0 240 
0 0 231 
0 0 233 
0 0 228 
0 0 233 
0 0 241 
0 0 240 
0 0 238 
0 0 245 
0 0 228 
0 0 250 
0 0 231 
0 0 236 
19 22 241 
126 141 252 
185 207 253 
199 223 255 
199 223 255 
199 223 255 
199 223 255 
199 223 255 
199 223 255 
199 223 255 
199 223 255 
199 223 255 
199 223 255 
199 223 255 
199 223 255 
198 223 255 
198 223 255 
198 223 255 
198 223 255 
198 223 255 
198 223 255 
198 223 255 
198 223 255 
198 223 255 
198 223 255 
198 223 255 
198 223 255 
198 223 255 
198 223 255 
198 223 255 
198 223 255 
198 223 255 
198 223 255 
198 223 255 
198 223 255 
198 223 255 
198 223 255 
198 223 255 
198 223 255 
198 223 255 
198 223 255 
198 223 255 
198 223 255 
197 223 255 
197 222 255 
197 222 255 
197 222 255 
197 222 255 
197 222 255 
197 222 255 
197 222 255 
197 222 255 
197 222 255 
197 222 255 
197 222 255 
197 222 255 
197 222 255 
197 222 255 
197 222 255 
197 222 255 
197 222 255 
197 222 255 
197 222 255 
197 222 255 
197 222 255 
197 222 255 
197 222 255 
197 222 255 
197 222 255 
197 222 255 
197 222 255 
197 222 255 
197 222 255 
197 222 255 
197 222 255 
197 222 255 
197 223 255 
198 223 255 
198 223 255 
198 223 255 
198 223 255 
198 223 255 
198 223 255 
198 223 255 
198 223 255 
198 223 255 
198 223 255 
198 223 255 
198 223 255 
198 223 255 
198 223 255 
198 223 255 
198 223 255 
198 223 255 
198 223 255 
198 223 255 
198 223 255 
198 223 255 
198 223 255 
198 223 255 
198 223 255 
198 223 255 
198 223 255 
198 223 255 
198 223 255 
199 223 255 
199 223 255 
199 223 255 
199 223 255 
199 223 255 
199 223 255 
199 223 255 
199 223 255 
199 223 255 
199 223 255 
199 223 255 
199 223 255 
199 217 248 
197 132 151 
198 22 25 
192 0 0 
190 0 0 
193 0 0 
193 0 0 
191 0 0 
193 0 0 
192 0 0 
191 0 0 
193 0 0 
189 0 0 
196 0 0 
199 0 0 
194 0 0 
195 0 0 
194 0 0 
192 0 0 
193 0 0 
191 0 0 
189 0 0 
189 0 0 
195 0 0 
192 0 0 
196 0 0 
196 0 0 
195 0 0 
192 0 0 
195 0 0 
190 0 0 
192 0 0 
198 0 0 
193 0 0 
194 0 0 
191 0 0 
192 0 0 
197 0 0 
189 0 0 
191 0 0 
195 0 0 
195 0 0 
194 0 0 
198 0 0 
193 0 0 
191 0 0 
193 0 0 
194 0 0 
194 0 0 
195 0 0 
198 0 0 
197 0 0 
191 0 0 
198 0 0 
196 0 0 
197 0 0 
196 0 0 
194 0 0 
196 0 0 
194 0 0 
189 0 0 
197 0 0 
195 0 0 
191 0 0 
195 0 0 
196 0 0 
193 0 0 
195 0 0 
199 0 0 
191 0 0 
196 0 0 
196 0 0 
196 0 0 
191 0 0 
198 0 0 
198 0 0 
195 0 0 
199 0 0 
192 0 0 
197 0 0 
197 0 0 
195 0 0 
196 0 0 
194 0 0 
197 0 0 
198 0 0 
196 0 0 
196 0 0 
195 0 0 
195 0 0 
196 0 0 
192 0 0 
195 0 0 
194 0 0 
196 0 0 
197 0 0 
196 0 0 
197 0 0 
197 0 0 
199 0 0 
196 0 0 
198 0 0 
197 0 0 
196 0 0 
193 0 0 
198 0 0 
196 0 0 
195 0 0 
191 0 0 
195 0 0 
197 0 0 
198 0 0 
195 0 0 
194 0 0 
197 0 0 
197 0 0 
196 0 0 
198 0 0 
198 0 0 
199 0 0 
198 0 0 
198 0 0 
197 0 0 
197 0 0 
191 0 0 
197 0 0 
198 0 0 
197 0 0 
198 0 0 
196 0 0 
196 0 0 
195 0 0 
198 0 0 
191 0 0 
200 0 0 
196 0 0 
199 0 0 
195 0 0 
193 0 0 
199 0 0 
197 0 0 
196 0 0 
197 0 0 
0 0 220 
0 0 228 
0 0 221 
0 0 218 
0 0 223 
0 0 227 
0 0 220 
0 0 217 
0 0 221 
0 0 226 
0 0 224 
0 0 218 
0 0 224 
0 0 217 
0 0 224 
0 0 215 
0 0 226 
0 0 230 
0 0 228 
0 0 215 
0 0 215 
0 0 224 
0 0 226 
0 0 218 
0 0 227 
0 0 221 
0 0 230 
0 0 224 
0 0 245 
0 0 218 
0 0 218 
0 0 228 
0 0 228 
0 0 230 
0 0 223 
0 0 221 
0 0 218 
0 0 215 
0 0 215 
0 0 221 
0 0 230 
0 0 224 
0 0 233 
0 0 223 
0 0 223 
0 0 231 
0 0 223 
0 0 223 
0 0 234 
0 0 223 
0 0 226 
0 0 237 
0 0 220 
0 0 226 
0 0 221 
0 0 228 
0 0 226 
0 0 228 
0 0 228 
0 0 233 
0 0 215 
0 0 220 
0 0 227 
0 0 228 
0 0 228 
0 0 221 
0 0 236 
0 0 233 
0 0 218 
0 0 226 
0 0 234 
0 0 227 
0 0 224 
0 0 228 
0 0 234 
0 0 236 
0 0 220 
0 0 237 
0 0 224 
0 0 224 
0 0 227 
0 0 228 
0 0 230 
0 0 212 
0 0 227 
0 0 233 
0 0 236 
0 0 231 
0 0 231 
0 0 227 
0 0 227 
0 0 218 
0 0 240 
0 0 234 
0 0 231 
0 0 220 
0 0 227 
0 0 224 
0 0 224 
0 0 226 
0 0 230 
0 0 227 
0 0 231 
0 0 233 
0 0 230 
0 0 228 
0 0 224 
0 0 230 
0 0 241 
0 0 231 
0 0 233 
0 0 226 
0 0 240 
0 0 227 
0 0 231 
0 0 234 
0 0 227 
0 0 244 
0 0 233 
0 0 231 
0 0 230 
0 0 233 
0 0 228 
0 0 234 
0 0 237 
0 0 236 
0 0 230 
0 0 234 
0 0 236 
0 0 236 
0 0 245 
0 0 233 
0 0 238 
0 0 230 
0 0 238 
0 0 234 
0 0 240 
0 0 238 
0 0 245 
0 0 234 
0 0 242 
0 0 241 
52 59 241 
149 167 250 
195 219 255 
199 223 255 
199 223 255 
199 223 255 
199 223 255 
199 223 255 
199 223 255 
199 223 255 
199 223 255 
199 223 255 
199 223 255 
199 223 255 
199 223 255 
199 223 255 
199 223 255 
198 223 255 
198 223 255 
198 223 255 
198 223 255 
198 223 255 
198 223 255 
198 223 255 
198 223 255 
198 223 255 
198 223 255 
198 223 255 
198 223 255 
198 223 255 
198 223 255 
198 223 255 
198 223 255 
198 223 255 
198 223 255 
198 223 255 
198 223 255 
198 223 255 
198 223 255 
198 223 255 
198 223 255 
198 223 255 
198 223 255 
198 223 255 
198 223 255 
198 223 255 
198 223 255 
198 223 255 
198 223 255 
198 223 255 
198 223 255 
198 223 255 
198 223 255 
198 223 255 
197 223 255 
198 223 255 
197 223 255 
197 223 255 
197 223 255 
197 223 255 
197 223 255 
197 223 255 
198 223 255 
198 223 255 
198 223 255 
198 223 255 
198 223 255 
198 223 255 
198 223 255 
198 223 255 
198 223 255 
198 223 255 
198 223 255 
198 223 255 
198 223 255 
198 223 255 
198 223 255 
198 223 255 
198 223 255 
198 223 255 
198 223 255 
198 223 255 
198 223 255 
198 223 255 
198 223 255 
198 223 255 
198 223 255 
198 223 255 
198 223 255 
198 223 255 
198 223 255 
198 223 255 
198 223 255 
198 223 255 
198 223 255 
198 223 255 
198 223 255 
198 223 255 
198 223 255 
199 223 255 
199 223 255 
199 223 255 
199 223 255 
199 223 255 
199 223 255 
199 223 255 
199 223 255 
199 223 255 
199 223 255 
199 223 255 
199 223 255 
199 223 255 
199 223 255 
199 219 250 
194 148 169 
188 44 51 
192 0 0 
195 0 0 
191 0 0 
187 0 0 
191 0 0 
196 0 0 
189 0 0 
192 0 0 
192 0 0 
192 0 0 
193 0 0 
193 0 0 
194 0 0 
189 0 0 
192 0 0 
194 0 0 
194 0 0 
195 0 0 
195 0 0 
188 0 0 
193 0 0 
193 0 0 
194 0 0 
191 0 0 
193 0 0 
195 0 0 
199 0 0 
195 0 0 
192 0 0 
193 0 0 
196 0 0 
194 0 0 
193 0 0 
193 0 0 
193 0 0 
192 0 0 
195 0 0 
196 0 0 
190 0 0 
190 0 0 
190 0 0 
193 0 0 
194 0 0 
194 0 0 
195 0 0 
194 0 0 
189 0 0 
192 0 0 
195 0 0 
191 0 0 
196 0 0 
195 0 0 
191 0 0 
195 0 0 
191 0 0 
198 0 0 
194 0 0 
196 0 0 
196 0 0 
194 0 0 
197 0 0 
194 0 0 
196 0 0 
195 0 0 
194 0 0 
195 0 0 
196 0 0 
193 0 0 
196 0 0 
196 0 0 
195 0 0 
196 0 0 
194 0 0 
196 0 0 
195 0 0 
198 0 0 
200 0 0 
199 0 0 
195 0 0 
196 0 0 
196 0 0 
198 0 0 
195 0 0 
194 0 0 
193 0 0 
192 0 0 
195 0 0 
194 0 0 
196 0 0 
195 0 0 
194 0 0 
193 0 0 
195 0 0 
195 0 0 
197 0 0 
194 0 0 
198 0 0 
196 0 0 
194 0 0 
197 0 0 
194 0 0 
197 0 0 
195 0 0 
194 0 0 
193 0 0 
200 0 0 
196 0 0 
196 0 0 
198 0 0 
198 0 0 
196 0 0 
197 0 0 
195 0 0 
193 0 0 
199 0 0 
195 0 0 
197 0 0 
195 0 0 
194 0 0 
196 0 0 
194 0 0 
196 0 0 
192 0 0 
197 0 0 
197 0 0 
195 0 0 
196 0 0 
197 0 0 
194 0 0 
193 0 0 
196 0 0 
196 0 0 
196 0 0 
197 0 0 
200 0 0 
195 0 0 
196 0 0 
198 0 0 
198 0 0 
200 0 0 
197 0 0 
196 0 0 
0 0 231 
0 0 231 
0 0 231 
0 0 221 
0 0 212 
0 0 231 
0 0 223 
0 0 224 
0 0 220 
0 0 226 
0 0 214 
0 0 221 
0 0 218 
0 0 217 
0 0 214 
0 0 227 
0 0 233 
0 0 214 
0 0 221 
0 0 207 
0 0 234 
0 0 224 
0 0 223 
0 0 231 
0 0 214 
0 0 226 
0 0 223 
0 0 224 
0 0 228 
0 0 224 
0 0 230 
0 0 224 
0 0 230 
0 0 227 
0 0 236 
0 0 231 
0 0 214 
0 0 218 
0 0 227 
0 0 214 
0 0 217 
0 0 224 
0 0 233 
0 0 212 
0 0 224 
0 0 226 
0 0 228 
0 0 224 
0 0 231 
0 0 221 
0 0 220 
0 0 226 
0 0 224 
0 0 227 
0 0 237 
0 0 215 
0 0 226 
0 0 212 
0 0 220 
0 0 226 
0 0 223 
0 0 226 
0 0 227 
0 0 224 
0 0 224 
0 0 227 
0 0 226 
0 0 236 
0 0 227 
0 0 227 
0 0 234 
0 0 236 
0 0 217 
0 0 227 
0 0 241 
0 0 227 
0 0 227 
0 0 224 
0 0 224 
0 0 228 
0 0 223 
0 0 227 
0 0 223 
0 0 226 
0 0 226 
0 0 221 
0 0 227 
0 0 226 
0 0 230 
0 0 233 
0 0 230 
0 0 224 
0 0 230 
0 0 226 
0 0 236 
0 0 228 
0 0 233 
0 0 233 
0 0 231 
0 0 218 
0 0 233 
0 0 227 
0 0 226 
0 0 224 
0 0 230 
0 0 228 
0 0 231 
0 0 236 
0 0 236 
0 0 223 
0 0 238 
0 0 226 
0 0 236 
0 0 223 
0 0 223 
0 0 227 
0 0 234 
0 0 228 
0 0 226 
0 0 242 
0 0 233 
0 0 226 
0 0 242 
0 0 228 
0 0 233 
0 0 233 
0 0 244 
0 0 220 
0 0 237 
0 0 238 
0 0 233 
0 0 231 
0 0 237 
0 0 240 
0 0 233 
0 0 231 
0 0 238 
0 0 228 
0 0 234 
0 0 234 
0 0 241 
0 0 234 
0 0 238 
0 0 234 
74 83 246 
171 192 254 
199 223 255 
199 223 255 
199 223 255 
199 223 255 
199 223 255 
199 223 255 
199 223 255 
199 223 255 
199 223 255 
199 223 255 
199 223 255 
199 223 255 
199 223 255 
199 223 255 
199 223 255 
199 223 255 
199 223 255 
198 223 255 
198 223 255 
198 223 255 
198 223 255 
198 223 255 
198 223 255 
198 223 255 
198 223 255 
198 223 255 
198 223 255 
198 223 255 
198 223 255 
198 223 255 
198 223 255 
198 223 255 
198 223 255 
198 223 255 
198 223 255 
198 223 255 
198 223 255 
198 223 255 
198 223 255 
198 223 255 
198 223 255 
198 223 255 
198 223 255 
198 223 255 
198 223 255 
198 223 255 
198 223 255 
198 223 255 
198 223 255 
198 223 255 
198 223 255 
198 223 255 
198 223 255 
198 223 255 
198 223 255 
198 223 255 
198 223 255 
198 223 255 
198 223 255 
198 223 255 
198 223 255 
198 223 255 
198 223 255 
198 223 255 
198 223 255 
198 223 255 
198 223 255 
198 223 255 
198 223 255 
198 223 255 
198 223 255 
198 223 255 
198 223 255 
198 223 255 
198 223 255 
198 223 255 
198 223 255 
198 223 255 
198 223 255 
198 223 255 
198 223 255 
198 223 255 
198 223 255 
198 223 255 
198 223 255 
198 223 255 
198 223 255 
198 223 255 
198 223 255 
198 223 255 
198 223 255 
199 223 255 
199 223 255 
199 223 255 
199 223 255 
199 223 255 
199 223 255 
199 223 255 
199 223 255 
199 223 255 
199 223 255 
199 223 255 
199 223 255 
199 223 255 
199 223 255 
199 223 255 
199 223 255 
199 223 255 
195 187 214 
192 83 95 
189 0 0 
193 0 0 
192 0 0 
197 0 0 
188 0 0 
188 0 0 
193 0 0 
192 0 0 
193 0 0 
188 0 0 
190 0 0 
189 0 0 
196 0 0 
182 0 0 
195 0 0 
192 0 0 
192 0 0 
193 0 0 
195 0 0 
188 0 0 
193 0 0 
190 0 0 
194 0 0 
193 0 0 
187 0 0 
193 0 0 
189 0 0 
193 0 0 
194 0 0 
196 0 0 
197 0 0 
188 0 0 
194 0 0 
189 0 0 
194 0 0 
196 0 0 
197 0 0 
190 0 0 
193 0 0 
191 0 0 
194 0 0 
195 0 0 
199 0 0 
196 0 0 
189 0 0 
192 0 0 
196 0 0 
194 0 0 
193 0 0 
194 0 0 
194 0 0 
192 0 0 
194 0 0 
197 0 0 
194 0 0 
192 0 0 
195 0 0 
194 0 0 
195 0 0 
195 0 0 
193 0 0 
199 0 0 
192 0 0 
195 0 0 
192 0 0 
193 0 0 
196 0 0 
192 0 0 
194 0 0 
198 0 0 
196 0 0 
192 0 0 
198 0 0 
196 0 0 
191 0 0 
195 0 0 
195 0 0 
194 0 0 
194 0 0 
197 0 0 
197 0 0 
196 0 0 
199 0 0 
200 0 0 
198 0 0 
197 0 0 
196 0 0 
199 0 0 
197 0 0 
196 0 0 
198 0 0 
197 0 0 
199 0 0 
199 0 0 
193 0 0 
195 0 0 
197 0 0 
193 0 0 
195 0 0 
196 0 0 
195 0 0 
197 0 0 
194 0 0 
194 0 0 
194 0 0 
197 0 0 
195 0 0 
198 0 0 
197 0 0 
199 0 0 
199 0 0 
195 0 0 
199 0 0 
196 0 0 
193 0 0 
195 0 0 
196 0 0 
196 0 0 
194 0 0 
197 0 0 
194 0 0 
197 0 0 
193 0 0 
195 0 0 
196 0 0 
198 0 0 
196 0 0 
198 0 0 
201 0 0 
199 0 0 
197 0 0 
194 0 0 
195 0 0 
197 0 0 
196 0 0 
196 0 0 
197 0 0 
196 0 0 
197 0 0 
194 0 0 
200 0 0 
196 0 0 
200 0 0 
197 0 0 
0 0 228 
0 0 224 
0 0 227 
0 0 224 
0 0 220 
0 0 228 
0 0 224 
0 0 215 
0 0 217 
0 0 223 
0 0 218 
0 0 230 
0 0 231 
0 0 211 
0 0 221 
0 0 209 
0 0 224 
0 0 228 
0 0 221 
0 0 217 
0 0 226 
0 0 223 
0 0 221 
0 0 226 
0 0 226 
0 0 231 
0 0 242 
0 0 228 
0 0 215 
0 0 217 
0 0 221 
0 0 211 
0 0 227 
0 0 218 
0 0 228 
0 0 240 
0 0 221 
0 0 226 
0 0 228 
0 0 227 
0 0 226 
0 0 231 
0 0 230 
0 0 217 
0 0 221 
0 0 209 
0 0 227 
0 0 228 
0 0 220 
0 0 233 
0 0 212 
0 0 234 
0 0 230 
0 0 228 
0 0 223 
0 0 233 
0 0 226 
0 0 227 
0 0 233 
0 0 226 
0 0 223 
0 0 226 
0 0 236 
0 0 230 
0 0 221 
0 0 224 
0 0 227 
0 0 221 
0 0 223 
0 0 227 
0 0 234 
0 0 224 
0 0 230 
0 0 224 
0 0 226 
0 0 214 
0 0 224 
0 0 240 
0 0 223 
0 0 221 
0 0 238 
0 0 226 
0 0 234 
0 0 217 
0 0 226 
0 0 221 
0 0 214 
0 0 215 
0 0 220 
0 0 227 
0 0 226 
0 0 223 
0 0 218 
0 0 227 
0 0 231 
0 0 224 
0 0 228 
0 0 233 
0 0 230 
0 0 228 
0 0 223 
0 0 218 
0 0 230 
0 0 233 
0 0 231 
0 0 221 
0 0 228 
0 0 231 
0 0 223 
0 0 226 
0 0 227 
0 0 228 
0 0 234 
0 0 234 
0 0 237 
0 0 230 
0 0 223 
0 0 223 
0 0 233 
0 0 231 
0 0 230 
0 0 231 
0 0 227 
0 0 223 
0 0 226 
0 0 231 
0 0 234 
0 0 234 
0 0 234 
0 0 231 
0 0 226 
0 0 226 
0 0 244 
0 0 234 
0 0 231 
0 0 238 
0 0 230 
0 0 240 
0 0 241 
0 0 236 
0 0 235 
0 0 238 
0 0 240 
0 0 245 
0 0 241 
0 0 240 
124 139 242 
189 212 254 
199 224 255 
199 223 255 
199 223 255 
199 223 255 
199 223 255 
199 223 255 
199 223 255 
199 223 255 
199 223 255 
199 223 255 
199 223 255 
199 223 255 
199 223 255 
199 223 255 
199 223 255 
199 223 255 
199 223 255 
199 223 255 
199 223 255 
198 223 255 
198 223 255 
198 223 255 
198 223 255 
198 223 255 
198 223 255 
198 223 255 
198 223 255 
198 223 255 
198 223 255 
198 223 255 
198 223 255 
198 223 255 
198 223 255 
198 223 255 
198 223 255 
198 223 255 
198 223 255 
198 223 255 
198 223 255 
198 223 255 
198 223 255 
198 223 255 
198 223 255 
198 223 255 
198 223 255 
198 223 255 
198 223 255 
198 223 255 
198 223 255 
198 223 255 
198 223 255 
198 223 255 
198 223 255 
198 223 255 
198 223 255 
198 223 255 
198 223 255 
198 223 255 
198 223 255 
198 223 255 
198 223 255 
198 223 255 
198 223 255 
198 223 255 
198 223 255 
198 223 255 
198 223 255 
198 223 255 
198 223 255 
198 223 255 
198 223 255 
198 223 255 
198 223 255 
198 223 255 
198 223 255 
198 223 255 
198 223 255 
198 223 255 
198 223 255 
198 223 255 
198 223 255 
198 223 255 
198 223 255 
198 223 255 
199 223 255 
199 223 255 
199 223 255 
199 223 255 
199 223 255 
199 223 255 
199 223 255 
199 223 255 
199 223 255 
199 223 255 
199 223 255 
199 223 255 
199 223 255 
199 223 255 
199 223 255 
199 223 255 
199 223 255 
199 223 255 
199 223 255 
199 224 255 
199 218 249 
194 148 169 
189 0 0 
193 0 0 
192 0 0 
193 0 0 
191 0 0 
190 0 0 
195 0 0 
192 0 0 
190 0 0 
196 0 0 
189 0 0 
194 0 0 
184 0 0 
192 0 0 
194 0 0 
190 0 0 
196 0 0 
190 0 0 
192 0 0 
196 0 0 
196 0 0 
194 0 0 
189 0 0 
194 0 0 
193 0 0 
192 0 0 
194 0 0 
194 0 0 
191 0 0 
193 0 0 
194 0 0 
193 0 0 
190 0 0 
192 0 0 
189 0 0 
194 0 0 
195 0 0 
188 0 0 
198 0 0 
192 0 0 
197 0 0 
189 0 0 
200 0 0 
191 0 0 
193 0 0 
191 0 0 
193 0 0 
194 0 0 
196 0 0 
193 0 0 
189 0 0 
189 0 0 
193 0 0 
192 0 0 
197 0 0 
195 0 0 
195 0 0 
197 0 0 
194 0 0 
195 0 0 
192 0 0 
192 0 0 
193 0 0 
196 0 0 
194 0 0 
198 0 0 
197 0 0 
197 0 0 
190 0 0 
195 0 0 
194 0 0 
191 0 0 
196 0 0 
197 0 0 
197 0 0 
194 0 0 
196 0 0 
191 0 0 
196 0 0 
196 0 0 
192 0 0 
195 0 0 
196 0 0 
197 0 0 
196 0 0 
196 0 0 
197 0 0 
197 0 0 
195 0 0 
196 0 0 
196 0 0 
195 0 0 
194 0 0 
197 0 0 
197 0 0 
195 0 0 
195 0 0 
199 0 0 
195 0 0 
197 0 0 
196 0 0 
197 0 0 
196 0 0 
196 0 0 
198 0 0 
194 0 0 
196 0 0 
194 0 0 
194 0 0 
197 0 0 
195 0 0 
197 0 0 
194 0 0 
195 0 0 
199 0 0 
196 0 0 
196 0 0 
197 0 0 
196 0 0 
195 0 0 
199 0 0 
198 0 0 
195 0 0 
194 0 0 
197 0 0 
196 0 0 
193 0 0 
198 0 0 
196 0 0 
196 0 0 
196 0 0 
198 0 0 
193 0 0 
195 0 0 
194 0 0 
199 0 0 
195 0 0 
194 0 0 
195 0 0 
197 0 0 
196 0 0 
195 0 0 
196 0 0 
196 0 0 
197 0 0 
198 0 0 
0 0 223 
0 0 223 
0 0 224 
0 0 221 
0 0 215 
0 0 211 
0 0 217 
0 0 220 
0 0 221 
0 0 228 
0 0 228 
0 0 228 
0 0 212 
0 0 224 
0 0 223 
0 0 218 
0 0 226 
0 0 218 
0 0 215 
0 0 223 
0 0 212 
0 0 230 
0 0 223 
0 0 228 
0 0 221 
0 0 220 
0 0 218 
0 0 218 
0 0 221 
0 0 224 
0 0 215 
0 0 223 
0 0 228 
0 0 218 
0 0 226 
0 0 224 
0 0 226 
0 0 227 
0 0 224 
0 0 227 
0 0 218 
0 0 212 
0 0 224 
0 0 220 
0 0 215 
0 0 221 
0 0 228 
0 0 228 
0 0 217 
0 0 221 
0 0 224 
0 0 218 
0 0 221 
0 0 223 
0 0 226 
0 0 220 
0 0 217 
0 0 224 
0 0 223 
0 0 223 
0 0 237 
0 0 238 
0 0 221 
0 0 224 
0 0 224 
0 0 223 
0 0 218 
0 0 231 
0 0 227 
0 0 218 
0 0 220 
0 0 224 
0 0 221 
0 0 224 
0 0 220 
0 0 228 
0 0 228 
0 0 231 
0 0 215 
0 0 218 
0 0 230 
0 0 221 
0 0 226 
0 0 228 
0 0 215 
0 0 214 
0 0 221 
0 0 226 
0 0 215 
0 0 231 
0 0 227 
0 0 231 
0 0 224 
0 0 226 
0 0 231 
0 0 221 
0 0 220 
0 0 226 
0 0 223 
0 0 223 
0 0 215 
0 0 237 
0 0 224 
0 0 230 
0 0 220 
0 0 236 
0 0 223 
0 0 231 
0 0 218 
0 0 233 
0 0 228 
0 0 236 
0 0 231 
0 0 228 
0 0 224 
0 0 226 
0 0 233 
0 0 223 
0 0 227 
0 0 230 
0 0 224 
0 0 238 
0 0 228 
0 0 233 
0 0 227 
0 0 231 
0 0 231 
0 0 228 
0 0 227 
0 0 223 
0 0 233 
0 0 236 
0 0 238 
0 0 226 
0 0 228 
0 0 230 
0 0 224 
0 0 238 
0 0 231 
0 0 237 
0 0 241 
0 0 234 
0 0 238 
0 0 236 
0 0 234 
0 0 231 
0 0 237 
48 54 245 
164 184 249 
200 224 255 
199 224 255 
199 224 255 
199 224 255 
199 223 255 
199 223 255 
199 223 255 
199 223 255 
199 223 255 
199 223 255 
199 223 255 
199 223 255 
199 223 255 
199 223 255 
199 223 255 
199 223 255 
199 223 255 
199 223 255 
199 223 255 
199 223 255 
199 223 255 
199 223 255 
199 223 255 
199 223 255 
198 223 255 
198 223 255 
198 223 255 
198 223 255 
198 223 255 
198 223 255 
198 223 255 
198 223 255 
198 223 255 
198 223 255 
198 223 255 
198 223 255 
198 223 255 
198 223 255 
198 223 255 
198 223 255 
198 223 255 
198 223 255 
198 223 255 
198 223 255 
198 223 255 
198 223 255 
198 223 255 
198 223 255 
198 223 255 
198 223 255 
198 223 255 
198 223 255 
198 223 255 
198 223 255 
198 223 255 
198 223 255 
198 223 255 
198 223 255 
198 223 255 
198 223 255 
198 223 255 
198 223 255 
198 223 255 
198 223 255 
198 223 255 
198 223 255 
198 223 255 
198 223 255 
198 223 255 
198 223 255 
198 223 255 
198 223 255 
198 223 255 
198 223 255 
198 223 255 
198 223 255 
198 223 255 
198 223 255 
199 223 255 
199 223 255 
199 223 255 
199 223 255 
199 223 255 
199 223 255 
199 223 255 
199 223 255 
199 223 255 
199 223 255 
199 223 255 
199 223 255 
199 223 255 
199 223 255 
199 223 255 
199 223 255 
199 223 255 
199 223 255 
199 223 255 
199 223 255 
199 224 255 
199 224 255 
199 224 255 
200 224 255 
196 175 199 
188 31 36 
193 0 0 
191 0 0 
191 0 0 
192 0 0 
192 0 0 
189 0 0 
193 0 0 
186 0 0 
192 0 0 
190 0 0 
192 0 0 
195 0 0 
195 0 0 
186 0 0 
193 0 0 
192 0 0 
190 0 0 
196 0 0 
192 0 0 
195 0 0 
197 0 0 
193 0 0 
194 0 0 
194 0 0 
195 0 0 
195 0 0 
195 0 0 
192 0 0 
189 0 0 
197 0 0 
193 0 0 
196 0 0 
193 0 0 
193 0 0 
191 0 0 
193 0 0 
192 0 0 
193 0 0 
192 0 0 
192 0 0 
192 0 0 
194 0 0 
195 0 0 
198 0 0 
194 0 0 
193 0 0 
194 0 0 
195 0 0 
197 0 0 
196 0 0 
195 0 0 
192 0 0 
191 0 0 
196 0 0 
198 0 0 
195 0 0 
193 0 0 
194 0 0 
193 0 0 
194 0 0 
191 0 0 
192 0 0 
196 0 0 
191 0 0 
197 0 0 
193 0 0 
197 0 0 
192 0 0 
194 0 0 
195 0 0 
193 0 0 
190 0 0 
193 0 0 
196 0 0 
194 0 0 
194 0 0 
191 0 0 
194 0 0 
198 0 0 
193 0 0 
195 0 0 
195 0 0 
194 0 0 
193 0 0 
196 0 0 
197 0 0 
195 0 0 
194 0 0 
195 0 0 
197 0 0 
194 0 0 
199 0 0 
197 0 0 
196 0 0 
195 0 0 
195 0 0 
190 0 0 
195 0 0 
196 0 0 
194 0 0 
196 0 0 
192 0 0 
196 0 0 
196 0 0 
194 0 0 
196 0 0 
197 0 0 
195 0 0 
196 0 0 
193 0 0 
194 0 0 
198 0 0 
195 0 0 
198 0 0 
198 0 0 
191 0 0 
196 0 0 
197 0 0 
197 0 0 
200 0 0 
195 0 0 
199 0 0 
193 0 0 
195 0 0 
200 0 0 
193 0 0 
195 0 0 
196 0 0 
196 0 0 
196 0 0 
193 0 0 
195 0 0 
194 0 0 
196 0 0 
195 0 0 
198 0 0 
197 0 0 
196 0 0 
199 0 0 
195 0 0 
195 0 0 
197 0 0 
198 0 0 
198 0 0 
196 0 0 
194 0 0 
195 0 0 
0 0 212 
0 0 237 
0 0 214 
0 0 227 
0 0 220 
0 0 221 
0 0 215 
0 0 223 
0 0 230 
0 0 217 
0 0 227 
0 0 221 
0 0 207 
0 0 224 
0 0 218 
0 0 226 
0 0 221 
0 0 228 
0 0 214 
0 0 212 
0 0 214 
0 0 215 
0 0 220 
0 0 217 
0 0 215 
0 0 218 
0 0 212 
0 0 228 
0 0 221 
0 0 218 
0 0 221 
0 0 221 
0 0 226 
0 0 224 
0 0 228 
0 0 227 
0 0 228 
0 0 236 
0 0 224 
0 0 212 
0 0 226 
0 0 224 
0 0 214 
0 0 226 
0 0 224 
0 0 224 
0 0 233 
0 0 221 
0 0 224 
0 0 214 
0 0 227 
0 0 215 
0 0 215 
0 0 220 
0 0 221 
0 0 230 
0 0 221 
0 0 221 
0 0 204 
0 0 228 
0 0 226 
0 0 224 
0 0 224 
0 0 221 
0 0 218 
0 0 218 
0 0 224 
0 0 217 
0 0 234 
0 0 206 
0 0 228 
0 0 240 
0 0 224 
0 0 227 
0 0 230 
0 0 227 
0 0 231 
0 0 221 
0 0 227 
0 0 226 
0 0 212 
0 0 228 
0 0 226 
0 0 215 
0 0 226 
0 0 231 
0 0 234 
0 0 214 
0 0 214 
0 0 220 
0 0 214 
0 0 223 
0 0 218 
0 0 223 
0 0 221 
0 0 224 
0 0 226 
0 0 223 
0 0 217 
0 0 227 
0 0 231 
0 0 206 
0 0 231 
0 0 226 
0 0 228 
0 0 224 
0 0 234 
0 0 226 
0 0 227 
0 0 221 
0 0 231 
0 0 227 
0 0 220 
0 0 224 
0 0 230 
0 0 223 
0 0 231 
0 0 227 
0 0 226 
0 0 220 
0 0 237 
0 0 221 
0 0 227 
0 0 236 
0 0 236 
0 0 233 
0 0 223 
0 0 230 
0 0 226 
0 0 241 
0 0 233 
0 0 234 
0 0 227 
0 0 228 
0 0 231 
0 0 241 
0 0 238 
0 0 231 
0 0 241 
0 0 237 
0 0 237 
0 0 230 
0 0 233 
0 0 236 
0 0 238 
0 0 241 
0 0 236 
0 0 242 
0 0 242 
102 114 245 
181 202 252 
200 224 255 
200 224 255 
199 224 255 
199 224 255 
199 224 255 
199 224 255 
199 223 255 
199 223 255 
199 223 255 
199 223 255 
199 223 255 
199 223 255 
199 223 255 
199 223 255 
199 223 255 
199 223 255 
199 223 255 
199 223 255 
199 223 255 
199 223 255 
199 223 255 
199 223 255 
199 223 255 
199 223 255 
199 223 255 
199 223 255 
199 223 255 
199 223 255 
199 223 255 
198 223 255 
198 223 255 
198 223 255 
198 223 255 
198 223 255 
198 223 255 
198 223 255 
198 223 255 
198 223 255 
198 223 255 
198 223 255 
198 223 255 
198 223 255 
198 223 255 
198 223 255 
198 223 255 
198 223 255 
198 223 255 
198 223 255 
198 223 255 
198 223 255 
198 223 255 
198 223 255 
198 223 255 
198 223 255 
198 223 255 
198 223 255 
198 223 255 
198 223 255 
198 223 255 
198 223 255 
198 223 255 
198 223 255 
198 223 255 
198 223 255 
198 223 255 
198 223 255 
198 223 255 
198 223 255 
198 223 255 
198 223 255 
199 223 255 
199 223 255 
199 223 255 
199 223 255 
199 223 255 
199 223 255 
199 223 255 
199 223 255 
199 223 255 
199 223 255 
199 223 255 
199 223 255 
199 223 255 
199 223 255 
199 223 255 
199 223 255 
199 223 255 
199 223 255 
199 223 255 
199 223 255 
199 223 255 
199 223 255 
199 224 255 
199 224 255 
199 224 255 
200 224 255 
200 224 255 
200 224 255 
197 215 245 
197 114 130 
194 0 0 
190 0 0 
193 0 0 
195 0 0 
192 0 0 
189 0 0 
190 0 0 
195 0 0 
199 0 0 
187 0 0 
190 0 0 
193 0 0 
182 0 0 
192 0 0 
191 0 0 
189 0 0 
187 0 0 
195 0 0 
192 0 0 
196 0 0 
191 0 0 
193 0 0 
191 0 0 
196 0 0 
196 0 0 
192 0 0 
192 0 0 
193 0 0 
189 0 0 
191 0 0 
198 0 0 
191 0 0 
195 0 0 
194 0 0 
192 0 0 
194 0 0 
195 0 0 
195 0 0 
188 0 0 
196 0 0 
196 0 0 
193 0 0 
196 0 0 
190 0 0 
193 0 0 
192 0 0 
197 0 0 
196 0 0 
197 0 0 
196 0 0 
193 0 0 
198 0 0 
195 0 0 
192 0 0 
197 0 0 
195 0 0 
193 0 0 
192 0 0 
196 0 0 
199 0 0 
195 0 0 
193 0 0 
199 0 0 
194 0 0 
194 0 0 
196 0 0 
190 0 0 
192 0 0 
193 0 0 
192 0 0 
190 0 0 
195 0 0 
190 0 0 
192 0 0 
190 0 0 
193 0 0 
197 0 0 
200 0 0 
197 0 0 
194 0 0 
195 0 0 
194 0 0 
189 0 0 
194 0 0 
199 0 0 
195 0 0 
194 0 0 
197 0 0 
197 0 0 
193 0 0 
195 0 0 
195 0 0 
193 0 0 
196 0 0 
194 0 0 
191 0 0 
197 0 0 
195 0 0 
198 0 0 
197 0 0 
194 0 0 
194 0 0 
194 0 0 
195 0 0 
196 0 0 
191 0 0 
196 0 0 
194 0 0 
194 0 0 
196 0 0 
195 0 0 
192 0 0 
197 0 0 
192 0 0 
195 0 0 
195 0 0 
196 0 0 
198 0 0 
195 0 0 
197 0 0 
195 0 0 
196 0 0 
194 0 0 
197 0 0 
195 0 0 
198 0 0 
195 0 0 
196 0 0 
196 0 0 
197 0 0 
191 0 0 
194 0 0 
195 0 0 
196 0 0 
190 0 0 
198 0 0 
195 0 0 
195 0 0 
196 0 0 
193 0 0 
196 0 0 
196 0 0 
198 0 0 
196 0 0 
196 0 0 
195 0 0 
194 0 0 
196 0 0 
198 0 0 
0 0 207 
0 0 227 
0 0 217 
0 0 215 
0 0 224 
0 0 220 
0 0 224 
0 0 224 
0 0 217 
0 0 218 
0 0 220 
0 0 230 
0 0 220 
0 0 215 
0 0 209 
0 0 220 
0 0 226 
0 0 236 
0 0 224 
0 0 221 
0 0 214 
0 0 221 
0 0 224 
0 0 224 
0 0 220 
0 0 226 
0 0 223 
0 0 218 
0 0 237 
0 0 227 
0 0 218 
0 0 231 
0 0 224 
0 0 221 
0 0 220 
0 0 223 
0 0 224 
0 0 234 
0 0 221 
0 0 224 
0 0 223 
0 0 230 
0 0 230 
0 0 224 
0 0 226 
0 0 215 
0 0 214 
0 0 220 
0 0 212 
0 0 224 
0 0 217 
0 0 221 
0 0 228 
0 0 218 
0 0 218 
0 0 224 
0 0 223 
0 0 209 
0 0 218 
0 0 221 
0 0 224 
0 0 223 
0 0 220 
0 0 226 
0 0 224 
0 0 227 
0 0 228 
0 0 223 
0 0 223 
0 0 228 
0 0 238 
0 0 214 
0 0 221 
0 0 228 
0 0 226 
0 0 226 
0 0 223 
0 0 223 
0 0 218 
0 0 236 
0 0 220 
0 0 228 
0 0 224 
0 0 221 
0 0 234 
0 0 236 
0 0 230 
0 0 233 
0 0 228 
0 0 236 
0 0 226 
0 0 220 
0 0 234 
0 0 231 
0 0 226 
0 0 224 
0 0 228 
0 0 224 
0 0 228 
0 0 227 
0 0 231 
0 0 231 
0 0 240 
0 0 237 
0 0 228 
0 0 224 
0 0 231 
0 0 226 
0 0 230 
0 0 214 
0 0 218 
0 0 226 
0 0 224 
0 0 215 
0 0 231 
0 0 233 
0 0 226 
0 0 227 
0 0 226 
0 0 233 
0 0 224 
0 0 226 
0 0 224 
0 0 230 
0 0 223 
0 0 223 
0 0 228 
0 0 227 
0 0 227 
0 0 230 
0 0 231 
0 0 231 
0 0 234 
0 0 230 
0 0 230 
0 0 233 
0 0 234 
0 0 223 
0 0 242 
0 0 226 
0 0 238 
0 0 226 
0 0 237 
0 0 240 
0 0 233 
0 0 233 
0 0 234 
0 0 237 
0 0 227 
0 0 234 
40 44 238 
156 175 253 
200 224 255 
200 224 255 
200 224 255 
200 224 255 
200 224 255 
200 224 255 
199 224 255 
199 224 255 
199 224 255 
199 223 255 
199 223 255 
199 223 255 
199 223 255 
199 223 255 
199 223 255 
199 223 255 
199 223 255 
199 223 255 
199 223 255 
199 223 255 
199 223 255 
199 223 255 
199 223 255 
199 223 255 
199 223 255 
199 223 255 
199 223 255 
199 223 255 
199 223 255 
199 223 255 
199 223 255 
199 223 255 
199 223 255 
199 223 255 
199 223 255 
199 223 255 
199 223 255 
199 223 255 
198 223 255 
198 223 255 
198 223 255 
198 223 255 
198 223 255 
198 223 255 
198 223 255 
198 223 255 
198 223 255 
198 223 255 
198 223 255 
198 223 255 
198 223 255 
198 223 255 
198 223 255 
198 223 255 
198 223 255 
198 223 255 
198 223 255 
199 223 255 
199 223 255 
199 223 255 
199 223 255 
199 223 255 
199 223 255 
199 223 255 
199 223 255 
199 223 255 
199 223 255 
199 223 255 
199 223 255 
199 223 255 
199 223 255 
199 223 255 
199 223 255 
199 223 255 
199 223 255 
199 223 255 
199 223 255 
199 223 255 
199 223 255 
199 223 255 
199 223 255 
199 223 255 
199 223 255 
199 223 255 
199 223 255 
199 223 255 
199 223 255 
199 224 255 
199 224 255 
199 224 255 
199 224 255 
200 224 255 
200 224 255 
200 224 255 
200 224 255 
200 224 255 
195 167 191 
189 50 57 
196 0 0 
189 0 0 
186 0 0 
189 0 0 
190 0 0 
190 0 0 
190 0 0 
183 0 0 
191 0 0 
190 0 0 
189 0 0 
195 0 0 
193 0 0 
196 0 0 
190 0 0 
186 0 0 
189 0 0 
188 0 0 
190 0 0 
188 0 0 
197 0 0 
191 0 0 
191 0 0 
190 0 0 
190 0 0 
190 0 0 
194 0 0 
191 0 0 
189 0 0 
197 0 0 
192 0 0 
194 0 0 
193 0 0 
197 0 0 
190 0 0 
194 0 0 
190 0 0 
191 0 0 
193 0 0 
190 0 0 
193 0 0 
190 0 0 
198 0 0 
190 0 0 
190 0 0 
195 0 0 
198 0 0 
196 0 0 
196 0 0 
194 0 0 
192 0 0 
195 0 0 
198 0 0 
192 0 0 
196 0 0 
197 0 0 
198 0 0 
199 0 0 
192 0 0 
197 0 0 
196 0 0 
194 0 0 
193 0 0 
191 0 0 
196 0 0 
193 0 0 
194 0 0 
191 0 0 
197 0 0 
192 0 0 
196 0 0 
198 0 0 
198 0 0 
195 0 0 
197 0 0 
197 0 0 
195 0 0 
195 0 0 
191 0 0 
196 0 0 
195 0 0 
191 0 0 
196 0 0 
193 0 0 
198 0 0 
196 0 0 
195 0 0 
197 0 0 
200 0 0 
193 0 0 
195 0 0 
199 0 0 
195 0 0 
193 0 0 
191 0 0 
193 0 0 
196 0 0 
197 0 0 
196 0 0 
196 0 0 
193 0 0 
198 0 0 
193 0 0 
200 0 0 
198 0 0 
198 0 0 
197 0 0 
195 0 0 
194 0 0 
197 0 0 
198 0 0 
198 0 0 
197 0 0 
200 0 0 
196 0 0 
194 0 0 
197 0 0 
198 0 0 
196 0 0 
194 0 0 
195 0 0 
197 0 0 
196 0 0 
196 0 0 
198 0 0 
195 0 0 
193 0 0 
195 0 0 
195 0 0 
194 0 0 
194 0 0 
199 0 0 
198 0 0 
195 0 0 
198 0 0 
195 0 0 
195 0 0 
193 0 0 
196 0 0 
198 0 0 
199 0 0 
196 0 0 
199 0 0 
197 0 0 
195 0 0 
194 0 0 
197 0 0 
200 0 0 
196 0 0 
196 0 0 
0 0 226 
0 0 217 
0 0 231 
0 0 227 
0 0 224 
0 0 218 
0 0 224 
0 0 228 
0 0 218 
0 0 217 
0 0 220 
0 0 209 
0 0 227 
0 0 220 
0 0 224 
0 0 206 
0 0 220 
0 0 236 
0 0 220 
0 0 221 
0 0 217 
0 0 211 
0 0 224 
0 0 234 
0 0 226 
0 0 215 
0 0 226 
0 0 220 
0 0 227 
0 0 223 
0 0 217 
0 0 224 
0 0 227 
0 0 230 
0 0 218 
0 0 221 
0 0 212 
0 0 227 
0 0 220 
0 0 223 
0 0 230 
0 0 223 
0 0 226 
0 0 220 
0 0 223 
0 0 223 
0 0 228 
0 0 223 
0 0 230 
0 0 214 
0 0 221 
0 0 230 
0 0 220 
0 0 224 
0 0 238 
0 0 215 
0 0 217 
0 0 220 
0 0 215 
0 0 223 
0 0 215 
0 0 220 
0 0 207 
0 0 226 
0 0 233 
0 0 223 
0 0 220 
0 0 220 
0 0 228 
0 0 221 
0 0 209 
0 0 221 
0 0 223 
0 0 218 
0 0 233 
0 0 223 
0 0 207 
0 0 220 
0 0 226 
0 0 223 
0 0 224 
0 0 227 
0 0 218 
0 0 223 
0 0 228 
0 0 236 
0 0 230 
0 0 227 
0 0 223 
0 0 218 
0 0 221 
0 0 230 
0 0 230 
0 0 215 
0 0 223 
0 0 227 
0 0 218 
0 0 230 
0 0 220 
0 0 217 
0 0 230 
0 0 224 
0 0 211 
0 0 215 
0 0 220 
0 0 224 
0 0 230 
0 0 223 
0 0 227 
0 0 227 
0 0 228 
0 0 228 
0 0 233 
0 0 228 
0 0 226 
0 0 227 
0 0 228 
0 0 234 
0 0 215 
0 0 234 
0 0 233 
0 0 226 
0 0 218 
0 0 234 
0 0 228 
0 0 237 
0 0 217 
0 0 242 
0 0 224 
0 0 244 
0 0 230 
0 0 245 
0 0 236 
0 0 233 
0 0 228 
0 0 233 
0 0 220 
0 0 233 
0 0 230 
0 0 220 
0 0 236 
0 0 241 
0 0 238 
0 0 241 
0 0 236 
0 0 228 
0 0 227 
0 0 244 
0 0 240 
0 0 237 
0 0 242 
0 0 242 
120 134 246 
191 213 255 
200 224 255 
200 224 255 
200 224 255 
200 224 255 
200 224 255 
200 224 255 
200 224 255 
200 224 255 
199 224 255 
199 224 255 
199 224 255 
199 224 255 
199 223 255 
199 223 255 
199 223 255 
199 223 255 
199 223 255 
199 223 255 
199 223 255 
199 223 255 
199 223 255 
199 223 255 
199 223 255 
199 223 255 
199 223 255 
199 223 255 
199 223 255 
199 223 255 
199 223 255 
199 223 255 
199 223 255 
199 223 255 
199 223 255 
199 223 255 
199 223 255 
199 223 255 
199 223 255 
199 223 255 
199 223 255 
199 223 255 
199 223 255 
199 223 255 
199 223 255 
199 223 255 
199 223 255 
199 223 255 
199 223 255 
199 223 255 
199 223 255 
199 223 255 
199 223 255 
199 223 255 
199 223 255 
199 223 255 
199 223 255 
199 223 255 
199 223 255 
199 223 255 
199 223 255 
199 223 255 
199 223 255 
199 223 255 
199 223 255 
199 223 255 
199 223 255 
199 223 255 
199 223 255 
199 223 255 
199 223 255 
199 223 255 
199 223 255 
199 223 255 
199 223 255 
199 223 255 
199 223 255 
199 223 255 
199 223 255 
199 223 255 
199 223 255 
199 223 255 
199 224 255 
199 224 255 
199 224 255 
199 224 255 
200 224 255 
200 224 255 
200 224 255 
200 224 255 
200 224 255 
200 224 255 
200 224 255 
200 224 255 
200 218 249 
195 130 149 
194 0 0 
191 0 0 
190 0 0 
195 0 0 
195 0 0 
191 0 0 
190 0 0 
189 0 0 
188 0 0 
192 0 0 
192 0 0 
192 0 0 
183 0 0 
190 0 0 
189 0 0 
190 0 0 
189 0 0 
191 0 0 
194 0 0 
190 0 0 
193 0 0 
186 0 0 
193 0 0 
191 0 0 
187 0 0 
189 0 0 
194 0 0 
195 0 0 
187 0 0 
192 0 0 
189 0 0 
196 0 0 
191 0 0 
188 0 0 
192 0 0 
193 0 0 
186 0 0 
196 0 0 
195 0 0 
192 0 0 
193 0 0 
194 0 0 
194 0 0 
192 0 0 
192 0 0 
191 0 0 
196 0 0 
194 0 0 
196 0 0 
193 0 0 
198 0 0 
196 0 0 
194 0 0 
200 0 0 
191 0 0 
193 0 0 
196 0 0 
196 0 0 
196 0 0 
189 0 0 
195 0 0 
195 0 0 
196 0 0 
191 0 0 
190 0 0 
194 0 0 
195 0 0 
197 0 0 
196 0 0 
194 0 0 
195 0 0 
197 0 0 
194 0 0 
194 0 0 
193 0 0 
193 0 0 
191 0 0 
193 0 0 
196 0 0 
193 0 0 
193 0 0 
194 0 0 
193 0 0 
191 0 0 
197 0 0 
195 0 0 
193 0 0 
194 0 0 
196 0 0 
197 0 0 
196 0 0 
195 0 0 
195 0 0 
197 0 0 
200 0 0 
192 0 0 
197 0 0 
197 0 0 
196 0 0 
200 0 0 
194 0 0 
199 0 0 
195 0 0 
193 0 0 
194 0 0 
198 0 0 
194 0 0 
198 0 0 
196 0 0 
196 0 0 
198 0 0 
194 0 0 
198 0 0 
197 0 0 
200 0 0 
195 0 0 
195 0 0 
199 0 0 
195 0 0 
196 0 0 
196 0 0 
196 0 0 
195 0 0 
198 0 0 
193 0 0 
195 0 0 
199 0 0 
199 0 0 
197 0 0 
197 0 0 
198 0 0 
197 0 0 
196 0 0 
197 0 0 
193 0 0 
194 0 0 
193 0 0 
196 0 0 
196 0 0 
195 0 0 
198 0 0 
195 0 0 
198 0 0 
196 0 0 
198 0 0 
196 0 0 
198 0 0 
195 0 0 
196 0 0 
197 0 0 
194 0 0 
196 0 0 
0 0 224 
0 0 231 
0 0 218 
0 0 226 
0 0 223 
0 0 217 
0 0 214 
0 0 224 
0 0 218 
0 0 215 
0 0 218 
0 0 215 
0 0 214 
0 0 221 
0 0 211 
0 0 211 
0 0 209 
0 0 212 
0 0 224 
0 0 224 
0 0 215 
0 0 215 
0 0 217 
0 0 227 
0 0 233 
0 0 226 
0 0 218 
0 0 207 
0 0 233 
0 0 220 
0 0 223 
0 0 217 
0 0 221 
0 0 215 
0 0 217 
0 0 221 
0 0 209 
0 0 227 
0 0 233 
0 0 221 
0 0 217 
0 0 218 
0 0 224 
0 0 227 
0 0 221 
0 0 230 
0 0 211 
0 0 223 
0 0 228 
0 0 218 
0 0 221 
0 0 228 
0 0 220 
0 0 227 
0 0 212 
0 0 220 
0 0 227 
0 0 234 
0 0 214 
0 0 233 
0 0 228 
0 0 221 
0 0 212 
0 0 215 
0 0 203 
0 0 217 
0 0 226 
0 0 223 
0 0 218 
0 0 223 
0 0 231 
0 0 214 
0 0 231 
0 0 218 
0 0 220 
0 0 217 
0 0 221 
0 0 223 
0 0 218 
0 0 217 
0 0 224 
0 0 231 
0 0 220 
0 0 221 
0 0 231 
0 0 228 
0 0 241 
0 0 237 
0 0 217 
0 0 221 
0 0 228 
0 0 228 
0 0 218 
0 0 221 
0 0 230 
0 0 218 
0 0 233 
0 0 227 
0 0 224 
0 0 234 
0 0 228 
0 0 220 
0 0 226 
0 0 224 
0 0 220 
0 0 215 
0 0 224 
0 0 220 
0 0 226 
0 0 218 
0 0 233 
0 0 218 
0 0 212 
0 0 230 
0 0 228 
0 0 233 
0 0 241 
0 0 228 
0 0 241 
0 0 234 
0 0 212 
0 0 226 
0 0 230 
0 0 226 
0 0 230 
0 0 223 
0 0 224 
0 0 226 
0 0 218 
0 0 227 
0 0 231 
0 0 242 
0 0 227 
0 0 234 
0 0 231 
0 0 242 
0 0 230 
0 0 231 
0 0 231 
0 0 230 
0 0 240 
0 0 234 
0 0 218 
0 0 241 
0 0 230 
0 0 231 
0 0 230 
0 0 230 
0 0 233 
0 0 227 
0 0 234 
0 0 237 
0 0 236 
82 92 231 
165 185 255 
200 224 255 
200 224 255 
200 224 255 
200 224 255 
200 224 255 
200 224 255 
200 224 255 
200 224 255 
200 224 255 
200 224 255 
200 224 255 
200 224 255 
199 224 255 
199 224 255 
199 224 255 
199 224 255 
199 223 255 
199 223 255 
199 223 255 
199 223 255 
199 223 255 
199 223 255 
199 223 255 
199 223 255 
199 223 255 
199 223 255 
199 223 255 
199 223 255 
199 223 255 
199 223 255 
199 223 255 
199 223 255 
199 223 255 
199 223 255 
199 223 255 
199 223 255 
199 223 255 
199 223 255 
199 223 255 
199 223 255 
199 223 255 
199 223 255 
199 223 255 
199 223 255 
199 223 255 
199 223 255 
199 223 255 
199 223 255 
199 223 255 
199 223 255 
199 223 255 
199 223 255 
199 223 255 
199 223 255 
199 223 255 
199 223 255 
199 223 255 
199 223 255 
199 223 255 
199 223 255 
199 223 255 
199 223 255 
199 223 255 
199 223 255 
199 223 255 
199 223 255 
199 223 255 
199 223 255 
199 223 255 
199 223 255 
199 223 255 
199 223 255 
199 223 255 
199 223 255 
199 224 255 
199 224 255 
199 224 255 
199 224 255 
200 224 255 
200 224 255 
200 224 255 
200 224 255 
200 224 255 
200 224 255 
200 224 255 
200 224 255 
200 224 255 
200 224 255 
200 224 255 
200 224 255 
198 195 223 
191 89 102 
191 0 0 
187 0 0 
190 0 0 
194 0 0 
186 0 0 
190 0 0 
186 0 0 
190 0 0 
189 0 0 
191 0 0 
191 0 0 
191 0 0 
191 0 0 
193 0 0 
197 0 0 
197 0 0 
192 0 0 
186 0 0 
192 0 0 
197 0 0 
188 0 0 
191 0 0 
190 0 0 
197 0 0 
191 0 0 
194 0 0 
192 0 0 
189 0 0 
193 0 0 
191 0 0 
191 0 0 
189 0 0 
191 0 0 
196 0 0 
194 0 0 
191 0 0 
190 0 0 
191 0 0 
196 0 0 
189 0 0 
198 0 0 
198 0 0 
197 0 0 
193 0 0 
194 0 0 
195 0 0 
198 0 0 
188 0 0 
195 0 0 
190 0 0 
194 0 0 
188 0 0 
192 0 0 
193 0 0 
195 0 0 
193 0 0 
193 0 0 
195 0 0 
197 0 0 
195 0 0 
190 0 0 
193 0 0 
192 0 0 
195 0 0 
196 0 0 
197 0 0 
192 0 0 
191 0 0 
193 0 0 
191 0 0 
196 0 0 
195 0 0 
199 0 0 
196 0 0 
195 0 0 
191 0 0 
195 0 0 
198 0 0 
198 0 0 
196 0 0 
195 0 0 
195 0 0 
192 0 0 
195 0 0 
196 0 0 
192 0 0 
195 0 0 
197 0 0 
198 0 0 
196 0 0 
196 0 0 
196 0 0 
196 0 0 
193 0 0 
197 0 0 
197 0 0 
193 0 0 
196 0 0 
196 0 0 
197 0 0 
194 0 0 
189 0 0 
197 0 0 
196 0 0 
194 0 0 
198 0 0 
196 0 0 
195 0 0 
194 0 0 
194 0 0 
196 0 0 
192 0 0 
195 0 0 
196 0 0 
196 0 0 
195 0 0 
195 0 0 
197 0 0 
195 0 0 
198 0 0 
194 0 0 
196 0 0 
194 0 0 
194 0 0 
196 0 0 
191 0 0 
197 0 0 
192 0 0 
197 0 0 
195 0 0 
196 0 0 
192 0 0 
195 0 0 
200 0 0 
195 0 0 
193 0 0 
195 0 0 
194 0 0 
196 0 0 
196 0 0 
195 0 0 
192 0 0 
195 0 0 
192 0 0 
191 0 0 
196 0 0 
196 0 0 
195 0 0 
197 0 0 
197 0 0 
197 0 0 
194 0 0 
195 0 0 
0 0 221 
0 0 226 
0 0 224 
0 0 218 
0 0 217 
0 0 224 
0 0 223 
0 0 217 
0 0 209 
0 0 218 
0 0 215 
0 0 227 
0 0 217 
0 0 223 
0 0 226 
0 0 212 
0 0 211 
0 0 207 
0 0 227 
0 0 220 
0 0 214 
0 0 227 
0 0 226 
0 0 220 
0 0 226 
0 0 218 
0 0 223 
0 0 228 
0 0 226 
0 0 220 
0 0 215 
0 0 223 
0 0 231 
0 0 224 
0 0 231 
0 0 201 
0 0 215 
0 0 218 
0 0 220 
0 0 231 
0 0 218 
0 0 223 
0 0 226 
0 0 226 
0 0 207 
0 0 220 
0 0 214 
0 0 230 
0 0 223 
0 0 217 
0 0 218 
0 0 236 
0 0 220 
0 0 215 
0 0 220 
0 0 234 
0 0 221 
0 0 218 
0 0 212 
0 0 207 
0 0 234 
0 0 230 
0 0 211 
0 0 218 
0 0 224 
0 0 214 
0 0 221 
0 0 214 
0 0 230 
0 0 214 
0 0 231 
0 0 221 
0 0 220 
0 0 220 
0 0 220 
0 0 230 
0 0 218 
0 0 217 
0 0 227 
0 0 224 
0 0 217 
0 0 223 
0 0 215 
0 0 228 
0 0 223 
0 0 215 
0 0 226 
0 0 227 
0 0 224 
0 0 227 
0 0 228 
0 0 215 
0 0 223 
0 0 230 
0 0 226 
0 0 224 
0 0 230 
0 0 237 
0 0 220 
0 0 230 
0 0 224 
0 0 223 
0 0 220 
0 0 224 
0 0 220 
0 0 223 
0 0 233 
0 0 233 
0 0 224 
0 0 223 
0 0 218 
0 0 221 
0 0 220 
0 0 236 
0 0 217 
0 0 227 
0 0 230 
0 0 218 
0 0 209 
0 0 226 
0 0 226 
0 0 221 
0 0 223 
0 0 227 
0 0 231 
0 0 233 
0 0 227 
0 0 228 
0 0 233 
0 0 230 
0 0 228 
0 0 226 
0 0 226 
0 0 221 
0 0 237 
0 0 221 
0 0 224 
0 0 230 
0 0 228 
0 0 234 
0 0 226 
0 0 217 
0 0 234 
0 0 230 
0 0 223 
0 0 233 
0 0 233 
0 0 233 
0 0 226 
0 0 224 
0 0 234 
0 0 246 
0 0 238 
0 0 238 
0 0 248 
143 160 245 
198 222 255 
200 224 255 
200 224 255 
200 224 255 
200 224 255 
200 224 255 
200 224 255 
200 224 255 
200 224 255 
200 224 255 
200 224 255 
200 224 255 
200 224 255 
200 224 255 
200 224 255 
200 224 255 
199 224 255 
199 224 255 
199 224 255 
199 224 255 
199 224 255 
199 224 255 
199 223 255 
199 223 255 
199 223 255 
199 223 255 
199 223 255 
199 223 255 
199 223 255 
199 223 255 
199 223 255 
199 223 255 
199 223 255 
199 223 255 
199 223 255 
199 223 255 
199 223 255 
199 223 255 
199 223 255 
199 223 255 
199 223 255 
199 223 255 
199 223 255 
199 223 255 
199 223 255 
199 223 255 
199 223 255 
199 223 255 
199 223 255 
199 223 255 
199 223 255 
199 223 255 
199 223 255 
199 223 255 
199 223 255 
199 223 255 
199 223 255 
199 223 255 
199 223 255 
199 223 255 
199 223 255 
199 223 255 
199 223 255 
199 223 255 
199 223 255 
199 223 255 
199 224 255 
199 224 255 
199 224 255 
199 224 255 
199 224 255 
199 224 255 
200 224 255 
200 224 255 
200 224 255 
200 224 255 
200 224 255 
200 224 255 
200 224 255 
200 224 255 
200 224 255 
200 224 255 
200 224 255 
200 224 255 
200 224 255 
200 224 255 
200 224 255 
200 222 253 
196 161 184 
187 0 0 
182 0 0 
191 0 0 
189 0 0 
190 0 0 
188 0 0 
191 0 0 
189 0 0 
191 0 0 
192 0 0 
196 0 0 
190 0 0 
192 0 0 
183 0 0 
183 0 0 
190 0 0 
193 0 0 
191 0 0 
193 0 0 
190 0 0 
191 0 0 
190 0 0 
188 0 0 
195 0 0 
193 0 0 
193 0 0 
191 0 0 
192 0 0 
185 0 0 
194 0 0 
188 0 0 
192 0 0 
189 0 0 
193 0 0 
193 0 0 
196 0 0 
186 0 0 
193 0 0 
190 0 0 
195 0 0 
193 0 0 
191 0 0 
196 0 0 
192 0 0 
187 0 0 
192 0 0 
192 0 0 
194 0 0 
196 0 0 
194 0 0 
191 0 0 
195 0 0 
193 0 0 
190 0 0 
194 0 0 
191 0 0 
194 0 0 
193 0 0 
196 0 0 
192 0 0 
196 0 0 
195 0 0 
193 0 0 
194 0 0 
190 0 0 
194 0 0 
193 0 0 
196 0 0 
195 0 0 
192 0 0 
191 0 0 
193 0 0 
194 0 0 
196 0 0 
194 0 0 
197 0 0 
195 0 0 
195 0 0 
199 0 0 
192 0 0 
193 0 0 
196 0 0 
189 0 0 
193 0 0 
198 0 0 
192 0 0 
197 0 0 
193 0 0 
193 0 0 
195 0 0 
195 0 0 
190 0 0 
197 0 0 
198 0 0 
194 0 0 
199 0 0 
197 0 0 
197 0 0 
195 0 0 
197 0 0 
195 0 0 
192 0 0 
196 0 0 
195 0 0 
195 0 0 
196 0 0 
195 0 0 
195 0 0 
196 0 0 
197 0 0 
197 0 0 
191 0 0 
199 0 0 
196 0 0 
196 0 0 
196 0 0 
195 0 0 
194 0 0 
196 0 0 
194 0 0 
195 0 0 
195 0 0 
197 0 0 
192 0 0 
193 0 0 
195 0 0 
195 0 0 
194 0 0 
190 0 0 
193 0 0 
197 0 0 
198 0 0 
193 0 0 
196 0 0 
198 0 0 
194 0 0 
197 0 0 
198 0 0 
196 0 0 
198 0 0 
195 0 0 
197 0 0 
195 0 0 
196 0 0 
197 0 0 
194 0 0 
198 0 0 
194 0 0 
191 0 0 
196 0 0 
200 0 0 
201 0 0 
197 0 0 
196 0 0 
197 0 0 
0 0 224 
0 0 223 
0 0 218 
0 0 217 
0 0 224 
0 0 218 
0 0 228 
0 0 224 
0 0 230 
0 0 214 
0 0 217 
0 0 214 
0 0 220 
0 0 223 
0 0 220 
0 0 221 
0 0 218 
0 0 218 
0 0 228 
0 0 215 
0 0 226 
0 0 212 
0 0 214 
0 0 223 
0 0 220 
0 0 230 
0 0 221 
0 0 224 
0 0 215 
0 0 214 
0 0 218 
0 0 215 
0 0 226 
0 0 226 
0 0 226 
0 0 223 
0 0 223 
0 0 214 
0 0 218 
0 0 221 
0 0 221 
0 0 215 
0 0 221 
0 0 223 
0 0 221 
0 0 218 
0 0 214 
0 0 220 
0 0 212 
0 0 227 
0 0 228 
0 0 220 
0 0 206 
0 0 226 
0 0 223 
0 0 221 
0 0 217 
0 0 221 
0 0 218 
0 0 220 
0 0 228 
0 0 234 
0 0 209 
0 0 224 
0 0 226 
0 0 207 
0 0 223 
0 0 217 
0 0 220 
0 0 218 
0 0 223 
0 0 236 
0 0 221 
0 0 227 
0 0 230 
0 0 228 
0 0 227 
0 0 231 
0 0 211 
0 0 227 
0 0 224 
0 0 217 
0 0 227 
0 0 223 
0 0 223 
0 0 226 
0 0 221 
0 0 218 
0 0 223 
0 0 220 
0 0 227 
0 0 207 
0 0 223 
0 0 215 
0 0 221 
0 0 218 
0 0 227 
0 0 231 
0 0 217 
0 0 221 
0 0 223 
0 0 233 
0 0 217 
0 0 227 
0 0 231 
0 0 221 
0 0 227 
0 0 223 
0 0 221 
0 0 230 
0 0 228 
0 0 221 
0 0 227 
0 0 234 
0 0 209 
0 0 224 
0 0 214 
0 0 226 
0 0 214 
0 0 221 
0 0 223 
0 0 224 
0 0 227 
0 0 237 
0 0 234 
0 0 231 
0 0 226 
0 0 231 
0 0 218 
0 0 231 
0 0 226 
0 0 227 
0 0 223 
0 0 228 
0 0 226 
0 0 228 
0 0 228 
0 0 227 
0 0 223 
0 0 224 
0 0 234 
0 0 237 
0 0 217 
0 0 224 
0 0 220 
0 0 231 
0 0 230 
0 0 234 
0 0 231 
0 0 224 
0 0 227 
0 0 229 
0 0 239 
0 0 228 
0 0 231 
0 0 235 
104 116 245 
181 203 255 
200 224 255 
200 224 255 
200 224 255 
200 224 255 
200 224 255 
200 224 255 
200 224 255 
200 224 255 
200 224 255 
200 224 255 
200 224 255 
200 224 255 
200 224 255 
200 224 255 
200 224 255 
200 224 255 
200 224 255 
200 224 255 
200 224 255 
200 224 255 
200 224 255 
200 224 255 
199 224 255 
199 224 255 
199 224 255 
199 224 255 
199 224 255 
199 224 255 
199 224 255 
199 224 255 
199 223 255 
199 223 255 
199 223 255 
199 223 255 
199 223 255 
199 223 255 
199 223 255 
199 223 255 
199 223 255 
199 223 255 
199 223 255 
199 223 255 
199 223 255 
199 223 255 
199 223 255 
199 223 255 
199 223 255 
199 223 255 
199 223 255 
199 223 255 
199 223 255 
199 223 255 
199 223 255 
199 223 255 
199 223 255 
199 224 255 
199 224 255 
199 224 255 
199 224 255 
199 224 255 
199 224 255 
199 224 255 
200 224 255 
200 224 255 
200 224 255 
200 224 255 
200 224 255 
200 224 255 
200 224 255 
200 224 255 
200 224 255 
200 224 255 
200 224 255 
200 224 255 
200 224 255 
200 224 255 
200 224 255 
200 224 255 
200 224 255 
200 224 255 
200 224 255 
200 224 255 
200 224 255 
200 224 255 
199 214 244 
181 100 114 
185 0 0 
188 0 0 
183 0 0 
193 0 0 
183 0 0 
184 0 0 
187 0 0 
186 0 0 
190 0 0 
190 0 0 
191 0 0 
187 0 0 
188 0 0 
190 0 0 
190 0 0 
193 0 0 
190 0 0 
191 0 0 
196 0 0 
193 0 0 
189 0 0 
191 0 0 
189 0 0 
188 0 0 
195 0 0 
192 0 0 
191 0 0 
196 0 0 
186 0 0 
196 0 0 
192 0 0 
191 0 0 
198 0 0 
191 0 0 
194 0 0 
193 0 0 
195 0 0 
192 0 0 
193 0 0 
192 0 0 
190 0 0 
193 0 0 
193 0 0 
191 0 0 
194 0 0 
186 0 0 
194 0 0 
191 0 0 
191 0 0 
190 0 0 
195 0 0 
190 0 0 
195 0 0 
189 0 0 
188 0 0 
198 0 0 
197 0 0 
192 0 0 
194 0 0 
194 0 0 
192 0 0 
195 0 0 
194 0 0 
194 0 0 
191 0 0 
196 0 0 
194 0 0 
191 0 0 
197 0 0 
191 0 0 
193 0 0 
193 0 0 
193 0 0 
194 0 0 
195 0 0 
190 0 0 
193 0 0 
196 0 0 
195 0 0 
194 0 0 
196 0 0 
194 0 0 
194 0 0 
195 0 0 
197 0 0 
194 0 0 
194 0 0 
188 0 0 
196 0 0 
194 0 0 
194 0 0 
193 0 0 
195 0 0 
194 0 0 
195 0 0 
195 0 0 
197 0 0 
196 0 0 
194 0 0 
194 0 0 
193 0 0 
193 0 0 
195 0 0 
196 0 0 
192 0 0 
198 0 0 
197 0 0 
194 0 0 
192 0 0 
198 0 0 
198 0 0 
194 0 0 
192 0 0 
197 0 0 
193 0 0 
191 0 0 
194 0 0 
198 0 0 
199 0 0 
193 0 0 
193 0 0 
197 0 0 
200 0 0 
192 0 0 
192 0 0 
196 0 0 
195 0 0 
195 0 0 
195 0 0 
196 0 0 
197 0 0 
195 0 0 
197 0 0 
197 0 0 
198 0 0 
197 0 0 
196 0 0 
197 0 0 
196 0 0 
199 0 0 
191 0 0 
197 0 0 
200 0 0 
197 0 0 
198 0 0 
195 0 0 
198 0 0 
195 0 0 
196 0 0 
194 0 0 
194 0 0 
197 0 0 
197 0 0 
193 0 0 
195 0 0 
192 0 0 
0 0 223 
0 0 207 
0 0 227 
0 0 203 
0 0 206 
0 0 230 
0 0 218 
0 0 211 
0 0 212 
0 0 217 
0 0 212 
0 0 221 
0 0 231 
0 0 212 
0 0 211 
0 0 217 
0 0 198 
0 0 220 
0 0 226 
0 0 209 
0 0 214 
0 0 214 
0 0 215 
0 0 223 
0 0 211 
0 0 223 
0 0 224 
0 0 237 
0 0 214 
0 0 221 
0 0 209 
0 0 215 
0 0 224 
0 0 226 
0 0 214 
0 0 224 
0 0 218 
0 0 218 
0 0 220 
0 0 218 
0 0 224 
0 0 206 
0 0 230 
0 0 215 
0 0 221 
0 0 215 
0 0 223 
0 0 218 
0 0 220 
0 0 226 
0 0 227 
0 0 228 
0 0 203 
0 0 224 
0 0 215 
0 0 223 
0 0 221 
0 0 223 
0 0 212 
0 0 226 
0 0 214 
0 0 218 
0 0 212 
0 0 220 
0 0 231 
0 0 217 
0 0 226 
0 0 218 
0 0 220 
0 0 211 
0 0 214 
0 0 218 
0 0 226 
0 0 228 
0 0 226 
0 0 228 
0 0 221 
0 0 226 
0 0 230 
0 0 212 
0 0 228 
0 0 220 
0 0 226 
0 0 221 
0 0 221 
0 0 227 
0 0 230 
0 0 227 
0 0 221 
0 0 220 
0 0 215 
0 0 230 
0 0 223 
0 0 226 
0 0 228 
0 0 215 
0 0 220 
0 0 214 
0 0 237 
0 0 224 
0 0 227 
0 0 220 
0 0 214 
0 0 223 
0 0 220 
0 0 217 
0 0 218 
0 0 217 
0 0 220 
0 0 230 
0 0 223 
0 0 215 
0 0 223 
0 0 217 
0 0 214 
0 0 217 
0 0 228 
0 0 227 
0 0 234 
0 0 231 
0 0 237 
0 0 226 
0 0 228 
0 0 230 
0 0 223 
0 0 224 
0 0 238 
0 0 230 
0 0 221 
0 0 230 
0 0 224 
0 0 226 
0 0 230 
0 0 214 
0 0 228 
0 0 224 
0 0 221 
0 0 236 
0 0 226 
0 0 226 
0 0 237 
0 0 223 
0 0 237 
0 0 230 
0 0 230 
0 0 234 
0 0 230 
0 0 229 
0 0 237 
0 0 234 
0 0 240 
0 0 231 
0 0 221 
0 0 221 
0 0 233 
0 0 241 
0 0 238 
56 63 234 
176 197 255 
200 224 255 
200 224 255 
200 224 255 
200 224 255 
200 224 255 
200 224 255 
200 224 255 
200 224 255 
200 224 255 
200 224 255 
200 224 255 
200 224 255 
200 224 255 
200 224 255 
200 224 255 
200 224 255 
200 224 255 
200 224 255 
200 224 255 
200 224 255 
200 224 255 
200 224 255 
200 224 255 
200 224 255 
200 224 255 
200 224 255 
200 224 255 
200 224 255 
200 224 255 
200 224 255 
200 224 255 
200 224 255 
199 224 255 
199 224 255 
199 224 255 
199 224 255 
199 224 255 
199 224 255 
199 224 255 
199 224 255 
199 224 255 
199 224 255 
199 224 255 
199 224 255 
199 224 255 
199 224 255 
199 224 255 
199 224 255 
199 224 255 
199 224 255 
200 224 255 
200 224 255 
200 224 255 
200 224 255 
200 224 255 
200 224 255 
200 224 255 
200 224 255 
200 224 255 
200 224 255 
200 224 255 
200 224 255 
200 224 255 
200 224 255 
200 224 255 
200 224 255 
200 224 255 
200 224 255 
200 224 255 
200 224 255 
200 224 255 
200 224 255 
200 224 255 
200 224 255 
200 224 255 
200 224 255 
200 224 255 
200 224 255 
200 224 255 
200 224 255 
200 224 255 
200 224 255 
199 198 226 
189 59 67 
191 0 0 
181 0 0 
190 0 0 
186 0 0 
189 0 0 
187 0 0 
189 0 0 
186 0 0 
188 0 0 
189 0 0 
189 0 0 
191 0 0 
189 0 0 
196 0 0 
196 0 0 
190 0 0 
192 0 0 
187 0 0 
186 0 0 
193 0 0 
193 0 0 
184 0 0 
194 0 0 
194 0 0 
192 0 0 
191 0 0 
188 0 0 
194 0 0 
195 0 0 
191 0 0 
191 0 0 
191 0 0 
191 0 0 
193 0 0 
191 0 0 
192 0 0 
191 0 0 
191 0 0 
193 0 0 
190 0 0 
193 0 0 
193 0 0 
187 0 0 
196 0 0 
192 0 0 
193 0 0 
192 0 0 
192 0 0 
190 0 0 
193 0 0 
196 0 0 
191 0 0 
196 0 0 
194 0 0 
192 0 0 
197 0 0 
193 0 0 
194 0 0 
193 0 0 
193 0 0 
194 0 0 
193 0 0 
191 0 0 
194 0 0 
195 0 0 
194 0 0 
197 0 0 
193 0 0 
189 0 0 
197 0 0 
197 0 0 
196 0 0 
191 0 0 
195 0 0 
191 0 0 
193 0 0 
195 0 0 
193 0 0 
197 0 0 
196 0 0 
192 0 0 
194 0 0 
191 0 0 
196 0 0 
193 0 0 
192 0 0 
195 0 0 
190 0 0 
197 0 0 
191 0 0 
195 0 0 
191 0 0 
195 0 0 
197 0 0 
194 0 0 
195 0 0 
193 0 0 
193 0 0 
193 0 0 
193 0 0 
192 0 0 
192 0 0 
196 0 0 
197 0 0 
195 0 0 
197 0 0 
195 0 0 
196 0 0 
196 0 0 
190 0 0 
199 0 0 
195 0 0 
196 0 0 
193 0 0 
194 0 0 
194 0 0 
197 0 0 
195 0 0 
196 0 0 
196 0 0 
195 0 0 
198 0 0 
196 0 0 
195 0 0 
197 0 0 
194 0 0 
196 0 0 
197 0 0 
196 0 0 
196 0 0 
197 0 0 
195 0 0 
193 0 0 
193 0 0 
196 0 0 
199 0 0 
197 0 0 
194 0 0 
197 0 0 
199 0 0 
196 0 0 
194 0 0 
196 0 0 
197 0 0 
194 0 0 
191 0 0 
197 0 0 
193 0 0 
196 0 0 
197 0 0 
197 0 0 
191 0 0 
196 0 0 
194 0 0 
197 0 0 
197 0 0 
195 0 0 
0 0 221 
0 0 214 
0 0 218 
0 0 221 
0 0 214 
0 0 224 
0 0 218 
0 0 220 
0 0 212 
0 0 217 
0 0 228 
0 0 209 
0 0 218 
0 0 215 
0 0 220 
0 0 215 
0 0 215 
0 0 214 
0 0 221 
0 0 217 
0 0 224 
0 0 223 
0 0 211 
0 0 207 
0 0 217 
0 0 224 
0 0 224 
0 0 226 
0 0 220 
0 0 218 
0 0 215 
0 0 211 
0 0 223 
0 0 228 
0 0 221 
0 0 220 
0 0 220 
0 0 223 
0 0 215 
0 0 212 
0 0 218 
0 0 209 
0 0 220 
0 0 223 
0 0 209 
0 0 214 
0 0 224 
0 0 198 
0 0 231 
0 0 218 
0 0 228 
0 0 204 
0 0 220 
0 0 226 
0 0 224 
0 0 215 
0 0 214 
0 0 227 
0 0 211 
0 0 224 
0 0 231 
0 0 214 
0 0 214 
0 0 223 
0 0 221 
0 0 218 
0 0 214 
0 0 223 
0 0 227 
0 0 221 
0 0 227 
0 0 218 
0 0 227 
0 0 221 
0 0 237 
0 0 230 
0 0 218 
0 0 230 
0 0 228 
0 0 226 
0 0 220 
0 0 236 
0 0 220 
0 0 224 
0 0 221 
0 0 224 
0 0 201 
0 0 220 
0 0 223 
0 0 220 
0 0 223 
0 0 212 
0 0 234 
0 0 228 
0 0 227 
0 0 227 
0 0 221 
0 0 226 
0 0 226 
0 0 230 
0 0 217 
0 0 223 
0 0 211 
0 0 212 
0 0 220 
0 0 221 
0 0 223 
0 0 226 
0 0 215 
0 0 217 
0 0 228 
0 0 226 
0 0 199 
0 0 226 
0 0 230 
0 0 214 
0 0 228 
0 0 227 
0 0 223 
0 0 224 
0 0 227 
0 0 224 
0 0 221 
0 0 228 
0 0 231 
0 0 228 
0 0 230 
0 0 223 
0 0 230 
0 0 231 
0 0 227 
0 0 221 
0 0 221 
0 0 226 
0 0 227 
0 0 227 
0 0 227 
0 0 228 
0 0 231 
0 0 234 
0 0 218 
0 0 228 
0 0 220 
0 0 228 
0 0 220 
0 0 230 
0 0 234 
0 0 224 
0 0 223 
0 0 227 
0 0 228 
0 0 224 
0 0 238 
0 0 226 
0 0 227 
0 0 240 
0 0 236 
0 0 245 
0 0 246 
139 155 246 
201 224 255 
201 224 255 
200 224 255 
200 224 255 
200 224 255 
200 224 255 
200 224 255 
200 224 255 
200 224 255 
200 224 255 
200 224 255 
200 224 255 
200 224 255 
200 224 255 
200 224 255 
200 224 255 
200 224 255 
200 224 255 
200 224 255 
200 224 255 
200 224 255 
200 224 255 
200 224 255 
200 224 255 
200 224 255 
200 224 255 
200 224 255 
200 224 255 
200 224 255 
200 224 255 
200 224 255 
200 224 255 
200 224 255 
200 224 255 
200 224 255 
200 224 255 
200 224 255 
200 224 255 
200 224 255 
200 224 255 
200 224 255 
200 224 255 
200 224 255 
200 224 255 
200 224 255 
200 224 255 
200 224 255 
200 224 255 
200 224 255 
200 224 255 
200 224 255 
200 224 255 
200 224 255 
200 224 255 
200 224 255 
200 224 255 
200 224 255 
200 224 255 
200 224 255 
200 224 255 
200 224 255 
200 224 255 
200 224 255 
200 224 255 
200 224 255 
200 224 255 
200 224 255 
200 224 255 
200 224 255 
200 224 255 
200 224 255 
200 224 255 
200 224 255 
200 224 255 
200 224 255 
200 224 255 
200 224 255 
200 224 255 
201 224 255 
201 224 255 
197 168 191 
192 31 36 
179 0 0 
186 0 0 
188 0 0 
187 0 0 
188 0 0 
188 0 0 
177 0 0 
194 0 0 
184 0 0 
183 0 0 
190 0 0 
183 0 0 
188 0 0 
190 0 0 
189 0 0 
188 0 0 
191 0 0 
185 0 0 
184 0 0 
187 0 0 
188 0 0 
193 0 0 
190 0 0 
191 0 0 
191 0 0 
191 0 0 
194 0 0 
192 0 0 
192 0 0 
188 0 0 
190 0 0 
191 0 0 
189 0 0 
188 0 0 
195 0 0 
194 0 0 
192 0 0 
193 0 0 
191 0 0 
187 0 0 
193 0 0 
189 0 0 
188 0 0 
195 0 0 
195 0 0 
190 0 0 
188 0 0 
197 0 0 
193 0 0 
196 0 0 
190 0 0 
193 0 0 
193 0 0 
189 0 0 
190 0 0 
196 0 0 
193 0 0 
190 0 0 
198 0 0 
194 0 0 
197 0 0 
193 0 0 
196 0 0 
195 0 0 
195 0 0 
192 0 0 
197 0 0 
189 0 0 
190 0 0 
192 0 0 
190 0 0 
192 0 0 
195 0 0 
197 0 0 
194 0 0 
200 0 0 
196 0 0 
194 0 0 
195 0 0 
199 0 0 
191 0 0 
194 0 0 
193 0 0 
196 0 0 
195 0 0 
194 0 0 
197 0 0 
194 0 0 
197 0 0 
194 0 0 
193 0 0 
194 0 0 
196 0 0 
195 0 0 
195 0 0 
192 0 0 
195 0 0 
190 0 0 
193 0 0 
194 0 0 
195 0 0 
190 0 0 
196 0 0 
195 0 0 
196 0 0 
195 0 0 
197 0 0 
195 0 0 
199 0 0 
194 0 0 
194 0 0 
196 0 0 
194 0 0 
197 0 0 
193 0 0 
196 0 0 
192 0 0 
193 0 0 
194 0 0 
197 0 0 
194 0 0 
193 0 0 
193 0 0 
195 0 0 
190 0 0 
198 0 0 
197 0 0 
195 0 0 
194 0 0 
197 0 0 
198 0 0 
192 0 0 
199 0 0 
196 0 0 
197 0 0 
192 0 0 
192 0 0 
193 0 0 
195 0 0 
193 0 0 
197 0 0 
196 0 0 
196 0 0 
194 0 0 
195 0 0 
195 0 0 
200 0 0 
195 0 0 
199 0 0 
193 0 0 
198 0 0 
194 0 0 
196 0 0 
197 0 0 
194 0 0 
198 0 0 
196 0 0 
193 0 0 
0 0 224 
0 0 212 
0 0 214 
0 0 230 
0 0 215 
0 0 218 
0 0 214 
0 0 221 
0 0 224 
0 0 214 
0 0 223 
0 0 218 
0 0 211 
0 0 215 
0 0 224 
0 0 212 
0 0 224 
0 0 211 
0 0 221 
0 0 230 
0 0 220 
0 0 228 
0 0 226 
0 0 221 
0 0 217 
0 0 203 
0 0 215 
0 0 218 
0 0 227 
0 0 217 
0 0 228 
0 0 220 
0 0 224 
0 0 226 
0 0 214 
0 0 217 
0 0 224 
0 0 215 
0 0 209 
0 0 228 
0 0 211 
0 0 224 
0 0 218 
0 0 221 
0 0 226 
0 0 215 
0 0 218 
0 0 224 
0 0 226 
0 0 228 
0 0 212 
0 0 218 
0 0 223 
0 0 214 
0 0 214 
0 0 218 
0 0 233 
0 0 223 
0 0 231 
0 0 223 
0 0 224 
0 0 218 
0 0 211 
0 0 220 
0 0 211 
0 0 224 
0 0 223 
0 0 220 
0 0 223 
0 0 218 
0 0 217 
0 0 217 
0 0 227 
0 0 207 
0 0 212 
0 0 224 
0 0 214 
0 0 221 
0 0 218 
0 0 224 
0 0 226 
0 0 230 
0 0 226 
0 0 226 
0 0 227 
0 0 237 
0 0 215 
0 0 227 
0 0 221 
0 0 223 
0 0 223 
0 0 218 
0 0 228 
0 0 220 
0 0 230 
0 0 231 
0 0 220 
0 0 221 
0 0 226 
0 0 228 
0 0 218 
0 0 212 
0 0 212 
0 0 221 
0 0 215 
0 0 223 
0 0 227 
0 0 223 
0 0 228 
0 0 214 
0 0 220 
0 0 230 
0 0 226 
0 0 220 
0 0 217 
0 0 228 
0 0 220 
0 0 218 
0 0 218 
0 0 224 
0 0 212 
0 0 221 
0 0 231 
0 0 236 
0 0 227 
0 0 227 
0 0 228 
0 0 231 
0 0 218 
0 0 218 
0 0 221 
0 0 227 
0 0 226 
0 0 226 
0 0 215 
0 0 233 
0 0 231 
0 0 218 
0 0 223 
0 0 230 
0 0 226 
0 0 228 
0 0 224 
0 0 226 
0 0 218 
0 0 218 
0 0 224 
0 0 233 
0 0 231 
0 0 224 
0 0 241 
0 0 228 
0 0 226 
0 0 221 
0 0 230 
0 0 227 
0 0 237 
0 0 237 
0 0 233 
0 0 233 
94 105 248 
195 217 254 
201 224 255 
201 224 255 
201 224 255 
201 224 255 
201 224 255 
200 224 255 
200 224 255 
200 224 255 
200 224 255 
200 224 255 
200 224 255 
200 224 255 
200 224 255 
200 224 255 
200 224 255 
200 224 255 
200 224 255 
200 224 255 
200 224 255 
200 224 255 
200 224 255 
200 224 255 
200 224 255 
200 224 255 
200 224 255 
200 224 255 
200 224 255 
200 224 255 
200 224 255 
200 224 255 
200 224 255 
200 224 255 
200 224 255 
200 224 255 
200 224 255 
200 224 255 
200 224 255 
200 224 255 
200 224 255 
200 224 255 
200 224 255 
200 224 255 
200 224 255 
200 224 255 
200 224 255 
200 224 255 
200 224 255 
200 224 255 
200 224 255 
200 224 255 
200 224 255 
200 224 255 
200 224 255 
200 224 255 
200 224 255 
200 224 255 
200 224 255 
200 224 255 
200 224 255 
200 224 255 
200 224 255 
200 224 255 
200 224 255 
200 224 255 
200 224 255 
200 224 255 
200 224 255 
200 224 255 
200 224 255 
200 224 255 
200 224 255 
201 224 255 
201 224 255 
201 224 255 
201 224 255 
201 224 255 
199 217 248 
195 132 151 
183 0 0 
186 0 0 
190 0 0 
190 0 0 
188 0 0 
188 0 0 
188 0 0 
182 0 0 
188 0 0 
189 0 0 
182 0 0 
190 0 0 
188 0 0 
188 0 0 
183 0 0 
190 0 0 
185 0 0 
191 0 0 
194 0 0 
192 0 0 
186 0 0 
184 0 0 
191 0 0 
189 0 0 
189 0 0 
191 0 0 
191 0 0 
186 0 0 
186 0 0 
191 0 0 
190 0 0 
191 0 0 
190 0 0 
194 0 0 
197 0 0 
190 0 0 
192 0 0 
190 0 0 
184 0 0 
188 0 0 
195 0 0 
187 0 0 
191 0 0 
196 0 0 
192 0 0 
193 0 0 
190 0 0 
192 0 0 
193 0 0 
194 0 0 
198 0 0 
194 0 0 
192 0 0 
193 0 0 
193 0 0 
193 0 0 
191 0 0 
195 0 0 
194 0 0 
196 0 0 
192 0 0 
195 0 0 
194 0 0 
194 0 0 
192 0 0 
194 0 0 
193 0 0 
196 0 0 
195 0 0 
195 0 0 
195 0 0 
192 0 0 
194 0 0 
194 0 0 
191 0 0 
193 0 0 
193 0 0 
187 0 0 
194 0 0 
192 0 0 
193 0 0 
195 0 0 
198 0 0 
195 0 0 
193 0 0 
196 0 0 
193 0 0 
197 0 0 
195 0 0 
196 0 0 
196 0 0 
196 0 0 
195 0 0 
191 0 0 
195 0 0 
196 0 0 
196 0 0 
190 0 0 
194 0 0 
195 0 0 
197 0 0 
195 0 0 
196 0 0 
196 0 0 
194 0 0 
196 0 0 
193 0 0 
194 0 0 
192 0 0 
194 0 0 
192 0 0 
195 0 0 
190 0 0 
199 0 0 
193 0 0 
195 0 0 
195 0 0 
193 0 0 
194 0 0 
199 0 0 
199 0 0 
196 0 0 
194 0 0 
195 0 0 
194 0 0 
195 0 0 
194 0 0 
190 0 0 
195 0 0 
194 0 0 
197 0 0 
193 0 0 
197 0 0 
200 0 0 
196 0 0 
196 0 0 
195 0 0 
196 0 0 
195 0 0 
199 0 0 
195 0 0 
195 0 0 
200 0 0 
196 0 0 
194 0 0 
194 0 0 
196 0 0 
196 0 0 
196 0 0 
197 0 0 
196 0 0 
198 0 0 
196 0 0 
197 0 0 
197 0 0 
197 0 0 
197 0 0 
195 0 0 
198 0 0 
196 0 0 
0 0 211 
0 0 228 
0 0 221 
0 0 203 
0 0 206 
0 0 211 
0 0 217 
0 0 201 
0 0 217 
0 0 211 
0 0 215 
0 0 220 
0 0 194 
0 0 218 
0 0 226 
0 0 223 
0 0 214 
0 0 217 
0 0 220 
0 0 212 
0 0 224 
0 0 220 
0 0 226 
0 0 215 
0 0 221 
0 0 211 
0 0 218 
0 0 218 
0 0 220 
0 0 214 
0 0 212 
0 0 215 
0 0 214 
0 0 209 
0 0 221 
0 0 227 
0 0 221 
0 0 212 
0 0 214 
0 0 215 
0 0 215 
0 0 211 
0 0 217 
0 0 226 
0 0 217 
0 0 224 
0 0 226 
0 0 214 
0 0 221 
0 0 236 
0 0 218 
0 0 212 
0 0 217 
0 0 218 
0 0 217 
0 0 226 
0 0 226 
0 0 223 
0 0 221 
0 0 214 
0 0 221 
0 0 226 
0 0 211 
0 0 215 
0 0 227 
0 0 214 
0 0 227 
0 0 214 
0 0 218 
0 0 223 
0 0 207 
0 0 224 
0 0 215 
0 0 214 
0 0 223 
0 0 214 
0 0 215 
0 0 224 
0 0 226 
0 0 206 
0 0 221 
0 0 221 
0 0 227 
0 0 214 
0 0 227 
0 0 223 
0 0 214 
0 0 221 
0 0 215 
0 0 220 
0 0 220 
0 0 218 
0 0 212 
0 0 211 
0 0 226 
0 0 211 
0 0 215 
0 0 220 
0 0 233 
0 0 226 
0 0 224 
0 0 214 
0 0 223 
0 0 217 
0 0 231 
0 0 230 
0 0 218 
0 0 223 
0 0 220 
0 0 212 
0 0 233 
0 0 215 
0 0 221 
0 0 223 
0 0 230 
0 0 226 
0 0 226 
0 0 226 
0 0 217 
0 0 221 
0 0 218 
0 0 226 
0 0 224 
0 0 211 
0 0 224 
0 0 224 
0 0 233 
0 0 220 
0 0 223 
0 0 220 
0 0 224 
0 0 228 
0 0 226 
0 0 224 
0 0 230 
0 0 233 
0 0 221 
0 0 226 
0 0 223 
0 0 233 
0 0 217 
0 0 231 
0 0 226 
0 0 230 
0 0 226 
0 0 238 
0 0 224 
0 0 220 
0 0 230 
0 0 224 
0 0 224 
0 0 231 
0 0 228 
0 0 226 
0 0 230 
0 0 214 
0 0 234 
0 0 234 
0 0 226 
0 0 230 
0 0 230 
85 95 243 
185 207 249 
201 224 255 
201 224 255 
201 224 255 
201 224 255 
201 224 255 
201 224 255 
201 224 255 
201 224 255 
201 224 255 
201 224 255 
201 224 255 
200 224 255 
200 224 255 
200 224 255 
200 224 255 
200 224 255 
200 224 255 
200 224 255 
200 224 255 
200 224 255 
200 224 255 
200 224 255 
200 224 255 
200 224 255 
200 224 255 
200 224 255 
200 224 255 
200 224 255 
200 224 255 
200 224 255 
200 224 255 
200 224 255 
200 224 255 
200 224 255 
200 224 255 
200 224 255 
200 224 255 
200 224 255 
200 224 255 
200 224 255 
200 224 255 
200 224 255 
200 224 255 
200 224 255 
200 224 255 
200 224 255 
200 224 255 
200 224 255 
200 224 255 
200 224 255 
200 224 255 
200 224 255 
200 224 255 
200 224 255 
200 224 255 
200 224 255 
200 224 255 
200 224 255 
200 224 255 
200 224 255 
200 224 255 
200 224 255 
200 224 255 
200 224 255 
201 224 255 
201 224 255 
201 224 255 
201 224 255 
201 224 255 
201 224 255 
201 224 255 
201 224 255 
201 224 255 
201 224 255 
198 210 240 
187 107 122 
187 0 0 
191 0 0 
187 0 0 
190 0 0 
193 0 0 
192 0 0 
193 0 0 
190 0 0 
186 0 0 
190 0 0 
188 0 0 
189 0 0 
193 0 0 
188 0 0 
185 0 0 
189 0 0 
187 0 0 
186 0 0 
186 0 0 
185 0 0 
187 0 0 
190 0 0 
190 0 0 
190 0 0 
189 0 0 
186 0 0 
192 0 0 
188 0 0 
189 0 0 
191 0 0 
190 0 0 
192 0 0 
183 0 0 
191 0 0 
182 0 0 
184 0 0 
196 0 0 
191 0 0 
191 0 0 
192 0 0 
191 0 0 
188 0 0 
194 0 0 
185 0 0 
193 0 0 
187 0 0 
193 0 0 
185 0 0 
190 0 0 
189 0 0 
191 0 0 
189 0 0 
191 0 0 
192 0 0 
190 0 0 
195 0 0 
196 0 0 
190 0 0 
192 0 0 
195 0 0 
192 0 0 
194 0 0 
192 0 0 
195 0 0 
195 0 0 
198 0 0 
199 0 0 
192 0 0 
196 0 0 
191 0 0 
194 0 0 
198 0 0 
190 0 0 
191 0 0 
194 0 0 
196 0 0 
194 0 0 
193 0 0 
194 0 0 
193 0 0 
193 0 0 
193 0 0 
191 0 0 
192 0 0 
194 0 0 
193 0 0 
197 0 0 
191 0 0 
198 0 0 
191 0 0 
199 0 0 
196 0 0 
197 0 0 
193 0 0 
195 0 0 
197 0 0 
194 0 0 
194 0 0 
196 0 0 
193 0 0 
196 0 0 
190 0 0 
193 0 0 
197 0 0 
194 0 0 
192 0 0 
192 0 0 
196 0 0 
194 0 0 
194 0 0 
196 0 0 
195 0 0 
197 0 0 
195 0 0 
199 0 0 
198 0 0 
196 0 0 
190 0 0 
190 0 0 
195 0 0 
197 0 0 
194 0 0 
198 0 0 
195 0 0 
194 0 0 
196 0 0 
194 0 0 
198 0 0 
197 0 0 
191 0 0 
197 0 0 
197 0 0 
195 0 0 
195 0 0 
196 0 0 
194 0 0 
197 0 0 
198 0 0 
197 0 0 
195 0 0 
194 0 0 
192 0 0 
197 0 0 
196 0 0 
193 0 0 
194 0 0 
197 0 0 
194 0 0 
196 0 0 
195 0 0 
198 0 0 
194 0 0 
195 0 0 
197 0 0 
195 0 0 
197 0 0 
197 0 0 
191 0 0 
195 0 0 
196 0 0 
196 0 0 
0 0 212 
0 0 214 
0 0 206 
0 0 206 
0 0 226 
0 0 227 
0 0 206 
0 0 218 
0 0 214 
0 0 218 
0 0 206 
0 0 214 
0 0 227 
0 0 215 
0 0 215 
0 0 223 
0 0 218 
0 0 230 
0 0 214 
0 0 209 
0 0 226 
0 0 221 
0 0 209 
0 0 212 
0 0 217 
0 0 221 
0 0 221 
0 0 218 
0 0 215 
0 0 215 
0 0 217 
0 0 218 
0 0 218 
0 0 221 
0 0 211 
0 0 211 
0 0 230 
0 0 220 
0 0 237 
0 0 215 
0 0 218 
0 0 211 
0 0 218 
0 0 218 
0 0 223 
0 0 231 
0 0 224 
0 0 223 
0 0 226 
0 0 207 
0 0 217 
0 0 215 
0 0 226 
0 0 224 
0 0 218 
0 0 221 
0 0 224 
0 0 223 
0 0 218 
0 0 224 
0 0 223 
0 0 220 
0 0 209 
0 0 214 
0 0 215 
0 0 217 
0 0 215 
0 0 223 
0 0 215 
0 0 223 
0 0 214 
0 0 220 
0 0 217 
0 0 217 
0 0 221 
0 0 211 
0 0 233 
0 0 217 
0 0 215 
0 0 220 
0 0 191 
0 0 227 
0 0 212 
0 0 223 
0 0 211 
0 0 207 
0 0 215 
0 0 223 
0 0 215 
0 0 231 
0 0 224 
0 0 221 
0 0 220 
0 0 227 
0 0 209 
0 0 220 
0 0 218 
0 0 217 
0 0 215 
0 0 221 
0 0 224 
0 0 211 
0 0 228 
0 0 217 
0 0 221 
0 0 221 
0 0 221 
0 0 224 
0 0 221 
0 0 220 
0 0 226 
0 0 224 
0 0 227 
0 0 212 
0 0 218 
0 0 221 
0 0 224 
0 0 223 
0 0 226 
0 0 223 
0 0 231 
0 0 224 
0 0 217 
0 0 218 
0 0 217 
0 0 226 
0 0 228 
0 0 226 
0 0 221 
0 0 236 
0 0 209 
0 0 211 
0 0 218 
0 0 223 
0 0 223 
0 0 228 
0 0 228 
0 0 221 
0 0 227 
0 0 217 
0 0 223 
0 0 221 
0 0 220 
0 0 227 
0 0 224 
0 0 223 
0 0 237 
0 0 218 
0 0 224 
0 0 223 
0 0 228 
0 0 226 
0 0 232 
0 0 233 
0 0 226 
0 0 220 
0 0 231 
0 0 216 
0 0 234 
0 0 242 
0 0 245 
0 0 233 
63 71 237 
178 198 252 
201 224 255 
201 224 255 
201 224 255 
201 224 255 
201 224 255 
201 224 255 
201 224 255 
201 224 255 
201 224 255 
201 224 255 
201 224 255 
201 224 255 
201 224 255 
201 224 255 
201 224 255 
201 224 255 
201 224 255 
201 224 255 
200 224 255 
200 224 255 
200 224 255 
200 224 255 
200 224 255 
200 224 255 
200 224 255 
200 224 255 
200 224 255 
200 224 255 
200 224 255 
200 224 255 
200 224 255 
200 224 255 
200 224 255 
200 224 255 
200 224 255 
200 224 255 
200 224 255 
200 224 255 
200 224 255 
200 224 255 
200 224 255 
200 224 255 
200 224 255 
200 224 255 
200 224 255 
200 224 255 
200 224 255 
200 224 255 
200 224 255 
200 224 255 
200 224 255 
200 224 255 
200 224 255 
200 224 255 
201 224 255 
201 224 255 
201 224 255 
201 224 255 
201 224 255 
201 224 255 
201 224 255 
201 224 255 
201 224 255 
201 224 255 
201 224 255 
201 224 255 
201 224 255 
201 224 255 
201 224 255 
201 224 255 
201 224 255 
201 224 255 
198 202 230 
184 55 62 
187 0 0 
185 0 0 
185 0 0 
187 0 0 
185 0 0 
186 0 0 
186 0 0 
190 0 0 
190 0 0 
186 0 0 
185 0 0 
181 0 0 
193 0 0 
192 0 0 
183 0 0 
184 0 0 
184 0 0 
189 0 0 
187 0 0 
197 0 0 
194 0 0 
191 0 0 
185 0 0 
191 0 0 
191 0 0 
195 0 0 
189 0 0 
191 0 0 
191 0 0 
194 0 0 
191 0 0 
190 0 0 
190 0 0 
188 0 0 
188 0 0 
191 0 0 
186 0 0 
193 0 0 
196 0 0 
193 0 0 
190 0 0 
186 0 0 
193 0 0 
188 0 0 
191 0 0 
189 0 0 
185 0 0 
195 0 0 
199 0 0 
193 0 0 
187 0 0 
191 0 0 
190 0 0 
194 0 0 
193 0 0 
194 0 0 
189 0 0 
195 0 0 
189 0 0 
190 0 0 
194 0 0 
195 0 0 
198 0 0 
195 0 0 
193 0 0 
191 0 0 
193 0 0 
187 0 0 
198 0 0 
191 0 0 
196 0 0 
197 0 0 
195 0 0 
193 0 0 
191 0 0 
194 0 0 
196 0 0 
187 0 0 
195 0 0 
195 0 0 
189 0 0 
189 0 0 
190 0 0 
195 0 0 
195 0 0 
195 0 0 
193 0 0 
195 0 0 
194 0 0 
193 0 0 
194 0 0 
194 0 0 
195 0 0 
194 0 0 
198 0 0 
195 0 0 
192 0 0 
196 0 0 
195 0 0 
193 0 0 
196 0 0 
191 0 0 
198 0 0 
195 0 0 
193 0 0 
199 0 0 
195 0 0 
195 0 0 
197 0 0 
197 0 0 
192 0 0 
193 0 0 
195 0 0 
197 0 0 
195 0 0 
194 0 0 
194 0 0 
194 0 0 
195 0 0 
192 0 0 
188 0 0 
199 0 0 
198 0 0 
192 0 0 
196 0 0 
196 0 0 
194 0 0 
197 0 0 
196 0 0 
195 0 0 
192 0 0 
194 0 0 
198 0 0 
193 0 0 
195 0 0 
194 0 0 
194 0 0 
196 0 0 
194 0 0 
199 0 0 
197 0 0 
195 0 0 
194 0 0 
193 0 0 
194 0 0 
192 0 0 
196 0 0 
198 0 0 
197 0 0 
196 0 0 
194 0 0 
192 0 0 
193 0 0 
197 0 0 
196 0 0 
194 0 0 
197 0 0 
197 0 0 
192 0 0 
196 0 0 
199 0 0 
196 0 0 
0 0 228 
0 0 224 
0 0 220 
0 0 221 
0 0 224 
0 0 212 
0 0 207 
0 0 209 
0 0 212 
0 0 224 
0 0 199 
0 0 226 
0 0 231 
0 0 217 
0 0 211 
0 0 203 
0 0 214 
0 0 218 
0 0 214 
0 0 224 
0 0 221 
0 0 217 
0 0 224 
0 0 220 
0 0 214 
0 0 211 
0 0 215 
0 0 212 
0 0 218 
0 0 212 
0 0 209 
0 0 214 
0 0 217 
0 0 207 
0 0 214 
0 0 218 
0 0 224 
0 0 224 
0 0 211 
0 0 215 
0 0 221 
0 0 217 
0 0 203 
0 0 215 
0 0 227 
0 0 224 
0 0 215 
0 0 227 
0 0 226 
0 0 223 
0 0 217 
0 0 215 
0 0 209 
0 0 211 
0 0 221 
0 0 220 
0 0 198 
0 0 207 
0 0 226 
0 0 199 
0 0 218 
0 0 221 
0 0 217 
0 0 224 
0 0 220 
0 0 226 
0 0 224 
0 0 221 
0 0 212 
0 0 231 
0 0 224 
0 0 212 
0 0 221 
0 0 233 
0 0 217 
0 0 215 
0 0 220 
0 0 223 
0 0 212 
0 0 227 
0 0 215 
0 0 224 
0 0 223 
0 0 220 
0 0 220 
0 0 217 
0 0 226 
0 0 224 
0 0 224 
0 0 221 
0 0 230 
0 0 224 
0 0 220 
0 0 212 
0 0 228 
0 0 224 
0 0 218 
0 0 215 
0 0 215 
0 0 211 
0 0 215 
0 0 228 
0 0 226 
0 0 206 
0 0 224 
0 0 224 
0 0 206 
0 0 215 
0 0 233 
0 0 218 
0 0 214 
0 0 218 
0 0 221 
0 0 230 
0 0 220 
0 0 223 
0 0 221 
0 0 227 
0 0 220 
0 0 228 
0 0 224 
0 0 215 
0 0 221 
0 0 228 
0 0 227 
0 0 215 
0 0 227 
0 0 223 
0 0 211 
0 0 221 
0 0 227 
0 0 228 
0 0 223 
0 0 209 
0 0 215 
0 0 223 
0 0 231 
0 0 220 
0 0 221 
0 0 220 
0 0 218 
0 0 223 
0 0 220 
0 0 221 
0 0 224 
0 0 220 
0 0 227 
0 0 227 
0 0 221 
0 0 231 
0 0 223 
0 0 226 
0 0 228 
0 0 213 
0 0 237 
0 0 220 
0 0 231 
0 0 226 
0 0 236 
0 0 228 
0 0 231 
0 0 236 
0 0 231 
40 44 234 
168 188 249 
201 225 255 
201 224 255 
201 224 255 
201 224 255 
201 224 255 
201 224 255 
201 224 255 
201 224 255 
201 224 255 
201 224 255 
201 224 255 
201 224 255 
201 224 255 
201 224 255 
201 224 255 
201 224 255 
201 224 255 
201 224 255 
201 224 255 
201 224 255 
201 224 255 
201 224 255 
201 224 255 
201 224 255 
201 224 255 
201 224 255 
201 224 255 
201 224 255 
201 224 255 
201 224 255 
201 224 255 
201 224 255 
201 224 255 
201 224 255 
201 224 255 
201 224 255 
201 224 255 
201 224 255 
201 224 255 
201 224 255 
201 224 255 
201 224 255 
201 224 255 
201 224 255 
201 224 255 
201 224 255 
201 224 255 
201 224 255 
201 224 255 
201 224 255 
201 224 255 
201 224 255 
201 224 255 
201 224 255 
201 224 255 
201 224 255 
201 224 255 
201 224 255 
201 224 255 
201 224 255 
201 224 255 
201 224 255 
201 224 255 
201 224 255 
201 224 255 
201 224 255 
201 224 255 
201 224 255 
201 224 255 
201 225 255 
196 185 211 
189 38 44 
185 0 0 
185 0 0 
187 0 0 
191 0 0 
184 0 0 
189 0 0 
177 0 0 
183 0 0 
182 0 0 
187 0 0 
187 0 0 
182 0 0 
186 0 0 
185 0 0 
186 0 0 
191 0 0 
185 0 0 
181 0 0 
182 0 0 
190 0 0 
182 0 0 
189 0 0 
186 0 0 
187 0 0 
191 0 0 
192 0 0 
190 0 0 
188 0 0 
193 0 0 
189 0 0 
189 0 0 
191 0 0 
191 0 0 
188 0 0 
188 0 0 
191 0 0 
182 0 0 
191 0 0 
193 0 0 
191 0 0 
191 0 0 
189 0 0 
190 0 0 
187 0 0 
188 0 0 
189 0 0 
191 0 0 
191 0 0 
195 0 0 
194 0 0 
192 0 0 
193 0 0 
193 0 0 
190 0 0 
189 0 0 
191 0 0 
190 0 0 
191 0 0 
193 0 0 
194 0 0 
191 0 0 
190 0 0 
193 0 0 
191 0 0 
193 0 0 
193 0 0 
192 0 0 
194 0 0 
194 0 0 
191 0 0 
192 0 0 
194 0 0 
194 0 0 
196 0 0 
197 0 0 
191 0 0 
187 0 0 
194 0 0 
190 0 0 
197 0 0 
197 0 0 
189 0 0 
196 0 0 
192 0 0 
194 0 0 
198 0 0 
189 0 0 
192 0 0 
191 0 0 
198 0 0 
196 0 0 
193 0 0 
194 0 0 
196 0 0 
193 0 0 
194 0 0 
194 0 0 
194 0 0 
195 0 0 
196 0 0 
194 0 0 
196 0 0 
194 0 0 
194 0 0 
193 0 0 
196 0 0 
195 0 0 
198 0 0 
195 0 0 
198 0 0 
191 0 0 
192 0 0 
195 0 0 
197 0 0 
196 0 0 
195 0 0 
195 0 0 
197 0 0 
189 0 0 
195 0 0 
196 0 0 
196 0 0 
195 0 0 
194 0 0 
196 0 0 
196 0 0 
195 0 0 
196 0 0 
196 0 0 
198 0 0 
194 0 0 
197 0 0 
197 0 0 
197 0 0 
193 0 0 
196 0 0 
194 0 0 
194 0 0 
195 0 0 
194 0 0 
194 0 0 
194 0 0 
200 0 0 
197 0 0 
196 0 0 
195 0 0 
196 0 0 
193 0 0 
194 0 0 
194 0 0 
194 0 0 
197 0 0 
196 0 0 
193 0 0 
198 0 0 
195 0 0 
197 0 0 
197 0 0 
195 0 0 
197 0 0 
197 0 0 
193 0 0 
200 0 0 
0 0 212 
0 0 217 
0 0 211 
0 0 226 
0 0 209 
0 0 230 
0 0 223 
0 0 212 
0 0 215 
0 0 218 
0 0 218 
0 0 217 
0 0 214 
0 0 215 
0 0 221 
0 0 207 
0 0 220 
0 0 214 
0 0 211 
0 0 226 
0 0 207 
0 0 224 
0 0 212 
0 0 223 
0 0 198 
0 0 215 
0 0 215 
0 0 218 
0 0 198 
0 0 230 
0 0 223 
0 0 217 
0 0 218 
0 0 218 
0 0 223 
0 0 223 
0 0 230 
0 0 223 
0 0 215 
0 0 214 
0 0 220 
0 0 214 
0 0 218 
0 0 221 
0 0 223 
0 0 221 
0 0 211 
0 0 207 
0 0 215 
0 0 201 
0 0 207 
0 0 221 
0 0 209 
0 0 228 
0 0 217 
0 0 212 
0 0 230 
0 0 217 
0 0 215 
0 0 221 
0 0 224 
0 0 223 
0 0 215 
0 0 199 
0 0 227 
0 0 211 
0 0 214 
0 0 228 
0 0 220 
0 0 209 
0 0 227 
0 0 223 
0 0 217 
0 0 226 
0 0 218 
0 0 217 
0 0 214 
0 0 218 
0 0 218 
0 0 207 
0 0 227 
0 0 223 
0 0 228 
0 0 226 
0 0 217 
0 0 226 
0 0 217 
0 0 227 
0 0 227 
0 0 223 
0 0 209 
0 0 230 
0 0 218 
0 0 221 
0 0 209 
0 0 215 
0 0 221 
0 0 211 
0 0 226 
0 0 212 
0 0 226 
0 0 227 
0 0 231 
0 0 230 
0 0 220 
0 0 220 
0 0 215 
0 0 220 
0 0 217 
0 0 220 
0 0 223 
0 0 230 
0 0 226 
0 0 212 
0 0 217 
0 0 224 
0 0 233 
0 0 217 
0 0 220 
0 0 226 
0 0 218 
0 0 227 
0 0 223 
0 0 217 
0 0 199 
0 0 224 
0 0 214 
0 0 231 
0 0 220 
0 0 226 
0 0 227 
0 0 230 
0 0 220 
0 0 220 
0 0 228 
0 0 230 
0 0 228 
0 0 211 
0 0 226 
0 0 214 
0 0 214 
0 0 228 
0 0 227 
0 0 218 
0 0 227 
0 0 231 
0 0 226 
0 0 223 
0 0 230 
0 0 227 
0 0 223 
0 0 223 
0 0 226 
0 0 221 
0 0 228 
0 0 217 
0 0 229 
0 0 227 
0 0 235 
0 0 237 
0 0 228 
0 0 240 
0 0 230 
0 0 225 
20 22 237 
148 165 244 
201 225 255 
201 225 255 
201 225 255 
201 225 255 
201 225 255 
201 225 255 
201 224 255 
201 224 255 
201 224 255 
201 224 255 
201 224 255 
201 224 255 
201 224 255 
201 224 255 
201 224 255 
201 224 255 
201 224 255 
201 224 255 
201 224 255 
201 224 255 
201 224 255 
201 224 255 
201 224 255 
201 224 255 
201 224 255 
201 224 255 
201 224 255 
201 224 255 
201 224 255 
201 224 255 
201 224 255 
201 224 255 
201 224 255 
201 224 255 
201 224 255 
201 224 255 
201 224 255 
201 224 255 
201 224 255 
201 224 255 
201 224 255 
201 224 255 
201 224 255 
201 224 255 
201 224 255 
201 224 255 
201 224 255 
201 224 255 
201 224 255 
201 224 255 
201 224 255 
201 224 255 
201 224 255 
201 224 255 
201 224 255 
201 224 255 
201 224 255 
201 224 255 
201 224 255 
201 224 255 
201 224 255 
201 224 255 
201 225 255 
201 225 255 
201 225 255 
201 225 255 
201 225 255 
201 225 255 
190 152 173 
182 22 25 
184 0 0 
184 0 0 
184 0 0 
181 0 0 
184 0 0 
187 0 0 
187 0 0 
187 0 0 
187 0 0 
177 0 0 
191 0 0 
183 0 0 
184 0 0 
183 0 0 
193 0 0 
188 0 0 
188 0 0 
191 0 0 
185 0 0 
181 0 0 
187 0 0 
191 0 0 
186 0 0 
179 0 0 
182 0 0 
189 0 0 
187 0 0 
186 0 0 
180 0 0 
187 0 0 
191 0 0 
191 0 0 
193 0 0 
188 0 0 
188 0 0 
191 0 0 
189 0 0 
189 0 0 
188 0 0 
193 0 0 
190 0 0 
188 0 0 
187 0 0 
190 0 0 
192 0 0 
190 0 0 
192 0 0 
196 0 0 
184 0 0 
194 0 0 
192 0 0 
189 0 0 
190 0 0 
193 0 0 
192 0 0 
189 0 0 
192 0 0 
192 0 0 
194 0 0 
193 0 0 
186 0 0 
193 0 0 
194 0 0 
191 0 0 
194 0 0 
193 0 0 
193 0 0 
191 0 0 
196 0 0 
190 0 0 
189 0 0 
193 0 0 
191 0 0 
194 0 0 
191 0 0 
192 0 0 
191 0 0 
195 0 0 
199 0 0 
193 0 0 
193 0 0 
194 0 0 
193 0 0 
193 0 0 
194 0 0 
195 0 0 
194 0 0 
195 0 0 
191 0 0 
193 0 0 
191 0 0 
196 0 0 
192 0 0 
196 0 0 
194 0 0 
193 0 0 
191 0 0 
193 0 0 
194 0 0 
199 0 0 
193 0 0 
189 0 0 
195 0 0 
200 0 0 
195 0 0 
195 0 0 
195 0 0 
192 0 0 
195 0 0 
195 0 0 
194 0 0 
195 0 0 
196 0 0 
198 0 0 
195 0 0 
193 0 0 
193 0 0 
197 0 0 
195 0 0 
192 0 0 
200 0 0 
195 0 0 
194 0 0 
193 0 0 
193 0 0 
193 0 0 
193 0 0 
200 0 0 
197 0 0 
194 0 0 
189 0 0 
195 0 0 
194 0 0 
197 0 0 
195 0 0 
193 0 0 
194 0 0 
198 0 0 
192 0 0 
197 0 0 
195 0 0 
195 0 0 
196 0 0 
192 0 0 
192 0 0 
198 0 0 
188 0 0 
194 0 0 
194 0 0 
197 0 0 
191 0 0 
194 0 0 
193 0 0 
196 0 0 
197 0 0 
195 0 0 
197 0 0 
197 0 0 
198 0 0 
194 0 0 
196 0 0 
194 0 0 
192 0 0 
195 0 0 
0 0 226 
0 0 209 
0 0 214 
0 0 211 
0 0 211 
0 0 209 
0 0 220 
0 0 215 
0 0 215 
0 0 206 
0 0 198 
0 0 218 
0 0 218 
0 0 217 
0 0 218 
0 0 212 
0 0 209 
0 0 224 
0 0 209 
0 0 223 
0 0 215 
0 0 220 
0 0 212 
0 0 226 
0 0 211 
0 0 215 
0 0 220 
0 0 215 
0 0 220 
0 0 220 
0 0 207 
0 0 217 
0 0 214 
0 0 212 
0 0 211 
0 0 220 
0 0 223 
0 0 211 
0 0 217 
0 0 214 
0 0 212 
0 0 211 
0 0 211 
0 0 209 
0 0 231 
0 0 201 
0 0 223 
0 0 215 
0 0 224 
0 0 212 
0 0 212 
0 0 206 
0 0 214 
0 0 218 
0 0 212 
0 0 211 
0 0 206 
0 0 220 
0 0 218 
0 0 224 
0 0 212 
0 0 211 
0 0 217 
0 0 214 
0 0 214 
0 0 226 
0 0 220 
0 0 212 
0 0 212 
0 0 214 
0 0 209 
0 0 220 
0 0 207 
0 0 201 
0 0 212 
0 0 221 
0 0 220 
0 0 214 
0 0 221 
0 0 226 
0 0 220 
0 0 218 
0 0 212 
0 0 209 
0 0 223 
0 0 227 
0 0 223 
0 0 226 
0 0 228 
0 0 221 
0 0 215 
0 0 228 
0 0 215 
0 0 230 
0 0 233 
0 0 212 
0 0 207 
0 0 212 
0 0 214 
0 0 220 
0 0 230 
0 0 215 
0 0 220 
0 0 221 
0 0 223 
0 0 214 
0 0 218 
0 0 215 
0 0 215 
0 0 227 
0 0 223 
0 0 218 
0 0 215 
0 0 224 
0 0 218 
0 0 224 
0 0 214 
0 0 226 
0 0 209 
0 0 220 
0 0 226 
0 0 217 
0 0 220 
0 0 217 
0 0 214 
0 0 223 
0 0 212 
0 0 224 
0 0 212 
0 0 217 
0 0 221 
0 0 223 
0 0 223 
0 0 227 
0 0 215 
0 0 217 
0 0 223 
0 0 209 
0 0 230 
0 0 223 
0 0 226 
0 0 220 
0 0 224 
0 0 224 
0 0 220 
0 0 215 
0 0 223 
0 0 234 
0 0 236 
0 0 221 
0 0 224 
0 0 228 
0 0 217 
0 0 223 
0 0 227 
0 0 220 
0 0 226 
0 0 231 
0 0 221 
0 0 227 
0 0 231 
0 0 233 
0 0 226 
0 0 238 
0 0 236 
0 0 228 
127 142 244 
202 225 255 
202 225 255 
202 225 255 
201 225 255 
201 225 255 
201 225 255 
201 225 255 
201 225 255 
201 225 255 
201 225 255 
201 225 255 
201 225 255 
201 225 255 
201 224 255 
201 224 255 
201 224 255 
201 224 255 
201 224 255 
201 224 255 
201 224 255 
201 224 255 
201 224 255 
201 224 255 
201 224 255 
201 224 255 
201 224 255 
201 224 255 
201 224 255 
201 224 255 
201 224 255 
201 224 255 
201 224 255 
201 224 255 
201 224 255 
201 224 255 
201 224 255 
201 224 255 
201 224 255 
201 224 255 
201 224 255 
201 224 255 
201 224 255 
201 224 255 
201 224 255 
201 224 255 
201 224 255 
201 224 255 
201 224 255 
201 224 255 
201 224 255 
201 224 255 
201 224 255 
201 224 255 
201 224 255 
201 225 255 
201 225 255 
201 225 255 
201 225 255 
201 225 255 
201 225 255 
201 225 255 
201 225 255 
201 225 255 
201 225 255 
202 225 255 
202 224 254 
192 152 173 
186 0 0 
175 0 0 
184 0 0 
189 0 0 
186 0 0 
182 0 0 
185 0 0 
179 0 0 
189 0 0 
182 0 0 
192 0 0 
187 0 0 
182 0 0 
186 0 0 
183 0 0 
189 0 0 
190 0 0 
187 0 0 
181 0 0 
186 0 0 
189 0 0 
187 0 0 
186 0 0 
188 0 0 
193 0 0 
182 0 0 
193 0 0 
191 0 0 
184 0 0 
193 0 0 
193 0 0 
184 0 0 
189 0 0 
186 0 0 
190 0 0 
189 0 0 
193 0 0 
188 0 0 
190 0 0 
192 0 0 
189 0 0 
193 0 0 
195 0 0 
192 0 0 
188 0 0 
187 0 0 
188 0 0 
192 0 0 
192 0 0 
192 0 0 
189 0 0 
189 0 0 
189 0 0 
190 0 0 
192 0 0 
193 0 0 
193 0 0 
192 0 0 
192 0 0 
195 0 0 
194 0 0 
188 0 0 
197 0 0 
186 0 0 
193 0 0 
194 0 0 
192 0 0 
197 0 0 
197 0 0 
194 0 0 
192 0 0 
191 0 0 
192 0 0 
196 0 0 
195 0 0 
195 0 0 
187 0 0 
195 0 0 
194 0 0 
190 0 0 
189 0 0 
193 0 0 
193 0 0 
193 0 0 
197 0 0 
191 0 0 
192 0 0 
196 0 0 
192 0 0 
191 0 0 
191 0 0 
195 0 0 
190 0 0 
192 0 0 
196 0 0 
194 0 0 
193 0 0 
191 0 0 
198 0 0 
194 0 0 
192 0 0 
192 0 0 
195 0 0 
194 0 0 
193 0 0 
193 0 0 
194 0 0 
193 0 0 
191 0 0 
196 0 0 
196 0 0 
191 0 0 
194 0 0 
193 0 0 
197 0 0 
191 0 0 
190 0 0 
195 0 0 
193 0 0 
194 0 0 
193 0 0 
196 0 0 
194 0 0 
194 0 0 
193 0 0 
195 0 0 
194 0 0 
195 0 0 
192 0 0 
195 0 0 
198 0 0 
200 0 0 
195 0 0 
193 0 0 
195 0 0 
196 0 0 
196 0 0 
194 0 0 
196 0 0 
199 0 0 
196 0 0 
199 0 0 
196 0 0 
199 0 0 
197 0 0 
193 0 0 
198 0 0 
197 0 0 
194 0 0 
193 0 0 
196 0 0 
198 0 0 
194 0 0 
196 0 0 
195 0 0 
196 0 0 
196 0 0 
190 0 0 
196 0 0 
195 0 0 
195 0 0 
197 0 0 
195 0 0 
193 0 0 
194 0 0 
195 0 0 
0 0 215 
0 0 217 
0 0 211 
0 0 220 
0 0 228 
0 0 223 
0 0 215 
0 0 209 
0 0 217 
0 0 203 
0 0 223 
0 0 223 
0 0 209 
0 0 211 
0 0 215 
0 0 217 
0 0 209 
0 0 207 
0 0 218 
0 0 214 
0 0 211 
0 0 221 
0 0 224 
0 0 212 
0 0 220 
0 0 227 
0 0 199 
0 0 215 
0 0 215 
0 0 223 
0 0 218 
0 0 214 
0 0 206 
0 0 220 
0 0 221 
0 0 224 
0 0 204 
0 0 204 
0 0 206 
0 0 212 
0 0 221 
0 0 224 
0 0 218 
0 0 220 
0 0 220 
0 0 221 
0 0 214 
0 0 224 
0 0 224 
0 0 224 
0 0 199 
0 0 233 
0 0 218 
0 0 223 
0 0 211 
0 0 223 
0 0 209 
0 0 228 
0 0 214 
0 0 211 
0 0 220 
0 0 206 
0 0 224 
0 0 226 
0 0 209 
0 0 217 
0 0 221 
0 0 215 
0 0 233 
0 0 217 
0 0 217 
0 0 218 
0 0 224 
0 0 220 
0 0 217 
0 0 220 
0 0 206 
0 0 209 
0 0 221 
0 0 218 
0 0 206 
0 0 221 
0 0 217 
0 0 209 
0 0 221 
0 0 212 
0 0 224 
0 0 226 
0 0 211 
0 0 211 
0 0 211 
0 0 224 
0 0 226 
0 0 218 
0 0 207 
0 0 224 
0 0 218 
0 0 215 
0 0 227 
0 0 230 
0 0 217 
0 0 215 
0 0 217 
0 0 224 
0 0 212 
0 0 224 
0 0 212 
0 0 228 
0 0 220 
0 0 227 
0 0 217 
0 0 209 
0 0 230 
0 0 236 
0 0 224 
0 0 218 
0 0 212 
0 0 227 
0 0 209 
0 0 223 
0 0 221 
0 0 230 
0 0 221 
0 0 226 
0 0 220 
0 0 215 
0 0 221 
0 0 223 
0 0 218 
0 0 217 
0 0 221 
0 0 226 
0 0 211 
0 0 220 
0 0 214 
0 0 223 
0 0 221 
0 0 204 
0 0 226 
0 0 236 
0 0 220 
0 0 217 
0 0 213 
0 0 231 
0 0 218 
0 0 215 
0 0 215 
0 0 223 
0 0 207 
0 0 220 
0 0 231 
0 0 206 
0 0 223 
0 0 226 
0 0 227 
0 0 226 
0 0 230 
0 0 215 
0 0 224 
0 0 226 
0 0 225 
0 0 219 
0 0 222 
0 0 225 
0 0 228 
0 0 220 
0 0 223 
126 140 244 
201 224 254 
202 225 255 
202 225 255 
202 225 255 
202 225 255 
202 225 255 
202 225 255 
202 225 255 
202 225 255 
201 225 255 
201 225 255 
201 225 255 
201 225 255 
201 225 255 
201 225 255 
201 225 255 
201 225 255 
201 225 255 
201 225 255 
201 225 255 
201 225 255 
201 225 255 
201 225 255 
201 225 255 
201 225 255 
201 225 255 
201 224 255 
201 224 255 
201 224 255 
201 224 255 
201 224 255 
201 224 255 
201 224 255 
201 224 255 
201 224 255 
201 224 255 
201 224 255 
201 225 255 
201 225 255 
201 225 255 
201 225 255 
201 225 255 
201 225 255 
201 225 255 
201 225 255 
201 225 255 
201 225 255 
201 225 255 
201 225 255 
201 225 255 
201 225 255 
201 225 255 
201 225 255 
201 225 255 
201 225 255 
202 225 255 
202 225 255 
202 225 255 
202 225 255 
202 225 255 
202 225 255 
202 225 255 
202 225 255 
202 224 254 
187 137 155 
183 0 0 
182 0 0 
187 0 0 
182 0 0 
181 0 0 
178 0 0 
189 0 0 
185 0 0 
179 0 0 
190 0 0 
186 0 0 
184 0 0 
190 0 0 
190 0 0 
183 0 0 
191 0 0 
190 0 0 
184 0 0 
188 0 0 
184 0 0 
186 0 0 
182 0 0 
187 0 0 
181 0 0 
184 0 0 
187 0 0 
188 0 0 
191 0 0 
186 0 0 
187 0 0 
191 0 0 
191 0 0 
191 0 0 
188 0 0 
188 0 0 
185 0 0 
189 0 0 
189 0 0 
189 0 0 
182 0 0 
186 0 0 
191 0 0 
186 0 0 
192 0 0 
191 0 0 
189 0 0 
190 0 0 
194 0 0 
191 0 0 
191 0 0 
192 0 0 
194 0 0 
192 0 0 
192 0 0 
193 0 0 
185 0 0 
187 0 0 
192 0 0 
189 0 0 
193 0 0 
194 0 0 
194 0 0 
192 0 0 
193 0 0 
191 0 0 
193 0 0 
193 0 0 
189 0 0 
195 0 0 
194 0 0 
191 0 0 
193 0 0 
192 0 0 
193 0 0 
198 0 0 
191 0 0 
195 0 0 
193 0 0 
193 0 0 
189 0 0 
197 0 0 
194 0 0 
190 0 0 
192 0 0 
191 0 0 
191 0 0 
189 0 0 
195 0 0 
191 0 0 
191 0 0 
189 0 0 
194 0 0 
192 0 0 
197 0 0 
192 0 0 
195 0 0 
195 0 0 
187 0 0 
193 0 0 
194 0 0 
193 0 0 
193 0 0 
195 0 0 
196 0 0 
193 0 0 
191 0 0 
192 0 0 
193 0 0 
191 0 0 
194 0 0 
195 0 0 
196 0 0 
194 0 0 
193 0 0 
190 0 0 
196 0 0 
194 0 0 
194 0 0 
194 0 0 
195 0 0 
194 0 0 
198 0 0 
194 0 0 
194 0 0 
193 0 0 
195 0 0 
195 0 0 
192 0 0 
192 0 0 
196 0 0 
196 0 0 
195 0 0 
198 0 0 
192 0 0 
196 0 0 
191 0 0 
192 0 0 
198 0 0 
190 0 0 
196 0 0 
194 0 0 
195 0 0 
192 0 0 
196 0 0 
195 0 0 
199 0 0 
194 0 0 
199 0 0 
193 0 0 
195 0 0 
198 0 0 
195 0 0 
197 0 0 
196 0 0 
196 0 0 
198 0 0 
195 0 0 
197 0 0 
191 0 0 
194 0 0 
193 0 0 
194 0 0 
197 0 0 
195 0 0 
198 0 0 
196 0 0 
192 0 0 
0 0 215 
0 0 209 
0 0 215 
0 0 211 
0 0 211 
0 0 214 
0 0 212 
0 0 218 
0 0 217 
0 0 224 
0 0 211 
0 0 218 
0 0 220 
0 0 212 
0 0 230 
0 0 215 
0 0 198 
0 0 214 
0 0 215 
0 0 212 
0 0 207 
0 0 218 
0 0 218 
0 0 215 
0 0 201 
0 0 226 
0 0 226 
0 0 209 
0 0 209 
0 0 224 
0 0 218 
0 0 214 
0 0 220 
0 0 230 
0 0 204 
0 0 217 
0 0 215 
0 0 209 
0 0 224 
0 0 206 
0 0 206 
0 0 215 
0 0 224 
0 0 212 
0 0 217 
0 0 221 
0 0 218 
0 0 212 
0 0 217 
0 0 214 
0 0 227 
0 0 215 
0 0 209 
0 0 214 
0 0 212 
0 0 218 
0 0 214 
0 0 206 
0 0 226 
0 0 212 
0 0 203 
0 0 207 
0 0 211 
0 0 221 
0 0 224 
0 0 227 
0 0 211 
0 0 220 
0 0 223 
0 0 212 
0 0 204 
0 0 214 
0 0 218 
0 0 207 
0 0 217 
0 0 223 
0 0 230 
0 0 218 
0 0 215 
0 0 204 
0 0 212 
0 0 220 
0 0 209 
0 0 218 
0 0 223 
0 0 206 
0 0 212 
0 0 224 
0 0 218 
0 0 220 
0 0 215 
0 0 224 
0 0 237 
0 0 215 
0 0 214 
0 0 215 
0 0 218 
0 0 221 
0 0 228 
0 0 220 
0 0 207 
0 0 214 
0 0 214 
0 0 212 
0 0 207 
0 0 212 
0 0 212 
0 0 211 
0 0 215 
0 0 218 
0 0 226 
0 0 221 
0 0 218 
0 0 226 
0 0 224 
0 0 220 
0 0 215 
0 0 220 
0 0 223 
0 0 217 
0 0 223 
0 0 226 
0 0 221 
0 0 220 
0 0 211 
0 0 224 
0 0 223 
0 0 223 
0 0 217 
0 0 211 
0 0 214 
0 0 218 
0 0 226 
0 0 226 
0 0 224 
0 0 223 
0 0 211 
0 0 218 
0 0 222 
0 0 220 
0 0 221 
0 0 218 
0 0 226 
0 0 233 
0 0 217 
0 0 218 
0 0 215 
0 0 227 
0 0 217 
0 0 223 
0 0 224 
0 0 215 
0 0 224 
0 0 231 
0 0 227 
0 0 220 
0 0 220 
0 0 228 
0 0 212 
0 0 226 
0 0 231 
0 0 223 
0 0 233 
0 0 226 
0 0 229 
0 0 231 
0 0 236 
0 0 240 
112 125 238 
198 220 255 
202 225 255 
202 225 255 
202 225 255 
202 225 255 
202 225 255 
202 225 255 
202 225 255 
202 225 255 
202 225 255 
202 225 255 
202 225 255 
202 225 255 
202 225 255 
202 225 255 
202 225 255 
202 225 255 
202 225 255 
202 225 255 
201 225 255 
201 225 255 
201 225 255 
201 225 255 
201 225 255 
201 225 255 
201 225 255 
201 225 255 
201 225 255 
201 225 255 
201 225 255 
201 225 255 
201 225 255 
201 225 255 
201 225 255 
201 225 255 
201 225 255 
201 225 255 
201 225 255 
201 225 255 
201 225 255 
201 225 255 
201 225 255 
202 225 255 
202 225 255 
202 225 255 
202 225 255 
202 225 255 
202 225 255 
202 225 255 
202 225 255 
202 225 255 
202 225 255 
202 225 255 
202 225 255 
202 225 255 
202 225 255 
202 225 255 
202 225 255 
202 225 255 
202 225 255 
202 225 255 
202 224 254 
184 123 140 
183 0 0 
183 0 0 
183 0 0 
187 0 0 
189 0 0 
190 0 0 
182 0 0 
189 0 0 
182 0 0 
183 0 0 
186 0 0 
181 0 0 
178 0 0 
178 0 0 
187 0 0 
184 0 0 
182 0 0 
183 0 0 
188 0 0 
187 0 0 
188 0 0 
192 0 0 
186 0 0 
186 0 0 
190 0 0 
191 0 0 
186 0 0 
184 0 0 
188 0 0 
183 0 0 
185 0 0 
192 0 0 
188 0 0 
187 0 0 
192 0 0 
186 0 0 
189 0 0 
189 0 0 
188 0 0 
192 0 0 
188 0 0 
190 0 0 
195 0 0 
183 0 0 
191 0 0 
192 0 0 
190 0 0 
192 0 0 
182 0 0 
188 0 0 
197 0 0 
186 0 0 
192 0 0 
187 0 0 
187 0 0 
191 0 0 
194 0 0 
195 0 0 
189 0 0 
195 0 0 
196 0 0 
193 0 0 
193 0 0 
189 0 0 
192 0 0 
191 0 0 
194 0 0 
184 0 0 
197 0 0 
190 0 0 
195 0 0 
191 0 0 
195 0 0 
193 0 0 
199 0 0 
192 0 0 
189 0 0 
190 0 0 
193 0 0 
189 0 0 
193 0 0 
188 0 0 
195 0 0 
192 0 0 
195 0 0 
194 0 0 
197 0 0 
196 0 0 
197 0 0 
194 0 0 
200 0 0 
193 0 0 
193 0 0 
196 0 0 
195 0 0 
196 0 0 
196 0 0 
195 0 0 
193 0 0 
195 0 0 
189 0 0 
195 0 0 
194 0 0 
193 0 0 
195 0 0 
192 0 0 
188 0 0 
192 0 0 
196 0 0 
197 0 0 
198 0 0 
196 0 0 
194 0 0 
192 0 0 
195 0 0 
196 0 0 
198 0 0 
192 0 0 
198 0 0 
194 0 0 
197 0 0 
194 0 0 
195 0 0 
187 0 0 
195 0 0 
195 0 0 
199 0 0 
198 0 0 
198 0 0 
195 0 0 
196 0 0 
195 0 0 
197 0 0 
195 0 0 
197 0 0 
194 0 0 
199 0 0 
191 0 0 
194 0 0 
195 0 0 
193 0 0 
197 0 0 
195 0 0 
194 0 0 
199 0 0 
193 0 0 
196 0 0 
192 0 0 
196 0 0 
194 0 0 
194 0 0 
193 0 0 
198 0 0 
193 0 0 
192 0 0 
196 0 0 
199 0 0 
197 0 0 
196 0 0 
195 0 0 
194 0 0 
196 0 0 
199 0 0 
197 0 0 
196 0 0 
194 0 0 
198 0 0 
198 0 0 
0 0 224 
0 0 214 
0 0 199 
0 0 214 
0 0 214 
0 0 209 
0 0 204 
0 0 217 
0 0 224 
0 0 214 
0 0 207 
0 0 207 
0 0 214 
0 0 206 
0 0 194 
0 0 214 
0 0 221 
0 0 218 
0 0 207 
0 0 217 
0 0 215 
0 0 218 
0 0 211 
0 0 209 
0 0 217 
0 0 207 
0 0 217 
0 0 218 
0 0 217 
0 0 223 
0 0 215 
0 0 204 
0 0 221 
0 0 212 
0 0 218 
0 0 209 
0 0 209 
0 0 218 
0 0 217 
0 0 218 
0 0 194 
0 0 227 
0 0 220 
0 0 226 
0 0 220 
0 0 221 
0 0 218 
0 0 226 
0 0 211 
0 0 224 
0 0 227 
0 0 223 
0 0 224 
0 0 224 
0 0 214 
0 0 201 
0 0 220 
0 0 223 
0 0 218 
0 0 211 
0 0 227 
0 0 223 
0 0 226 
0 0 212 
0 0 212 
0 0 217 
0 0 220 
0 0 217 
0 0 198 
0 0 211 
0 0 211 
0 0 215 
0 0 211 
0 0 212 
0 0 226 
0 0 220 
0 0 217 
0 0 212 
0 0 218 
0 0 206 
0 0 215 
0 0 215 
0 0 215 
0 0 212 
0 0 211 
0 0 220 
0 0 206 
0 0 226 
0 0 221 
0 0 203 
0 0 212 
0 0 203 
0 0 211 
0 0 226 
0 0 204 
0 0 226 
0 0 218 
0 0 226 
0 0 206 
0 0 218 
0 0 212 
0 0 223 
0 0 221 
0 0 214 
0 0 215 
0 0 221 
0 0 211 
0 0 227 
0 0 212 
0 0 212 
0 0 212 
0 0 217 
0 0 214 
0 0 215 
0 0 224 
0 0 215 
0 0 212 
0 0 221 
0 0 224 
0 0 227 
0 0 224 
0 0 223 
0 0 224 
0 0 223 
0 0 230 
0 0 217 
0 0 224 
0 0 226 
0 0 212 
0 0 224 
0 0 212 
0 0 226 
0 0 227 
0 0 214 
0 0 220 
0 0 215 
0 0 224 
0 0 223 
0 0 217 
0 0 217 
0 0 221 
0 0 228 
0 0 226 
0 0 207 
0 0 223 
0 0 224 
0 0 223 
0 0 223 
0 0 215 
0 0 231 
0 0 215 
0 0 240 
0 0 209 
0 0 209 
0 0 225 
0 0 213 
0 0 227 
0 0 233 
0 0 220 
0 0 220 
0 0 219 
0 0 231 
0 0 239 
0 0 220 
0 0 222 
0 0 228 
0 0 228 
0 0 223 
0 0 230 
107 119 241 
201 224 255 
202 225 255 
202 225 255 
202 225 255 
202 225 255 
202 225 255 
202 225 255 
202 225 255 
202 225 255 
202 225 255 
202 225 255 
202 225 255 
202 225 255 
202 225 255 
202 225 255 
202 225 255 
202 225 255 
202 225 255 
202 225 255 
202 225 255 
202 225 255 
202 225 255 
202 225 255 
202 225 255 
202 225 255 
202 225 255 
202 225 255 
202 225 255 
202 225 255 
202 225 255 
202 225 255 
202 225 255 
202 225 255 
202 225 255 
202 225 255 
202 225 255 
202 225 255 
202 225 255 
202 225 255 
202 225 255 
202 225 255 
202 225 255 
202 225 255 
202 225 255 
202 225 255 
202 225 255 
202 225 255 
202 225 255 
202 225 255 
202 225 255 
202 225 255 
202 225 255 
202 225 255 
202 225 255 
202 225 255 
202 225 255 
202 225 255 
202 225 255 
202 225 255 
201 222 252 
189 121 137 
182 0 0 
177 0 0 
188 0 0 
182 0 0 
192 0 0 
183 0 0 
183 0 0 
180 0 0 
188 0 0 
186 0 0 
188 0 0 
186 0 0 
180 0 0 
181 0 0 
178 0 0 
181 0 0 
183 0 0 
181 0 0 
183 0 0 
185 0 0 
181 0 0 
188 0 0 
190 0 0 
182 0 0 
187 0 0 
182 0 0 
192 0 0 
183 0 0 
185 0 0 
194 0 0 
183 0 0 
187 0 0 
196 0 0 
190 0 0 
188 0 0 
185 0 0 
192 0 0 
187 0 0 
184 0 0 
190 0 0 
190 0 0 
193 0 0 
192 0 0 
191 0 0 
186 0 0 
189 0 0 
186 0 0 
195 0 0 
188 0 0 
192 0 0 
184 0 0 
190 0 0 
193 0 0 
188 0 0 
189 0 0 
195 0 0 
189 0 0 
190 0 0 
193 0 0 
190 0 0 
195 0 0 
189 0 0 
189 0 0 
195 0 0 
192 0 0 
193 0 0 
191 0 0 
193 0 0 
184 0 0 
193 0 0 
193 0 0 
194 0 0 
195 0 0 
194 0 0 
190 0 0 
195 0 0 
195 0 0 
195 0 0 
194 0 0 
191 0 0 
196 0 0 
195 0 0 
192 0 0 
193 0 0 
192 0 0 
190 0 0 
197 0 0 
188 0 0 
191 0 0 
190 0 0 
198 0 0 
195 0 0 
189 0 0 
201 0 0 
195 0 0 
188 0 0 
188 0 0 
195 0 0 
192 0 0 
200 0 0 
192 0 0 
194 0 0 
197 0 0 
190 0 0 
189 0 0 
192 0 0 
189 0 0 
192 0 0 
194 0 0 
195 0 0 
196 0 0 
194 0 0 
199 0 0 
195 0 0 
201 0 0 
196 0 0 
193 0 0 
189 0 0 
194 0 0 
195 0 0 
193 0 0 
193 0 0 
196 0 0 
193 0 0 
194 0 0 
197 0 0 
199 0 0 
196 0 0 
190 0 0 
193 0 0 
195 0 0 
192 0 0 
196 0 0 
195 0 0 
195 0 0 
196 0 0 
194 0 0 
193 0 0 
199 0 0 
194 0 0 
197 0 0 
199 0 0 
193 0 0 
199 0 0 
197 0 0 
196 0 0 
195 0 0 
197 0 0 
195 0 0 
193 0 0 
194 0 0 
195 0 0 
192 0 0 
197 0 0 
197 0 0 
192 0 0 
193 0 0 
194 0 0 
197 0 0 
195 0 0 
197 0 0 
195 0 0 
196 0 0 
191 0 0 
196 0 0 
197 0 0 
193 0 0 
192 0 0 
193 0 0 
0 0 221 
0 0 198 
0 0 226 
0 0 215 
0 0 218 
0 0 218 
0 0 211 
0 0 221 
0 0 206 
0 0 214 
0 0 207 
0 0 218 
0 0 218 
0 0 211 
0 0 204 
0 0 220 
0 0 226 
0 0 207 
0 0 211 
0 0 218 
0 0 199 
0 0 226 
0 0 204 
0 0 220 
0 0 217 
0 0 221 
0 0 214 
0 0 209 
0 0 215 
0 0 214 
0 0 224 
0 0 212 
0 0 211 
0 0 201 
0 0 220 
0 0 223 
0 0 218 
0 0 204 
0 0 211 
0 0 214 
0 0 220 
0 0 233 
0 0 223 
0 0 224 
0 0 207 
0 0 218 
0 0 215 
0 0 211 
0 0 214 
0 0 211 
0 0 209 
0 0 209 
0 0 212 
0 0 211 
0 0 199 
0 0 212 
0 0 223 
0 0 234 
0 0 212 
0 0 206 
0 0 221 
0 0 206 
0 0 221 
0 0 214 
0 0 220 
0 0 226 
0 0 203 
0 0 218 
0 0 209 
0 0 224 
0 0 204 
0 0 220 
0 0 221 
0 0 211 
0 0 223 
0 0 224 
0 0 212 
0 0 224 
0 0 209 
0 0 221 
0 0 212 
0 0 228 
0 0 223 
0 0 221 
0 0 217 
0 0 214 
0 0 221 
0 0 207 
0 0 212 
0 0 214 
0 0 204 
0 0 227 
0 0 226 
0 0 223 
0 0 228 
0 0 226 
0 0 220 
0 0 228 
0 0 217 
0 0 206 
0 0 214 
0 0 223 
0 0 228 
0 0 217 
0 0 226 
0 0 212 
0 0 226 
0 0 214 
0 0 204 
0 0 224 
0 0 223 
0 0 217 
0 0 220 
0 0 226 
0 0 211 
0 0 217 
0 0 209 
0 0 227 
0 0 212 
0 0 224 
0 0 223 
0 0 221 
0 0 214 
0 0 227 
0 0 224 
0 0 209 
0 0 224 
0 0 224 
0 0 226 
0 0 214 
0 0 227 
0 0 224 
0 0 221 
0 0 220 
0 0 224 
0 0 211 
0 0 221 
0 0 212 
0 0 217 
0 0 211 
0 0 212 
0 0 218 
0 0 220 
0 0 218 
0 0 226 
0 0 224 
0 0 226 
0 0 221 
0 0 211 
0 0 223 
0 0 211 
0 0 218 
0 0 224 
0 0 224 
0 0 203 
0 0 220 
0 0 226 
0 0 231 
0 0 226 
0 0 227 
0 0 220 
0 0 224 
0 0 215 
0 0 222 
0 0 206 
0 0 235 
0 0 222 
0 0 223 
0 0 226 
0 0 224 
103 115 238 
197 219 254 
202 225 255 
202 225 255 
202 225 255 
202 225 255 
202 225 255 
202 225 255 
202 225 255 
202 225 255 
202 225 255 
202 225 255 
202 225 255 
202 225 255 
202 225 255 
202 225 255 
202 225 255 
202 225 255 
202 225 255 
202 225 255 
202 225 255 
202 225 255 
202 225 255 
202 225 255 
202 225 255 
202 225 255 
202 225 255 
202 225 255 
202 225 255 
202 225 255 
202 225 255 
202 225 255 
202 225 255 
202 225 255 
202 225 255 
202 225 255 
202 225 255 
202 225 255 
202 225 255 
202 225 255 
202 225 255 
202 225 255 
202 225 255 
202 225 255 
202 225 255 
202 225 255 
202 225 255 
202 225 255 
202 225 255 
202 225 255 
202 225 255 
202 225 255 
202 225 255 
202 225 255 
202 225 255 
202 225 255 
202 225 255 
202 225 255 
201 222 252 
185 105 120 
181 0 0 
175 0 0 
181 0 0 
177 0 0 
182 0 0 
179 0 0 
177 0 0 
181 0 0 
176 0 0 
182 0 0 
185 0 0 
183 0 0 
178 0 0 
187 0 0 
185 0 0 
182 0 0 
182 0 0 
184 0 0 
188 0 0 
193 0 0 
186 0 0 
185 0 0 
193 0 0 
189 0 0 
193 0 0 
187 0 0 
190 0 0 
183 0 0 
191 0 0 
189 0 0 
190 0 0 
192 0 0 
183 0 0 
186 0 0 
187 0 0 
182 0 0 
187 0 0 
180 0 0 
188 0 0 
185 0 0 
190 0 0 
186 0 0 
189 0 0 
196 0 0 
195 0 0 
193 0 0 
183 0 0 
187 0 0 
195 0 0 
190 0 0 
193 0 0 
192 0 0 
191 0 0 
190 0 0 
195 0 0 
187 0 0 
194 0 0 
194 0 0 
191 0 0 
187 0 0 
194 0 0 
190 0 0 
187 0 0 
188 0 0 
193 0 0 
196 0 0 
193 0 0 
194 0 0 
189 0 0 
191 0 0 
191 0 0 
192 0 0 
189 0 0 
195 0 0 
193 0 0 
193 0 0 
189 0 0 
191 0 0 
193 0 0 
189 0 0 
195 0 0 
191 0 0 
190 0 0 
193 0 0 
189 0 0 
196 0 0 
194 0 0 
193 0 0 
190 0 0 
194 0 0 
194 0 0 
189 0 0 
193 0 0 
196 0 0 
193 0 0 
194 0 0 
193 0 0 
198 0 0 
194 0 0 
194 0 0 
189 0 0 
196 0 0 
194 0 0 
190 0 0 
191 0 0 
195 0 0 
192 0 0 
191 0 0 
195 0 0 
193 0 0 
198 0 0 
194 0 0 
197 0 0 
192 0 0 
194 0 0 
192 0 0 
194 0 0 
192 0 0 
193 0 0 
196 0 0 
193 0 0 
192 0 0 
195 0 0 
197 0 0 
191 0 0 
192 0 0 
194 0 0 
192 0 0 
198 0 0 
194 0 0 
196 0 0 
191 0 0 
195 0 0 
195 0 0 
193 0 0 
194 0 0 
193 0 0 
195 0 0 
196 0 0 
194 0 0 
198 0 0 
194 0 0 
191 0 0 
196 0 0 
197 0 0 
192 0 0 
191 0 0 
195 0 0 
194 0 0 
197 0 0 
196 0 0 
197 0 0 
194 0 0 
194 0 0 
197 0 0 
194 0 0 
194 0 0 
195 0 0 
195 0 0 
196 0 0 
196 0 0 
194 0 0 
192 0 0 
195 0 0 
194 0 0 
194 0 0 
194 0 0 
192 0 0 
200 0 0 
193 0 0 
0 0 204 
0 0 206 
0 0 212 
0 0 214 
0 0 221 
0 0 204 
0 0 207 
0 0 224 
0 0 211 
0 0 214 
0 0 212 
0 0 214 
0 0 207 
0 0 212 
0 0 204 
0 0 206 
0 0 214 
0 0 215 
0 0 217 
0 0 220 
0 0 215 
0 0 223 
0 0 204 
0 0 212 
0 0 215 
0 0 223 
0 0 223 
0 0 211 
0 0 214 
0 0 220 
0 0 215 
0 0 223 
0 0 226 
0 0 204 
0 0 215 
0 0 221 
0 0 209 
0 0 209 
0 0 217 
0 0 199 
0 0 214 
0 0 212 
0 0 227 
0 0 215 
0 0 221 
0 0 217 
0 0 221 
0 0 204 
0 0 214 
0 0 220 
0 0 221 
0 0 212 
0 0 206 
0 0 204 
0 0 224 
0 0 214 
0 0 218 
0 0 201 
0 0 217 
0 0 206 
0 0 206 
0 0 224 
0 0 206 
0 0 217 
0 0 207 
0 0 217 
0 0 214 
0 0 217 
0 0 214 
0 0 223 
0 0 215 
0 0 214 
0 0 215 
0 0 201 
0 0 226 
0 0 218 
0 0 212 
0 0 218 
0 0 218 
0 0 226 
0 0 207 
0 0 204 
0 0 221 
0 0 212 
0 0 209 
0 0 214 
0 0 201 
0 0 214 
0 0 211 
0 0 207 
0 0 212 
0 0 220 
0 0 209 
0 0 227 
0 0 217 
0 0 214 
0 0 218 
0 0 218 
0 0 218 
0 0 220 
0 0 220 
0 0 224 
0 0 223 
0 0 214 
0 0 227 
0 0 214 
0 0 223 
0 0 218 
0 0 206 
0 0 227 
0 0 214 
0 0 206 
0 0 206 
0 0 209 
0 0 228 
0 0 212 
0 0 217 
0 0 220 
0 0 220 
0 0 217 
0 0 215 
0 0 212 
0 0 223 
0 0 217 
0 0 217 
0 0 230 
0 0 212 
0 0 211 
0 0 226 
0 0 224 
0 0 227 
0 0 226 
0 0 209 
0 0 221 
0 0 223 
0 0 209 
0 0 220 
0 0 217 
0 0 224 
0 0 209 
0 0 223 
0 0 215 
0 0 217 
0 0 224 
0 0 223 
0 0 215 
0 0 222 
0 0 220 
0 0 226 
0 0 228 
0 0 207 
0 0 218 
0 0 209 
0 0 207 
0 0 228 
0 0 206 
0 0 214 
0 0 228 
0 0 207 
0 0 238 
0 0 230 
0 0 220 
0 0 224 
0 0 231 
0 0 218 
0 0 212 
0 0 221 
0 0 228 
0 0 227 
0 0 234 
0 0 231 
95 105 233 
202 224 255 
203 225 255 
202 225 255 
202 225 255 
202 225 255 
202 225 255 
202 225 255 
202 225 255 
202 225 255 
202 225 255 
202 225 255 
202 225 255 
202 225 255 
202 225 255 
202 225 255 
202 225 255 
202 225 255 
202 225 255 
202 225 255 
202 225 255 
202 225 255 
202 225 255 
202 225 255 
202 225 255 
202 225 255 
202 225 255 
202 225 255 
202 225 255 
202 225 255 
202 225 255 
202 225 255 
202 225 255 
202 225 255 
202 225 255 
202 225 255 
202 225 255 
202 225 255 
202 225 255 
202 225 255 
202 225 255 
202 225 255 
202 225 255 
202 225 255 
202 225 255 
202 225 255 
202 225 255 
202 225 255 
202 225 255 
202 225 255 
202 225 255 
202 225 255 
202 225 255 
202 225 255 
202 225 255 
203 225 255 
202 223 253 
185 115 130 
184 0 0 
182 0 0 
173 0 0 
172 0 0 
178 0 0 
187 0 0 
179 0 0 
175 0 0 
179 0 0 
178 0 0 
169 0 0 
186 0 0 
183 0 0 
187 0 0 
176 0 0 
182 0 0 
178 0 0 
185 0 0 
181 0 0 
188 0 0 
183 0 0 
185 0 0 
183 0 0 
185 0 0 
186 0 0 
185 0 0 
185 0 0 
173 0 0 
181 0 0 
186 0 0 
186 0 0 
186 0 0 
182 0 0 
192 0 0 
192 0 0 
188 0 0 
188 0 0 
187 0 0 
185 0 0 
189 0 0 
192 0 0 
190 0 0 
193 0 0 
185 0 0 
189 0 0 
181 0 0 
190 0 0 
190 0 0 
187 0 0 
189 0 0 
190 0 0 
190 0 0 
197 0 0 
188 0 0 
191 0 0 
189 0 0 
193 0 0 
189 0 0 
189 0 0 
191 0 0 
190 0 0 
192 0 0 
195 0 0 
188 0 0 
195 0 0 
194 0 0 
186 0 0 
187 0 0 
187 0 0 
195 0 0 
191 0 0 
193 0 0 
193 0 0 
190 0 0 
197 0 0 
190 0 0 
194 0 0 
190 0 0 
193 0 0 
195 0 0 
191 0 0 
194 0 0 
193 0 0 
195 0 0 
191 0 0 
193 0 0 
194 0 0 
195 0 0 
195 0 0 
190 0 0 
193 0 0 
195 0 0 
192 0 0 
196 0 0 
194 0 0 
190 0 0 
196 0 0 
190 0 0 
190 0 0 
191 0 0 
192 0 0 
196 0 0 
192 0 0 
185 0 0 
196 0 0 
193 0 0 
190 0 0 
192 0 0 
194 0 0 
189 0 0 
194 0 0 
197 0 0 
192 0 0 
194 0 0 
193 0 0 
193 0 0 
196 0 0 
198 0 0 
193 0 0 
193 0 0 
194 0 0 
192 0 0 
193 0 0 
195 0 0 
193 0 0 
195 0 0 
193 0 0 
195 0 0 
198 0 0 
194 0 0 
190 0 0 
194 0 0 
193 0 0 
194 0 0 
196 0 0 
191 0 0 
192 0 0 
195 0 0 
192 0 0 
195 0 0 
196 0 0 
191 0 0 
190 0 0 
193 0 0 
195 0 0 
193 0 0 
197 0 0 
193 0 0 
192 0 0 
194 0 0 
196 0 0 
196 0 0 
192 0 0 
199 0 0 
198 0 0 
192 0 0 
198 0 0 
193 0 0 
195 0 0 
192 0 0 
194 0 0 
192 0 0 
192 0 0 
196 0 0 
195 0 0 
197 0 0 
199 0 0 
196 0 0 
194 0 0 
192 0 0 
197 0 0 
0 0 212 
0 0 211 
0 0 214 
0 0 221 
0 0 204 
0 0 203 
0 0 212 
0 0 220 
0 0 206 
0 0 211 
0 0 212 
0 0 211 
0 0 211 
0 0 211 
0 0 212 
0 0 215 
0 0 211 
0 0 221 
0 0 221 
0 0 211 
0 0 228 
0 0 220 
0 0 223 
0 0 226 
0 0 207 
0 0 217 
0 0 220 
0 0 212 
0 0 226 
0 0 226 
0 0 226 
0 0 206 
0 0 212 
0 0 214 
0 0 212 
0 0 218 
0 0 209 
0 0 220 
0 0 218 
0 0 218 
0 0 211 
0 0 206 
0 0 212 
0 0 221 
0 0 214 
0 0 221 
0 0 206 
0 0 223 
0 0 207 
0 0 211 
0 0 203 
0 0 224 
0 0 209 
0 0 214 
0 0 220 
0 0 215 
0 0 211 
0 0 230 
0 0 207 
0 0 207 
0 0 226 
0 0 201 
0 0 217 
0 0 209 
0 0 228 
0 0 214 
0 0 218 
0 0 206 
0 0 223 
0 0 218 
0 0 218 
0 0 224 
0 0 214 
0 0 214 
0 0 215 
0 0 217 
0 0 223 
0 0 209 
0 0 218 
0 0 217 
0 0 214 
0 0 221 
0 0 206 
0 0 223 
0 0 218 
0 0 226 
0 0 221 
0 0 215 
0 0 211 
0 0 220 
0 0 220 
0 0 212 
0 0 220 
0 0 227 
0 0 212 
0 0 207 
0 0 209 
0 0 223 
0 0 220 
0 0 220 
0 0 214 
0 0 207 
0 0 212 
0 0 214 
0 0 218 
0 0 228 
0 0 215 
0 0 209 
0 0 221 
0 0 214 
0 0 220 
0 0 214 
0 0 226 
0 0 218 
0 0 218 
0 0 201 
0 0 204 
0 0 221 
0 0 211 
0 0 215 
0 0 212 
0 0 220 
0 0 215 
0 0 221 
0 0 218 
0 0 215 
0 0 221 
0 0 215 
0 0 217 
0 0 233 
0 0 220 
0 0 207 
0 0 224 
0 0 215 
0 0 215 
0 0 217 
0 0 227 
0 0 217 
0 0 228 
0 0 215 
0 0 207 
0 0 227 
0 0 206 
0 0 218 
0 0 228 
0 0 217 
0 0 220 
0 0 227 
0 0 215 
0 0 218 
0 0 217 
0 0 212 
0 0 214 
0 0 219 
0 0 212 
0 0 212 
0 0 223 
0 0 220 
0 0 203 
0 0 220 
0 0 212 
0 0 226 
0 0 218 
0 0 217 
0 0 215 
0 0 223 
0 0 224 
0 0 211 
0 0 223 
0 0 214 
0 0 223 
0 0 218 
125 139 244 
201 223 255 
203 225 255 
203 225 255 
203 225 255 
203 225 255 
203 225 255 
203 225 255 
203 225 255 
203 225 255 
203 225 255 
203 225 255 
202 225 255 
202 225 255 
202 225 255 
202 225 255 
202 225 255 
202 225 255 
202 225 255 
202 225 255 
202 225 255 
202 225 255 
202 225 255 
202 225 255 
202 225 255 
202 225 255 
202 225 255 
202 225 255 
202 225 255 
202 225 255 
202 225 255 
202 225 255 
202 225 255 
202 225 255 
202 225 255 
202 225 255 
202 225 255 
202 225 255 
202 225 255 
202 225 255 
202 225 255 
202 225 255 
202 225 255 
203 225 255 
203 225 255 
203 225 255 
203 225 255 
203 225 255 
203 225 255 
203 225 255 
203 225 255 
203 225 255 
203 225 255 
203 225 255 
203 224 254 
191 119 135 
176 0 0 
178 0 0 
178 0 0 
192 0 0 
180 0 0 
188 0 0 
174 0 0 
187 0 0 
176 0 0 
175 0 0 
188 0 0 
175 0 0 
180 0 0 
181 0 0 
186 0 0 
180 0 0 
182 0 0 
187 0 0 
182 0 0 
183 0 0 
192 0 0 
181 0 0 
185 0 0 
185 0 0 
177 0 0 
187 0 0 
188 0 0 
187 0 0 
190 0 0 
177 0 0 
186 0 0 
189 0 0 
181 0 0 
182 0 0 
187 0 0 
180 0 0 
192 0 0 
187 0 0 
183 0 0 
192 0 0 
192 0 0 
191 0 0 
184 0 0 
192 0 0 
191 0 0 
188 0 0 
194 0 0 
186 0 0 
192 0 0 
189 0 0 
194 0 0 
193 0 0 
189 0 0 
188 0 0 
188 0 0 
194 0 0 
188 0 0 
192 0 0 
192 0 0 
192 0 0 
189 0 0 
194 0 0 
188 0 0 
191 0 0 
194 0 0 
189 0 0 
192 0 0 
194 0 0 
192 0 0 
184 0 0 
189 0 0 
193 0 0 
195 0 0 
196 0 0 
185 0 0 
193 0 0 
191 0 0 
195 0 0 
189 0 0 
196 0 0 
189 0 0 
192 0 0 
197 0 0 
189 0 0 
193 0 0 
193 0 0 
192 0 0 
190 0 0 
195 0 0 
193 0 0 
194 0 0 
192 0 0 
190 0 0 
197 0 0 
189 0 0 
192 0 0 
191 0 0 
194 0 0 
192 0 0 
194 0 0 
196 0 0 
200 0 0 
190 0 0 
195 0 0 
197 0 0 
192 0 0 
195 0 0 
195 0 0 
191 0 0 
192 0 0 
194 0 0 
199 0 0 
194 0 0 
192 0 0 
192 0 0 
195 0 0 
194 0 0 
190 0 0 
192 0 0 
187 0 0 
197 0 0 
194 0 0 
199 0 0 
194 0 0 
193 0 0 
194 0 0 
197 0 0 
194 0 0 
196 0 0 
201 0 0 
197 0 0 
196 0 0 
195 0 0 
192 0 0 
195 0 0 
195 0 0 
198 0 0 
195 0 0 
192 0 0 
193 0 0 
197 0 0 
196 0 0 
196 0 0 
192 0 0 
197 0 0 
196 0 0 
194 0 0 
194 0 0 
194 0 0 
193 0 0 
195 0 0 
193 0 0 
196 0 0 
193 0 0 
198 0 0 
197 0 0 
194 0 0 
194 0 0 
196 0 0 
194 0 0 
196 0 0 
196 0 0 
193 0 0 
197 0 0 
197 0 0 
198 0 0 
195 0 0 
196 0 0 
191 0 0 
195 0 0 
196 0 0 
194 0 0 
0 0 211 
0 0 211 
0 0 209 
0 0 221 
0 0 207 
0 0 218 
0 0 220 
0 0 220 
0 0 206 
0 0 215 
0 0 215 
0 0 220 
0 0 217 
0 0 206 
0 0 224 
0 0 212 
0 0 217 
0 0 220 
0 0 217 
0 0 220 
0 0 217 
0 0 214 
0 0 199 
0 0 217 
0 0 226 
0 0 217 
0 0 224 
0 0 214 
0 0 203 
0 0 214 
0 0 212 
0 0 198 
0 0 220 
0 0 214 
0 0 224 
0 0 217 
0 0 211 
0 0 220 
0 0 221 
0 0 217 
0 0 221 
0 0 211 
0 0 211 
0 0 224 
0 0 228 
0 0 211 
0 0 209 
0 0 207 
0 0 223 
0 0 223 
0 0 215 
0 0 206 
0 0 220 
0 0 221 
0 0 212 
0 0 217 
0 0 214 
0 0 209 
0 0 221 
0 0 214 
0 0 217 
0 0 212 
0 0 223 
0 0 214 
0 0 221 
0 0 191 
0 0 212 
0 0 224 
0 0 220 
0 0 204 
0 0 204 
0 0 204 
0 0 223 
0 0 214 
0 0 220 
0 0 224 
0 0 201 
0 0 228 
0 0 221 
0 0 231 
0 0 215 
0 0 215 
0 0 214 
0 0 207 
0 0 198 
0 0 206 
0 0 207 
0 0 212 
0 0 215 
0 0 218 
0 0 211 
0 0 218 
0 0 206 
0 0 220 
0 0 212 
0 0 221 
0 0 218 
0 0 212 
0 0 211 
0 0 221 
0 0 209 
0 0 212 
0 0 223 
0 0 227 
0 0 220 
0 0 212 
0 0 215 
0 0 221 
0 0 218 
0 0 223 
0 0 221 
0 0 215 
0 0 221 
0 0 221 
0 0 217 
0 0 223 
0 0 207 
0 0 220 
0 0 201 
0 0 220 
0 0 224 
0 0 221 
0 0 206 
0 0 221 
0 0 227 
0 0 226 
0 0 221 
0 0 226 
0 0 226 
0 0 221 
0 0 215 
0 0 207 
0 0 217 
0 0 211 
0 0 214 
0 0 214 
0 0 215 
0 0 226 
0 0 217 
0 0 226 
0 0 203 
0 0 217 
0 0 221 
0 0 224 
0 0 215 
0 0 226 
0 0 222 
0 0 212 
0 0 226 
0 0 224 
0 0 217 
0 0 215 
0 0 206 
0 0 214 
0 0 227 
0 0 217 
0 0 223 
0 0 220 
0 0 233 
0 0 218 
0 0 204 
0 0 227 
0 0 212 
0 0 233 
0 0 221 
0 0 216 
0 0 223 
0 0 223 
0 0 227 
0 0 223 
0 0 220 
0 0 215 
0 0 236 
125 139 238 
203 225 255 
203 225 255 
203 225 255 
203 225 255 
203 225 255 
203 225 255 
203 225 255 
203 225 255 
203 225 255 
203 225 255 
203 225 255 
203 225 255 
203 225 255 
203 225 255 
203 225 255 
203 225 255 
203 225 255 
203 225 255 
203 225 255 
203 225 255 
203 225 255 
203 225 255 
203 225 255 
203 225 255 
203 225 255 
203 225 255 
203 225 255 
203 225 255 
203 225 255 
203 225 255 
203 225 255 
203 225 255 
203 225 255 
203 225 255 
203 225 255 
203 225 255 
203 225 255 
203 225 255 
203 225 255 
203 225 255 
203 225 255 
203 225 255 
203 225 255 
203 225 255 
203 225 255 
203 225 255 
203 225 255 
203 225 255 
203 225 255 
203 225 255 
203 225 255 
203 224 254 
184 117 133 
183 0 0 
175 0 0 
178 0 0 
171 0 0 
182 0 0 
186 0 0 
181 0 0 
181 0 0 
179 0 0 
187 0 0 
183 0 0 
186 0 0 
179 0 0 
176 0 0 
179 0 0 
183 0 0 
187 0 0 
181 0 0 
187 0 0 
175 0 0 
185 0 0 
186 0 0 
186 0 0 
190 0 0 
181 0 0 
189 0 0 
191 0 0 
174 0 0 
185 0 0 
188 0 0 
185 0 0 
184 0 0 
186 0 0 
185 0 0 
184 0 0 
194 0 0 
179 0 0 
182 0 0 
189 0 0 
187 0 0 
187 0 0 
193 0 0 
191 0 0 
186 0 0 
185 0 0 
188 0 0 
188 0 0 
192 0 0 
190 0 0 
189 0 0 
189 0 0 
188 0 0 
185 0 0 
190 0 0 
188 0 0 
192 0 0 
189 0 0 
187 0 0 
191 0 0 
189 0 0 
189 0 0 
192 0 0 
195 0 0 
193 0 0 
194 0 0 
194 0 0 
187 0 0 
190 0 0 
196 0 0 
191 0 0 
192 0 0 
185 0 0 
188 0 0 
189 0 0 
195 0 0 
192 0 0 
190 0 0 
187 0 0 
191 0 0 
195 0 0 
190 0 0 
195 0 0 
188 0 0 
195 0 0 
194 0 0 
194 0 0 
190 0 0 
196 0 0 
195 0 0 
195 0 0 
196 0 0 
194 0 0 
194 0 0 
195 0 0 
194 0 0 
196 0 0 
194 0 0 
195 0 0 
196 0 0 
194 0 0 
193 0 0 
193 0 0 
191 0 0 
195 0 0 
195 0 0 
196 0 0 
192 0 0 
190 0 0 
195 0 0 
191 0 0 
195 0 0 
190 0 0 
195 0 0 
192 0 0 
196 0 0 
194 0 0 
192 0 0 
197 0 0 
194 0 0 
194 0 0 
198 0 0 
192 0 0 
194 0 0 
196 0 0 
194 0 0 
194 0 0 
190 0 0 
195 0 0 
195 0 0 
193 0 0 
197 0 0 
190 0 0 
196 0 0 
197 0 0 
193 0 0 
197 0 0 
194 0 0 
195 0 0 
196 0 0 
192 0 0 
194 0 0 
196 0 0 
194 0 0 
196 0 0 
193 0 0 
196 0 0 
193 0 0 
198 0 0 
197 0 0 
194 0 0 
195 0 0 
194 0 0 
195 0 0 
194 0 0 
197 0 0 
195 0 0 
191 0 0 
193 0 0 
189 0 0 
194 0 0 
199 0 0 
196 0 0 
196 0 0 
198 0 0 
194 0 0 
195 0 0 
191 0 0 
194 0 0 
197 0 0 
196 0 0 
195 0 0 
196 0 0 
192 0 0 
0 0 231 
0 0 211 
0 0 218 
0 0 211 
0 0 217 
0 0 218 
0 0 206 
0 0 223 
0 0 218 
0 0 223 
0 0 218 
0 0 199 
0 0 224 
0 0 220 
0 0 206 
0 0 211 
0 0 204 
0 0 214 
0 0 209 
0 0 214 
0 0 211 
0 0 217 
0 0 227 
0 0 212 
0 0 223 
0 0 215 
0 0 207 
0 0 227 
0 0 204 
0 0 209 
0 0 212 
0 0 220 
0 0 223 
0 0 221 
0 0 215 
0 0 214 
0 0 214 
0 0 217 
0 0 204 
0 0 215 
0 0 220 
0 0 203 
0 0 214 
0 0 214 
0 0 227 
0 0 212 
0 0 206 
0 0 211 
0 0 212 
0 0 206 
0 0 217 
0 0 206 
0 0 207 
0 0 228 
0 0 220 
0 0 221 
0 0 218 
0 0 215 
0 0 226 
0 0 215 
0 0 215 
0 0 220 
0 0 215 
0 0 211 
0 0 227 
0 0 223 
0 0 227 
0 0 218 
0 0 224 
0 0 212 
0 0 226 
0 0 221 
0 0 209 
0 0 215 
0 0 206 
0 0 220 
0 0 211 
0 0 215 
0 0 233 
0 0 221 
0 0 206 
0 0 217 
0 0 211 
0 0 207 
0 0 214 
0 0 224 
0 0 218 
0 0 220 
0 0 220 
0 0 221 
0 0 223 
0 0 217 
0 0 207 
0 0 206 
0 0 217 
0 0 211 
0 0 207 
0 0 203 
0 0 224 
0 0 217 
0 0 214 
0 0 212 
0 0 215 
0 0 215 
0 0 214 
0 0 215 
0 0 214 
0 0 223 
0 0 212 
0 0 220 
0 0 221 
0 0 218 
0 0 211 
0 0 223 
0 0 214 
0 0 223 
0 0 221 
0 0 215 
0 0 211 
0 0 220 
0 0 211 
0 0 220 
0 0 223 
0 0 212 
0 0 212 
0 0 217 
0 0 215 
0 0 215 
0 0 203 
0 0 217 
0 0 212 
0 0 198 
0 0 221 
0 0 211 
0 0 214 
0 0 211 
0 0 221 
0 0 206 
0 0 217 
0 0 214 
0 0 220 
0 0 214 
0 0 223 
0 0 218 
0 0 227 
0 0 206 
0 0 227 
0 0 205 
0 0 196 
0 0 221 
0 0 217 
0 0 225 
0 0 227 
0 0 217 
0 0 209 
0 0 220 
0 0 211 
0 0 211 
0 0 219 
0 0 214 
0 0 218 
0 0 213 
0 0 212 
0 0 203 
0 0 211 
0 0 228 
0 0 217 
0 0 220 
0 0 214 
0 0 209 
0 0 220 
0 0 225 
0 0 220 
0 0 223 
123 137 236 
203 226 255 
203 226 255 
203 226 255 
203 226 255 
203 226 255 
203 225 255 
203 225 255 
203 225 255 
203 225 255 
203 225 255 
203 225 255 
203 225 255 
203 225 255 
203 225 255 
203 225 255 
203 225 255 
203 225 255 
203 225 255 
203 225 255 
203 225 255 
203 225 255 
203 225 255 
203 225 255 
203 225 255 
203 225 255 
203 225 255 
203 225 255 
203 225 255 
203 225 255 
203 225 255 
203 225 255 
203 225 255 
203 225 255 
203 225 255 
203 225 255 
203 225 255 
203 225 255 
203 225 255 
203 225 255 
203 225 255 
203 225 255 
203 225 255 
203 225 255 
203 225 255 
203 225 255 
203 226 255 
203 226 255 
203 226 255 
203 226 255 
203 226 255 
187 135 153 
175 0 0 
187 0 0 
176 0 0 
177 0 0 
182 0 0 
176 0 0 
183 0 0 
180 0 0 
175 0 0 
181 0 0 
184 0 0 
180 0 0 
183 0 0 
180 0 0 
186 0 0 
179 0 0 
187 0 0 
182 0 0 
188 0 0 
181 0 0 
188 0 0 
184 0 0 
187 0 0 
184 0 0 
180 0 0 
189 0 0 
186 0 0 
185 0 0 
178 0 0 
188 0 0 
191 0 0 
185 0 0 
188 0 0 
186 0 0 
183 0 0 
190 0 0 
191 0 0 
190 0 0 
193 0 0 
185 0 0 
192 0 0 
190 0 0 
190 0 0 
188 0 0 
190 0 0 
186 0 0 
189 0 0 
190 0 0 
189 0 0 
194 0 0 
188 0 0 
189 0 0 
184 0 0 
186 0 0 
190 0 0 
188 0 0 
189 0 0 
190 0 0 
194 0 0 
194 0 0 
192 0 0 
194 0 0 
190 0 0 
189 0 0 
190 0 0 
191 0 0 
190 0 0 
191 0 0 
192 0 0 
191 0 0 
190 0 0 
191 0 0 
189 0 0 
186 0 0 
190 0 0 
191 0 0 
195 0 0 
189 0 0 
196 0 0 
192 0 0 
196 0 0 
193 0 0 
191 0 0 
195 0 0 
196 0 0 
192 0 0 
192 0 0 
190 0 0 
196 0 0 
193 0 0 
186 0 0 
198 0 0 
191 0 0 
192 0 0 
191 0 0 
192 0 0 
195 0 0 
195 0 0 
193 0 0 
196 0 0 
191 0 0 
191 0 0 
196 0 0 
195 0 0 
194 0 0 
196 0 0 
194 0 0 
191 0 0 
194 0 0 
193 0 0 
197 0 0 
193 0 0 
195 0 0 
190 0 0 
191 0 0 
190 0 0 
197 0 0 
193 0 0 
194 0 0 
197 0 0 
194 0 0 
196 0 0 
193 0 0 
190 0 0 
192 0 0 
195 0 0 
192 0 0 
197 0 0 
192 0 0 
195 0 0 
195 0 0 
193 0 0 
195 0 0 
194 0 0 
195 0 0 
194 0 0 
198 0 0 
191 0 0 
196 0 0 
193 0 0 
193 0 0 
197 0 0 
195 0 0 
197 0 0 
195 0 0 
194 0 0 
188 0 0 
195 0 0 
195 0 0 
193 0 0 
196 0 0 
195 0 0 
200 0 0 
194 0 0 
196 0 0 
195 0 0 
194 0 0 
195 0 0 
193 0 0 
192 0 0 
194 0 0 
194 0 0 
196 0 0 
194 0 0 
194 0 0 
198 0 0 
192 0 0 
192 0 0 
196 0 0 
197 0 0 
198 0 0 
197 0 0 
197 0 0 
197 0 0 
0 0 218 
0 0 214 
0 0 217 
0 0 215 
0 0 211 
0 0 215 
0 0 194 
0 0 215 
0 0 193 
0 0 212 
0 0 214 
0 0 209 
0 0 221 
0 0 204 
0 0 214 
0 0 209 
0 0 211 
0 0 217 
0 0 206 
0 0 203 
0 0 217 
0 0 218 
0 0 212 
0 0 209 
0 0 215 
0 0 217 
0 0 203 
0 0 203 
0 0 215 
0 0 204 
0 0 218 
0 0 206 
0 0 214 
0 0 199 
0 0 215 
0 0 203 
0 0 201 
0 0 206 
0 0 227 
0 0 212 
0 0 221 
0 0 212 
0 0 207 
0 0 215 
0 0 215 
0 0 211 
0 0 217 
0 0 217 
0 0 207 
0 0 204 
0 0 214 
0 0 211 
0 0 204 
0 0 207 
0 0 218 
0 0 218 
0 0 212 
0 0 211 
0 0 218 
0 0 217 
0 0 218 
0 0 221 
0 0 214 
0 0 206 
0 0 212 
0 0 223 
0 0 214 
0 0 215 
0 0 215 
0 0 211 
0 0 215 
0 0 211 
0 0 221 
0 0 223 
0 0 221 
0 0 227 
0 0 223 
0 0 199 
0 0 223 
0 0 212 
0 0 196 
0 0 217 
0 0 212 
0 0 223 
0 0 223 
0 0 214 
0 0 226 
0 0 220 
0 0 220 
0 0 215 
0 0 215 
0 0 215 
0 0 204 
0 0 221 
0 0 220 
0 0 209 
0 0 217 
0 0 226 
0 0 218 
0 0 212 
0 0 220 
0 0 223 
0 0 207 
0 0 221 
0 0 218 
0 0 218 
0 0 211 
0 0 218 
0 0 215 
0 0 218 
0 0 226 
0 0 218 
0 0 224 
0 0 201 
0 0 217 
0 0 212 
0 0 226 
0 0 223 
0 0 203 
0 0 224 
0 0 221 
0 0 224 
0 0 209 
0 0 212 
0 0 226 
0 0 211 
0 0 218 
0 0 209 
0 0 207 
0 0 217 
0 0 218 
0 0 223 
0 0 214 
0 0 217 
0 0 218 
0 0 226 
0 0 217 
0 0 204 
0 0 204 
0 0 224 
0 0 215 
0 0 217 
0 0 226 
0 0 207 
0 0 215 
0 0 227 
0 0 213 
0 0 204 
0 0 207 
0 0 226 
0 0 220 
0 0 213 
0 0 223 
0 0 217 
0 0 209 
0 0 229 
0 0 212 
0 0 221 
0 0 206 
0 0 207 
0 0 225 
0 0 214 
0 0 222 
0 0 214 
0 0 220 
0 0 213 
0 0 222 
0 0 223 
0 0 222 
0 0 211 
0 0 227 
0 0 226 
0 0 212 
0 0 221 
0 0 220 
138 153 242 
203 226 255 
203 226 255 
203 226 255 
203 226 255 
203 226 255 
203 226 255 
203 226 255 
203 226 255 
203 226 255 
203 226 255 
203 226 255 
203 226 255 
203 226 255 
203 226 255 
203 226 255 
203 226 255 
203 226 255 
203 226 255 
203 226 255 
203 226 255 
203 226 255 
203 226 255 
203 226 255 
203 226 255 
203 226 255 
203 226 255 
203 226 255 
203 226 255 
203 226 255 
203 226 255 
203 226 255 
203 226 255 
203 226 255 
203 226 255 
203 226 255 
203 226 255 
203 226 255 
203 226 255 
203 226 255 
203 226 255 
203 226 255 
203 226 255 
203 226 255 
203 226 255 
203 226 255 
203 226 255 
203 226 255 
203 226 255 
192 167 189 
176 0 0 
179 0 0 
172 0 0 
176 0 0 
171 0 0 
177 0 0 
185 0 0 
174 0 0 
167 0 0 
174 0 0 
179 0 0 
180 0 0 
181 0 0 
176 0 0 
182 0 0 
178 0 0 
178 0 0 
184 0 0 
179 0 0 
185 0 0 
178 0 0 
186 0 0 
182 0 0 
189 0 0 
177 0 0 
182 0 0 
185 0 0 
181 0 0 
183 0 0 
190 0 0 
181 0 0 
187 0 0 
191 0 0 
188 0 0 
184 0 0 
185 0 0 
183 0 0 
186 0 0 
185 0 0 
191 0 0 
187 0 0 
194 0 0 
191 0 0 
191 0 0 
187 0 0 
187 0 0 
188 0 0 
179 0 0 
187 0 0 
190 0 0 
184 0 0 
192 0 0 
191 0 0 
192 0 0 
187 0 0 
192 0 0 
190 0 0 
194 0 0 
188 0 0 
187 0 0 
191 0 0 
190 0 0 
189 0 0 
190 0 0 
189 0 0 
192 0 0 
191 0 0 
193 0 0 
190 0 0 
190 0 0 
197 0 0 
195 0 0 
193 0 0 
198 0 0 
188 0 0 
192 0 0 
193 0 0 
191 0 0 
196 0 0 
187 0 0 
193 0 0 
194 0 0 
189 0 0 
185 0 0 
191 0 0 
193 0 0 
195 0 0 
192 0 0 
195 0 0 
195 0 0 
196 0 0 
194 0 0 
194 0 0 
187 0 0 
191 0 0 
191 0 0 
195 0 0 
188 0 0 
196 0 0 
192 0 0 
198 0 0 
193 0 0 
190 0 0 
187 0 0 
189 0 0 
194 0 0 
193 0 0 
197 0 0 
198 0 0 
196 0 0 
191 0 0 
193 0 0 
192 0 0 
195 0 0 
191 0 0 
194 0 0 
193 0 0 
195 0 0 
193 0 0 
194 0 0 
194 0 0 
195 0 0 
197 0 0 
198 0 0 
195 0 0 
193 0 0 
194 0 0 
193 0 0 
194 0 0 
192 0 0 
193 0 0 
197 0 0 
193 0 0 
188 0 0 
192 0 0 
198 0 0 
195 0 0 
195 0 0 
193 0 0 
192 0 0 
196 0 0 
194 0 0 
193 0 0 
198 0 0 
196 0 0 
195 0 0 
192 0 0 
194 0 0 
194 0 0 
194 0 0 
195 0 0 
197 0 0 
196 0 0 
197 0 0 
195 0 0 
195 0 0 
196 0 0 
195 0 0 
196 0 0 
195 0 0 
196 0 0 
197 0 0 
193 0 0 
197 0 0 
192 0 0 
195 0 0 
194 0 0 
194 0 0 
196 0 0 
195 0 0 
193 0 0 
194 0 0 
191 0 0 
195 0 0 
195 0 0 
0 0 228 
0 0 201 
0 0 223 
0 0 212 
0 0 215 
0 0 214 
0 0 204 
0 0 207 
0 0 199 
0 0 189 
0 0 227 
0 0 201 
0 0 207 
0 0 215 
0 0 194 
0 0 221 
0 0 207 
0 0 214 
0 0 207 
0 0 201 
0 0 223 
0 0 218 
0 0 227 
0 0 221 
0 0 188 
0 0 211 
0 0 209 
0 0 217 
0 0 224 
0 0 199 
0 0 211 
0 0 204 
0 0 206 
0 0 223 
0 0 199 
0 0 209 
0 0 227 
0 0 211 
0 0 212 
0 0 220 
0 0 214 
0 0 212 
0 0 214 
0 0 215 
0 0 218 
0 0 212 
0 0 211 
0 0 214 
0 0 209 
0 0 218 
0 0 209 
0 0 226 
0 0 209 
0 0 221 
0 0 223 
0 0 212 
0 0 209 
0 0 220 
0 0 220 
0 0 217 
0 0 217 
0 0 215 
0 0 220 
0 0 215 
0 0 217 
0 0 212 
0 0 221 
0 0 206 
0 0 220 
0 0 214 
0 0 223 
0 0 211 
0 0 217 
0 0 203 
0 0 203 
0 0 212 
0 0 211 
0 0 212 
0 0 223 
0 0 201 
0 0 214 
0 0 227 
0 0 215 
0 0 209 
0 0 214 
0 0 221 
0 0 209 
0 0 215 
0 0 212 
0 0 217 
0 0 211 
0 0 215 
0 0 214 
0 0 223 
0 0 214 
0 0 211 
0 0 206 
0 0 211 
0 0 220 
0 0 218 
0 0 211 
0 0 211 
0 0 220 
0 0 212 
0 0 226 
0 0 215 
0 0 214 
0 0 211 
0 0 218 
0 0 212 
0 0 230 
0 0 204 
0 0 226 
0 0 211 
0 0 203 
0 0 227 
0 0 227 
0 0 214 
0 0 212 
0 0 221 
0 0 211 
0 0 212 
0 0 214 
0 0 215 
0 0 218 
0 0 215 
0 0 218 
0 0 214 
0 0 227 
0 0 228 
0 0 204 
0 0 209 
0 0 211 
0 0 212 
0 0 212 
0 0 214 
0 0 226 
0 0 212 
0 0 220 
0 0 212 
0 0 215 
0 0 215 
0 0 214 
0 0 220 
0 0 217 
0 0 211 
0 0 204 
0 0 211 
0 0 218 
0 0 209 
0 0 225 
0 0 204 
0 0 212 
0 0 209 
0 0 199 
0 0 213 
0 0 229 
0 0 215 
0 0 214 
0 0 206 
0 0 214 
0 0 218 
0 0 198 
0 0 220 
0 0 215 
0 0 211 
0 0 205 
0 0 212 
0 0 221 
0 0 223 
0 0 220 
0 0 220 
0 0 209 
0 0 233 
0 0 217 
0 0 231 
167 185 250 
204 226 255 
204 226 255 
204 226 255 
204 226 255 
204 226 255 
203 226 255 
203 226 255 
203 226 255 
203 226 255 
203 226 255 
203 226 255 
203 226 255 
203 226 255 
203 226 255 
203 226 255 
203 226 255 
203 226 255 
203 226 255 
203 226 255 
203 226 255 
203 226 255 
203 226 255 
203 226 255 
203 226 255 
203 226 255 
203 226 255 
203 226 255 
203 226 255 
203 226 255 
203 226 255 
203 226 255 
203 226 255 
203 226 255 
203 226 255 
203 226 255 
203 226 255 
203 226 255 
203 226 255 
203 226 255 
203 226 255 
203 226 255 
204 226 255 
204 226 255 
204 226 255 
204 226 255 
204 226 255 
197 185 209 
175 0 0 
176 0 0 
175 0 0 
174 0 0 
177 0 0 
178 0 0 
178 0 0 
169 0 0 
179 0 0 
174 0 0 
175 0 0 
178 0 0 
179 0 0 
181 0 0 
182 0 0 
183 0 0 
178 0 0 
183 0 0 
181 0 0 
182 0 0 
191 0 0 
182 0 0 
183 0 0 
187 0 0 
182 0 0 
187 0 0 
183 0 0 
181 0 0 
180 0 0 
182 0 0 
180 0 0 
187 0 0 
181 0 0 
180 0 0 
190 0 0 
191 0 0 
194 0 0 
190 0 0 
182 0 0 
184 0 0 
188 0 0 
190 0 0 
184 0 0 
190 0 0 
189 0 0 
185 0 0 
193 0 0 
192 0 0 
184 0 0 
184 0 0 
190 0 0 
189 0 0 
190 0 0 
187 0 0 
185 0 0 
193 0 0 
191 0 0 
187 0 0 
181 0 0 
190 0 0 
189 0 0 
197 0 0 
188 0 0 
187 0 0 
187 0 0 
194 0 0 
190 0 0 
187 0 0 
191 0 0 
188 0 0 
191 0 0 
187 0 0 
186 0 0 
190 0 0 
190 0 0 
191 0 0 
192 0 0 
190 0 0 
196 0 0 
193 0 0 
192 0 0 
196 0 0 
189 0 0 
195 0 0 
195 0 0 
189 0 0 
193 0 0 
190 0 0 
191 0 0 
190 0 0 
190 0 0 
194 0 0 
194 0 0 
193 0 0 
192 0 0 
196 0 0 
192 0 0 
190 0 0 
193 0 0 
194 0 0 
192 0 0 
190 0 0 
195 0 0 
194 0 0 
197 0 0 
195 0 0 
196 0 0 
190 0 0 
194 0 0 
193 0 0 
190 0 0 
195 0 0 
190 0 0 
191 0 0 
192 0 0 
194 0 0 
189 0 0 
196 0 0 
196 0 0 
194 0 0 
191 0 0 
192 0 0 
195 0 0 
195 0 0 
192 0 0 
190 0 0 
197 0 0 
189 0 0 
197 0 0 
192 0 0 
196 0 0 
195 0 0 
191 0 0 
192 0 0 
199 0 0 
196 0 0 
189 0 0 
192 0 0 
191 0 0 
191 0 0 
194 0 0 
196 0 0 
196 0 0 
194 0 0 
195 0 0 
194 0 0 
195 0 0 
192 0 0 
200 0 0 
193 0 0 
196 0 0 
198 0 0 
193 0 0 
194 0 0 
193 0 0 
190 0 0 
196 0 0 
193 0 0 
195 0 0 
194 0 0 
196 0 0 
193 0 0 
194 0 0 
193 0 0 
193 0 0 
193 0 0 
197 0 0 
193 0 0 
195 0 0 
195 0 0 
193 0 0 
193 0 0 
194 0 0 
196 0 0 
195 0 0 
190 0 0 
0 0 211 
0 0 209 
0 0 223 
0 0 201 
0 0 209 
0 0 217 
0 0 207 
0 0 209 
0 0 212 
0 0 217 
0 0 214 
0 0 211 
0 0 198 
0 0 209 
0 0 206 
0 0 218 
0 0 199 
0 0 211 
0 0 218 
0 0 211 
0 0 214 
0 0 211 
0 0 227 
0 0 204 
0 0 215 
0 0 209 
0 0 220 
0 0 220 
0 0 223 
0 0 215 
0 0 203 
0 0 226 
0 0 226 
0 0 201 
0 0 209 
0 0 227 
0 0 214 
0 0 212 
0 0 217 
0 0 214 
0 0 221 
0 0 224 
0 0 217 
0 0 203 
0 0 209 
0 0 224 
0 0 203 
0 0 214 
0 0 206 
0 0 206 
0 0 226 
0 0 221 
0 0 215 
0 0 218 
0 0 217 
0 0 227 
0 0 214 
0 0 203 
0 0 204 
0 0 212 
0 0 217 
0 0 198 
0 0 215 
0 0 214 
0 0 214 
0 0 217 
0 0 215 
0 0 215 
0 0 207 
0 0 212 
0 0 209 
0 0 196 
0 0 211 
0 0 207 
0 0 218 
0 0 204 
0 0 215 
0 0 207 
0 0 209 
0 0 217 
0 0 215 
0 0 209 
0 0 199 
0 0 212 
0 0 203 
0 0 215 
0 0 215 
0 0 206 
0 0 206 
0 0 214 
0 0 215 
0 0 217 
0 0 215 
0 0 212 
0 0 209 
0 0 215 
0 0 206 
0 0 217 
0 0 218 
0 0 212 
0 0 223 
0 0 221 
0 0 207 
0 0 212 
0 0 209 
0 0 214 
0 0 203 
0 0 211 
0 0 206 
0 0 214 
0 0 218 
0 0 212 
0 0 224 
0 0 214 
0 0 215 
0 0 220 
0 0 217 
0 0 206 
0 0 209 
0 0 215 
0 0 223 
0 0 206 
0 0 209 
0 0 212 
0 0 201 
0 0 209 
0 0 218 
0 0 209 
0 0 217 
0 0 214 
0 0 215 
0 0 220 
0 0 211 
0 0 211 
0 0 203 
0 0 223 
0 0 212 
0 0 226 
0 0 211 
0 0 211 
0 0 223 
0 0 221 
0 0 207 
0 0 199 
0 0 211 
0 0 215 
0 0 211 
0 0 214 
0 0 206 
0 0 206 
0 0 206 
0 0 204 
0 0 208 
0 0 220 
0 0 212 
0 0 214 
0 0 212 
0 0 195 
0 0 207 
0 0 199 
0 0 207 
0 0 216 
0 0 225 
0 0 220 
0 0 194 
0 0 220 
0 0 218 
0 0 206 
0 0 206 
0 0 210 
0 0 223 
0 0 213 
0 0 222 
0 0 228 
0 0 211 
0 0 220 
20 22 219 
176 196 247 
204 226 255 
204 226 255 
204 226 255 
204 226 255 
204 226 255 
204 226 255 
204 226 255 
204 226 255 
204 226 255 
204 226 255 
204 226 255 
204 226 255 
204 226 255 
204 226 255 
204 226 255 
204 226 255 
204 226 255 
204 226 255 
204 226 255 
204 226 255 
204 226 255 
204 226 255 
204 226 255 
204 226 255 
204 226 255 
204 226 255 
204 226 255 
204 226 255 
204 226 255 
204 226 255 
204 226 255 
204 226 255 
204 226 255 
204 226 255 
204 226 255 
204 226 255 
204 226 255 
204 226 255 
204 226 255 
204 226 255 
204 226 255 
204 226 255 
204 226 255 
204 226 255 
197 196 221 
176 22 25 
175 0 0 
181 0 0 
170 0 0 
174 0 0 
179 0 0 
170 0 0 
171 0 0 
183 0 0 
170 0 0 
172 0 0 
174 0 0 
177 0 0 
185 0 0 
177 0 0 
177 0 0 
183 0 0 
184 0 0 
178 0 0 
187 0 0 
180 0 0 
171 0 0 
177 0 0 
181 0 0 
181 0 0 
184 0 0 
184 0 0 
177 0 0 
186 0 0 
185 0 0 
182 0 0 
182 0 0 
184 0 0 
185 0 0 
188 0 0 
187 0 0 
186 0 0 
183 0 0 
187 0 0 
184 0 0 
188 0 0 
187 0 0 
189 0 0 
188 0 0 
194 0 0 
186 0 0 
187 0 0 
185 0 0 
190 0 0 
189 0 0 
189 0 0 
185 0 0 
187 0 0 
191 0 0 
192 0 0 
188 0 0 
187 0 0 
190 0 0 
185 0 0 
190 0 0 
194 0 0 
191 0 0 
190 0 0 
195 0 0 
192 0 0 
184 0 0 
185 0 0 
188 0 0 
191 0 0 
193 0 0 
193 0 0 
191 0 0 
192 0 0 
195 0 0 
194 0 0 
192 0 0 
191 0 0 
188 0 0 
186 0 0 
192 0 0 
192 0 0 
189 0 0 
190 0 0 
190 0 0 
192 0 0 
190 0 0 
184 0 0 
192 0 0 
192 0 0 
187 0 0 
192 0 0 
192 0 0 
195 0 0 
193 0 0 
199 0 0 
191 0 0 
190 0 0 
193 0 0 
195 0 0 
195 0 0 
193 0 0 
190 0 0 
196 0 0 
196 0 0 
194 0 0 
192 0 0 
186 0 0 
195 0 0 
197 0 0 
191 0 0 
193 0 0 
197 0 0 
194 0 0 
198 0 0 
194 0 0 
193 0 0 
197 0 0 
189 0 0 
193 0 0 
195 0 0 
194 0 0 
189 0 0 
194 0 0 
193 0 0 
192 0 0 
196 0 0 
194 0 0 
196 0 0 
192 0 0 
190 0 0 
200 0 0 
196 0 0 
192 0 0 
192 0 0 
190 0 0 
193 0 0 
194 0 0 
193 0 0 
193 0 0 
193 0 0 
191 0 0 
194 0 0 
193 0 0 
192 0 0 
194 0 0 
194 0 0 
196 0 0 
200 0 0 
197 0 0 
193 0 0 
193 0 0 
192 0 0 
196 0 0 
198 0 0 
194 0 0 
196 0 0 
192 0 0 
193 0 0 
195 0 0 
195 0 0 
198 0 0 
192 0 0 
189 0 0 
190 0 0 
194 0 0 
196 0 0 
193 0 0 
193 0 0 
196 0 0 
195 0 0 
191 0 0 
195 0 0 
200 0 0 
196 0 0 
193 0 0 
193 0 0 
194 0 0 
0 0 207 
0 0 204 
0 0 207 
0 0 211 
0 0 226 
0 0 207 
0 0 217 
0 0 212 
0 0 215 
0 0 206 
0 0 211 
0 0 226 
0 0 206 
0 0 211 
0 0 211 
0 0 199 
0 0 211 
0 0 215 
0 0 223 
0 0 214 
0 0 220 
0 0 214 
0 0 233 
0 0 215 
0 0 204 
0 0 217 
0 0 201 
0 0 209 
0 0 214 
0 0 214 
0 0 224 
0 0 217 
0 0 218 
0 0 215 
0 0 223 
0 0 218 
0 0 215 
0 0 203 
0 0 223 
0 0 223 
0 0 224 
0 0 206 
0 0 217 
0 0 211 
0 0 209 
0 0 217 
0 0 211 
0 0 215 
0 0 227 
0 0 218 
0 0 211 
0 0 212 
0 0 214 
0 0 214 
0 0 218 
0 0 218 
0 0 215 
0 0 211 
0 0 217 
0 0 220 
0 0 211 
0 0 217 
0 0 218 
0 0 209 
0 0 215 
0 0 204 
0 0 201 
0 0 220 
0 0 220 
0 0 214 
0 0 209 
0 0 214 
0 0 218 
0 0 211 
0 0 218 
0 0 224 
0 0 215 
0 0 220 
0 0 224 
0 0 209 
0 0 198 
0 0 221 
0 0 206 
0 0 206 
0 0 207 
0 0 196 
0 0 218 
0 0 221 
0 0 211 
0 0 218 
0 0 206 
0 0 207 
0 0 207 
0 0 218 
0 0 214 
0 0 211 
0 0 198 
0 0 220 
0 0 215 
0 0 215 
0 0 223 
0 0 220 
0 0 214 
0 0 211 
0 0 204 
0 0 218 
0 0 212 
0 0 206 
0 0 220 
0 0 220 
0 0 220 
0 0 218 
0 0 214 
0 0 211 
0 0 215 
0 0 217 
0 0 204 
0 0 228 
0 0 226 
0 0 211 
0 0 196 
0 0 217 
0 0 209 
0 0 215 
0 0 212 
0 0 209 
0 0 211 
0 0 221 
0 0 217 
0 0 226 
0 0 215 
0 0 207 
0 0 223 
0 0 230 
0 0 211 
0 0 209 
0 0 211 
0 0 227 
0 0 203 
0 0 199 
0 0 206 
0 0 220 
0 0 211 
0 0 207 
0 0 214 
0 0 193 
0 0 224 
0 0 225 
0 0 217 
0 0 204 
0 0 219 
0 0 218 
0 0 217 
0 0 207 
0 0 211 
0 0 209 
0 0 218 
0 0 213 
0 0 210 
0 0 207 
0 0 212 
0 0 202 
0 0 228 
0 0 207 
0 0 216 
0 0 215 
0 0 211 
0 0 214 
0 0 218 
0 0 212 
0 0 214 
0 0 217 
0 0 217 
0 0 226 
0 0 220 
0 0 218 
0 0 220 
40 45 222 
188 208 252 
204 226 255 
204 226 255 
204 226 255 
204 226 255 
204 226 255 
204 226 255 
204 226 255 
204 226 255 
204 226 255 
204 226 255 
204 226 255 
204 226 255 
204 226 255 
204 226 255 
204 226 255 
204 226 255 
204 226 255 
204 226 255 
204 226 255 
204 226 255 
204 226 255 
204 226 255 
204 226 255 
204 226 255 
204 226 255 
204 226 255 
204 226 255 
204 226 255 
204 226 255 
204 226 255 
204 226 255 
204 226 255 
204 226 255 
204 226 255 
204 226 255 
204 226 255 
204 226 255 
204 226 255 
204 226 255 
204 226 255 
204 226 255 
204 226 255 
200 212 240 
179 59 67 
175 0 0 
179 0 0 
181 0 0 
173 0 0 
171 0 0 
173 0 0 
177 0 0 
170 0 0 
176 0 0 
182 0 0 
183 0 0 
177 0 0 
172 0 0 
183 0 0 
185 0 0 
181 0 0 
187 0 0 
181 0 0 
176 0 0 
175 0 0 
181 0 0 
185 0 0 
181 0 0 
188 0 0 
185 0 0 
186 0 0 
180 0 0 
177 0 0 
190 0 0 
183 0 0 
186 0 0 
182 0 0 
183 0 0 
187 0 0 
182 0 0 
190 0 0 
189 0 0 
189 0 0 
180 0 0 
179 0 0 
184 0 0 
181 0 0 
185 0 0 
189 0 0 
183 0 0 
186 0 0 
184 0 0 
189 0 0 
190 0 0 
180 0 0 
191 0 0 
189 0 0 
189 0 0 
191 0 0 
186 0 0 
190 0 0 
184 0 0 
188 0 0 
187 0 0 
195 0 0 
193 0 0 
192 0 0 
191 0 0 
193 0 0 
187 0 0 
194 0 0 
191 0 0 
190 0 0 
194 0 0 
187 0 0 
190 0 0 
190 0 0 
195 0 0 
187 0 0 
189 0 0 
191 0 0 
191 0 0 
188 0 0 
191 0 0 
191 0 0 
187 0 0 
191 0 0 
187 0 0 
189 0 0 
192 0 0 
192 0 0 
194 0 0 
188 0 0 
190 0 0 
190 0 0 
195 0 0 
192 0 0 
194 0 0 
192 0 0 
195 0 0 
186 0 0 
190 0 0 
191 0 0 
194 0 0 
194 0 0 
191 0 0 
195 0 0 
191 0 0 
196 0 0 
191 0 0 
191 0 0 
188 0 0 
191 0 0 
192 0 0 
190 0 0 
189 0 0 
189 0 0 
193 0 0 
194 0 0 
193 0 0 
190 0 0 
193 0 0 
194 0 0 
192 0 0 
190 0 0 
193 0 0 
193 0 0 
195 0 0 
194 0 0 
192 0 0 
192 0 0 
191 0 0 
193 0 0 
195 0 0 
196 0 0 
195 0 0 
197 0 0 
195 0 0 
194 0 0 
197 0 0 
194 0 0 
192 0 0 
195 0 0 
191 0 0 
196 0 0 
193 0 0 
190 0 0 
196 0 0 
197 0 0 
193 0 0 
193 0 0 
197 0 0 
196 0 0 
195 0 0 
193 0 0 
197 0 0 
199 0 0 
191 0 0 
193 0 0 
196 0 0 
195 0 0 
192 0 0 
194 0 0 
195 0 0 
194 0 0 
194 0 0 
193 0 0 
193 0 0 
190 0 0 
193 0 0 
196 0 0 
200 0 0 
197 0 0 
194 0 0 
193 0 0 
195 0 0 
199 0 0 
197 0 0 
198 0 0 
193 0 0 
194 0 0 
199 0 0 
0 0 207 
0 0 218 
0 0 214 
0 0 204 
0 0 204 
0 0 198 
0 0 209 
0 0 221 
0 0 211 
0 0 221 
0 0 211 
0 0 217 
0 0 199 
0 0 217 
0 0 215 
0 0 228 
0 0 211 
0 0 215 
0 0 198 
0 0 203 
0 0 220 
0 0 211 
0 0 209 
0 0 193 
0 0 226 
0 0 212 
0 0 204 
0 0 226 
0 0 220 
0 0 224 
0 0 220 
0 0 212 
0 0 215 
0 0 215 
0 0 212 
0 0 221 
0 0 214 
0 0 217 
0 0 215 
0 0 209 
0 0 217 
0 0 209 
0 0 209 
0 0 217 
0 0 204 
0 0 214 
0 0 209 
0 0 211 
0 0 224 
0 0 212 
0 0 215 
0 0 223 
0 0 206 
0 0 228 
0 0 204 
0 0 217 
0 0 199 
0 0 203 
0 0 223 
0 0 201 
0 0 209 
0 0 203 
0 0 212 
0 0 189 
0 0 206 
0 0 214 
0 0 212 
0 0 204 
0 0 203 
0 0 201 
0 0 214 
0 0 214 
0 0 209 
0 0 214 
0 0 211 
0 0 215 
0 0 206 
0 0 207 
0 0 212 
0 0 212 
0 0 218 
0 0 218 
0 0 204 
0 0 212 
0 0 203 
0 0 220 
0 0 215 
0 0 203 
0 0 214 
0 0 218 
0 0 214 
0 0 211 
0 0 212 
0 0 218 
0 0 207 
0 0 220 
0 0 221 
0 0 209 
0 0 212 
0 0 206 
0 0 211 
0 0 207 
0 0 209 
0 0 207 
0 0 220 
0 0 218 
0 0 218 
0 0 214 
0 0 215 
0 0 209 
0 0 212 
0 0 214 
0 0 223 
0 0 215 
0 0 220 
0 0 211 
0 0 223 
0 0 207 
0 0 211 
0 0 226 
0 0 217 
0 0 215 
0 0 214 
0 0 217 
0 0 223 
0 0 214 
0 0 204 
0 0 212 
0 0 226 
0 0 209 
0 0 211 
0 0 214 
0 0 211 
0 0 215 
0 0 207 
0 0 212 
0 0 204 
0 0 215 
0 0 215 
0 0 228 
0 0 217 
0 0 218 
0 0 211 
0 0 217 
0 0 217 
0 0 219 
0 0 217 
0 0 214 
0 0 215 
0 0 204 
0 0 215 
0 0 211 
0 0 207 
0 0 225 
0 0 214 
0 0 223 
0 0 212 
0 0 204 
0 0 211 
0 0 214 
0 0 206 
0 0 211 
0 0 224 
0 0 209 
0 0 213 
0 0 221 
0 0 223 
0 0 217 
0 0 216 
0 0 218 
0 0 206 
0 0 223 
0 0 219 
0 0 226 
0 0 221 
0 0 220 
0 0 217 
0 0 225 
84 93 223 
193 213 254 
204 226 255 
204 226 255 
204 226 255 
204 226 255 
204 226 255 
204 226 255 
204 226 255 
204 226 255 
204 226 255 
204 226 255 
204 226 255 
204 226 255 
204 226 255 
204 226 255 
204 226 255 
204 226 255 
204 226 255 
204 226 255 
204 226 255 
204 226 255 
204 226 255 
204 226 255 
204 226 255 
204 226 255 
204 226 255 
204 226 255 
204 226 255 
204 226 255 
204 226 255 
204 226 255 
204 226 255 
204 226 255 
204 226 255 
204 226 255 
204 226 255 
204 226 255 
204 226 255 
204 226 255 
204 226 255 
204 226 255 
203 219 248 
178 87 99 
172 0 0 
175 0 0 
175 0 0 
174 0 0 
179 0 0 
177 0 0 
179 0 0 
176 0 0 
175 0 0 
181 0 0 
173 0 0 
171 0 0 
181 0 0 
183 0 0 
172 0 0 
176 0 0 
177 0 0 
181 0 0 
188 0 0 
181 0 0 
188 0 0 
187 0 0 
185 0 0 
188 0 0 
185 0 0 
185 0 0 
181 0 0 
180 0 0 
181 0 0 
188 0 0 
187 0 0 
182 0 0 
188 0 0 
188 0 0 
184 0 0 
188 0 0 
183 0 0 
182 0 0 
186 0 0 
183 0 0 
188 0 0 
194 0 0 
182 0 0 
180 0 0 
191 0 0 
189 0 0 
185 0 0 
192 0 0 
188 0 0 
186 0 0 
183 0 0 
193 0 0 
190 0 0 
186 0 0 
189 0 0 
188 0 0 
196 0 0 
185 0 0 
196 0 0 
186 0 0 
193 0 0 
189 0 0 
186 0 0 
188 0 0 
193 0 0 
187 0 0 
189 0 0 
193 0 0 
188 0 0 
188 0 0 
190 0 0 
187 0 0 
187 0 0 
193 0 0 
189 0 0 
190 0 0 
192 0 0 
191 0 0 
188 0 0 
189 0 0 
190 0 0 
189 0 0 
192 0 0 
192 0 0 
194 0 0 
192 0 0 
192 0 0 
196 0 0 
192 0 0 
191 0 0 
190 0 0 
191 0 0 
192 0 0 
193 0 0 
192 0 0 
190 0 0 
188 0 0 
192 0 0 
197 0 0 
193 0 0 
187 0 0 
193 0 0 
194 0 0 
188 0 0 
196 0 0 
191 0 0 
194 0 0 
192 0 0 
194 0 0 
192 0 0 
194 0 0 
194 0 0 
193 0 0 
190 0 0 
197 0 0 
193 0 0 
199 0 0 
192 0 0 
193 0 0 
197 0 0 
194 0 0 
188 0 0 
191 0 0 
195 0 0 
193 0 0 
193 0 0 
194 0 0 
192 0 0 
192 0 0 
192 0 0 
194 0 0 
195 0 0 
192 0 0 
196 0 0 
193 0 0 
192 0 0 
189 0 0 
193 0 0 
192 0 0 
193 0 0 
195 0 0 
191 0 0 
195 0 0 
191 0 0 
192 0 0 
189 0 0 
197 0 0 
193 0 0 
195 0 0 
196 0 0 
195 0 0 
193 0 0 
198 0 0 
195 0 0 
193 0 0 
192 0 0 
193 0 0 
193 0 0 
196 0 0 
191 0 0 
195 0 0 
195 0 0 
193 0 0 
197 0 0 
192 0 0 
195 0 0 
195 0 0 
194 0 0 
196 0 0 
196 0 0 
194 0 0 
195 0 0 
196 0 0 
192 0 0 
195 0 0 
196 0 0 
194 0 0 
194 0 0 
0 0 204 
0 0 211 
0 0 217 
0 0 218 
0 0 220 
0 0 203 
0 0 198 
0 0 217 
0 0 212 
0 0 212 
0 0 212 
0 0 207 
0 0 212 
0 0 203 
0 0 206 
0 0 220 
0 0 209 
0 0 207 
0 0 204 
0 0 224 
0 0 209 
0 0 214 
0 0 199 
0 0 221 
0 0 203 
0 0 209 
0 0 220 
0 0 212 
0 0 211 
0 0 207 
0 0 204 
0 0 203 
0 0 212 
0 0 212 
0 0 203 
0 0 203 
0 0 203 
0 0 204 
0 0 211 
0 0 211 
0 0 212 
0 0 209 
0 0 198 
0 0 220 
0 0 217 
0 0 198 
0 0 215 
0 0 203 
0 0 207 
0 0 221 
0 0 214 
0 0 230 
0 0 207 
0 0 212 
0 0 215 
0 0 212 
0 0 221 
0 0 193 
0 0 215 
0 0 206 
0 0 207 
0 0 218 
0 0 215 
0 0 227 
0 0 214 
0 0 191 
0 0 221 
0 0 209 
0 0 214 
0 0 204 
0 0 217 
0 0 204 
0 0 214 
0 0 209 
0 0 212 
0 0 221 
0 0 211 
0 0 199 
0 0 194 
0 0 223 
0 0 215 
0 0 218 
0 0 204 
0 0 211 
0 0 199 
0 0 214 
0 0 209 
0 0 220 
0 0 196 
0 0 212 
0 0 217 
0 0 214 
0 0 220 
0 0 221 
0 0 212 
0 0 221 
0 0 211 
0 0 218 
0 0 207 
0 0 218 
0 0 215 
0 0 211 
0 0 203 
0 0 214 
0 0 212 
0 0 215 
0 0 221 
0 0 206 
0 0 211 
0 0 221 
0 0 198 
0 0 203 
0 0 214 
0 0 209 
0 0 211 
0 0 214 
0 0 201 
0 0 214 
0 0 203 
0 0 209 
0 0 221 
0 0 204 
0 0 215 
0 0 231 
0 0 218 
0 0 207 
0 0 220 
0 0 211 
0 0 209 
0 0 217 
0 0 212 
0 0 214 
0 0 217 
0 0 209 
0 0 223 
0 0 215 
0 0 215 
0 0 209 
0 0 211 
0 0 224 
0 0 220 
0 0 207 
0 0 220 
0 0 209 
0 0 209 
0 0 207 
0 0 214 
0 0 221 
0 0 214 
0 0 215 
0 0 217 
0 0 211 
0 0 223 
0 0 206 
0 0 209 
0 0 214 
0 0 201 
0 0 222 
0 0 209 
0 0 218 
0 0 227 
0 0 199 
0 0 209 
0 0 215 
0 0 215 
0 0 219 
0 0 225 
0 0 208 
0 0 210 
0 0 201 
0 0 209 
0 0 205 
0 0 216 
0 0 224 
0 0 213 
0 0 211 
0 0 217 
0 0 226 
0 0 216 
110 122 228 
202 224 255 
205 226 255 
205 226 255 
204 226 255 
204 226 255 
204 226 255 
204 226 255 
204 226 255 
204 226 255 
204 226 255 
204 226 255 
204 226 255 
204 226 255 
204 226 255 
204 226 255 
204 226 255 
204 226 255 
204 226 255 
204 226 255 
204 226 255 
204 226 255 
204 226 255 
204 226 255 
204 226 255 
204 226 255 
204 226 255 
204 226 255 
204 226 255 
204 226 255 
204 226 255 
204 226 255 
204 226 255 
204 226 255 
204 226 255 
204 226 255 
204 226 255 
204 226 255 
204 226 255 
205 226 255 
205 226 255 
181 115 130 
167 0 0 
164 0 0 
183 0 0 
176 0 0 
171 0 0 
161 0 0 
173 0 0 
171 0 0 
176 0 0 
169 0 0 
179 0 0 
182 0 0 
179 0 0 
180 0 0 
172 0 0 
184 0 0 
184 0 0 
176 0 0 
181 0 0 
184 0 0 
180 0 0 
171 0 0 
174 0 0 
182 0 0 
177 0 0 
183 0 0 
183 0 0 
186 0 0 
186 0 0 
185 0 0 
186 0 0 
183 0 0 
186 0 0 
195 0 0 
190 0 0 
181 0 0 
184 0 0 
187 0 0 
186 0 0 
183 0 0 
183 0 0 
185 0 0 
180 0 0 
183 0 0 
187 0 0 
184 0 0 
190 0 0 
186 0 0 
187 0 0 
187 0 0 
191 0 0 
189 0 0 
185 0 0 
193 0 0 
194 0 0 
190 0 0 
188 0 0 
186 0 0 
191 0 0 
192 0 0 
193 0 0 
191 0 0 
194 0 0 
189 0 0 
187 0 0 
192 0 0 
188 0 0 
191 0 0 
186 0 0 
194 0 0 
188 0 0 
186 0 0 
194 0 0 
187 0 0 
192 0 0 
193 0 0 
194 0 0 
194 0 0 
190 0 0 
192 0 0 
189 0 0 
196 0 0 
190 0 0 
191 0 0 
185 0 0 
194 0 0 
192 0 0 
193 0 0 
194 0 0 
190 0 0 
191 0 0 
193 0 0 
190 0 0 
191 0 0 
190 0 0 
187 0 0 
194 0 0 
190 0 0 
191 0 0 
193 0 0 
192 0 0 
193 0 0 
193 0 0 
197 0 0 
192 0 0 
194 0 0 
190 0 0 
192 0 0 
194 0 0 
194 0 0 
195 0 0 
191 0 0 
194 0 0 
192 0 0 
191 0 0 
195 0 0 
193 0 0 
197 0 0 
186 0 0 
192 0 0 
194 0 0 
196 0 0 
198 0 0 
191 0 0 
190 0 0 
194 0 0 
193 0 0 
193 0 0 
190 0 0 
193 0 0 
197 0 0 
192 0 0 
197 0 0 
196 0 0 
195 0 0 
193 0 0 
195 0 0 
192 0 0 
193 0 0 
192 0 0 
191 0 0 
194 0 0 
196 0 0 
194 0 0 
194 0 0 
193 0 0 
191 0 0 
194 0 0 
196 0 0 
195 0 0 
196 0 0 
193 0 0 
193 0 0 
193 0 0 
191 0 0 
191 0 0 
195 0 0 
193 0 0 
190 0 0 
196 0 0 
193 0 0 
195 0 0 
192 0 0 
199 0 0 
196 0 0 
197 0 0 
192 0 0 
193 0 0 
191 0 0 
194 0 0 
192 0 0 
196 0 0 
196 0 0 
197 0 0 
193 0 0 
197 0 0 
192 0 0 
197 0 0 
196 0 0 
0 0 199 
0 0 218 
0 0 206 
0 0 211 
0 0 201 
0 0 221 
0 0 191 
0 0 214 
0 0 203 
0 0 214 
0 0 217 
0 0 230 
0 0 209 
0 0 211 
0 0 204 
0 0 221 
0 0 221 
0 0 207 
0 0 214 
0 0 218 
0 0 203 
0 0 209 
0 0 207 
0 0 215 
0 0 209 
0 0 211 
0 0 211 
0 0 212 
0 0 201 
0 0 214 
0 0 209 
0 0 223 
0 0 204 
0 0 211 
0 0 215 
0 0 212 
0 0 212 
0 0 203 
0 0 214 
0 0 212 
0 0 204 
0 0 211 
0 0 201 
0 0 217 
0 0 198 
0 0 218 
0 0 217 
0 0 209 
0 0 204 
0 0 211 
0 0 215 
0 0 211 
0 0 211 
0 0 214 
0 0 209 
0 0 204 
0 0 220 
0 0 201 
0 0 217 
0 0 226 
0 0 217 
0 0 218 
0 0 224 
0 0 212 
0 0 223 
0 0 207 
0 0 212 
0 0 207 
0 0 203 
0 0 221 
0 0 209 
0 0 211 
0 0 212 
0 0 211 
0 0 203 
0 0 211 
0 0 217 
0 0 217 
0 0 220 
0 0 203 
0 0 211 
0 0 204 
0 0 220 
0 0 231 
0 0 203 
0 0 201 
0 0 217 
0 0 209 
0 0 211 
0 0 227 
0 0 209 
0 0 215 
0 0 214 
0 0 212 
0 0 207 
0 0 204 
0 0 199 
0 0 198 
0 0 217 
0 0 207 
0 0 217 
0 0 201 
0 0 207 
0 0 223 
0 0 201 
0 0 207 
0 0 211 
0 0 203 
0 0 207 
0 0 211 
0 0 212 
0 0 220 
0 0 214 
0 0 212 
0 0 203 
0 0 215 
0 0 199 
0 0 215 
0 0 209 
0 0 218 
0 0 215 
0 0 217 
0 0 211 
0 0 214 
0 0 209 
0 0 206 
0 0 206 
0 0 221 
0 0 228 
0 0 212 
0 0 194 
0 0 212 
0 0 215 
0 0 217 
0 0 221 
0 0 196 
0 0 217 
0 0 206 
0 0 228 
0 0 217 
0 0 199 
0 0 205 
0 0 218 
0 0 198 
0 0 206 
0 0 188 
0 0 214 
0 0 211 
0 0 214 
0 0 217 
0 0 221 
0 0 214 
0 0 186 
0 0 212 
0 0 201 
0 0 220 
0 0 202 
0 0 220 
0 0 212 
0 0 220 
0 0 217 
0 0 223 
0 0 206 
0 0 211 
0 0 208 
0 0 215 
0 0 209 
0 0 214 
0 0 214 
0 0 200 
0 0 199 
0 0 213 
0 0 212 
0 0 207 
0 0 203 
0 0 210 
0 0 220 
0 0 214 
0 0 213 
0 0 209 
139 153 238 
205 226 255 
205 226 255 
205 226 255 
205 226 255 
205 226 255 
205 226 255 
205 226 255 
205 226 255 
205 226 255 
205 226 255 
205 226 255 
205 226 255 
205 226 255 
205 226 255 
205 226 255 
205 226 255 
205 226 255 
205 226 255 
205 226 255 
205 226 255 
205 226 255 
205 226 255 
205 226 255 
205 226 255 
205 226 255 
205 226 255 
205 226 255 
205 226 255 
205 226 255 
205 226 255 
205 226 255 
205 226 255 
205 226 255 
205 226 255 
205 226 255 
205 226 255 
205 226 255 
205 226 255 
187 171 193 
175 0 0 
164 0 0 
166 0 0 
163 0 0 
172 0 0 
181 0 0 
166 0 0 
181 0 0 
179 0 0 
179 0 0 
173 0 0 
181 0 0 
175 0 0 
178 0 0 
184 0 0 
176 0 0 
183 0 0 
177 0 0 
178 0 0 
177 0 0 
176 0 0 
178 0 0 
178 0 0 
185 0 0 
179 0 0 
180 0 0 
176 0 0 
183 0 0 
188 0 0 
179 0 0 
179 0 0 
188 0 0 
191 0 0 
176 0 0 
184 0 0 
182 0 0 
184 0 0 
187 0 0 
188 0 0 
191 0 0 
187 0 0 
182 0 0 
185 0 0 
191 0 0 
184 0 0 
192 0 0 
183 0 0 
183 0 0 
183 0 0 
183 0 0 
184 0 0 
191 0 0 
190 0 0 
186 0 0 
187 0 0 
192 0 0 
184 0 0 
191 0 0 
194 0 0 
192 0 0 
181 0 0 
189 0 0 
192 0 0 
191 0 0 
183 0 0 
192 0 0 
194 0 0 
191 0 0 
191 0 0 
189 0 0 
193 0 0 
190 0 0 
188 0 0 
190 0 0 
188 0 0 
190 0 0 
190 0 0 
186 0 0 
187 0 0 
189 0 0 
193 0 0 
185 0 0 
188 0 0 
194 0 0 
191 0 0 
191 0 0 
191 0 0 
192 0 0 
187 0 0 
189 0 0 
194 0 0 
192 0 0 
194 0 0 
186 0 0 
194 0 0 
190 0 0 
192 0 0 
188 0 0 
190 0 0 
189 0 0 
194 0 0 
187 0 0 
196 0 0 
193 0 0 
189 0 0 
191 0 0 
191 0 0 
195 0 0 
195 0 0 
189 0 0 
190 0 0 
193 0 0 
189 0 0 
195 0 0 
193 0 0 
192 0 0 
195 0 0 
193 0 0 
192 0 0 
187 0 0 
194 0 0 
191 0 0 
190 0 0 
195 0 0 
197 0 0 
189 0 0 
195 0 0 
194 0 0 
189 0 0 
192 0 0 
194 0 0 
189 0 0 
195 0 0 
197 0 0 
192 0 0 
194 0 0 
200 0 0 
196 0 0 
192 0 0 
195 0 0 
191 0 0 
192 0 0 
197 0 0 
192 0 0 
192 0 0 
190 0 0 
190 0 0 
198 0 0 
192 0 0 
197 0 0 
194 0 0 
196 0 0 
192 0 0 
196 0 0 
189 0 0 
191 0 0 
191 0 0 
195 0 0 
192 0 0 
194 0 0 
193 0 0 
192 0 0 
192 0 0 
194 0 0 
193 0 0 
191 0 0 
196 0 0 
193 0 0 
195 0 0 
190 0 0 
196 0 0 
194 0 0 
192 0 0 
196 0 0 
194 0 0 
193 0 0 
195 0 0 
196 0 0 
194 0 0 
197 0 0 
0 0 228 
0 0 207 
0 0 206 
0 0 217 
0 0 217 
0 0 207 
0 0 217 
0 0 212 
0 0 212 
0 0 212 
0 0 211 
0 0 215 
0 0 207 
0 0 212 
0 0 209 
0 0 201 
0 0 203 
0 0 218 
0 0 196 
0 0 220 
0 0 214 
0 0 214 
0 0 209 
0 0 211 
0 0 204 
0 0 218 
0 0 218 
0 0 203 
0 0 204 
0 0 217 
0 0 206 
0 0 214 
0 0 218 
0 0 214 
0 0 203 
0 0 211 
0 0 207 
0 0 203 
0 0 206 
0 0 206 
0 0 203 
0 0 189 
0 0 223 
0 0 204 
0 0 203 
0 0 207 
0 0 207 
0 0 209 
0 0 212 
0 0 204 
0 0 211 
0 0 220 
0 0 204 
0 0 203 
0 0 209 
0 0 198 
0 0 218 
0 0 214 
0 0 214 
0 0 209 
0 0 207 
0 0 211 
0 0 209 
0 0 206 
0 0 206 
0 0 214 
0 0 199 
0 0 212 
0 0 204 
0 0 217 
0 0 224 
0 0 201 
0 0 204 
0 0 214 
0 0 212 
0 0 209 
0 0 212 
0 0 217 
0 0 203 
0 0 204 
0 0 209 
0 0 212 
0 0 206 
0 0 215 
0 0 217 
0 0 209 
0 0 218 
0 0 215 
0 0 207 
0 0 215 
0 0 215 
0 0 211 
0 0 209 
0 0 211 
0 0 220 
0 0 182 
0 0 214 
0 0 217 
0 0 198 
0 0 217 
0 0 221 
0 0 194 
0 0 211 
0 0 203 
0 0 203 
0 0 224 
0 0 209 
0 0 203 
0 0 218 
0 0 221 
0 0 214 
0 0 209 
0 0 223 
0 0 215 
0 0 201 
0 0 218 
0 0 212 
0 0 196 
0 0 207 
0 0 204 
0 0 211 
0 0 204 
0 0 203 
0 0 215 
0 0 217 
0 0 215 
0 0 214 
0 0 215 
0 0 218 
0 0 214 
0 0 209 
0 0 212 
0 0 198 
0 0 211 
0 0 212 
0 0 212 
0 0 217 
0 0 207 
0 0 203 
0 0 199 
0 0 212 
0 0 205 
0 0 211 
0 0 206 
0 0 217 
0 0 211 
0 0 223 
0 0 218 
0 0 214 
0 0 208 
0 0 221 
0 0 218 
0 0 204 
0 0 204 
0 0 209 
0 0 215 
0 0 208 
0 0 207 
0 0 209 
0 0 212 
0 0 207 
0 0 199 
0 0 224 
0 0 223 
0 0 212 
0 0 211 
0 0 201 
0 0 212 
0 0 221 
0 0 215 
0 0 210 
0 0 206 
0 0 216 
0 0 213 
0 0 214 
0 0 219 
0 0 220 
0 0 209 
0 0 211 
0 0 220 
29 32 220 
174 192 245 
205 227 255 
205 227 255 
205 227 255 
205 227 255 
205 227 255 
205 227 255 
205 227 255 
205 227 255 
205 227 255 
205 226 255 
205 226 255 
205 226 255 
205 226 255 
205 226 255 
205 226 255 
205 226 255 
205 226 255 
205 226 255 
205 226 255 
205 226 255 
205 226 255 
205 226 255 
205 226 255 
205 226 255 
205 226 255 
205 226 255 
205 226 255 
205 226 255 
205 227 255 
205 227 255 
205 227 255 
205 227 255 
205 227 255 
205 227 255 
205 227 255 
205 227 255 
193 193 218 
169 45 51 
163 0 0 
161 0 0 
155 0 0 
176 0 0 
178 0 0 
171 0 0 
179 0 0 
177 0 0 
178 0 0 
176 0 0 
174 0 0 
187 0 0 
170 0 0 
175 0 0 
176 0 0 
184 0 0 
186 0 0 
179 0 0 
182 0 0 
178 0 0 
181 0 0 
169 0 0 
181 0 0 
176 0 0 
184 0 0 
182 0 0 
180 0 0 
181 0 0 
181 0 0 
194 0 0 
183 0 0 
179 0 0 
189 0 0 
186 0 0 
183 0 0 
181 0 0 
181 0 0 
179 0 0 
183 0 0 
186 0 0 
185 0 0 
183 0 0 
186 0 0 
184 0 0 
182 0 0 
190 0 0 
181 0 0 
178 0 0 
185 0 0 
192 0 0 
185 0 0 
192 0 0 
187 0 0 
186 0 0 
188 0 0 
189 0 0 
191 0 0 
183 0 0 
186 0 0 
185 0 0 
193 0 0 
185 0 0 
191 0 0 
186 0 0 
189 0 0 
187 0 0 
188 0 0 
195 0 0 
185 0 0 
186 0 0 
190 0 0 
190 0 0 
191 0 0 
191 0 0 
186 0 0 
187 0 0 
195 0 0 
190 0 0 
191 0 0 
190 0 0 
190 0 0 
190 0 0 
194 0 0 
189 0 0 
192 0 0 
186 0 0 
192 0 0 
190 0 0 
192 0 0 
192 0 0 
192 0 0 
193 0 0 
189 0 0 
195 0 0 
192 0 0 
193 0 0 
191 0 0 
195 0 0 
191 0 0 
190 0 0 
192 0 0 
195 0 0 
188 0 0 
195 0 0 
191 0 0 
189 0 0 
192 0 0 
190 0 0 
187 0 0 
194 0 0 
188 0 0 
187 0 0 
191 0 0 
190 0 0 
192 0 0 
190 0 0 
196 0 0 
196 0 0 
193 0 0 
190 0 0 
189 0 0 
192 0 0 
189 0 0 
190 0 0 
194 0 0 
189 0 0 
194 0 0 
194 0 0 
193 0 0 
192 0 0 
193 0 0 
191 0 0 
190 0 0 
191 0 0 
196 0 0 
192 0 0 
192 0 0 
193 0 0 
195 0 0 
190 0 0 
192 0 0 
186 0 0 
191 0 0 
191 0 0 
192 0 0 
191 0 0 
194 0 0 
197 0 0 
192 0 0 
192 0 0 
196 0 0 
197 0 0 
194 0 0 
191 0 0 
192 0 0 
194 0 0 
192 0 0 
196 0 0 
196 0 0 
195 0 0 
192 0 0 
198 0 0 
194 0 0 
195 0 0 
198 0 0 
191 0 0 
194 0 0 
191 0 0 
196 0 0 
197 0 0 
196 0 0 
193 0 0 
195 0 0 
199 0 0 
192 0 0 
188 0 0 
197 0 0 
195 0 0 
195 0 0 
197 0 0 
0 0 217 
0 0 201 
0 0 198 
0 0 207 
0 0 224 
0 0 206 
0 0 209 
0 0 203 
0 0 217 
0 0 204 
0 0 214 
0 0 212 
0 0 217 
0 0 212 
0 0 207 
0 0 204 
0 0 193 
0 0 204 
0 0 207 
0 0 201 
0 0 199 
0 0 211 
0 0 207 
0 0 215 
0 0 220 
0 0 207 
0 0 207 
0 0 226 
0 0 204 
0 0 212 
0 0 212 
0 0 212 
0 0 207 
0 0 209 
0 0 207 
0 0 204 
0 0 206 
0 0 218 
0 0 206 
0 0 211 
0 0 207 
0 0 201 
0 0 224 
0 0 198 
0 0 214 
0 0 217 
0 0 199 
0 0 204 
0 0 218 
0 0 194 
0 0 209 
0 0 211 
0 0 214 
0 0 214 
0 0 214 
0 0 214 
0 0 221 
0 0 215 
0 0 217 
0 0 212 
0 0 214 
0 0 212 
0 0 207 
0 0 206 
0 0 207 
0 0 211 
0 0 204 
0 0 207 
0 0 217 
0 0 203 
0 0 214 
0 0 212 
0 0 223 
0 0 203 
0 0 215 
0 0 209 
0 0 209 
0 0 218 
0 0 209 
0 0 221 
0 0 206 
0 0 215 
0 0 207 
0 0 194 
0 0 207 
0 0 214 
0 0 198 
0 0 198 
0 0 211 
0 0 215 
0 0 221 
0 0 217 
0 0 206 
0 0 218 
0 0 215 
0 0 221 
0 0 218 
0 0 201 
0 0 206 
0 0 204 
0 0 220 
0 0 203 
0 0 218 
0 0 212 
0 0 194 
0 0 209 
0 0 220 
0 0 207 
0 0 196 
0 0 218 
0 0 206 
0 0 217 
0 0 209 
0 0 199 
0 0 212 
0 0 203 
0 0 201 
0 0 212 
0 0 214 
0 0 209 
0 0 209 
0 0 206 
0 0 207 
0 0 209 
0 0 211 
0 0 204 
0 0 212 
0 0 206 
0 0 214 
0 0 207 
0 0 207 
0 0 212 
0 0 203 
0 0 211 
0 0 199 
0 0 207 
0 0 203 
0 0 217 
0 0 217 
0 0 221 
0 0 217 
0 0 218 
0 0 209 
0 0 189 
0 0 214 
0 0 211 
0 0 214 
0 0 214 
0 0 203 
0 0 212 
0 0 203 
0 0 212 
0 0 207 
0 0 203 
0 0 201 
0 0 219 
0 0 217 
0 0 201 
0 0 211 
0 0 208 
0 0 195 
0 0 202 
0 0 211 
0 0 205 
0 0 192 
0 0 213 
0 0 230 
0 0 194 
0 0 221 
0 0 220 
0 0 222 
0 0 202 
0 0 208 
0 0 219 
0 0 211 
0 0 197 
0 0 203 
0 0 214 
0 0 211 
0 0 219 
0 0 219 
71 78 226 
195 215 254 
205 227 255 
205 227 255 
205 227 255 
205 227 255 
205 227 255 
205 227 255 
205 227 255 
205 227 255 
205 227 255 
205 227 255 
205 227 255 
205 227 255 
205 227 255 
205 227 255 
204 225 254 
198 220 250 
203 225 254 
201 223 253 
201 223 253 
204 226 255 
205 227 255 
205 227 255 
205 227 255 
205 227 255 
205 227 255 
205 227 255 
205 227 255 
205 227 255 
205 227 255 
205 227 255 
205 227 255 
205 227 255 
205 227 255 
205 227 255 
202 220 248 
166 71 80 
177 0 0 
176 0 0 
163 0 0 
164 0 0 
168 0 0 
169 0 0 
166 0 0 
171 0 0 
177 0 0 
172 0 0 
174 0 0 
174 0 0 
169 0 0 
186 0 0 
178 0 0 
172 0 0 
179 0 0 
179 0 0 
174 0 0 
178 0 0 
181 0 0 
184 0 0 
179 0 0 
174 0 0 
179 0 0 
181 0 0 
182 0 0 
184 0 0 
180 0 0 
179 0 0 
187 0 0 
181 0 0 
181 0 0 
174 0 0 
183 0 0 
186 0 0 
187 0 0 
183 0 0 
181 0 0 
188 0 0 
185 0 0 
186 0 0 
187 0 0 
190 0 0 
182 0 0 
188 0 0 
187 0 0 
182 0 0 
180 0 0 
186 0 0 
195 0 0 
181 0 0 
188 0 0 
189 0 0 
181 0 0 
190 0 0 
183 0 0 
188 0 0 
187 0 0 
192 0 0 
190 0 0 
181 0 0 
188 0 0 
195 0 0 
189 0 0 
186 0 0 
185 0 0 
187 0 0 
186 0 0 
185 0 0 
195 0 0 
191 0 0 
190 0 0 
193 0 0 
185 0 0 
193 0 0 
197 0 0 
191 0 0 
193 0 0 
191 0 0 
186 0 0 
192 0 0 
190 0 0 
194 0 0 
193 0 0 
190 0 0 
198 0 0 
194 0 0 
189 0 0 
188 0 0 
190 0 0 
191 0 0 
188 0 0 
188 0 0 
187 0 0 
186 0 0 
192 0 0 
198 0 0 
191 0 0 
193 0 0 
192 0 0 
195 0 0 
196 0 0 
190 0 0 
188 0 0 
192 0 0 
191 0 0 
185 0 0 
193 0 0 
190 0 0 
185 0 0 
190 0 0 
193 0 0 
195 0 0 
192 0 0 
195 0 0 
196 0 0 
188 0 0 
192 0 0 
189 0 0 
195 0 0 
192 0 0 
196 0 0 
194 0 0 
191 0 0 
192 0 0 
198 0 0 
194 0 0 
194 0 0 
192 0 0 
196 0 0 
198 0 0 
194 0 0 
189 0 0 
189 0 0 
192 0 0 
192 0 0 
193 0 0 
193 0 0 
194 0 0 
191 0 0 
199 0 0 
193 0 0 
194 0 0 
194 0 0 
191 0 0 
190 0 0 
195 0 0 
190 0 0 
198 0 0 
192 0 0 
190 0 0 
198 0 0 
196 0 0 
196 0 0 
198 0 0 
192 0 0 
193 0 0 
194 0 0 
195 0 0 
196 0 0 
198 0 0 
198 0 0 
196 0 0 
194 0 0 
194 0 0 
194 0 0 
191 0 0 
190 0 0 
196 0 0 
197 0 0 
198 0 0 
192 0 0 
195 0 0 
194 0 0 
196 0 0 
192 0 0 
193 0 0 
193 0 0 
195 0 0 
192 0 0 
0 0 203 
0 0 207 
0 0 196 
0 0 212 
0 0 209 
0 0 201 
0 0 211 
0 0 209 
0 0 220 
0 0 214 
0 0 203 
0 0 204 
0 0 191 
0 0 214 
0 0 217 
0 0 199 
0 0 215 
0 0 217 
0 0 215 
0 0 207 
0 0 214 
0 0 206 
0 0 207 
0 0 215 
0 0 211 
0 0 224 
0 0 217 
0 0 207 
0 0 214 
0 0 204 
0 0 209 
0 0 212 
0 0 217 
0 0 204 
0 0 211 
0 0 234 
0 0 207 
0 0 203 
0 0 215 
0 0 204 
0 0 212 
0 0 215 
0 0 207 
0 0 211 
0 0 207 
0 0 199 
0 0 220 
0 0 211 
0 0 212 
0 0 212 
0 0 218 
0 0 209 
0 0 212 
0 0 211 
0 0 203 
0 0 212 
0 0 217 
0 0 218 
0 0 206 
0 0 214 
0 0 217 
0 0 220 
0 0 211 
0 0 201 
0 0 201 
0 0 203 
0 0 218 
0 0 199 
0 0 206 
0 0 217 
0 0 226 
0 0 214 
0 0 209 
0 0 211 
0 0 206 
0 0 214 
0 0 209 
0 0 211 
0 0 221 
0 0 201 
0 0 218 
0 0 204 
0 0 214 
0 0 211 
0 0 218 
0 0 204 
0 0 211 
0 0 207 
0 0 218 
0 0 218 
0 0 207 
0 0 203 
0 0 212 
0 0 212 
0 0 221 
0 0 218 
0 0 211 
0 0 209 
0 0 218 
0 0 214 
0 0 233 
0 0 209 
0 0 203 
0 0 212 
0 0 212 
0 0 206 
0 0 209 
0 0 212 
0 0 196 
0 0 206 
0 0 211 
0 0 215 
0 0 212 
0 0 217 
0 0 206 
0 0 220 
0 0 198 
0 0 199 
0 0 221 
0 0 206 
0 0 212 
0 0 201 
0 0 221 
0 0 204 
0 0 211 
0 0 204 
0 0 215 
0 0 207 
0 0 214 
0 0 212 
0 0 209 
0 0 207 
0 0 196 
0 0 227 
0 0 215 
0 0 201 
0 0 218 
0 0 204 
0 0 201 
0 0 218 
0 0 199 
0 0 207 
0 0 214 
0 0 211 
0 0 215 
0 0 204 
0 0 199 
0 0 209 
0 0 204 
0 0 198 
0 0 207 
0 0 194 
0 0 209 
0 0 220 
0 0 215 
0 0 208 
0 0 203 
0 0 207 
0 0 212 
0 0 218 
0 0 213 
0 0 216 
0 0 212 
0 0 202 
0 0 211 
0 0 204 
0 0 198 
0 0 199 
0 0 194 
0 0 203 
0 0 197 
0 0 209 
0 0 223 
0 0 209 
0 0 200 
0 0 206 
0 0 209 
0 0 203 
0 0 207 
0 0 205 
0 0 211 
0 0 217 
114 126 231 
206 227 255 
206 227 255 
205 227 255 
205 227 255 
205 227 255 
205 227 255 
204 226 255 
183 205 240 
168 190 230 
151 173 220 
129 152 206 
109 134 195 
94 121 189 
68 100 176 
62 95 175 
60 96 178 
59 91 172 
59 93 171 
60 95 175 
63 96 175 
76 105 177 
87 115 182 
122 146 199 
130 154 203 
147 170 215 
161 182 221 
193 214 244 
205 227 255 
205 227 255 
205 227 255 
205 227 255 
205 227 255 
206 227 255 
206 227 255 
178 126 142 
163 0 0 
175 0 0 
176 0 0 
176 0 0 
176 0 0 
168 0 0 
175 0 0 
172 0 0 
170 0 0 
167 0 0 
179 0 0 
169 0 0 
175 0 0 
180 0 0 
174 0 0 
175 0 0 
180 0 0 
180 0 0 
180 0 0 
182 0 0 
180 0 0 
175 0 0 
186 0 0 
178 0 0 
184 0 0 
178 0 0 
182 0 0 
190 0 0 
182 0 0 
182 0 0 
189 0 0 
185 0 0 
182 0 0 
184 0 0 
182 0 0 
186 0 0 
186 0 0 
182 0 0 
184 0 0 
184 0 0 
186 0 0 
183 0 0 
182 0 0 
188 0 0 
185 0 0 
183 0 0 
186 0 0 
185 0 0 
184 0 0 
184 0 0 
185 0 0 
190 0 0 
188 0 0 
194 0 0 
189 0 0 
186 0 0 
188 0 0 
187 0 0 
184 0 0 
188 0 0 
188 0 0 
183 0 0 
192 0 0 
189 0 0 
183 0 0 
189 0 0 
189 0 0 
186 0 0 
189 0 0 
189 0 0 
192 0 0 
188 0 0 
188 0 0 
186 0 0 
189 0 0 
187 0 0 
187 0 0 
188 0 0 
187 0 0 
188 0 0 
190 0 0 
191 0 0 
191 0 0 
186 0 0 
193 0 0 
186 0 0 
193 0 0 
190 0 0 
192 0 0 
194 0 0 
188 0 0 
195 0 0 
189 0 0 
193 0 0 
192 0 0 
191 0 0 
192 0 0 
193 0 0 
193 0 0 
191 0 0 
185 0 0 
190 0 0 
192 0 0 
194 0 0 
194 0 0 
195 0 0 
188 0 0 
196 0 0 
193 0 0 
187 0 0 
195 0 0 
191 0 0 
195 0 0 
194 0 0 
192 0 0 
192 0 0 
195 0 0 
196 0 0 
193 0 0 
189 0 0 
189 0 0 
193 0 0 
196 0 0 
193 0 0 
196 0 0 
189 0 0 
195 0 0 
192 0 0 
194 0 0 
191 0 0 
192 0 0 
185 0 0 
192 0 0 
192 0 0 
197 0 0 
192 0 0 
194 0 0 
192 0 0 
192 0 0 
194 0 0 
194 0 0 
191 0 0 
192 0 0 
193 0 0 
194 0 0 
194 0 0 
192 0 0 
193 0 0 
193 0 0 
196 0 0 
192 0 0 
193 0 0 
191 0 0 
192 0 0 
194 0 0 
191 0 0 
191 0 0 
192 0 0 
195 0 0 
195 0 0 
194 0 0 
197 0 0 
195 0 0 
198 0 0 
195 0 0 
199 0 0 
195 0 0 
193 0 0 
192 0 0 
198 0 0 
198 0 0 
194 0 0 
200 0 0 
195 0 0 
192 0 0 
194 0 0 
197 0 0 
193 0 0 
199 0 0 
195 0 0 
197 0 0 
198 0 0 
0 0 218 
0 0 209 
0 0 198 
0 0 218 
0 0 199 
0 0 198 
0 0 199 
0 0 211 
0 0 214 
0 0 215 
0 0 207 
0 0 215 
0 0 211 
0 0 199 
0 0 201 
0 0 215 
0 0 215 
0 0 198 
0 0 201 
0 0 209 
0 0 214 
0 0 214 
0 0 220 
0 0 212 
0 0 217 
0 0 223 
0 0 204 
0 0 214 
0 0 212 
0 0 215 
0 0 209 
0 0 209 
0 0 189 
0 0 188 
0 0 201 
0 0 207 
0 0 215 
0 0 212 
0 0 203 
0 0 217 
0 0 204 
0 0 209 
0 0 215 
0 0 218 
0 0 214 
0 0 209 
0 0 209 
0 0 201 
0 0 201 
0 0 215 
0 0 193 
0 0 214 
0 0 209 
0 0 199 
0 0 215 
0 0 207 
0 0 217 
0 0 217 
0 0 215 
0 0 189 
0 0 224 
0 0 207 
0 0 196 
0 0 218 
0 0 214 
0 0 207 
0 0 227 
0 0 223 
0 0 211 
0 0 207 
0 0 204 
0 0 198 
0 0 211 
0 0 214 
0 0 220 
0 0 212 
0 0 207 
0 0 207 
0 0 206 
0 0 211 
0 0 209 
0 0 203 
0 0 215 
0 0 218 
0 0 214 
0 0 203 
0 0 209 
0 0 209 
0 0 211 
0 0 214 
0 0 215 
0 0 214 
0 0 204 
0 0 207 
0 0 203 
0 0 204 
0 0 215 
0 0 209 
0 0 199 
0 0 211 
0 0 209 
0 0 214 
0 0 211 
0 0 220 
0 0 204 
0 0 206 
0 0 214 
0 0 215 
0 0 203 
0 0 214 
0 0 209 
0 0 201 
0 0 224 
0 0 211 
0 0 211 
0 0 224 
0 0 217 
0 0 227 
0 0 220 
0 0 217 
0 0 204 
0 0 193 
0 0 215 
0 0 199 
0 0 206 
0 0 223 
0 0 218 
0 0 212 
0 0 204 
0 0 212 
0 0 226 
0 0 220 
0 0 212 
0 0 209 
0 0 212 
0 0 198 
0 0 217 
0 0 212 
0 0 212 
0 0 201 
0 0 204 
0 0 211 
0 0 211 
0 0 206 
0 0 196 
0 0 212 
0 0 203 
0 0 214 
0 0 215 
0 0 218 
0 0 212 
0 0 211 
0 0 211 
0 0 204 
0 0 218 
0 0 201 
0 0 226 
0 0 223 
0 0 184 
0 0 211 
0 0 204 
0 0 199 
0 0 201 
0 0 204 
0 0 206 
0 0 214 
0 0 211 
0 0 207 
0 0 203 
0 0 206 
0 0 214 
0 0 207 
0 0 195 
0 0 207 
0 0 202 
0 0 211 
0 0 206 
0 0 213 
0 0 221 
0 0 224 
0 0 197 
0 0 216 
0 0 221 
148 164 239 
206 227 255 
200 221 252 
186 207 241 
150 172 219 
110 133 192 
59 91 174 
57 91 174 
57 91 175 
57 91 174 
59 93 172 
58 93 170 
59 95 177 
58 92 176 
60 91 169 
61 95 175 
60 94 173 
59 92 164 
60 93 169 
60 94 172 
61 95 172 
61 92 165 
60 94 172 
60 92 166 
60 92 168 
60 93 172 
59 89 163 
63 93 167 
108 132 188 
151 172 214 
180 199 232 
206 227 255 
206 227 255 
181 167 188 
165 0 0 
168 0 0 
170 0 0 
166 0 0 
169 0 0 
172 0 0 
152 0 0 
172 0 0 
175 0 0 
170 0 0 
182 0 0 
169 0 0 
180 0 0 
179 0 0 
176 0 0 
180 0 0 
180 0 0 
177 0 0 
162 0 0 
173 0 0 
176 0 0 
178 0 0 
179 0 0 
172 0 0 
187 0 0 
180 0 0 
175 0 0 
175 0 0 
184 0 0 
191 0 0 
183 0 0 
179 0 0 
184 0 0 
182 0 0 
182 0 0 
183 0 0 
177 0 0 
187 0 0 
180 0 0 
186 0 0 
186 0 0 
182 0 0 
185 0 0 
192 0 0 
177 0 0 
191 0 0 
191 0 0 
186 0 0 
178 0 0 
188 0 0 
193 0 0 
177 0 0 
187 0 0 
187 0 0 
185 0 0 
190 0 0 
191 0 0 
189 0 0 
180 0 0 
189 0 0 
184 0 0 
186 0 0 
184 0 0 
184 0 0 
186 0 0 
185 0 0 
186 0 0 
186 0 0 
191 0 0 
194 0 0 
191 0 0 
190 0 0 
188 0 0 
184 0 0 
190 0 0 
192 0 0 
189 0 0 
193 0 0 
186 0 0 
190 0 0 
192 0 0 
193 0 0 
191 0 0 
190 0 0 
187 0 0 
188 0 0 
192 0 0 
190 0 0 
193 0 0 
196 0 0 
194 0 0 
185 0 0 
185 0 0 
187 0 0 
194 0 0 
193 0 0 
190 0 0 
187 0 0 
192 0 0 
186 0 0 
194 0 0 
196 0 0 
193 0 0 
197 0 0 
193 0 0 
192 0 0 
191 0 0 
189 0 0 
190 0 0 
194 0 0 
192 0 0 
192 0 0 
192 0 0 
195 0 0 
189 0 0 
193 0 0 
194 0 0 
189 0 0 
196 0 0 
189 0 0 
187 0 0 
191 0 0 
196 0 0 
194 0 0 
196 0 0 
192 0 0 
192 0 0 
195 0 0 
196 0 0 
191 0 0 
197 0 0 
189 0 0 
194 0 0 
189 0 0 
194 0 0 
197 0 0 
193 0 0 
192 0 0 
193 0 0 
190 0 0 
194 0 0 
190 0 0 
193 0 0 
192 0 0 
193 0 0 
195 0 0 
195 0 0 
198 0 0 
194 0 0 
195 0 0 
192 0 0 
198 0 0 
194 0 0 
193 0 0 
196 0 0 
191 0 0 
191 0 0 
194 0 0 
191 0 0 
195 0 0 
196 0 0 
191 0 0 
196 0 0 
197 0 0 
193 0 0 
194 0 0 
196 0 0 
195 0 0 
193 0 0 
194 0 0 
197 0 0 
192 0 0 
196 0 0 
192 0 0 
197 0 0 
197 0 0 
195 0 0 
193 0 0 
196 0 0 
193 0 0 
192 0 0 
192 0 0 
193 0 0 
0 0 212 
0 0 199 
0 0 209 
0 0 206 
0 0 209 
0 0 215 
0 0 206 
0 0 206 
0 0 215 
0 0 207 
0 0 198 
0 0 217 
0 0 220 
0 0 214 
0 0 203 
0 0 207 
0 0 204 
0 0 214 
0 0 204 
0 0 207 
0 0 214 
0 0 204 
0 0 209 
0 0 214 
0 0 218 
0 0 203 
0 0 215 
0 0 215 
0 0 214 
0 0 223 
0 0 201 
0 0 203 
0 0 199 
0 0 220 
0 0 204 
0 0 209 
0 0 211 
0 0 204 
0 0 207 
0 0 211 
0 0 212 
0 0 203 
0 0 198 
0 0 214 
0 0 212 
0 0 214 
0 0 209 
0 0 209 
0 0 226 
0 0 198 
0 0 212 
0 0 206 
0 0 204 
0 0 204 
0 0 218 
0 0 211 
0 0 201 
0 0 211 
0 0 218 
0 0 220 
0 0 211 
0 0 209 
0 0 206 
0 0 211 
0 0 214 
0 0 203 
0 0 220 
0 0 211 
0 0 198 
0 0 199 
0 0 207 
0 0 193 
0 0 215 
0 0 211 
0 0 198 
0 0 214 
0 0 217 
0 0 224 
0 0 189 
0 0 209 
0 0 215 
0 0 199 
0 0 209 
0 0 221 
0 0 203 
0 0 206 
0 0 215 
0 0 207 
0 0 212 
0 0 212 
0 0 203 
0 0 215 
0 0 218 
0 0 211 
0 0 218 
0 0 193 
0 0 198 
0 0 215 
0 0 209 
0 0 199 
0 0 199 
0 0 198 
0 0 214 
0 0 206 
0 0 209 
0 0 211 
0 0 212 
0 0 206 
0 0 204 
0 0 204 
0 0 206 
0 0 204 
0 0 199 
0 0 198 
0 0 207 
0 0 211 
0 0 209 
0 0 211 
0 0 214 
0 0 217 
0 0 199 
0 0 215 
0 0 189 
0 0 191 
0 0 196 
0 0 215 
0 0 209 
0 0 226 
0 0 215 
0 0 215 
0 0 206 
0 0 209 
0 0 214 
0 0 206 
0 0 206 
0 0 196 
0 0 203 
0 0 199 
0 0 207 
0 0 206 
0 0 220 
0 0 209 
0 0 203 
0 0 204 
0 0 206 
0 0 217 
0 0 214 
0 0 206 
0 0 206 
0 0 217 
0 0 215 
0 0 207 
0 0 209 
0 0 201 
0 0 209 
0 0 211 
0 0 201 
0 0 214 
0 0 214 
0 0 194 
0 0 207 
0 0 211 
0 0 219 
0 0 207 
0 0 204 
0 0 203 
0 0 207 
0 0 207 
0 0 205 
0 0 220 
0 0 208 
0 0 218 
0 0 203 
0 0 207 
0 0 211 
0 0 196 
0 0 200 
0 0 211 
0 0 215 
0 0 220 
0 0 201 
0 0 201 
0 0 209 
41 45 222 
113 134 200 
59 92 174 
55 88 178 
51 82 172 
55 89 176 
56 88 170 
58 92 173 
58 92 166 
58 91 167 
59 94 176 
59 95 175 
58 92 171 
57 91 173 
58 90 166 
58 92 173 
59 92 168 
59 91 166 
59 92 168 
59 93 170 
60 91 165 
61 95 171 
62 92 164 
60 90 164 
61 92 165 
60 90 165 
59 90 160 
61 92 163 
61 89 161 
59 88 159 
59 86 157 
76 102 168 
150 152 186 
163 45 51 
165 0 0 
167 0 0 
157 0 0 
168 0 0 
164 0 0 
162 0 0 
180 0 0 
176 0 0 
162 0 0 
170 0 0 
177 0 0 
176 0 0 
170 0 0 
174 0 0 
180 0 0 
169 0 0 
181 0 0 
172 0 0 
184 0 0 
176 0 0 
172 0 0 
182 0 0 
182 0 0 
186 0 0 
181 0 0 
179 0 0 
176 0 0 
174 0 0 
181 0 0 
179 0 0 
177 0 0 
174 0 0 
187 0 0 
179 0 0 
182 0 0 
184 0 0 
183 0 0 
183 0 0 
184 0 0 
181 0 0 
189 0 0 
181 0 0 
186 0 0 
182 0 0 
185 0 0 
184 0 0 
184 0 0 
192 0 0 
183 0 0 
188 0 0 
186 0 0 
194 0 0 
186 0 0 
185 0 0 
187 0 0 
186 0 0 
187 0 0 
188 0 0 
188 0 0 
184 0 0 
186 0 0 
187 0 0 
185 0 0 
191 0 0 
189 0 0 
185 0 0 
191 0 0 
190 0 0 
190 0 0 
185 0 0 
188 0 0 
189 0 0 
190 0 0 
186 0 0 
184 0 0 
186 0 0 
191 0 0 
188 0 0 
188 0 0 
191 0 0 
190 0 0 
186 0 0 
190 0 0 
191 0 0 
188 0 0 
195 0 0 
187 0 0 
188 0 0 
190 0 0 
187 0 0 
188 0 0 
189 0 0 
195 0 0 
187 0 0 
192 0 0 
190 0 0 
190 0 0 
194 0 0 
189 0 0 
198 0 0 
191 0 0 
191 0 0 
190 0 0 
189 0 0 
188 0 0 
197 0 0 
191 0 0 
189 0 0 
183 0 0 
188 0 0 
193 0 0 
190 0 0 
188 0 0 
184 0 0 
195 0 0 
194 0 0 
192 0 0 
195 0 0 
198 0 0 
194 0 0 
192 0 0 
192 0 0 
193 0 0 
196 0 0 
193 0 0 
194 0 0 
197 0 0 
196 0 0 
189 0 0 
192 0 0 
192 0 0 
189 0 0 
190 0 0 
193 0 0 
187 0 0 
189 0 0 
192 0 0 
189 0 0 
189 0 0 
191 0 0 
194 0 0 
193 0 0 
195 0 0 
193 0 0 
198 0 0 
193 0 0 
194 0 0 
193 0 0 
194 0 0 
190 0 0 
196 0 0 
192 0 0 
197 0 0 
193 0 0 
190 0 0 
189 0 0 
193 0 0 
194 0 0 
194 0 0 
194 0 0 
193 0 0 
198 0 0 
193 0 0 
195 0 0 
191 0 0 
190 0 0 
193 0 0 
194 0 0 
197 0 0 
196 0 0 
197 0 0 
199 0 0 
192 0 0 
190 0 0 
194 0 0 
192 0 0 
197 0 0 
191 0 0 
195 0 0 
195 0 0 
195 0 0 
189 0 0 
193 0 0 
0 0 215 
0 0 211 
0 0 209 
0 0 209 
0 0 206 
0 0 209 
0 0 211 
0 0 214 
0 0 212 
0 0 206 
0 0 206 
0 0 217 
0 0 206 
0 0 206 
0 0 215 
0 0 204 
0 0 217 
0 0 203 
0 0 199 
0 0 199 
0 0 214 
0 0 215 
0 0 220 
0 0 209 
0 0 209 
0 0 207 
0 0 212 
0 0 218 
0 0 194 
0 0 218 
0 0 218 
0 0 211 
0 0 217 
0 0 199 
0 0 199 
0 0 209 
0 0 199 
0 0 220 
0 0 226 
0 0 209 
0 0 199 
0 0 206 
0 0 209 
0 0 214 
0 0 204 
0 0 214 
0 0 206 
0 0 199 
0 0 199 
0 0 217 
0 0 209 
0 0 211 
0 0 207 
0 0 221 
0 0 215 
0 0 207 
0 0 206 
0 0 212 
0 0 214 
0 0 226 
0 0 207 
0 0 211 
0 0 220 
0 0 207 
0 0 215 
0 0 203 
0 0 201 
0 0 211 
0 0 215 
0 0 212 
0 0 206 
0 0 201 
0 0 209 
0 0 211 
0 0 217 
0 0 206 
0 0 218 
0 0 217 
0 0 206 
0 0 211 
0 0 203 
0 0 218 
0 0 209 
0 0 217 
0 0 204 
0 0 207 
0 0 224 
0 0 204 
0 0 206 
0 0 221 
0 0 203 
0 0 217 
0 0 191 
0 0 203 
0 0 207 
0 0 199 
0 0 198 
0 0 211 
0 0 211 
0 0 203 
0 0 207 
0 0 221 
0 0 215 
0 0 201 
0 0 204 
0 0 209 
0 0 218 
0 0 201 
0 0 212 
0 0 211 
0 0 204 
0 0 206 
0 0 188 
0 0 207 
0 0 196 
0 0 206 
0 0 215 
0 0 209 
0 0 207 
0 0 206 
0 0 204 
0 0 201 
0 0 211 
0 0 211 
0 0 198 
0 0 214 
0 0 203 
0 0 207 
0 0 203 
0 0 211 
0 0 207 
0 0 198 
0 0 209 
0 0 209 
0 0 207 
0 0 206 
0 0 217 
0 0 206 
0 0 206 
0 0 190 
0 0 215 
0 0 204 
0 0 193 
0 0 193 
0 0 207 
0 0 209 
0 0 200 
0 0 205 
0 0 199 
0 0 211 
0 0 207 
0 0 207 
0 0 215 
0 0 209 
0 0 214 
0 0 209 
0 0 212 
0 0 209 
0 0 203 
0 0 212 
0 0 201 
0 0 228 
0 0 218 
0 0 207 
0 0 203 
0 0 206 
0 0 193 
0 0 214 
0 0 211 
0 0 200 
0 0 186 
0 0 205 
0 0 205 
0 0 196 
0 0 206 
0 0 200 
0 0 192 
0 0 203 
0 0 211 
0 0 203 
0 0 199 
0 0 203 
0 0 201 
0 0 203 
27 44 201 
50 81 170 
54 86 173 
54 85 174 
56 90 170 
57 90 171 
55 88 168 
57 90 171 
55 86 169 
55 88 171 
59 92 169 
59 93 170 
59 93 170 
59 93 172 
60 91 162 
61 92 161 
60 92 167 
59 92 169 
60 94 168 
60 92 169 
60 93 167 
59 91 163 
60 93 166 
59 90 159 
59 91 167 
60 93 167 
60 88 157 
60 89 156 
58 85 154 
57 83 151 
58 83 150 
155 29 57 
154 0 0 
165 0 0 
165 0 0 
162 0 0 
164 0 0 
173 0 0 
171 0 0 
174 0 0 
168 0 0 
171 0 0 
166 0 0 
168 0 0 
170 0 0 
179 0 0 
182 0 0 
159 0 0 
177 0 0 
172 0 0 
178 0 0 
174 0 0 
177 0 0 
184 0 0 
183 0 0 
182 0 0 
173 0 0 
175 0 0 
177 0 0 
178 0 0 
178 0 0 
185 0 0 
182 0 0 
183 0 0 
187 0 0 
183 0 0 
181 0 0 
183 0 0 
180 0 0 
181 0 0 
185 0 0 
184 0 0 
181 0 0 
179 0 0 
181 0 0 
183 0 0 
183 0 0 
185 0 0 
185 0 0 
184 0 0 
177 0 0 
184 0 0 
192 0 0 
187 0 0 
189 0 0 
190 0 0 
186 0 0 
184 0 0 
185 0 0 
191 0 0 
190 0 0 
187 0 0 
186 0 0 
186 0 0 
182 0 0 
192 0 0 
188 0 0 
183 0 0 
186 0 0 
189 0 0 
187 0 0 
188 0 0 
192 0 0 
193 0 0 
188 0 0 
189 0 0 
191 0 0 
188 0 0 
190 0 0 
191 0 0 
186 0 0 
191 0 0 
188 0 0 
191 0 0 
189 0 0 
191 0 0 
183 0 0 
187 0 0 
188 0 0 
192 0 0 
186 0 0 
193 0 0 
192 0 0 
191 0 0 
195 0 0 
190 0 0 
188 0 0 
191 0 0 
192 0 0 
196 0 0 
193 0 0 
193 0 0 
193 0 0 
197 0 0 
195 0 0 
193 0 0 
189 0 0 
194 0 0 
191 0 0 
192 0 0 
191 0 0 
191 0 0 
190 0 0 
189 0 0 
190 0 0 
193 0 0 
191 0 0 
189 0 0 
190 0 0 
195 0 0 
194 0 0 
192 0 0 
196 0 0 
199 0 0 
193 0 0 
192 0 0 
192 0 0 
190 0 0 
191 0 0 
192 0 0 
193 0 0 
190 0 0 
193 0 0 
191 0 0 
194 0 0 
194 0 0 
196 0 0 
192 0 0 
192 0 0 
191 0 0 
193 0 0 
195 0 0 
192 0 0 
190 0 0 
191 0 0 
193 0 0 
192 0 0 
191 0 0 
191 0 0 
189 0 0 
194 0 0 
189 0 0 
196 0 0 
190 0 0 
194 0 0 
192 0 0 
197 0 0 
192 0 0 
195 0 0 
194 0 0 
194 0 0 
192 0 0 
195 0 0 
197 0 0 
197 0 0 
201 0 0 
194 0 0 
194 0 0 
195 0 0 
192 0 0 
194 0 0 
198 0 0 
194 0 0 
201 0 0 
192 0 0 
193 0 0 
194 0 0 
198 0 0 
197 0 0 
194 0 0 
195 0 0 
194 0 0 
197 0 0 
191 0 0 
198 0 0 
193 0 0 
0 0 198 
0 0 211 
0 0 193 
0 0 223 
0 0 209 
0 0 207 
0 0 204 
0 0 196 
0 0 212 
0 0 217 
0 0 209 
0 0 217 
0 0 214 
0 0 209 
0 0 207 
0 0 199 
0 0 206 
0 0 193 
0 0 220 
0 0 221 
0 0 218 
0 0 209 
0 0 211 
0 0 206 
0 0 206 
0 0 211 
0 0 207 
0 0 204 
0 0 220 
0 0 207 
0 0 207 
0 0 206 
0 0 206 
0 0 207 
0 0 211 
0 0 203 
0 0 201 
0 0 206 
0 0 212 
0 0 214 
0 0 220 
0 0 214 
0 0 207 
0 0 198 
0 0 204 
0 0 214 
0 0 211 
0 0 212 
0 0 206 
0 0 191 
0 0 209 
0 0 204 
0 0 223 
0 0 207 
0 0 199 
0 0 207 
0 0 215 
0 0 217 
0 0 211 
0 0 196 
0 0 212 
0 0 204 
0 0 207 
0 0 215 
0 0 214 
0 0 204 
0 0 206 
0 0 215 
0 0 207 
0 0 201 
0 0 212 
0 0 206 
0 0 194 
0 0 199 
0 0 212 
0 0 220 
0 0 206 
0 0 206 
0 0 193 
0 0 198 
0 0 199 
0 0 209 
0 0 214 
0 0 207 
0 0 201 
0 0 198 
0 0 204 
0 0 206 
0 0 217 
0 0 207 
0 0 217 
0 0 215 
0 0 211 
0 0 214 
0 0 196 
0 0 215 
0 0 191 
0 0 204 
0 0 206 
0 0 204 
0 0 201 
0 0 212 
0 0 201 
0 0 212 
0 0 201 
0 0 209 
0 0 207 
0 0 211 
0 0 189 
0 0 206 
0 0 218 
0 0 201 
0 0 207 
0 0 206 
0 0 207 
0 0 204 
0 0 220 
0 0 204 
0 0 212 
0 0 212 
0 0 220 
0 0 207 
0 0 215 
0 0 206 
0 0 211 
0 0 215 
0 0 198 
0 0 211 
0 0 212 
0 0 204 
0 0 198 
0 0 217 
0 0 212 
0 0 224 
0 0 211 
0 0 214 
0 0 196 
0 0 209 
0 0 201 
0 0 206 
0 0 206 
0 0 214 
0 0 204 
0 0 214 
0 0 201 
0 0 196 
0 0 194 
0 0 189 
0 0 209 
0 0 201 
0 0 212 
0 0 204 
0 0 201 
0 0 217 
0 0 206 
0 0 214 
0 0 212 
0 0 209 
0 0 197 
0 0 194 
0 0 200 
0 0 223 
0 0 199 
0 0 203 
0 0 208 
0 0 194 
0 0 200 
0 0 190 
0 0 193 
0 0 207 
0 0 203 
0 0 208 
0 0 214 
0 0 203 
0 0 209 
0 0 194 
0 0 197 
0 0 207 
0 0 195 
0 0 194 
0 0 206 
0 0 201 
0 0 210 
0 0 218 
0 0 205 
45 73 187 
52 83 175 
52 83 173 
54 86 173 
55 88 167 
57 91 169 
55 88 168 
57 90 171 
57 90 170 
60 94 166 
58 91 166 
57 91 170 
59 91 165 
58 90 161 
59 94 172 
60 93 166 
59 92 167 
59 92 164 
60 91 159 
59 93 163 
59 90 165 
60 91 164 
59 90 160 
61 90 161 
57 84 148 
59 89 158 
57 83 153 
58 83 153 
58 84 150 
94 69 121 
151 0 0 
152 0 0 
160 0 0 
167 0 0 
159 0 0 
152 0 0 
177 0 0 
166 0 0 
175 0 0 
175 0 0 
169 0 0 
154 0 0 
170 0 0 
165 0 0 
173 0 0 
179 0 0 
182 0 0 
177 0 0 
168 0 0 
177 0 0 
183 0 0 
178 0 0 
182 0 0 
172 0 0 
170 0 0 
180 0 0 
174 0 0 
174 0 0 
173 0 0 
172 0 0 
183 0 0 
177 0 0 
184 0 0 
179 0 0 
179 0 0 
184 0 0 
172 0 0 
181 0 0 
175 0 0 
180 0 0 
185 0 0 
177 0 0 
188 0 0 
187 0 0 
185 0 0 
186 0 0 
182 0 0 
186 0 0 
178 0 0 
191 0 0 
186 0 0 
189 0 0 
181 0 0 
183 0 0 
186 0 0 
188 0 0 
184 0 0 
193 0 0 
187 0 0 
187 0 0 
187 0 0 
188 0 0 
183 0 0 
185 0 0 
186 0 0 
183 0 0 
187 0 0 
189 0 0 
188 0 0 
187 0 0 
187 0 0 
186 0 0 
187 0 0 
194 0 0 
189 0 0 
190 0 0 
188 0 0 
182 0 0 
189 0 0 
187 0 0 
188 0 0 
189 0 0 
190 0 0 
188 0 0 
189 0 0 
191 0 0 
188 0 0 
183 0 0 
191 0 0 
194 0 0 
190 0 0 
186 0 0 
189 0 0 
190 0 0 
191 0 0 
193 0 0 
187 0 0 
192 0 0 
194 0 0 
190 0 0 
188 0 0 
190 0 0 
193 0 0 
194 0 0 
192 0 0 
189 0 0 
190 0 0 
192 0 0 
193 0 0 
197 0 0 
195 0 0 
193 0 0 
192 0 0 
187 0 0 
194 0 0 
189 0 0 
195 0 0 
189 0 0 
191 0 0 
192 0 0 
193 0 0 
193 0 0 
194 0 0 
198 0 0 
190 0 0 
193 0 0 
197 0 0 
196 0 0 
195 0 0 
192 0 0 
194 0 0 
198 0 0 
194 0 0 
195 0 0 
195 0 0 
191 0 0 
197 0 0 
194 0 0 
193 0 0 
192 0 0 
188 0 0 
194 0 0 
193 0 0 
191 0 0 
192 0 0 
190 0 0 
199 0 0 
200 0 0 
192 0 0 
195 0 0 
195 0 0 
196 0 0 
189 0 0 
191 0 0 
193 0 0 
191 0 0 
194 0 0 
193 0 0 
197 0 0 
196 0 0 
191 0 0 
189 0 0 
195 0 0 
195 0 0 
196 0 0 
194 0 0 
193 0 0 
195 0 0 
189 0 0 
196 0 0 
195 0 0 
192 0 0 
192 0 0 
197 0 0 
195 0 0 
193 0 0 
189 0 0 
195 0 0 
195 0 0 
193 0 0 
196 0 0 
190 0 0 
194 0 0 
198 0 0 
193 0 0 
0 0 204 
0 0 207 
0 0 201 
0 0 211 
0 0 203 
0 0 214 
0 0 196 
0 0 199 
0 0 207 
0 0 209 
0 0 194 
0 0 203 
0 0 215 
0 0 206 
0 0 214 
0 0 211 
0 0 203 
0 0 220 
0 0 218 
0 0 217 
0 0 204 
0 0 207 
0 0 212 
0 0 206 
0 0 196 
0 0 211 
0 0 218 
0 0 212 
0 0 211 
0 0 220 
0 0 212 
0 0 212 
0 0 214 
0 0 206 
0 0 212 
0 0 206 
0 0 217 
0 0 215 
0 0 217 
0 0 209 
0 0 194 
0 0 203 
0 0 207 
0 0 198 
0 0 206 
0 0 204 
0 0 207 
0 0 196 
0 0 211 
0 0 206 
0 0 212 
0 0 199 
0 0 198 
0 0 207 
0 0 215 
0 0 218 
0 0 218 
0 0 214 
0 0 220 
0 0 212 
0 0 198 
0 0 206 
0 0 206 
0 0 212 
0 0 194 
0 0 204 
0 0 204 
0 0 193 
0 0 204 
0 0 203 
0 0 204 
0 0 207 
0 0 203 
0 0 191 
0 0 211 
0 0 188 
0 0 193 
0 0 198 
0 0 209 
0 0 215 
0 0 212 
0 0 209 
0 0 206 
0 0 218 
0 0 214 
0 0 204 
0 0 204 
0 0 212 
0 0 218 
0 0 204 
0 0 209 
0 0 209 
0 0 207 
0 0 206 
0 0 204 
0 0 211 
0 0 206 
0 0 203 
0 0 211 
0 0 211 
0 0 203 
0 0 209 
0 0 204 
0 0 217 
0 0 203 
0 0 196 
0 0 198 
0 0 211 
0 0 206 
0 0 196 
0 0 201 
0 0 203 
0 0 211 
0 0 209 
0 0 207 
0 0 199 
0 0 207 
0 0 203 
0 0 211 
0 0 220 
0 0 206 
0 0 220 
0 0 204 
0 0 217 
0 0 199 
0 0 207 
0 0 217 
0 0 193 
0 0 212 
0 0 212 
0 0 198 
0 0 207 
0 0 221 
0 0 198 
0 0 204 
0 0 207 
0 0 215 
0 0 206 
0 0 206 
0 0 207 
0 0 220 
0 0 204 
0 0 189 
0 0 218 
0 0 204 
0 0 193 
0 0 212 
0 0 191 
0 0 209 
0 0 207 
0 0 215 
0 0 214 
0 0 207 
0 0 204 
0 0 207 
0 0 203 
0 0 203 
0 0 203 
0 0 207 
0 0 184 
0 0 199 
0 0 199 
0 0 196 
0 0 208 
0 0 212 
0 0 198 
0 0 198 
0 0 201 
0 0 213 
0 0 196 
0 0 198 
0 0 205 
0 0 194 
0 0 197 
0 0 211 
0 0 214 
0 0 213 
0 0 202 
0 0 207 
0 0 199 
0 0 191 
0 0 212 
0 0 203 
0 0 202 
0 0 201 
31 50 206 
50 80 168 
53 84 168 
55 86 173 
56 89 169 
54 85 169 
57 92 172 
54 86 167 
58 91 170 
59 91 172 
59 93 166 
58 89 159 
57 90 164 
57 90 161 
58 92 170 
61 95 168 
59 89 158 
58 92 166 
59 91 162 
58 90 166 
59 88 159 
59 91 155 
60 89 159 
59 89 162 
59 88 155 
57 85 154 
58 83 144 
60 84 145 
59 85 154 
129 44 78 
158 0 0 
155 0 0 
160 0 0 
158 0 0 
157 0 0 
163 0 0 
164 0 0 
165 0 0 
167 0 0 
168 0 0 
174 0 0 
172 0 0 
171 0 0 
175 0 0 
176 0 0 
176 0 0 
172 0 0 
171 0 0 
172 0 0 
174 0 0 
167 0 0 
176 0 0 
169 0 0 
178 0 0 
179 0 0 
180 0 0 
178 0 0 
185 0 0 
185 0 0 
176 0 0 
178 0 0 
183 0 0 
180 0 0 
183 0 0 
180 0 0 
183 0 0 
188 0 0 
180 0 0 
180 0 0 
181 0 0 
184 0 0 
188 0 0 
180 0 0 
185 0 0 
179 0 0 
184 0 0 
187 0 0 
178 0 0 
191 0 0 
173 0 0 
182 0 0 
187 0 0 
192 0 0 
193 0 0 
186 0 0 
185 0 0 
192 0 0 
187 0 0 
189 0 0 
182 0 0 
186 0 0 
189 0 0 
192 0 0 
188 0 0 
187 0 0 
186 0 0 
189 0 0 
186 0 0 
193 0 0 
188 0 0 
189 0 0 
194 0 0 
186 0 0 
191 0 0 
189 0 0 
187 0 0 
191 0 0 
193 0 0 
188 0 0 
183 0 0 
185 0 0 
182 0 0 
191 0 0 
192 0 0 
184 0 0 
184 0 0 
190 0 0 
187 0 0 
192 0 0 
192 0 0 
187 0 0 
189 0 0 
194 0 0 
192 0 0 
193 0 0 
188 0 0 
193 0 0 
195 0 0 
191 0 0 
188 0 0 
189 0 0 
190 0 0 
190 0 0 
194 0 0 
192 0 0 
197 0 0 
185 0 0 
191 0 0 
192 0 0 
187 0 0 
195 0 0 
192 0 0 
188 0 0 
193 0 0 
195 0 0 
192 0 0 
192 0 0 
196 0 0 
191 0 0 
190 0 0 
187 0 0 
189 0 0 
194 0 0 
192 0 0 
192 0 0 
195 0 0 
190 0 0 
187 0 0 
191 0 0 
183 0 0 
193 0 0 
191 0 0 
197 0 0 
193 0 0 
198 0 0 
188 0 0 
196 0 0 
192 0 0 
192 0 0 
194 0 0 
192 0 0 
194 0 0 
194 0 0 
196 0 0 
193 0 0 
190 0 0 
192 0 0 
197 0 0 
192 0 0 
195 0 0 
194 0 0 
195 0 0 
194 0 0 
191 0 0 
193 0 0 
190 0 0 
193 0 0 
196 0 0 
192 0 0 
188 0 0 
195 0 0 
194 0 0 
195 0 0 
196 0 0 
191 0 0 
197 0 0 
193 0 0 
192 0 0 
191 0 0 
191 0 0 
197 0 0 
193 0 0 
193 0 0 
191 0 0 
190 0 0 
192 0 0 
195 0 0 
195 0 0 
195 0 0 
194 0 0 
196 0 0 
192 0 0 
194 0 0 
192 0 0 
190 0 0 
0 0 198 
0 0 201 
0 0 224 
0 0 218 
0 0 209 
0 0 214 
0 0 209 
0 0 194 
0 0 212 
0 0 217 
0 0 215 
0 0 209 
0 0 203 
0 0 214 
0 0 212 
0 0 220 
0 0 203 
0 0 224 
0 0 199 
0 0 199 
0 0 217 
0 0 221 
0 0 224 
0 0 207 
0 0 206 
0 0 206 
0 0 214 
0 0 193 
0 0 207 
0 0 199 
0 0 211 
0 0 194 
0 0 198 
0 0 191 
0 0 220 
0 0 188 
0 0 214 
0 0 198 
0 0 207 
0 0 211 
0 0 203 
0 0 211 
0 0 221 
0 0 199 
0 0 206 
0 0 201 
0 0 203 
0 0 209 
0 0 212 
0 0 203 
0 0 215 
0 0 211 
0 0 218 
0 0 207 
0 0 215 
0 0 201 
0 0 215 
0 0 214 
0 0 218 
0 0 217 
0 0 220 
0 0 204 
0 0 207 
0 0 211 
0 0 206 
0 0 203 
0 0 223 
0 0 199 
0 0 233 
0 0 206 
0 0 201 
0 0 217 
0 0 211 
0 0 203 
0 0 211 
0 0 199 
0 0 199 
0 0 215 
0 0 207 
0 0 209 
0 0 203 
0 0 189 
0 0 214 
0 0 212 
0 0 214 
0 0 194 
0 0 214 
0 0 211 
0 0 206 
0 0 201 
0 0 218 
0 0 207 
0 0 212 
0 0 194 
0 0 207 
0 0 199 
0 0 217 
0 0 215 
0 0 207 
0 0 217 
0 0 206 
0 0 209 
0 0 218 
0 0 198 
0 0 209 
0 0 199 
0 0 207 
0 0 212 
0 0 209 
0 0 207 
0 0 203 
0 0 207 
0 0 206 
0 0 209 
0 0 217 
0 0 194 
0 0 198 
0 0 204 
0 0 209 
0 0 224 
0 0 215 
0 0 227 
0 0 204 
0 0 206 
0 0 215 
0 0 204 
0 0 203 
0 0 212 
0 0 201 
0 0 203 
0 0 198 
0 0 196 
0 0 207 
0 0 207 
0 0 207 
0 0 203 
0 0 194 
0 0 218 
0 0 199 
0 0 203 
0 0 198 
0 0 198 
0 0 204 
0 0 203 
0 0 206 
0 0 212 
0 0 206 
0 0 193 
0 0 191 
0 0 203 
0 0 221 
0 0 207 
0 0 221 
0 0 193 
0 0 207 
0 0 207 
0 0 209 
0 0 194 
0 0 214 
0 0 212 
0 0 204 
0 0 198 
0 0 199 
0 0 186 
0 0 193 
0 0 192 
0 0 204 
0 0 193 
0 0 207 
0 0 201 
0 0 201 
0 0 193 
0 0 202 
0 0 203 
0 0 200 
0 0 214 
0 0 198 
0 0 207 
0 0 193 
0 0 203 
0 0 199 
0 0 205 
0 0 196 
0 0 212 
0 0 203 
9 13 210 
53 84 166 
52 83 168 
55 87 163 
55 88 163 
57 89 167 
57 89 164 
55 87 167 
57 88 164 
59 92 171 
59 91 161 
60 94 171 
59 91 163 
59 92 165 
59 93 161 
59 90 161 
59 92 161 
61 92 161 
61 90 159 
60 91 163 
60 92 165 
60 91 159 
60 88 154 
59 87 154 
60 91 161 
61 88 159 
59 90 160 
58 85 151 
65 83 144 
160 10 18 
154 0 0 
160 0 0 
151 0 0 
164 0 0 
159 0 0 
160 0 0 
164 0 0 
169 0 0 
166 0 0 
172 0 0 
164 0 0 
173 0 0 
174 0 0 
173 0 0 
177 0 0 
173 0 0 
174 0 0 
170 0 0 
179 0 0 
180 0 0 
171 0 0 
177 0 0 
162 0 0 
186 0 0 
171 0 0 
181 0 0 
183 0 0 
178 0 0 
181 0 0 
178 0 0 
176 0 0 
181 0 0 
180 0 0 
173 0 0 
180 0 0 
185 0 0 
179 0 0 
182 0 0 
182 0 0 
183 0 0 
179 0 0 
176 0 0 
179 0 0 
182 0 0 
186 0 0 
186 0 0 
180 0 0 
183 0 0 
187 0 0 
185 0 0 
181 0 0 
188 0 0 
184 0 0 
186 0 0 
190 0 0 
183 0 0 
190 0 0 
186 0 0 
184 0 0 
188 0 0 
186 0 0 
183 0 0 
185 0 0 
194 0 0 
190 0 0 
191 0 0 
187 0 0 
190 0 0 
186 0 0 
185 0 0 
187 0 0 
188 0 0 
187 0 0 
188 0 0 
181 0 0 
184 0 0 
186 0 0 
183 0 0 
191 0 0 
183 0 0 
193 0 0 
188 0 0 
187 0 0 
190 0 0 
186 0 0 
192 0 0 
189 0 0 
191 0 0 
189 0 0 
192 0 0 
189 0 0 
189 0 0 
189 0 0 
193 0 0 
192 0 0 
187 0 0 
191 0 0 
188 0 0 
192 0 0 
192 0 0 
195 0 0 
189 0 0 
193 0 0 
193 0 0 
193 0 0 
185 0 0 
193 0 0 
192 0 0 
193 0 0 
193 0 0 
195 0 0 
197 0 0 
189 0 0 
188 0 0 
190 0 0 
191 0 0 
187 0 0 
189 0 0 
187 0 0 
194 0 0 
194 0 0 
192 0 0 
193 0 0 
191 0 0 
186 0 0 
194 0 0 
193 0 0 
194 0 0 
195 0 0 
196 0 0 
192 0 0 
193 0 0 
191 0 0 
192 0 0 
193 0 0 
194 0 0 
188 0 0 
195 0 0 
194 0 0 
193 0 0 
195 0 0 
193 0 0 
193 0 0 
192 0 0 
193 0 0 
195 0 0 
194 0 0 
198 0 0 
188 0 0 
193 0 0 
195 0 0 
194 0 0 
190 0 0 
194 0 0 
195 0 0 
193 0 0 
197 0 0 
193 0 0 
191 0 0 
190 0 0 
198 0 0 
192 0 0 
191 0 0 
188 0 0 
196 0 0 
193 0 0 
189 0 0 
193 0 0 
192 0 0 
195 0 0 
198 0 0 
195 0 0 
193 0 0 
191 0 0 
197 0 0 
191 0 0 
195 0 0 
198 0 0 
194 0 0 
193 0 0 
193 0 0 
196 0 0 
195 0 0 
194 0 0 
194 0 0 
0 0 211 
0 0 204 
0 0 206 
0 0 203 
0 0 206 
0 0 198 
0 0 211 
0 0 207 
0 0 215 
0 0 209 
0 0 211 
0 0 212 
0 0 201 
0 0 207 
0 0 207 
0 0 199 
0 0 215 
0 0 211 
0 0 206 
0 0 214 
0 0 199 
0 0 207 
0 0 214 
0 0 209 
0 0 204 
0 0 218 
0 0 196 
0 0 204 
0 0 204 
0 0 209 
0 0 198 
0 0 215 
0 0 207 
0 0 211 
0 0 199 
0 0 212 
0 0 218 
0 0 196 
0 0 212 
0 0 207 
0 0 201 
0 0 203 
0 0 198 
0 0 206 
0 0 198 
0 0 204 
0 0 204 
0 0 212 
0 0 214 
0 0 220 
0 0 203 
0 0 191 
0 0 209 
0 0 198 
0 0 211 
0 0 199 
0 0 212 
0 0 209 
0 0 215 
0 0 217 
0 0 189 
0 0 212 
0 0 214 
0 0 203 
0 0 209 
0 0 203 
0 0 206 
0 0 201 
0 0 194 
0 0 207 
0 0 194 
0 0 218 
0 0 207 
0 0 203 
0 0 218 
0 0 204 
0 0 212 
0 0 204 
0 0 217 
0 0 207 
0 0 204 
0 0 207 
0 0 212 
0 0 209 
0 0 203 
0 0 203 
0 0 196 
0 0 218 
0 0 204 
0 0 203 
0 0 212 
0 0 201 
0 0 199 
0 0 214 
0 0 207 
0 0 211 
0 0 199 
0 0 211 
0 0 199 
0 0 204 
0 0 196 
0 0 211 
0 0 215 
0 0 211 
0 0 207 
0 0 211 
0 0 204 
0 0 209 
0 0 206 
0 0 215 
0 0 207 
0 0 206 
0 0 199 
0 0 209 
0 0 198 
0 0 207 
0 0 220 
0 0 211 
0 0 211 
0 0 201 
0 0 215 
0 0 204 
0 0 203 
0 0 206 
0 0 212 
0 0 218 
0 0 207 
0 0 198 
0 0 209 
0 0 207 
0 0 196 
0 0 204 
0 0 194 
0 0 214 
0 0 199 
0 0 201 
0 0 201 
0 0 196 
0 0 204 
0 0 207 
0 0 204 
0 0 199 
0 0 204 
0 0 203 
0 0 194 
0 0 206 
0 0 211 
0 0 207 
0 0 200 
0 0 207 
0 0 196 
0 0 207 
0 0 198 
0 0 215 
0 0 196 
0 0 214 
0 0 199 
0 0 207 
0 0 206 
0 0 209 
0 0 197 
0 0 193 
0 0 199 
0 0 206 
0 0 203 
0 0 205 
0 0 203 
0 0 194 
0 0 208 
0 0 188 
0 0 211 
0 0 200 
0 0 207 
0 0 202 
0 0 201 
0 0 187 
0 0 220 
0 0 179 
0 0 190 
0 0 207 
0 0 207 
0 0 190 
0 0 199 
0 0 197 
0 0 202 
0 0 211 
46 73 174 
50 79 165 
54 86 162 
53 84 167 
56 87 164 
56 87 162 
57 89 166 
57 91 162 
55 87 164 
59 91 165 
60 93 166 
60 92 165 
60 94 168 
60 93 166 
59 92 165 
60 91 160 
58 88 161 
57 89 161 
59 92 159 
59 89 155 
59 88 156 
59 87 156 
58 85 148 
60 89 159 
59 90 160 
59 90 158 
59 86 154 
104 70 126 
158 0 0 
147 0 0 
161 0 0 
162 0 0 
171 0 0 
168 0 0 
149 0 0 
174 0 0 
165 0 0 
168 0 0 
160 0 0 
164 0 0 
162 0 0 
171 0 0 
173 0 0 
178 0 0 
166 0 0 
178 0 0 
176 0 0 
179 0 0 
171 0 0 
177 0 0 
174 0 0 
169 0 0 
169 0 0 
177 0 0 
183 0 0 
187 0 0 
174 0 0 
180 0 0 
181 0 0 
188 0 0 
175 0 0 
184 0 0 
180 0 0 
181 0 0 
178 0 0 
178 0 0 
186 0 0 
184 0 0 
178 0 0 
177 0 0 
187 0 0 
172 0 0 
183 0 0 
179 0 0 
190 0 0 
187 0 0 
189 0 0 
191 0 0 
187 0 0 
184 0 0 
188 0 0 
187 0 0 
189 0 0 
189 0 0 
186 0 0 
189 0 0 
182 0 0 
189 0 0 
179 0 0 
189 0 0 
189 0 0 
187 0 0 
186 0 0 
181 0 0 
191 0 0 
190 0 0 
192 0 0 
185 0 0 
189 0 0 
179 0 0 
185 0 0 
188 0 0 
181 0 0 
186 0 0 
186 0 0 
192 0 0 
183 0 0 
192 0 0 
192 0 0 
190 0 0 
190 0 0 
190 0 0 
183 0 0 
186 0 0 
189 0 0 
192 0 0 
191 0 0 
194 0 0 
189 0 0 
190 0 0 
193 0 0 
190 0 0 
190 0 0 
189 0 0 
187 0 0 
188 0 0 
190 0 0 
190 0 0 
195 0 0 
188 0 0 
185 0 0 
194 0 0 
193 0 0 
194 0 0 
191 0 0 
187 0 0 
192 0 0 
193 0 0 
194 0 0 
192 0 0 
189 0 0 
193 0 0 
187 0 0 
193 0 0 
193 0 0 
197 0 0 
190 0 0 
189 0 0 
193 0 0 
191 0 0 
193 0 0 
185 0 0 
190 0 0 
196 0 0 
190 0 0 
192 0 0 
191 0 0 
191 0 0 
190 0 0 
193 0 0 
192 0 0 
191 0 0 
192 0 0 
193 0 0 
191 0 0 
193 0 0 
197 0 0 
193 0 0 
193 0 0 
190 0 0 
194 0 0 
191 0 0 
192 0 0 
196 0 0 
192 0 0 
188 0 0 
191 0 0 
193 0 0 
194 0 0 
188 0 0 
195 0 0 
194 0 0 
194 0 0 
192 0 0 
196 0 0 
194 0 0 
189 0 0 
198 0 0 
193 0 0 
190 0 0 
192 0 0 
192 0 0 
191 0 0 
193 0 0 
194 0 0 
191 0 0 
191 0 0 
193 0 0 
196 0 0 
195 0 0 
192 0 0 
196 0 0 
195 0 0 
193 0 0 
193 0 0 
194 0 0 
193 0 0 
191 0 0 
191 0 0 
191 0 0 
194 0 0 
193 0 0 
191 0 0 
197 0 0 
0 0 207 
0 0 201 
0 0 217 
0 0 206 
0 0 217 
0 0 215 
0 0 204 
0 0 211 
0 0 207 
0 0 203 
0 0 209 
0 0 206 
0 0 199 
0 0 199 
0 0 206 
0 0 207 
0 0 194 
0 0 212 
0 0 194 
0 0 209 
0 0 212 
0 0 196 
0 0 206 
0 0 226 
0 0 198 
0 0 199 
0 0 217 
0 0 203 
0 0 203 
0 0 199 
0 0 214 
0 0 209 
0 0 189 
0 0 212 
0 0 212 
0 0 186 
0 0 211 
0 0 207 
0 0 226 
0 0 217 
0 0 196 
0 0 198 
0 0 204 
0 0 198 
0 0 206 
0 0 209 
0 0 209 
0 0 209 
0 0 214 
0 0 203 
0 0 204 
0 0 204 
0 0 211 
0 0 191 
0 0 209 
0 0 217 
0 0 211 
0 0 204 
0 0 212 
0 0 211 
0 0 203 
0 0 204 
0 0 207 
0 0 215 
0 0 207 
0 0 211 
0 0 199 
0 0 220 
0 0 212 
0 0 204 
0 0 196 
0 0 196 
0 0 214 
0 0 199 
0 0 209 
0 0 207 
0 0 206 
0 0 198 
0 0 211 
0 0 209 
0 0 206 
0 0 203 
0 0 198 
0 0 211 
0 0 201 
0 0 194 
0 0 207 
0 0 198 
0 0 204 
0 0 201 
0 0 215 
0 0 204 
0 0 224 
0 0 207 
0 0 186 
0 0 201 
0 0 224 
0 0 203 
0 0 201 
0 0 217 
0 0 209 
0 0 209 
0 0 204 
0 0 203 
0 0 211 
0 0 189 
0 0 201 
0 0 218 
0 0 191 
0 0 215 
0 0 196 
0 0 221 
0 0 198 
0 0 207 
0 0 199 
0 0 212 
0 0 196 
0 0 215 
0 0 203 
0 0 211 
0 0 193 
0 0 204 
0 0 199 
0 0 221 
0 0 212 
0 0 211 
0 0 215 
0 0 209 
0 0 209 
0 0 207 
0 0 207 
0 0 206 
0 0 214 
0 0 203 
0 0 194 
0 0 201 
0 0 207 
0 0 206 
0 0 207 
0 0 199 
0 0 207 
0 0 207 
0 0 198 
0 0 206 
0 0 214 
0 0 209 
0 0 210 
0 0 209 
0 0 211 
0 0 217 
0 0 209 
0 0 207 
0 0 195 
0 0 214 
0 0 198 
0 0 214 
0 0 203 
0 0 214 
0 0 209 
0 0 207 
0 0 204 
0 0 193 
0 0 199 
0 0 203 
0 0 207 
0 0 211 
0 0 191 
0 0 194 
0 0 201 
0 0 207 
0 0 199 
0 0 199 
0 0 206 
0 0 186 
0 0 189 
0 0 194 
0 0 195 
0 0 201 
0 0 199 
0 0 194 
0 0 207 
0 0 199 
0 0 209 
0 0 209 
0 0 199 
0 0 205 
33 53 192 
53 84 166 
55 87 165 
53 83 156 
55 88 168 
56 88 162 
57 89 166 
58 91 167 
59 91 164 
57 89 163 
56 87 151 
57 88 162 
60 92 164 
58 88 156 
58 89 153 
59 92 163 
59 89 163 
58 88 156 
60 92 162 
59 88 156 
59 88 158 
58 88 158 
60 92 159 
58 89 157 
58 85 148 
58 86 148 
59 88 156 
113 55 99 
152 0 0 
156 0 0 
162 0 0 
161 0 0 
159 0 0 
162 0 0 
155 0 0 
161 0 0 
166 0 0 
173 0 0 
170 0 0 
172 0 0 
174 0 0 
174 0 0 
153 0 0 
165 0 0 
169 0 0 
169 0 0 
180 0 0 
170 0 0 
169 0 0 
174 0 0 
178 0 0 
175 0 0 
174 0 0 
179 0 0 
175 0 0 
179 0 0 
180 0 0 
181 0 0 
178 0 0 
180 0 0 
185 0 0 
179 0 0 
180 0 0 
171 0 0 
178 0 0 
184 0 0 
182 0 0 
179 0 0 
177 0 0 
182 0 0 
184 0 0 
178 0 0 
182 0 0 
187 0 0 
186 0 0 
183 0 0 
188 0 0 
189 0 0 
187 0 0 
189 0 0 
183 0 0 
184 0 0 
185 0 0 
193 0 0 
187 0 0 
188 0 0 
182 0 0 
190 0 0 
183 0 0 
181 0 0 
184 0 0 
191 0 0 
186 0 0 
187 0 0 
186 0 0 
189 0 0 
187 0 0 
184 0 0 
186 0 0 
186 0 0 
187 0 0 
180 0 0 
186 0 0 
188 0 0 
185 0 0 
191 0 0 
190 0 0 
184 0 0 
185 0 0 
188 0 0 
191 0 0 
191 0 0 
194 0 0 
187 0 0 
189 0 0 
192 0 0 
188 0 0 
195 0 0 
194 0 0 
197 0 0 
189 0 0 
187 0 0 
193 0 0 
191 0 0 
195 0 0 
191 0 0 
193 0 0 
192 0 0 
181 0 0 
192 0 0 
196 0 0 
191 0 0 
196 0 0 
192 0 0 
194 0 0 
193 0 0 
192 0 0 
195 0 0 
192 0 0 
196 0 0 
193 0 0 
188 0 0 
194 0 0 
193 0 0 
191 0 0 
194 0 0 
192 0 0 
193 0 0 
193 0 0 
186 0 0 
194 0 0 
194 0 0 
197 0 0 
195 0 0 
195 0 0 
192 0 0 
193 0 0 
192 0 0 
194 0 0 
191 0 0 
191 0 0 
193 0 0 
190 0 0 
192 0 0 
195 0 0 
194 0 0 
195 0 0 
195 0 0 
193 0 0 
196 0 0 
193 0 0 
195 0 0 
190 0 0 
190 0 0 
195 0 0 
195 0 0 
196 0 0 
192 0 0 
193 0 0 
194 0 0 
189 0 0 
194 0 0 
191 0 0 
193 0 0 
193 0 0 
191 0 0 
189 0 0 
193 0 0 
187 0 0 
189 0 0 
188 0 0 
192 0 0 
198 0 0 
195 0 0 
192 0 0 
194 0 0 
194 0 0 
194 0 0 
198 0 0 
196 0 0 
193 0 0 
191 0 0 
192 0 0 
193 0 0 
194 0 0 
192 0 0 
193 0 0 
197 0 0 
188 0 0 
196 0 0 
191 0 0 
195 0 0 
194 0 0 
194 0 0 
0 0 209 
0 0 215 
0 0 207 
0 0 186 
0 0 201 
0 0 203 
0 0 218 
0 0 211 
0 0 199 
0 0 206 
0 0 211 
0 0 209 
0 0 209 
0 0 211 
0 0 204 
0 0 207 
0 0 209 
0 0 206 
0 0 206 
0 0 218 
0 0 201 
0 0 207 
0 0 201 
0 0 207 
0 0 207 
0 0 212 
0 0 203 
0 0 207 
0 0 204 
0 0 198 
0 0 189 
0 0 204 
0 0 201 
0 0 199 
0 0 203 
0 0 209 
0 0 209 
0 0 214 
0 0 214 
0 0 220 
0 0 203 
0 0 220 
0 0 218 
0 0 194 
0 0 194 
0 0 221 
0 0 212 
0 0 201 
0 0 214 
0 0 218 
0 0 203 
0 0 196 
0 0 207 
0 0 207 
0 0 199 
0 0 203 
0 0 203 
0 0 199 
0 0 211 
0 0 217 
0 0 198 
0 0 198 
0 0 193 
0 0 215 
0 0 206 
0 0 191 
0 0 199 
0 0 214 
0 0 204 
0 0 224 
0 0 215 
0 0 218 
0 0 211 
0 0 211 
0 0 196 
0 0 198 
0 0 220 
0 0 214 
0 0 212 
0 0 207 
0 0 204 
0 0 214 
0 0 217 
0 0 206 
0 0 215 
0 0 207 
0 0 193 
0 0 203 
0 0 209 
0 0 223 
0 0 199 
0 0 211 
0 0 203 
0 0 194 
0 0 201 
0 0 203 
0 0 217 
0 0 209 
0 0 206 
0 0 198 
0 0 209 
0 0 204 
0 0 194 
0 0 214 
0 0 220 
0 0 191 
0 0 196 
0 0 237 
0 0 220 
0 0 198 
0 0 203 
0 0 199 
0 0 201 
0 0 206 
0 0 212 
0 0 220 
0 0 223 
0 0 206 
0 0 209 
0 0 218 
0 0 199 
0 0 209 
0 0 217 
0 0 199 
0 0 201 
0 0 207 
0 0 201 
0 0 199 
0 0 209 
0 0 215 
0 0 198 
0 0 223 
0 0 212 
0 0 201 
0 0 215 
0 0 209 
0 0 194 
0 0 199 
0 0 198 
0 0 206 
0 0 196 
0 0 198 
0 0 201 
0 0 189 
0 0 207 
0 0 207 
0 0 207 
0 0 206 
0 0 191 
0 0 198 
0 0 194 
0 0 211 
0 0 198 
0 0 201 
0 0 184 
0 0 203 
0 0 204 
0 0 211 
0 0 198 
0 0 204 
0 0 206 
0 0 207 
0 0 198 
0 0 192 
0 0 200 
0 0 200 
0 0 200 
0 0 197 
0 0 197 
0 0 207 
0 0 217 
0 0 199 
0 0 192 
0 0 200 
0 0 197 
0 0 191 
0 0 201 
0 0 194 
0 0 189 
0 0 204 
0 0 200 
0 0 197 
0 0 207 
0 0 195 
0 0 197 
0 0 199 
25 40 193 
55 87 162 
48 76 160 
51 80 163 
56 87 166 
56 86 161 
58 91 166 
56 86 161 
57 88 168 
57 89 162 
59 92 163 
58 90 166 
58 91 163 
56 85 157 
59 91 162 
56 86 153 
58 92 164 
58 87 149 
59 90 161 
58 86 156 
59 86 153 
60 92 163 
59 88 155 
59 86 152 
57 83 145 
57 81 145 
57 81 141 
139 38 70 
149 0 0 
157 0 0 
159 0 0 
152 0 0 
163 0 0 
166 0 0 
152 0 0 
156 0 0 
159 0 0 
169 0 0 
174 0 0 
171 0 0 
159 0 0 
165 0 0 
172 0 0 
170 0 0 
166 0 0 
172 0 0 
162 0 0 
168 0 0 
180 0 0 
180 0 0 
184 0 0 
182 0 0 
169 0 0 
179 0 0 
179 0 0 
179 0 0 
174 0 0 
178 0 0 
179 0 0 
177 0 0 
176 0 0 
176 0 0 
177 0 0 
172 0 0 
177 0 0 
177 0 0 
182 0 0 
178 0 0 
186 0 0 
175 0 0 
179 0 0 
185 0 0 
183 0 0 
178 0 0 
185 0 0 
187 0 0 
183 0 0 
188 0 0 
185 0 0 
187 0 0 
185 0 0 
184 0 0 
184 0 0 
188 0 0 
186 0 0 
183 0 0 
185 0 0 
184 0 0 
181 0 0 
189 0 0 
186 0 0 
188 0 0 
189 0 0 
190 0 0 
183 0 0 
186 0 0 
188 0 0 
188 0 0 
184 0 0 
183 0 0 
189 0 0 
186 0 0 
188 0 0 
191 0 0 
185 0 0 
187 0 0 
192 0 0 
189 0 0 
191 0 0 
183 0 0 
192 0 0 
192 0 0 
192 0 0 
192 0 0 
191 0 0 
189 0 0 
185 0 0 
191 0 0 
192 0 0 
193 0 0 
188 0 0 
189 0 0 
192 0 0 
190 0 0 
193 0 0 
193 0 0 
191 0 0 
191 0 0 
183 0 0 
190 0 0 
188 0 0 
188 0 0 
188 0 0 
189 0 0 
196 0 0 
187 0 0 
190 0 0 
193 0 0 
195 0 0 
198 0 0 
190 0 0 
193 0 0 
192 0 0 
191 0 0 
191 0 0 
193 0 0 
193 0 0 
190 0 0 
192 0 0 
190 0 0 
192 0 0 
196 0 0 
195 0 0 
191 0 0 
190 0 0 
195 0 0 
189 0 0 
195 0 0 
193 0 0 
194 0 0 
198 0 0 
195 0 0 
192 0 0 
189 0 0 
189 0 0 
194 0 0 
195 0 0 
189 0 0 
199 0 0 
191 0 0 
194 0 0 
191 0 0 
192 0 0 
189 0 0 
193 0 0 
190 0 0 
192 0 0 
194 0 0 
195 0 0 
195 0 0 
196 0 0 
188 0 0 
191 0 0 
193 0 0 
195 0 0 
195 0 0 
194 0 0 
195 0 0 
194 0 0 
193 0 0 
193 0 0 
195 0 0 
191 0 0 
197 0 0 
192 0 0 
192 0 0 
192 0 0 
196 0 0 
193 0 0 
195 0 0 
187 0 0 
190 0 0 
195 0 0 
187 0 0 
193 0 0 
191 0 0 
197 0 0 
197 0 0 
193 0 0 
194 0 0 
195 0 0 
194 0 0 
190 0 0 
196 0 0 
0 0 191 
0 0 199 
0 0 201 
0 0 206 
0 0 201 
0 0 201 
0 0 206 
0 0 204 
0 0 204 
0 0 198 
0 0 215 
0 0 215 
0 0 207 
0 0 214 
0 0 199 
0 0 193 
0 0 209 
0 0 198 
0 0 199 
0 0 207 
0 0 204 
0 0 184 
0 0 203 
0 0 204 
0 0 204 
0 0 207 
0 0 196 
0 0 204 
0 0 215 
0 0 203 
0 0 199 
0 0 217 
0 0 204 
0 0 198 
0 0 211 
0 0 212 
0 0 198 
0 0 212 
0 0 191 
0 0 230 
0 0 206 
0 0 189 
0 0 212 
0 0 206 
0 0 211 
0 0 206 
0 0 209 
0 0 201 
0 0 203 
0 0 206 
0 0 214 
0 0 201 
0 0 204 
0 0 211 
0 0 214 
0 0 203 
0 0 196 
0 0 212 
0 0 212 
0 0 193 
0 0 206 
0 0 209 
0 0 218 
0 0 194 
0 0 211 
0 0 214 
0 0 207 
0 0 188 
0 0 217 
0 0 221 
0 0 221 
0 0 199 
0 0 189 
0 0 204 
0 0 207 
0 0 203 
0 0 211 
0 0 203 
0 0 207 
0 0 186 
0 0 203 
0 0 193 
0 0 204 
0 0 206 
0 0 206 
0 0 204 
0 0 211 
0 0 203 
0 0 215 
0 0 204 
0 0 206 
0 0 196 
0 0 217 
0 0 196 
0 0 186 
0 0 193 
0 0 203 
0 0 203 
0 0 204 
0 0 196 
0 0 212 
0 0 204 
0 0 209 
0 0 193 
0 0 188 
0 0 217 
0 0 218 
0 0 207 
0 0 199 
0 0 206 
0 0 199 
0 0 217 
0 0 203 
0 0 206 
0 0 204 
0 0 203 
0 0 196 
0 0 188 
0 0 212 
0 0 203 
0 0 203 
0 0 204 
0 0 211 
0 0 209 
0 0 204 
0 0 206 
0 0 194 
0 0 221 
0 0 209 
0 0 201 
0 0 199 
0 0 213 
0 0 201 
0 0 199 
0 0 204 
0 0 201 
0 0 199 
0 0 201 
0 0 215 
0 0 201 
0 0 194 
0 0 204 
0 0 199 
0 0 201 
0 0 207 
0 0 214 
0 0 211 
0 0 217 
0 0 203 
0 0 199 
0 0 198 
0 0 206 
0 0 196 
0 0 203 
0 0 209 
0 0 204 
0 0 211 
0 0 203 
0 0 193 
0 0 204 
0 0 204 
0 0 199 
0 0 194 
0 0 200 
0 0 212 
0 0 198 
0 0 199 
0 0 197 
0 0 195 
0 0 207 
0 0 188 
0 0 195 
0 0 188 
0 0 198 
0 0 199 
0 0 196 
0 0 204 
0 0 196 
0 0 194 
0 0 191 
0 0 194 
0 0 194 
0 0 191 
0 0 184 
0 0 199 
0 0 207 
13 20 189 
54 84 158 
55 88 165 
56 86 162 
55 85 161 
57 89 169 
57 88 166 
55 85 159 
58 89 163 
57 91 169 
58 90 164 
57 88 161 
57 88 163 
59 91 155 
57 87 159 
60 90 154 
59 90 162 
59 89 156 
58 89 157 
61 94 162 
59 87 151 
57 83 147 
58 87 153 
59 85 148 
58 84 145 
56 85 149 
57 80 144 
152 18 31 
154 0 0 
155 0 0 
158 0 0 
160 0 0 
162 0 0 
166 0 0 
167 0 0 
167 0 0 
161 0 0 
177 0 0 
161 0 0 
165 0 0 
165 0 0 
165 0 0 
172 0 0 
167 0 0 
171 0 0 
168 0 0 
165 0 0 
166 0 0 
172 0 0 
175 0 0 
183 0 0 
174 0 0 
177 0 0 
177 0 0 
176 0 0 
177 0 0 
179 0 0 
171 0 0 
180 0 0 
177 0 0 
182 0 0 
187 0 0 
181 0 0 
180 0 0 
177 0 0 
183 0 0 
179 0 0 
191 0 0 
179 0 0 
180 0 0 
186 0 0 
180 0 0 
188 0 0 
176 0 0 
184 0 0 
185 0 0 
184 0 0 
185 0 0 
185 0 0 
184 0 0 
184 0 0 
189 0 0 
181 0 0 
188 0 0 
183 0 0 
180 0 0 
181 0 0 
184 0 0 
183 0 0 
186 0 0 
189 0 0 
189 0 0 
185 0 0 
184 0 0 
181 0 0 
183 0 0 
194 0 0 
182 0 0 
182 0 0 
191 0 0 
185 0 0 
186 0 0 
192 0 0 
192 0 0 
181 0 0 
190 0 0 
187 0 0 
190 0 0 
191 0 0 
193 0 0 
190 0 0 
188 0 0 
188 0 0 
188 0 0 
187 0 0 
188 0 0 
187 0 0 
194 0 0 
186 0 0 
191 0 0 
191 0 0 
192 0 0 
183 0 0 
191 0 0 
188 0 0 
192 0 0 
184 0 0 
191 0 0 
187 0 0 
189 0 0 
193 0 0 
193 0 0 
192 0 0 
193 0 0 
193 0 0 
193 0 0 
190 0 0 
189 0 0 
189 0 0 
190 0 0 
188 0 0 
191 0 0 
192 0 0 
194 0 0 
195 0 0 
191 0 0 
191 0 0 
192 0 0 
190 0 0 
192 0 0 
193 0 0 
195 0 0 
193 0 0 
195 0 0 
188 0 0 
191 0 0 
190 0 0 
189 0 0 
192 0 0 
187 0 0 
192 0 0 
191 0 0 
193 0 0 
193 0 0 
193 0 0 
195 0 0 
192 0 0 
189 0 0 
192 0 0 
193 0 0 
189 0 0 
193 0 0 
191 0 0 
191 0 0 
194 0 0 
196 0 0 
190 0 0 
193 0 0 
194 0 0 
188 0 0 
191 0 0 
193 0 0 
194 0 0 
193 0 0 
194 0 0 
193 0 0 
194 0 0 
193 0 0 
186 0 0 
194 0 0 
194 0 0 
193 0 0 
193 0 0 
196 0 0 
191 0 0 
191 0 0 
195 0 0 
193 0 0 
190 0 0 
195 0 0 
191 0 0 
194 0 0 
193 0 0 
195 0 0 
193 0 0 
193 0 0 
195 0 0 
193 0 0 
194 0 0 
193 0 0 
193 0 0 
196 0 0 
190 0 0 
192 0 0 
0 0 199 
0 0 204 
0 0 203 
0 0 198 
0 0 211 
0 0 201 
0 0 203 
0 0 198 
0 0 209 
0 0 217 
0 0 212 
0 0 209 
0 0 207 
0 0 193 
0 0 198 
0 0 199 
0 0 215 
0 0 201 
0 0 204 
0 0 199 
0 0 191 
0 0 206 
0 0 206 
0 0 206 
0 0 212 
0 0 194 
0 0 206 
0 0 194 
0 0 224 
0 0 209 
0 0 209 
0 0 206 
0 0 203 
0 0 198 
0 0 217 
0 0 209 
0 0 203 
0 0 198 
0 0 204 
0 0 206 
0 0 217 
0 0 204 
0 0 214 
0 0 211 
0 0 207 
0 0 207 
0 0 206 
0 0 203 
0 0 211 
0 0 201 
0 0 209 
0 0 209 
0 0 193 
0 0 206 
0 0 203 
0 0 212 
0 0 194 
0 0 209 
0 0 207 
0 0 214 
0 0 196 
0 0 196 
0 0 212 
0 0 188 
0 0 206 
0 0 196 
0 0 199 
0 0 212 
0 0 196 
0 0 203 
0 0 204 
0 0 203 
0 0 207 
0 0 228 
0 0 201 
0 0 214 
0 0 204 
0 0 211 
0 0 217 
0 0 220 
0 0 206 
0 0 196 
0 0 212 
0 0 206 
0 0 220 
0 0 207 
0 0 203 
0 0 215 
0 0 215 
0 0 203 
0 0 212 
0 0 217 
0 0 204 
0 0 211 
0 0 218 
0 0 212 
0 0 209 
0 0 203 
0 0 220 
0 0 218 
0 0 206 
0 0 193 
0 0 189 
0 0 209 
0 0 209 
0 0 203 
0 0 201 
0 0 198 
0 0 196 
0 0 199 
0 0 212 
0 0 212 
0 0 198 
0 0 199 
0 0 211 
0 0 193 
0 0 196 
0 0 193 
0 0 204 
0 0 199 
0 0 207 
0 0 212 
0 0 193 
0 0 209 
0 0 196 
0 0 206 
0 0 217 
0 0 223 
0 0 211 
0 0 198 
0 0 204 
0 0 207 
0 0 206 
0 0 201 
0 0 189 
0 0 196 
0 0 196 
0 0 203 
0 0 198 
0 0 199 
0 0 199 
0 0 201 
0 0 194 
0 0 198 
0 0 191 
0 0 196 
0 0 203 
0 0 201 
0 0 193 
0 0 207 
0 0 206 
0 0 207 
0 0 207 
0 0 196 
0 0 206 
0 0 200 
0 0 211 
0 0 201 
0 0 194 
0 0 203 
0 0 200 
0 0 195 
0 0 212 
0 0 207 
0 0 189 
0 0 197 
0 0 199 
0 0 213 
0 0 195 
0 0 199 
0 0 205 
0 0 189 
0 0 201 
0 0 193 
0 0 199 
0 0 184 
0 0 191 
0 0 199 
0 0 209 
0 0 208 
0 0 189 
0 0 199 
0 0 192 
0 0 195 
0 0 189 
0 0 198 
0 0 203 
45 70 166 
53 84 160 
51 82 163 
56 88 163 
57 89 165 
53 85 165 
58 90 158 
57 88 162 
55 88 163 
55 86 153 
59 90 163 
58 91 159 
57 88 155 
59 91 160 
60 92 161 
59 91 159 
61 92 158 
59 92 161 
59 88 156 
59 89 160 
59 87 154 
58 88 156 
59 89 152 
58 84 154 
56 85 151 
72 74 134 
144 0 0 
154 0 0 
164 0 0 
157 0 0 
158 0 0 
165 0 0 
166 0 0 
153 0 0 
165 0 0 
167 0 0 
166 0 0 
160 0 0 
168 0 0 
173 0 0 
164 0 0 
171 0 0 
166 0 0 
165 0 0 
176 0 0 
169 0 0 
170 0 0 
176 0 0 
160 0 0 
179 0 0 
182 0 0 
178 0 0 
172 0 0 
173 0 0 
181 0 0 
181 0 0 
178 0 0 
180 0 0 
182 0 0 
180 0 0 
177 0 0 
183 0 0 
182 0 0 
191 0 0 
182 0 0 
176 0 0 
184 0 0 
184 0 0 
177 0 0 
177 0 0 
184 0 0 
174 0 0 
183 0 0 
178 0 0 
183 0 0 
185 0 0 
185 0 0 
187 0 0 
185 0 0 
189 0 0 
179 0 0 
174 0 0 
190 0 0 
191 0 0 
181 0 0 
186 0 0 
185 0 0 
189 0 0 
188 0 0 
185 0 0 
194 0 0 
186 0 0 
186 0 0 
183 0 0 
192 0 0 
190 0 0 
188 0 0 
185 0 0 
190 0 0 
189 0 0 
190 0 0 
184 0 0 
182 0 0 
188 0 0 
186 0 0 
191 0 0 
190 0 0 
187 0 0 
186 0 0 
191 0 0 
189 0 0 
190 0 0 
188 0 0 
186 0 0 
192 0 0 
183 0 0 
192 0 0 
191 0 0 
187 0 0 
188 0 0 
193 0 0 
190 0 0 
189 0 0 
187 0 0 
194 0 0 
185 0 0 
189 0 0 
184 0 0 
192 0 0 
190 0 0 
193 0 0 
185 0 0 
188 0 0 
191 0 0 
189 0 0 
188 0 0 
190 0 0 
194 0 0 
189 0 0 
191 0 0 
195 0 0 
192 0 0 
196 0 0 
192 0 0 
190 0 0 
191 0 0 
193 0 0 
192 0 0 
188 0 0 
193 0 0 
193 0 0 
191 0 0 
193 0 0 
193 0 0 
196 0 0 
192 0 0 
189 0 0 
190 0 0 
190 0 0 
192 0 0 
192 0 0 
191 0 0 
192 0 0 
193 0 0 
192 0 0 
193 0 0 
191 0 0 
190 0 0 
192 0 0 
190 0 0 
189 0 0 
194 0 0 
193 0 0 
187 0 0 
199 0 0 
194 0 0 
193 0 0 
195 0 0 
194 0 0 
194 0 0 
193 0 0 
193 0 0 
192 0 0 
192 0 0 
192 0 0 
190 0 0 
192 0 0 
195 0 0 
197 0 0 
192 0 0 
194 0 0 
198 0 0 
196 0 0 
201 0 0 
197 0 0 
194 0 0 
194 0 0 
188 0 0 
196 0 0 
192 0 0 
190 0 0 
194 0 0 
196 0 0 
196 0 0 
190 0 0 
193 0 0 
194 0 0 
194 0 0 
192 0 0 
199 0 0 
191 0 0 
196 0 0 
191 0 0 
0 0 211 
0 0 203 
0 0 217 
0 0 221 
0 0 189 
0 0 209 
0 0 189 
0 0 203 
0 0 203 
0 0 204 
0 0 189 
0 0 206 
0 0 217 
0 0 199 
0 0 196 
0 0 207 
0 0 211 
0 0 198 
0 0 214 
0 0 211 
0 0 199 
0 0 218 
0 0 203 
0 0 211 
0 0 198 
0 0 209 
0 0 193 
0 0 204 
0 0 215 
0 0 201 
0 0 214 
0 0 204 
0 0 204 
0 0 199 
0 0 199 
0 0 199 
0 0 203 
0 0 203 
0 0 220 
0 0 196 
0 0 199 
0 0 211 
0 0 196 
0 0 214 
0 0 220 
0 0 214 
0 0 193 
0 0 199 
0 0 201 
0 0 198 
0 0 199 
0 0 203 
0 0 206 
0 0 206 
0 0 201 
0 0 211 
0 0 204 
0 0 212 
0 0 203 
0 0 207 
0 0 191 
0 0 206 
0 0 204 
0 0 193 
0 0 206 
0 0 218 
0 0 199 
0 0 194 
0 0 209 
0 0 203 
0 0 194 
0 0 204 
0 0 206 
0 0 215 
0 0 206 
0 0 212 
0 0 204 
0 0 212 
0 0 201 
0 0 212 
0 0 212 
0 0 217 
0 0 217 
0 0 191 
0 0 171 
0 0 214 
0 0 214 
0 0 206 
0 0 194 
0 0 220 
0 0 209 
0 0 203 
0 0 201 
0 0 212 
0 0 203 
0 0 203 
0 0 209 
0 0 209 
0 0 207 
0 0 212 
0 0 206 
0 0 207 
0 0 198 
0 0 211 
0 0 189 
0 0 201 
0 0 217 
0 0 212 
0 0 201 
0 0 196 
0 0 201 
0 0 209 
0 0 203 
0 0 218 
0 0 214 
0 0 201 
0 0 209 
0 0 196 
0 0 201 
0 0 212 
0 0 194 
0 0 194 
0 0 206 
0 0 191 
0 0 204 
0 0 204 
0 0 196 
0 0 204 
0 0 203 
0 0 201 
0 0 211 
0 0 198 
0 0 191 
0 0 193 
0 0 206 
0 0 204 
0 0 211 
0 0 201 
0 0 188 
0 0 206 
0 0 198 
0 0 203 
0 0 194 
0 0 199 
0 0 193 
0 0 198 
0 0 201 
0 0 209 
0 0 203 
0 0 208 
0 0 191 
0 0 194 
0 0 192 
0 0 186 
0 0 193 
0 0 198 
0 0 207 
0 0 204 
0 0 186 
0 0 197 
0 0 199 
0 0 190 
0 0 194 
0 0 199 
0 0 194 
0 0 203 
0 0 211 
0 0 202 
0 0 184 
0 0 196 
0 0 194 
0 0 184 
0 0 194 
0 0 209 
0 0 191 
0 0 198 
0 0 194 
0 0 203 
0 0 197 
0 0 195 
0 0 203 
0 0 187 
0 0 200 
0 0 184 
0 0 188 
0 0 195 
0 0 198 
44 70 168 
52 82 165 
52 81 160 
57 90 165 
57 88 160 
56 89 162 
53 83 151 
58 89 161 
56 86 161 
57 89 161 
56 87 157 
60 92 161 
58 90 159 
58 88 159 
59 91 158 
58 88 156 
58 88 153 
59 88 156 
59 88 151 
61 88 151 
58 87 148 
59 88 156 
59 92 157 
56 77 130 
59 82 148 
94 71 125 
154 0 0 
157 0 0 
155 0 0 
149 0 0 
157 0 0 
164 0 0 
157 0 0 
157 0 0 
167 0 0 
172 0 0 
162 0 0 
168 0 0 
168 0 0 
160 0 0 
164 0 0 
171 0 0 
178 0 0 
172 0 0 
176 0 0 
175 0 0 
177 0 0 
175 0 0 
184 0 0 
174 0 0 
172 0 0 
173 0 0 
176 0 0 
173 0 0 
180 0 0 
175 0 0 
174 0 0 
179 0 0 
177 0 0 
180 0 0 
180 0 0 
177 0 0 
175 0 0 
178 0 0 
186 0 0 
175 0 0 
179 0 0 
183 0 0 
180 0 0 
184 0 0 
182 0 0 
186 0 0 
181 0 0 
180 0 0 
183 0 0 
181 0 0 
187 0 0 
176 0 0 
188 0 0 
182 0 0 
189 0 0 
186 0 0 
186 0 0 
189 0 0 
184 0 0 
189 0 0 
179 0 0 
181 0 0 
190 0 0 
186 0 0 
187 0 0 
183 0 0 
188 0 0 
184 0 0 
187 0 0 
185 0 0 
186 0 0 
189 0 0 
183 0 0 
191 0 0 
189 0 0 
189 0 0 
188 0 0 
187 0 0 
191 0 0 
192 0 0 
185 0 0 
190 0 0 
190 0 0 
186 0 0 
187 0 0 
185 0 0 
188 0 0 
193 0 0 
185 0 0 
189 0 0 
187 0 0 
185 0 0 
189 0 0 
193 0 0 
188 0 0 
190 0 0 
186 0 0 
194 0 0 
185 0 0 
189 0 0 
192 0 0 
187 0 0 
187 0 0 
188 0 0 
191 0 0 
187 0 0 
187 0 0 
189 0 0 
189 0 0 
193 0 0 
191 0 0 
192 0 0 
188 0 0 
189 0 0 
194 0 0 
197 0 0 
194 0 0 
193 0 0 
189 0 0 
191 0 0 
193 0 0 
192 0 0 
184 0 0 
193 0 0 
192 0 0 
193 0 0 
189 0 0 
194 0 0 
188 0 0 
195 0 0 
191 0 0 
189 0 0 
194 0 0 
195 0 0 
191 0 0 
192 0 0 
191 0 0 
189 0 0 
191 0 0 
195 0 0 
194 0 0 
192 0 0 
192 0 0 
192 0 0 
193 0 0 
192 0 0 
190 0 0 
188 0 0 
192 0 0 
190 0 0 
188 0 0 
193 0 0 
189 0 0 
192 0 0 
190 0 0 
194 0 0 
190 0 0 
191 0 0 
193 0 0 
197 0 0 
193 0 0 
197 0 0 
193 0 0 
195 0 0 
192 0 0 
189 0 0 
194 0 0 
191 0 0 
192 0 0 
194 0 0 
194 0 0 
194 0 0 
190 0 0 
196 0 0 
194 0 0 
193 0 0 
188 0 0 
195 0 0 
194 0 0 
191 0 0 
195 0 0 
194 0 0 
194 0 0 
193 0 0 
193 0 0 
196 0 0 
194 0 0 
0 0 204 
0 0 198 
0 0 204 
0 0 193 
0 0 212 
0 0 209 
0 0 207 
0 0 201 
0 0 204 
0 0 206 
0 0 207 
0 0 211 
0 0 204 
0 0 204 
0 0 211 
0 0 198 
0 0 212 
0 0 196 
0 0 204 
0 0 199 
0 0 199 
0 0 220 
0 0 207 
0 0 194 
0 0 189 
0 0 206 
0 0 206 
0 0 193 
0 0 207 
0 0 188 
0 0 206 
0 0 199 
0 0 217 
0 0 204 
0 0 212 
0 0 212 
0 0 199 
0 0 203 
0 0 207 
0 0 196 
0 0 196 
0 0 209 
0 0 196 
0 0 218 
0 0 193 
0 0 199 
0 0 211 
0 0 207 
0 0 218 
0 0 194 
0 0 207 
0 0 201 
0 0 206 
0 0 204 
0 0 194 
0 0 194 
0 0 211 
0 0 191 
0 0 209 
0 0 193 
0 0 199 
0 0 220 
0 0 212 
0 0 211 
0 0 206 
0 0 212 
0 0 198 
0 0 204 
0 0 217 
0 0 209 
0 0 196 
0 0 198 
0 0 203 
0 0 189 
0 0 204 
0 0 201 
0 0 209 
0 0 196 
0 0 212 
0 0 203 
0 0 198 
0 0 193 
0 0 206 
0 0 193 
0 0 211 
0 0 199 
0 0 218 
0 0 203 
0 0 196 
0 0 204 
0 0 207 
0 0 207 
0 0 204 
0 0 214 
0 0 199 
0 0 201 
0 0 206 
0 0 203 
0 0 214 
0 0 196 
0 0 194 
0 0 188 
0 0 203 
0 0 203 
0 0 206 
0 0 204 
0 0 201 
0 0 194 
0 0 209 
0 0 201 
0 0 193 
0 0 203 
0 0 201 
0 0 215 
0 0 212 
0 0 194 
0 0 196 
0 0 214 
0 0 207 
0 0 211 
0 0 201 
0 0 212 
0 0 211 
0 0 209 
0 0 196 
0 0 198 
0 0 217 
0 0 207 
0 0 196 
0 0 199 
0 0 206 
0 0 215 
0 0 201 
0 0 217 
0 0 201 
0 0 191 
0 0 203 
0 0 184 
0 0 214 
0 0 209 
0 0 206 
0 0 209 
0 0 204 
0 0 193 
0 0 194 
0 0 194 
0 0 204 
0 0 209 
0 0 194 
0 0 196 
0 0 199 
0 0 201 
0 0 207 
0 0 186 
0 0 207 
0 0 207 
0 0 205 
0 0 209 
0 0 204 
0 0 188 
0 0 199 
0 0 186 
0 0 193 
0 0 201 
0 0 183 
0 0 198 
0 0 200 
0 0 191 
0 0 199 
0 0 194 
0 0 197 
0 0 200 
0 0 177 
0 0 193 
0 0 194 
0 0 201 
0 0 191 
0 0 191 
0 0 211 
0 0 181 
0 0 189 
0 0 193 
0 0 192 
0 0 193 
0 0 182 
0 0 208 
0 0 195 
42 66 170 
51 81 158 
55 86 163 
56 87 163 
53 83 150 
56 89 166 
59 92 164 
55 86 160 
56 87 158 
58 90 163 
58 91 162 
59 90 161 
56 87 150 
59 86 160 
58 90 158 
60 93 162 
59 93 160 
58 86 149 
59 91 158 
58 83 141 
60 88 149 
58 86 151 
59 87 155 
57 82 140 
55 79 134 
102 60 100 
142 0 0 
149 0 0 
153 0 0 
156 0 0 
145 0 0 
164 0 0 
162 0 0 
158 0 0 
159 0 0 
157 0 0 
170 0 0 
165 0 0 
162 0 0 
170 0 0 
173 0 0 
173 0 0 
171 0 0 
182 0 0 
180 0 0 
170 0 0 
170 0 0 
171 0 0 
163 0 0 
173 0 0 
182 0 0 
177 0 0 
176 0 0 
170 0 0 
172 0 0 
177 0 0 
180 0 0 
184 0 0 
172 0 0 
182 0 0 
174 0 0 
187 0 0 
183 0 0 
187 0 0 
174 0 0 
186 0 0 
178 0 0 
185 0 0 
184 0 0 
181 0 0 
184 0 0 
182 0 0 
179 0 0 
184 0 0 
191 0 0 
186 0 0 
187 0 0 
187 0 0 
185 0 0 
181 0 0 
184 0 0 
183 0 0 
193 0 0 
186 0 0 
188 0 0 
190 0 0 
182 0 0 
179 0 0 
185 0 0 
184 0 0 
191 0 0 
188 0 0 
181 0 0 
188 0 0 
189 0 0 
188 0 0 
184 0 0 
187 0 0 
194 0 0 
187 0 0 
189 0 0 
186 0 0 
187 0 0 
192 0 0 
190 0 0 
192 0 0 
191 0 0 
186 0 0 
191 0 0 
192 0 0 
188 0 0 
185 0 0 
193 0 0 
189 0 0 
188 0 0 
185 0 0 
195 0 0 
192 0 0 
190 0 0 
190 0 0 
188 0 0 
193 0 0 
189 0 0 
189 0 0 
185 0 0 
184 0 0 
189 0 0 
190 0 0 
192 0 0 
189 0 0 
194 0 0 
187 0 0 
188 0 0 
187 0 0 
188 0 0 
191 0 0 
189 0 0 
194 0 0 
193 0 0 
192 0 0 
190 0 0 
191 0 0 
189 0 0 
190 0 0 
189 0 0 
188 0 0 
188 0 0 
191 0 0 
190 0 0 
193 0 0 
194 0 0 
194 0 0 
190 0 0 
191 0 0 
189 0 0 
193 0 0 
192 0 0 
191 0 0 
191 0 0 
184 0 0 
189 0 0 
192 0 0 
193 0 0 
191 0 0 
193 0 0 
195 0 0 
196 0 0 
190 0 0 
193 0 0 
192 0 0 
195 0 0 
196 0 0 
192 0 0 
195 0 0 
192 0 0 
194 0 0 
194 0 0 
193 0 0 
191 0 0 
190 0 0 
192 0 0 
190 0 0 
194 0 0 
192 0 0 
193 0 0 
192 0 0 
190 0 0 
195 0 0 
192 0 0 
195 0 0 
194 0 0 
188 0 0 
194 0 0 
190 0 0 
192 0 0 
195 0 0 
194 0 0 
193 0 0 
191 0 0 
191 0 0 
194 0 0 
191 0 0 
196 0 0 
194 0 0 
192 0 0 
190 0 0 
189 0 0 
191 0 0 
196 0 0 
195 0 0 
197 0 0 
195 0 0 
190 0 0 
0 0 203 
0 0 212 
0 0 198 
0 0 211 
0 0 209 
0 0 186 
0 0 206 
0 0 209 
0 0 203 
0 0 217 
0 0 206 
0 0 207 
0 0 196 
0 0 191 
0 0 196 
0 0 217 
0 0 209 
0 0 201 
0 0 211 
0 0 209 
0 0 206 
0 0 199 
0 0 215 
0 0 214 
0 0 204 
0 0 215 
0 0 204 
0 0 203 
0 0 196 
0 0 221 
0 0 198 
0 0 199 
0 0 211 
0 0 182 
0 0 189 
0 0 209 
0 0 211 
0 0 209 
0 0 207 
0 0 196 
0 0 209 
0 0 201 
0 0 206 
0 0 191 
0 0 194 
0 0 217 
0 0 207 
0 0 203 
0 0 199 
0 0 207 
0 0 194 
0 0 204 
0 0 207 
0 0 199 
0 0 201 
0 0 201 
0 0 212 
0 0 227 
0 0 212 
0 0 211 
0 0 211 
0 0 204 
0 0 203 
0 0 198 
0 0 203 
0 0 201 
0 0 193 
0 0 199 
0 0 196 
0 0 204 
0 0 199 
0 0 204 
0 0 201 
0 0 204 
0 0 204 
0 0 212 
0 0 204 
0 0 199 
0 0 206 
0 0 207 
0 0 214 
0 0 215 
0 0 194 
0 0 189 
0 0 199 
0 0 196 
0 0 214 
0 0 203 
0 0 201 
0 0 203 
0 0 207 
0 0 206 
0 0 204 
0 0 211 
0 0 199 
0 0 212 
0 0 194 
0 0 209 
0 0 218 
0 0 201 
0 0 201 
0 0 204 
0 0 211 
0 0 188 
0 0 204 
0 0 203 
0 0 189 
0 0 184 
0 0 199 
0 0 211 
0 0 204 
0 0 212 
0 0 201 
0 0 206 
0 0 191 
0 0 211 
0 0 214 
0 0 201 
0 0 206 
0 0 201 
0 0 204 
0 0 194 
0 0 204 
0 0 223 
0 0 203 
0 0 207 
0 0 196 
0 0 203 
0 0 198 
0 0 209 
0 0 203 
0 0 196 
0 0 203 
0 0 199 
0 0 204 
0 0 198 
0 0 196 
0 0 212 
0 0 207 
0 0 214 
0 0 201 
0 0 199 
0 0 206 
0 0 204 
0 0 201 
0 0 209 
0 0 211 
0 0 186 
0 0 196 
0 0 194 
0 0 183 
0 0 212 
0 0 212 
0 0 196 
0 0 199 
0 0 203 
0 0 198 
0 0 207 
0 0 209 
0 0 188 
0 0 211 
0 0 182 
0 0 206 
0 0 186 
0 0 194 
0 0 202 
0 0 193 
0 0 194 
0 0 186 
0 0 188 
0 0 202 
0 0 188 
0 0 193 
0 0 198 
0 0 188 
0 0 210 
0 0 196 
0 0 200 
0 0 188 
0 0 194 
0 0 191 
0 0 195 
0 0 180 
0 0 196 
0 0 197 
0 0 191 
0 0 188 
39 62 183 
55 85 159 
53 82 152 
53 84 154 
57 89 156 
58 91 163 
58 91 159 
57 90 158 
56 87 160 
59 89 162 
60 93 164 
57 88 154 
57 86 154 
58 90 156 
59 89 156 
60 90 155 
60 90 157 
56 85 150 
60 90 157 
57 86 147 
59 87 154 
58 84 148 
60 87 155 
58 83 143 
56 79 135 
109 57 99 
159 0 0 
145 0 0 
153 0 0 
158 0 0 
152 0 0 
169 0 0 
165 0 0 
159 0 0 
158 0 0 
160 0 0 
157 0 0 
165 0 0 
173 0 0 
167 0 0 
168 0 0 
175 0 0 
165 0 0 
167 0 0 
169 0 0 
175 0 0 
168 0 0 
170 0 0 
174 0 0 
171 0 0 
171 0 0 
177 0 0 
167 0 0 
183 0 0 
168 0 0 
178 0 0 
181 0 0 
178 0 0 
173 0 0 
176 0 0 
180 0 0 
180 0 0 
172 0 0 
184 0 0 
179 0 0 
182 0 0 
183 0 0 
181 0 0 
174 0 0 
186 0 0 
183 0 0 
178 0 0 
184 0 0 
180 0 0 
183 0 0 
189 0 0 
182 0 0 
180 0 0 
183 0 0 
185 0 0 
186 0 0 
190 0 0 
185 0 0 
190 0 0 
177 0 0 
187 0 0 
180 0 0 
184 0 0 
186 0 0 
189 0 0 
187 0 0 
189 0 0 
189 0 0 
180 0 0 
191 0 0 
191 0 0 
189 0 0 
189 0 0 
188 0 0 
182 0 0 
188 0 0 
189 0 0 
189 0 0 
189 0 0 
184 0 0 
190 0 0 
191 0 0 
188 0 0 
193 0 0 
183 0 0 
189 0 0 
185 0 0 
190 0 0 
190 0 0 
189 0 0 
190 0 0 
185 0 0 
188 0 0 
190 0 0 
189 0 0 
193 0 0 
190 0 0 
184 0 0 
193 0 0 
190 0 0 
184 0 0 
193 0 0 
190 0 0 
193 0 0 
194 0 0 
193 0 0 
191 0 0 
182 0 0 
189 0 0 
197 0 0 
190 0 0 
188 0 0 
193 0 0 
190 0 0 
193 0 0 
188 0 0 
189 0 0 
193 0 0 
191 0 0 
194 0 0 
187 0 0 
189 0 0 
193 0 0 
194 0 0 
196 0 0 
191 0 0 
196 0 0 
192 0 0 
192 0 0 
194 0 0 
190 0 0 
194 0 0 
193 0 0 
191 0 0 
188 0 0 
187 0 0 
192 0 0 
189 0 0 
188 0 0 
195 0 0 
189 0 0 
188 0 0 
195 0 0 
194 0 0 
188 0 0 
194 0 0 
195 0 0 
193 0 0 
187 0 0 
191 0 0 
192 0 0 
195 0 0 
191 0 0 
190 0 0 
193 0 0 
185 0 0 
188 0 0 
196 0 0 
194 0 0 
198 0 0 
191 0 0 
193 0 0 
191 0 0 
194 0 0 
192 0 0 
195 0 0 
195 0 0 
191 0 0 
192 0 0 
192 0 0 
192 0 0 
189 0 0 
192 0 0 
195 0 0 
196 0 0 
195 0 0 
189 0 0 
198 0 0 
196 0 0 
187 0 0 
191 0 0 
192 0 0 
188 0 0 
196 0 0 
188 0 0 
194 0 0 
188 0 0 
192 0 0 
0 0 211 
0 0 193 
0 0 203 
0 0 204 
0 0 207 
0 0 203 
0 0 194 
0 0 212 
0 0 198 
0 0 201 
0 0 209 
0 0 215 
0 0 191 
0 0 199 
0 0 207 
0 0 204 
0 0 198 
0 0 194 
0 0 204 
0 0 207 
0 0 203 
0 0 211 
0 0 203 
0 0 214 
0 0 201 
0 0 199 
0 0 211 
0 0 204 
0 0 206 
0 0 199 
0 0 212 
0 0 189 
0 0 203 
0 0 203 
0 0 203 
0 0 209 
0 0 211 
0 0 203 
0 0 203 
0 0 203 
0 0 206 
0 0 194 
0 0 201 
0 0 206 
0 0 189 
0 0 226 
0 0 220 
0 0 220 
0 0 196 
0 0 188 
0 0 203 
0 0 188 
0 0 201 
0 0 214 
0 0 203 
0 0 212 
0 0 209 
0 0 218 
0 0 198 
0 0 211 
0 0 193 
0 0 212 
0 0 207 
0 0 207 
0 0 186 
0 0 207 
0 0 206 
0 0 201 
0 0 218 
0 0 203 
0 0 215 
0 0 203 
0 0 206 
0 0 203 
0 0 215 
0 0 215 
0 0 196 
0 0 201 
0 0 204 
0 0 214 
0 0 201 
0 0 199 
0 0 189 
0 0 198 
0 0 198 
0 0 214 
0 0 198 
0 0 209 
0 0 188 
0 0 199 
0 0 201 
0 0 196 
0 0 181 
0 0 194 
0 0 209 
0 0 206 
0 0 206 
0 0 196 
0 0 182 
0 0 204 
0 0 199 
0 0 207 
0 0 186 
0 0 196 
0 0 214 
0 0 186 
0 0 199 
0 0 196 
0 0 199 
0 0 206 
0 0 209 
0 0 204 
0 0 193 
0 0 193 
0 0 203 
0 0 201 
0 0 193 
0 0 214 
0 0 199 
0 0 204 
0 0 212 
0 0 203 
0 0 204 
0 0 204 
0 0 199 
0 0 207 
0 0 194 
0 0 206 
0 0 207 
0 0 196 
0 0 199 
0 0 204 
0 0 198 
0 0 193 
0 0 196 
0 0 209 
0 0 203 
0 0 206 
0 0 207 
0 0 196 
0 0 199 
0 0 193 
0 0 206 
0 0 189 
0 0 204 
0 0 203 
0 0 203 
0 0 194 
0 0 209 
0 0 201 
0 0 191 
0 0 203 
0 0 194 
0 0 202 
0 0 199 
0 0 199 
0 0 186 
0 0 199 
0 0 198 
0 0 201 
0 0 196 
0 0 204 
0 0 211 
0 0 193 
0 0 191 
0 0 203 
0 0 186 
0 0 187 
0 0 194 
0 0 201 
0 0 192 
0 0 178 
0 0 201 
0 0 190 
0 0 187 
0 0 195 
0 0 192 
0 0 190 
0 0 201 
0 0 186 
0 0 188 
0 0 195 
0 0 201 
0 0 199 
0 0 196 
0 0 200 
0 0 184 
30 47 182 
51 80 157 
53 82 159 
55 87 161 
53 85 156 
55 85 156 
55 85 150 
56 85 162 
59 92 161 
58 89 159 
58 89 158 
56 88 154 
56 86 155 
58 89 154 
59 91 152 
58 87 154 
59 93 165 
57 87 149 
60 91 156 
59 85 148 
59 85 151 
58 86 147 
57 84 148 
60 88 158 
59 83 144 
135 44 78 
142 0 0 
156 0 0 
153 0 0 
154 0 0 
155 0 0 
160 0 0 
161 0 0 
166 0 0 
159 0 0 
171 0 0 
158 0 0 
161 0 0 
163 0 0 
167 0 0 
170 0 0 
164 0 0 
176 0 0 
174 0 0 
164 0 0 
168 0 0 
169 0 0 
171 0 0 
173 0 0 
171 0 0 
175 0 0 
184 0 0 
177 0 0 
178 0 0 
175 0 0 
176 0 0 
181 0 0 
181 0 0 
174 0 0 
187 0 0 
180 0 0 
188 0 0 
178 0 0 
179 0 0 
181 0 0 
173 0 0 
184 0 0 
184 0 0 
185 0 0 
185 0 0 
175 0 0 
181 0 0 
186 0 0 
193 0 0 
172 0 0 
180 0 0 
186 0 0 
182 0 0 
181 0 0 
182 0 0 
179 0 0 
182 0 0 
185 0 0 
188 0 0 
186 0 0 
190 0 0 
182 0 0 
181 0 0 
179 0 0 
194 0 0 
186 0 0 
188 0 0 
185 0 0 
184 0 0 
190 0 0 
187 0 0 
185 0 0 
183 0 0 
188 0 0 
189 0 0 
185 0 0 
192 0 0 
186 0 0 
190 0 0 
180 0 0 
182 0 0 
192 0 0 
185 0 0 
187 0 0 
186 0 0 
190 0 0 
195 0 0 
190 0 0 
189 0 0 
193 0 0 
191 0 0 
183 0 0 
189 0 0 
191 0 0 
187 0 0 
193 0 0 
185 0 0 
190 0 0 
191 0 0 
194 0 0 
193 0 0 
191 0 0 
189 0 0 
191 0 0 
192 0 0 
193 0 0 
190 0 0 
189 0 0 
184 0 0 
193 0 0 
194 0 0 
190 0 0 
189 0 0 
194 0 0 
195 0 0 
193 0 0 
191 0 0 
185 0 0 
195 0 0 
192 0 0 
192 0 0 
191 0 0 
190 0 0 
197 0 0 
187 0 0 
195 0 0 
193 0 0 
189 0 0 
194 0 0 
190 0 0 
191 0 0 
194 0 0 
192 0 0 
195 0 0 
190 0 0 
192 0 0 
189 0 0 
195 0 0 
194 0 0 
188 0 0 
195 0 0 
193 0 0 
192 0 0 
191 0 0 
191 0 0 
194 0 0 
194 0 0 
190 0 0 
194 0 0 
193 0 0 
197 0 0 
192 0 0 
193 0 0 
194 0 0 
189 0 0 
194 0 0 
192 0 0 
195 0 0 
197 0 0 
191 0 0 
189 0 0 
195 0 0 
190 0 0 
192 0 0 
194 0 0 
194 0 0 
195 0 0 
198 0 0 
189 0 0 
191 0 0 
193 0 0 
193 0 0 
196 0 0 
193 0 0 
191 0 0 
190 0 0 
192 0 0 
195 0 0 
195 0 0 
196 0 0 
190 0 0 
191 0 0 
194 0 0 
189 0 0 
194 0 0 
195 0 0 
195 0 0 
194 0 0 
0 0 201 
0 0 201 
0 0 211 
0 0 204 
0 0 198 
0 0 203 
0 0 207 
0 0 199 
0 0 204 
0 0 188 
0 0 212 
0 0 196 
0 0 215 
0 0 203 
0 0 203 
0 0 198 
0 0 203 
0 0 220 
0 0 207 
0 0 207 
0 0 191 
0 0 191 
0 0 199 
0 0 211 
0 0 214 
0 0 191 
0 0 184 
0 0 207 
0 0 193 
0 0 214 
0 0 218 
0 0 201 
0 0 186 
0 0 209 
0 0 199 
0 0 186 
0 0 209 
0 0 207 
0 0 207 
0 0 198 
0 0 206 
0 0 211 
0 0 201 
0 0 209 
0 0 198 
0 0 212 
0 0 211 
0 0 204 
0 0 207 
0 0 201 
0 0 189 
0 0 217 
0 0 204 
0 0 217 
0 0 194 
0 0 201 
0 0 220 
0 0 209 
0 0 206 
0 0 204 
0 0 198 
0 0 206 
0 0 203 
0 0 209 
0 0 206 
0 0 212 
0 0 199 
0 0 193 
0 0 211 
0 0 206 
0 0 193 
0 0 196 
0 0 215 
0 0 198 
0 0 206 
0 0 218 
0 0 198 
0 0 193 
0 0 203 
0 0 201 
0 0 204 
0 0 191 
0 0 211 
0 0 193 
0 0 204 
0 0 212 
0 0 217 
0 0 215 
0 0 193 
0 0 199 
0 0 203 
0 0 206 
0 0 199 
0 0 203 
0 0 189 
0 0 191 
0 0 203 
0 0 201 
0 0 201 
0 0 214 
0 0 206 
0 0 201 
0 0 204 
0 0 209 
0 0 209 
0 0 206 
0 0 201 
0 0 203 
0 0 207 
0 0 189 
0 0 206 
0 0 201 
0 0 204 
0 0 212 
0 0 194 
0 0 203 
0 0 186 
0 0 201 
0 0 212 
0 0 184 
0 0 207 
0 0 201 
0 0 193 
0 0 189 
0 0 204 
0 0 199 
0 0 203 
0 0 198 
0 0 211 
0 0 211 
0 0 194 
0 0 203 
0 0 201 
0 0 199 
0 0 203 
0 0 198 
0 0 206 
0 0 211 
0 0 188 
0 0 199 
0 0 206 
0 0 218 
0 0 211 
0 0 203 
0 0 214 
0 0 204 
0 0 204 
0 0 204 
0 0 189 
0 0 207 
0 0 211 
0 0 191 
0 0 203 
0 0 189 
0 0 215 
0 0 189 
0 0 194 
0 0 194 
0 0 199 
0 0 201 
0 0 191 
0 0 203 
0 0 183 
0 0 203 
0 0 196 
0 0 209 
0 0 200 
0 0 200 
0 0 185 
0 0 200 
0 0 186 
0 0 176 
0 0 170 
0 0 194 
0 0 203 
0 0 202 
0 0 197 
0 0 214 
0 0 200 
0 0 209 
0 0 200 
0 0 189 
0 0 176 
0 0 181 
0 0 177 
0 0 189 
0 0 182 
24 37 189 
54 85 163 
53 82 159 
54 86 161 
56 86 151 
55 84 156 
57 87 150 
58 89 162 
55 85 153 
57 87 155 
56 87 154 
60 92 162 
55 84 151 
58 88 152 
58 88 147 
59 90 157 
60 92 158 
60 88 150 
56 84 140 
57 86 152 
59 89 155 
58 88 149 
59 90 153 
58 85 145 
58 82 131 
128 30 47 
147 0 0 
127 0 0 
148 0 0 
159 0 0 
166 0 0 
148 0 0 
157 0 0 
159 0 0 
162 0 0 
163 0 0 
168 0 0 
164 0 0 
167 0 0 
172 0 0 
163 0 0 
163 0 0 
171 0 0 
158 0 0 
160 0 0 
176 0 0 
181 0 0 
184 0 0 
171 0 0 
174 0 0 
168 0 0 
178 0 0 
175 0 0 
172 0 0 
167 0 0 
176 0 0 
183 0 0 
180 0 0 
170 0 0 
174 0 0 
177 0 0 
178 0 0 
183 0 0 
173 0 0 
185 0 0 
183 0 0 
178 0 0 
173 0 0 
185 0 0 
180 0 0 
184 0 0 
177 0 0 
180 0 0 
183 0 0 
187 0 0 
183 0 0 
179 0 0 
187 0 0 
185 0 0 
187 0 0 
184 0 0 
183 0 0 
185 0 0 
181 0 0 
188 0 0 
186 0 0 
188 0 0 
183 0 0 
188 0 0 
187 0 0 
188 0 0 
190 0 0 
189 0 0 
188 0 0 
182 0 0 
189 0 0 
183 0 0 
186 0 0 
189 0 0 
192 0 0 
192 0 0 
181 0 0 
190 0 0 
187 0 0 
187 0 0 
190 0 0 
185 0 0 
180 0 0 
187 0 0 
188 0 0 
186 0 0 
191 0 0 
190 0 0 
185 0 0 
179 0 0 
187 0 0 
187 0 0 
188 0 0 
190 0 0 
193 0 0 
191 0 0 
192 0 0 
186 0 0 
182 0 0 
193 0 0 
188 0 0 
196 0 0 
190 0 0 
190 0 0 
186 0 0 
191 0 0 
192 0 0 
183 0 0 
190 0 0 
191 0 0 
193 0 0 
184 0 0 
192 0 0 
187 0 0 
189 0 0 
189 0 0 
196 0 0 
191 0 0 
188 0 0 
191 0 0 
190 0 0 
189 0 0 
194 0 0 
193 0 0 
191 0 0 
187 0 0 
192 0 0 
192 0 0 
191 0 0 
193 0 0 
192 0 0 
191 0 0 
190 0 0 
193 0 0 
187 0 0 
190 0 0 
194 0 0 
191 0 0 
186 0 0 
190 0 0 
192 0 0 
188 0 0 
191 0 0 
193 0 0 
191 0 0 
191 0 0 
181 0 0 
193 0 0 
190 0 0 
188 0 0 
191 0 0 
195 0 0 
191 0 0 
186 0 0 
190 0 0 
194 0 0 
195 0 0 
192 0 0 
191 0 0 
195 0 0 
194 0 0 
194 0 0 
191 0 0 
192 0 0 
197 0 0 
192 0 0 
198 0 0 
195 0 0 
188 0 0 
194 0 0 
194 0 0 
193 0 0 
190 0 0 
190 0 0 
191 0 0 
196 0 0 
195 0 0 
189 0 0 
193 0 0 
192 0 0 
195 0 0 
192 0 0 
196 0 0 
189 0 0 
194 0 0 
194 0 0 
194 0 0 
196 0 0 
0 0 211 
0 0 217 
0 0 212 
0 0 196 
0 0 199 
0 0 184 
0 0 201 
0 0 215 
0 0 203 
0 0 209 
0 0 206 
0 0 198 
0 0 186 
0 0 204 
0 0 194 
0 0 211 
0 0 201 
0 0 201 
0 0 215 
0 0 209 
0 0 214 
0 0 206 
0 0 198 
0 0 199 
0 0 207 
0 0 203 
0 0 196 
0 0 207 
0 0 207 
0 0 198 
0 0 194 
0 0 211 
0 0 196 
0 0 207 
0 0 204 
0 0 201 
0 0 204 
0 0 212 
0 0 215 
0 0 217 
0 0 204 
0 0 201 
0 0 194 
0 0 198 
0 0 212 
0 0 209 
0 0 207 
0 0 207 
0 0 196 
0 0 204 
0 0 207 
0 0 217 
0 0 207 
0 0 207 
0 0 201 
0 0 212 
0 0 203 
0 0 199 
0 0 201 
0 0 206 
0 0 207 
0 0 196 
0 0 199 
0 0 191 
0 0 206 
0 0 207 
0 0 199 
0 0 207 
0 0 206 
0 0 201 
0 0 188 
0 0 189 
0 0 196 
0 0 217 
0 0 217 
0 0 196 
0 0 207 
0 0 207 
0 0 194 
0 0 217 
0 0 209 
0 0 181 
0 0 218 
0 0 203 
0 0 194 
0 0 203 
0 0 196 
0 0 212 
0 0 212 
0 0 207 
0 0 203 
0 0 218 
0 0 204 
0 0 209 
0 0 184 
0 0 194 
0 0 201 
0 0 206 
0 0 201 
0 0 206 
0 0 198 
0 0 217 
0 0 209 
0 0 194 
0 0 218 
0 0 203 
0 0 206 
0 0 193 
0 0 203 
0 0 196 
0 0 220 
0 0 186 
0 0 201 
0 0 220 
0 0 204 
0 0 193 
0 0 188 
0 0 214 
0 0 196 
0 0 204 
0 0 199 
0 0 203 
0 0 196 
0 0 203 
0 0 204 
0 0 193 
0 0 214 
0 0 201 
0 0 207 
0 0 207 
0 0 215 
0 0 194 
0 0 184 
0 0 201 
0 0 198 
0 0 204 
0 0 203 
0 0 209 
0 0 217 
0 0 201 
0 0 201 
0 0 201 
0 0 203 
0 0 217 
0 0 201 
0 0 203 
0 0 204 
0 0 192 
0 0 185 
0 0 201 
0 0 204 
0 0 196 
0 0 208 
0 0 184 
0 0 191 
0 0 173 
0 0 194 
0 0 199 
0 0 194 
0 0 194 
0 0 202 
0 0 194 
0 0 203 
0 0 215 
0 0 190 
0 0 188 
0 0 199 
0 0 199 
0 0 188 
0 0 186 
0 0 194 
0 0 193 
0 0 184 
0 0 214 
0 0 185 
0 0 201 
0 0 169 
0 0 195 
0 0 200 
0 0 199 
0 0 181 
0 0 188 
0 0 187 
0 0 188 
0 0 180 
0 0 191 
0 0 197 
14 20 172 
51 81 150 
52 80 152 
54 83 159 
54 85 154 
57 90 163 
56 86 151 
56 86 155 
58 89 153 
57 88 151 
56 86 155 
57 87 151 
58 87 159 
59 91 154 
56 86 149 
57 86 149 
58 87 150 
58 85 144 
57 85 145 
57 82 143 
60 88 144 
58 82 141 
56 81 139 
56 77 137 
57 78 134 
137 9 25 
147 0 0 
145 0 0 
142 0 0 
156 0 0 
152 0 0 
150 0 0 
164 0 0 
162 0 0 
161 0 0 
155 0 0 
166 0 0 
161 0 0 
171 0 0 
166 0 0 
168 0 0 
154 0 0 
163 0 0 
170 0 0 
168 0 0 
179 0 0 
172 0 0 
178 0 0 
172 0 0 
166 0 0 
171 0 0 
176 0 0 
180 0 0 
170 0 0 
171 0 0 
171 0 0 
178 0 0 
178 0 0 
185 0 0 
183 0 0 
178 0 0 
176 0 0 
183 0 0 
179 0 0 
187 0 0 
181 0 0 
180 0 0 
182 0 0 
178 0 0 
180 0 0 
180 0 0 
172 0 0 
171 0 0 
189 0 0 
181 0 0 
175 0 0 
183 0 0 
184 0 0 
181 0 0 
189 0 0 
187 0 0 
190 0 0 
183 0 0 
186 0 0 
187 0 0 
186 0 0 
184 0 0 
188 0 0 
184 0 0 
183 0 0 
182 0 0 
191 0 0 
185 0 0 
190 0 0 
188 0 0 
187 0 0 
193 0 0 
189 0 0 
190 0 0 
193 0 0 
186 0 0 
190 0 0 
190 0 0 
187 0 0 
188 0 0 
192 0 0 
188 0 0 
186 0 0 
188 0 0 
194 0 0 
189 0 0 
183 0 0 
188 0 0 
192 0 0 
189 0 0 
185 0 0 
192 0 0 
182 0 0 
186 0 0 
190 0 0 
191 0 0 
189 0 0 
185 0 0 
190 0 0 
187 0 0 
188 0 0 
190 0 0 
191 0 0 
194 0 0 
191 0 0 
189 0 0 
189 0 0 
188 0 0 
187 0 0 
190 0 0 
190 0 0 
194 0 0 
193 0 0 
186 0 0 
191 0 0 
187 0 0 
189 0 0 
191 0 0 
190 0 0 
193 0 0 
188 0 0 
192 0 0 
186 0 0 
188 0 0 
191 0 0 
194 0 0 
188 0 0 
191 0 0 
193 0 0 
192 0 0 
192 0 0 
191 0 0 
190 0 0 
191 0 0 
192 0 0 
191 0 0 
196 0 0 
196 0 0 
192 0 0 
190 0 0 
194 0 0 
186 0 0 
195 0 0 
193 0 0 
193 0 0 
191 0 0 
191 0 0 
189 0 0 
199 0 0 
195 0 0 
192 0 0 
192 0 0 
193 0 0 
191 0 0 
192 0 0 
196 0 0 
192 0 0 
190 0 0 
196 0 0 
194 0 0 
194 0 0 
190 0 0 
189 0 0 
190 0 0 
195 0 0 
191 0 0 
194 0 0 
190 0 0 
193 0 0 
196 0 0 
190 0 0 
193 0 0 
196 0 0 
195 0 0 
192 0 0 
196 0 0 
192 0 0 
194 0 0 
192 0 0 
192 0 0 
194 0 0 
193 0 0 
188 0 0 
191 0 0 
190 0 0 
189 0 0 
192 0 0 
192 0 0 
0 0 209 
0 0 212 
0 0 206 
0 0 199 
0 0 201 
0 0 198 
0 0 196 
0 0 196 
0 0 215 
0 0 212 
0 0 182 
0 0 204 
0 0 186 
0 0 207 
0 0 191 
0 0 196 
0 0 212 
0 0 199 
0 0 184 
0 0 207 
0 0 186 
0 0 198 
0 0 209 
0 0 215 
0 0 198 
0 0 175 
0 0 211 
0 0 194 
0 0 193 
0 0 199 
0 0 206 
0 0 194 
0 0 206 
0 0 214 
0 0 209 
0 0 209 
0 0 209 
0 0 212 
0 0 212 
0 0 196 
0 0 206 
0 0 198 
0 0 218 
0 0 196 
0 0 207 
0 0 203 
0 0 209 
0 0 209 
0 0 201 
0 0 191 
0 0 188 
0 0 194 
0 0 206 
0 0 215 
0 0 201 
0 0 199 
0 0 220 
0 0 186 
0 0 212 
0 0 194 
0 0 193 
0 0 212 
0 0 203 
0 0 211 
0 0 212 
0 0 209 
0 0 194 
0 0 201 
0 0 199 
0 0 206 
0 0 182 
0 0 193 
0 0 215 
0 0 217 
0 0 194 
0 0 193 
0 0 203 
0 0 212 
0 0 206 
0 0 196 
0 0 201 
0 0 207 
0 0 184 
0 0 198 
0 0 201 
0 0 214 
0 0 207 
0 0 203 
0 0 204 
0 0 198 
0 0 203 
0 0 211 
0 0 199 
0 0 211 
0 0 199 
0 0 215 
0 0 207 
0 0 215 
0 0 207 
0 0 199 
0 0 209 
0 0 209 
0 0 193 
0 0 203 
0 0 191 
0 0 193 
0 0 211 
0 0 201 
0 0 204 
0 0 207 
0 0 196 
0 0 188 
0 0 199 
0 0 201 
0 0 201 
0 0 207 
0 0 204 
0 0 206 
0 0 194 
0 0 211 
0 0 196 
0 0 189 
0 0 188 
0 0 193 
0 0 188 
0 0 212 
0 0 201 
0 0 194 
0 0 198 
0 0 201 
0 0 196 
0 0 189 
0 0 211 
0 0 212 
0 0 179 
0 0 206 
0 0 207 
0 0 196 
0 0 199 
0 0 201 
0 0 201 
0 0 196 
0 0 194 
0 0 207 
0 0 193 
0 0 189 
0 0 193 
0 0 189 
0 0 203 
0 0 219 
0 0 193 
0 0 207 
0 0 199 
0 0 201 
0 0 204 
0 0 205 
0 0 196 
0 0 184 
0 0 193 
0 0 194 
0 0 193 
0 0 206 
0 0 181 
0 0 193 
0 0 188 
0 0 194 
0 0 197 
0 0 203 
0 0 204 
0 0 183 
0 0 197 
0 0 202 
0 0 175 
0 0 188 
0 0 179 
0 0 188 
0 0 201 
0 0 191 
0 0 185 
0 0 165 
0 0 194 
0 0 203 
0 0 178 
0 0 180 
0 0 180 
0 0 195 
0 0 189 
0 0 186 
50 76 143 
53 81 152 
55 85 152 
52 82 154 
55 86 155 
55 85 150 
57 88 160 
56 85 155 
57 88 147 
57 88 150 
59 90 157 
57 88 151 
56 87 151 
59 91 157 
56 85 149 
58 86 155 
58 85 144 
57 86 152 
57 86 150 
59 86 147 
59 89 144 
56 83 140 
55 80 135 
70 72 129 
148 0 0 
150 0 0 
160 0 0 
158 0 0 
155 0 0 
155 0 0 
155 0 0 
157 0 0 
151 0 0 
163 0 0 
164 0 0 
159 0 0 
162 0 0 
165 0 0 
157 0 0 
172 0 0 
169 0 0 
163 0 0 
174 0 0 
180 0 0 
178 0 0 
164 0 0 
172 0 0 
171 0 0 
173 0 0 
171 0 0 
170 0 0 
180 0 0 
174 0 0 
178 0 0 
179 0 0 
163 0 0 
185 0 0 
178 0 0 
180 0 0 
172 0 0 
171 0 0 
171 0 0 
171 0 0 
175 0 0 
187 0 0 
183 0 0 
182 0 0 
183 0 0 
179 0 0 
184 0 0 
179 0 0 
185 0 0 
185 0 0 
179 0 0 
182 0 0 
182 0 0 
185 0 0 
189 0 0 
179 0 0 
185 0 0 
190 0 0 
190 0 0 
191 0 0 
186 0 0 
185 0 0 
185 0 0 
185 0 0 
187 0 0 
185 0 0 
187 0 0 
178 0 0 
188 0 0 
191 0 0 
192 0 0 
187 0 0 
187 0 0 
185 0 0 
191 0 0 
187 0 0 
189 0 0 
187 0 0 
185 0 0 
192 0 0 
188 0 0 
189 0 0 
192 0 0 
188 0 0 
184 0 0 
189 0 0 
188 0 0 
187 0 0 
188 0 0 
186 0 0 
189 0 0 
184 0 0 
193 0 0 
189 0 0 
188 0 0 
186 0 0 
191 0 0 
184 0 0 
195 0 0 
187 0 0 
186 0 0 
191 0 0 
190 0 0 
186 0 0 
187 0 0 
193 0 0 
189 0 0 
191 0 0 
190 0 0 
192 0 0 
187 0 0 
190 0 0 
195 0 0 
187 0 0 
185 0 0 
191 0 0 
188 0 0 
189 0 0 
194 0 0 
192 0 0 
190 0 0 
188 0 0 
191 0 0 
189 0 0 
188 0 0 
192 0 0 
187 0 0 
189 0 0 
188 0 0 
191 0 0 
186 0 0 
194 0 0 
189 0 0 
194 0 0 
196 0 0 
192 0 0 
192 0 0 
193 0 0 
190 0 0 
190 0 0 
188 0 0 
195 0 0 
191 0 0 
194 0 0 
189 0 0 
193 0 0 
192 0 0 
195 0 0 
193 0 0 
199 0 0 
188 0 0 
193 0 0 
192 0 0 
190 0 0 
192 0 0 
192 0 0 
191 0 0 
193 0 0 
195 0 0 
193 0 0 
189 0 0 
194 0 0 
196 0 0 
194 0 0 
197 0 0 
193 0 0 
188 0 0 
194 0 0 
191 0 0 
193 0 0 
196 0 0 
192 0 0 
188 0 0 
194 0 0 
191 0 0 
197 0 0 
190 0 0 
191 0 0 
191 0 0 
195 0 0 
195 0 0 
191 0 0 
193 0 0 
190 0 0 
193 0 0 
197 0 0 
191 0 0 
191 0 0 
193 0 0 
0 0 194 
0 0 204 
0 0 203 
0 0 189 
0 0 196 
0 0 212 
0 0 201 
0 0 194 
0 0 212 
0 0 215 
0 0 198 
0 0 201 
0 0 209 
0 0 203 
0 0 203 
0 0 203 
0 0 218 
0 0 207 
0 0 201 
0 0 209 
0 0 198 
0 0 198 
0 0 207 
0 0 212 
0 0 191 
0 0 201 
0 0 191 
0 0 196 
0 0 189 
0 0 191 
0 0 206 
0 0 203 
0 0 214 
0 0 212 
0 0 211 
0 0 204 
0 0 199 
0 0 194 
0 0 206 
0 0 209 
0 0 201 
0 0 196 
0 0 207 
0 0 203 
0 0 218 
0 0 194 
0 0 199 
0 0 204 
0 0 201 
0 0 199 
0 0 194 
0 0 204 
0 0 194 
0 0 215 
0 0 204 
0 0 209 
0 0 212 
0 0 193 
0 0 212 
0 0 204 
0 0 209 
0 0 220 
0 0 220 
0 0 206 
0 0 199 
0 0 199 
0 0 220 
0 0 201 
0 0 211 
0 0 194 
0 0 201 
0 0 201 
0 0 204 
0 0 201 
0 0 198 
0 0 201 
0 0 204 
0 0 212 
0 0 215 
0 0 199 
0 0 207 
0 0 207 
0 0 196 
0 0 201 
0 0 204 
0 0 193 
0 0 186 
0 0 218 
0 0 199 
0 0 196 
0 0 201 
0 0 206 
0 0 204 
0 0 196 
0 0 189 
0 0 207 
0 0 204 
0 0 203 
0 0 198 
0 0 165 
0 0 221 
0 0 207 
0 0 193 
0 0 201 
0 0 203 
0 0 196 
0 0 214 
0 0 196 
0 0 199 
0 0 207 
0 0 209 
0 0 201 
0 0 204 
0 0 184 
0 0 198 
0 0 204 
0 0 207 
0 0 196 
0 0 189 
0 0 203 
0 0 191 
0 0 204 
0 0 209 
0 0 211 
0 0 209 
0 0 198 
0 0 198 
0 0 184 
0 0 217 
0 0 188 
0 0 207 
0 0 199 
0 0 206 
0 0 193 
0 0 206 
0 0 188 
0 0 199 
0 0 198 
0 0 209 
0 0 196 
0 0 204 
0 0 193 
0 0 194 
0 0 204 
0 0 196 
0 0 189 
0 0 207 
0 0 194 
0 0 204 
0 0 186 
0 0 206 
0 0 204 
0 0 193 
0 0 207 
0 0 196 
0 0 203 
0 0 206 
0 0 189 
0 0 189 
0 0 189 
0 0 189 
0 0 194 
0 0 199 
0 0 207 
0 0 187 
0 0 182 
0 0 193 
0 0 192 
0 0 183 
0 0 199 
0 0 181 
0 0 195 
0 0 188 
0 0 203 
0 0 192 
0 0 190 
0 0 188 
0 0 183 
0 0 184 
0 0 174 
0 0 179 
0 0 181 
0 0 187 
0 0 175 
0 0 193 
0 0 181 
0 0 188 
0 0 169 
48 75 159 
53 81 157 
52 82 148 
57 89 156 
58 88 161 
55 87 158 
54 81 144 
56 86 156 
56 84 153 
60 94 166 
56 86 151 
59 90 158 
56 85 151 
58 90 155 
60 89 152 
58 89 153 
58 86 148 
59 85 142 
58 84 140 
58 87 147 
55 84 140 
58 85 145 
58 84 142 
72 69 121 
143 0 0 
152 0 0 
156 0 0 
155 0 0 
144 0 0 
156 0 0 
167 0 0 
155 0 0 
153 0 0 
159 0 0 
155 0 0 
166 0 0 
163 0 0 
165 0 0 
163 0 0 
165 0 0 
165 0 0 
169 0 0 
170 0 0 
168 0 0 
171 0 0 
178 0 0 
170 0 0 
177 0 0 
166 0 0 
166 0 0 
177 0 0 
174 0 0 
176 0 0 
174 0 0 
169 0 0 
172 0 0 
186 0 0 
179 0 0 
182 0 0 
182 0 0 
185 0 0 
181 0 0 
184 0 0 
182 0 0 
185 0 0 
177 0 0 
181 0 0 
184 0 0 
181 0 0 
183 0 0 
177 0 0 
184 0 0 
182 0 0 
182 0 0 
184 0 0 
186 0 0 
191 0 0 
183 0 0 
186 0 0 
185 0 0 
183 0 0 
184 0 0 
179 0 0 
181 0 0 
175 0 0 
181 0 0 
184 0 0 
185 0 0 
180 0 0 
189 0 0 
186 0 0 
189 0 0 
193 0 0 
177 0 0 
185 0 0 
190 0 0 
187 0 0 
187 0 0 
186 0 0 
190 0 0 
182 0 0 
181 0 0 
189 0 0 
185 0 0 
188 0 0 
182 0 0 
188 0 0 
186 0 0 
186 0 0 
191 0 0 
179 0 0 
187 0 0 
181 0 0 
188 0 0 
188 0 0 
189 0 0 
189 0 0 
190 0 0 
185 0 0 
187 0 0 
181 0 0 
191 0 0 
187 0 0 
192 0 0 
191 0 0 
192 0 0 
189 0 0 
184 0 0 
186 0 0 
189 0 0 
185 0 0 
190 0 0 
190 0 0 
193 0 0 
196 0 0 
189 0 0 
190 0 0 
188 0 0 
195 0 0 
198 0 0 
192 0 0 
189 0 0 
188 0 0 
192 0 0 
192 0 0 
191 0 0 
190 0 0 
188 0 0 
195 0 0 
192 0 0 
191 0 0 
191 0 0 
192 0 0 
191 0 0 
192 0 0 
190 0 0 
189 0 0 
190 0 0 
195 0 0 
192 0 0 
190 0 0 
192 0 0 
196 0 0 
193 0 0 
189 0 0 
194 0 0 
189 0 0 
190 0 0 
190 0 0 
195 0 0 
188 0 0 
198 0 0 
190 0 0 
192 0 0 
193 0 0 
194 0 0 
194 0 0 
193 0 0 
190 0 0 
193 0 0 
188 0 0 
192 0 0 
196 0 0 
193 0 0 
190 0 0 
189 0 0 
191 0 0 
195 0 0 
195 0 0 
192 0 0 
194 0 0 
186 0 0 
192 0 0 
193 0 0 
196 0 0 
192 0 0 
189 0 0 
191 0 0 
189 0 0 
194 0 0 
192 0 0 
194 0 0 
191 0 0 
194 0 0 
195 0 0 
192 0 0 
193 0 0 
191 0 0 
194 0 0 
195 0 0 
192 0 0 
194 0 0 
0 0 203 
0 0 211 
0 0 201 
0 0 201 
0 0 206 
0 0 214 
0 0 201 
0 0 204 
0 0 211 
0 0 193 
0 0 203 
0 0 201 
0 0 188 
0 0 212 
0 0 206 
0 0 204 
0 0 203 
0 0 199 
0 0 211 
0 0 206 
0 0 201 
0 0 201 
0 0 194 
0 0 191 
0 0 199 
0 0 199 
0 0 203 
0 0 198 
0 0 206 
0 0 189 
0 0 212 
0 0 199 
0 0 204 
0 0 201 
0 0 204 
0 0 198 
0 0 203 
0 0 204 
0 0 194 
0 0 189 
0 0 207 
0 0 207 
0 0 193 
0 0 199 
0 0 193 
0 0 206 
0 0 204 
0 0 201 
0 0 182 
0 0 194 
0 0 193 
0 0 196 
0 0 206 
0 0 188 
0 0 198 
0 0 199 
0 0 201 
0 0 198 
0 0 191 
0 0 199 
0 0 206 
0 0 204 
0 0 206 
0 0 211 
0 0 211 
0 0 211 
0 0 193 
0 0 206 
0 0 223 
0 0 207 
0 0 209 
0 0 201 
0 0 203 
0 0 182 
0 0 209 
0 0 209 
0 0 220 
0 0 201 
0 0 196 
0 0 218 
0 0 204 
0 0 212 
0 0 198 
0 0 198 
0 0 209 
0 0 198 
0 0 194 
0 0 203 
0 0 204 
0 0 211 
0 0 196 
0 0 204 
0 0 191 
0 0 184 
0 0 212 
0 0 199 
0 0 203 
0 0 189 
0 0 198 
0 0 207 
0 0 203 
0 0 209 
0 0 196 
0 0 217 
0 0 194 
0 0 186 
0 0 201 
0 0 199 
0 0 203 
0 0 193 
0 0 203 
0 0 199 
0 0 209 
0 0 199 
0 0 198 
0 0 209 
0 0 203 
0 0 220 
0 0 214 
0 0 199 
0 0 196 
0 0 211 
0 0 198 
0 0 198 
0 0 198 
0 0 204 
0 0 191 
0 0 201 
0 0 207 
0 0 201 
0 0 204 
0 0 211 
0 0 186 
0 0 203 
0 0 196 
0 0 217 
0 0 196 
0 0 189 
0 0 194 
0 0 203 
0 0 193 
0 0 199 
0 0 194 
0 0 198 
0 0 203 
0 0 188 
0 0 201 
0 0 200 
0 0 199 
0 0 199 
0 0 189 
0 0 203 
0 0 194 
0 0 198 
0 0 203 
0 0 191 
0 0 189 
0 0 193 
0 0 186 
0 0 196 
0 0 199 
0 0 191 
0 0 203 
0 0 191 
0 0 198 
0 0 179 
0 0 187 
0 0 175 
0 0 200 
0 0 173 
0 0 186 
0 0 184 
0 0 191 
0 0 190 
0 0 191 
0 0 187 
0 0 189 
0 0 193 
0 0 182 
0 0 188 
0 0 199 
0 0 191 
0 0 184 
0 0 187 
0 0 191 
0 0 180 
0 0 187 
0 0 179 
44 68 166 
52 80 150 
52 83 159 
56 88 158 
52 81 146 
56 88 150 
56 87 155 
54 85 151 
60 91 144 
59 92 156 
58 88 157 
55 84 154 
57 88 160 
58 90 143 
58 85 140 
58 88 149 
56 82 142 
57 86 148 
56 85 147 
58 86 145 
56 80 141 
57 82 145 
56 82 140 
86 71 122 
154 0 0 
135 0 0 
144 0 0 
156 0 0 
147 0 0 
156 0 0 
152 0 0 
159 0 0 
164 0 0 
168 0 0 
147 0 0 
173 0 0 
156 0 0 
157 0 0 
163 0 0 
169 0 0 
173 0 0 
168 0 0 
167 0 0 
172 0 0 
173 0 0 
174 0 0 
176 0 0 
172 0 0 
172 0 0 
175 0 0 
177 0 0 
172 0 0 
172 0 0 
174 0 0 
164 0 0 
169 0 0 
173 0 0 
175 0 0 
182 0 0 
183 0 0 
170 0 0 
182 0 0 
179 0 0 
181 0 0 
180 0 0 
181 0 0 
185 0 0 
178 0 0 
181 0 0 
175 0 0 
183 0 0 
187 0 0 
172 0 0 
185 0 0 
186 0 0 
181 0 0 
179 0 0 
186 0 0 
180 0 0 
187 0 0 
186 0 0 
183 0 0 
185 0 0 
177 0 0 
183 0 0 
186 0 0 
186 0 0 
192 0 0 
187 0 0 
192 0 0 
190 0 0 
190 0 0 
189 0 0 
184 0 0 
186 0 0 
189 0 0 
185 0 0 
185 0 0 
185 0 0 
192 0 0 
178 0 0 
184 0 0 
191 0 0 
189 0 0 
185 0 0 
182 0 0 
191 0 0 
188 0 0 
190 0 0 
181 0 0 
183 0 0 
190 0 0 
188 0 0 
188 0 0 
190 0 0 
187 0 0 
186 0 0 
190 0 0 
192 0 0 
189 0 0 
194 0 0 
186 0 0 
191 0 0 
191 0 0 
192 0 0 
185 0 0 
190 0 0 
194 0 0 
184 0 0 
190 0 0 
190 0 0 
191 0 0 
187 0 0 
189 0 0 
187 0 0 
193 0 0 
188 0 0 
193 0 0 
195 0 0 
188 0 0 
188 0 0 
191 0 0 
190 0 0 
192 0 0 
194 0 0 
189 0 0 
191 0 0 
191 0 0 
194 0 0 
195 0 0 
193 0 0 
192 0 0 
195 0 0 
189 0 0 
193 0 0 
190 0 0 
193 0 0 
191 0 0 
190 0 0 
190 0 0 
192 0 0 
192 0 0 
194 0 0 
191 0 0 
191 0 0 
189 0 0 
197 0 0 
199 0 0 
196 0 0 
193 0 0 
189 0 0 
196 0 0 
187 0 0 
191 0 0 
190 0 0 
191 0 0 
190 0 0 
193 0 0 
190 0 0 
192 0 0 
191 0 0 
194 0 0 
192 0 0 
191 0 0 
195 0 0 
194 0 0 
192 0 0 
194 0 0 
196 0 0 
190 0 0 
194 0 0 
187 0 0 
188 0 0 
192 0 0 
197 0 0 
192 0 0 
194 0 0 
194 0 0 
194 0 0 
192 0 0 
194 0 0 
193 0 0 
191 0 0 
195 0 0 
194 0 0 
192 0 0 
192 0 0 
194 0 0 
195 0 0 
197 0 0 
191 0 0 
197 0 0 
0 0 198 
0 0 184 
0 0 189 
0 0 206 
0 0 199 
0 0 201 
0 0 212 
0 0 207 
0 0 199 
0 0 199 
0 0 218 
0 0 212 
0 0 198 
0 0 207 
0 0 182 
0 0 193 
0 0 186 
0 0 209 
0 0 214 
0 0 204 
0 0 199 
0 0 215 
0 0 209 
0 0 196 
0 0 191 
0 0 201 
0 0 204 
0 0 211 
0 0 206 
0 0 193 
0 0 204 
0 0 193 
0 0 204 
0 0 203 
0 0 206 
0 0 186 
0 0 211 
0 0 209 
0 0 204 
0 0 207 
0 0 211 
0 0 206 
0 0 212 
0 0 206 
0 0 188 
0 0 196 
0 0 220 
0 0 209 
0 0 193 
0 0 191 
0 0 211 
0 0 201 
0 0 209 
0 0 177 
0 0 203 
0 0 211 
0 0 184 
0 0 211 
0 0 215 
0 0 201 
0 0 211 
0 0 206 
0 0 204 
0 0 196 
0 0 198 
0 0 186 
0 0 215 
0 0 194 
0 0 189 
0 0 215 
0 0 212 
0 0 191 
0 0 204 
0 0 194 
0 0 201 
0 0 194 
0 0 207 
0 0 188 
0 0 201 
0 0 198 
0 0 209 
0 0 204 
0 0 198 
0 0 209 
0 0 198 
0 0 196 
0 0 199 
0 0 201 
0 0 196 
0 0 194 
0 0 196 
0 0 196 
0 0 189 
0 0 214 
0 0 207 
0 0 209 
0 0 204 
0 0 194 
0 0 204 
0 0 199 
0 0 198 
0 0 199 
0 0 191 
0 0 186 
0 0 203 
0 0 201 
0 0 201 
0 0 196 
0 0 198 
0 0 199 
0 0 199 
0 0 191 
0 0 196 
0 0 204 
0 0 184 
0 0 207 
0 0 188 
0 0 206 
0 0 203 
0 0 193 
0 0 199 
0 0 214 
0 0 203 
0 0 217 
0 0 201 
0 0 206 
0 0 189 
0 0 188 
0 0 181 
0 0 203 
0 0 189 
0 0 199 
0 0 206 
0 0 214 
0 0 191 
0 0 209 
0 0 215 
0 0 206 
0 0 199 
0 0 211 
0 0 186 
0 0 196 
0 0 195 
0 0 206 
0 0 194 
0 0 199 
0 0 203 
0 0 181 
0 0 201 
0 0 184 
0 0 204 
0 0 193 
0 0 181 
0 0 182 
0 0 184 
0 0 199 
0 0 181 
0 0 199 
0 0 189 
0 0 204 
0 0 199 
0 0 190 
0 0 199 
0 0 183 
0 0 193 
0 0 189 
0 0 189 
0 0 176 
0 0 206 
0 0 198 
0 0 186 
0 0 181 
0 0 187 
0 0 199 
0 0 191 
0 0 188 
0 0 187 
0 0 181 
0 0 173 
0 0 181 
0 0 191 
0 0 194 
0 0 188 
0 0 197 
0 0 170 
0 0 179 
0 0 177 
0 0 183 
39 60 170 
51 78 148 
55 86 153 
52 80 145 
55 87 150 
54 84 145 
55 84 153 
60 93 165 
56 86 155 
56 85 143 
58 90 151 
58 88 151 
56 85 150 
56 86 145 
58 85 144 
56 86 147 
59 88 154 
57 85 137 
57 85 141 
56 84 137 
56 84 135 
57 85 143 
57 82 134 
88 64 105 
146 0 0 
139 0 0 
139 0 0 
142 0 0 
147 0 0 
161 0 0 
158 0 0 
169 0 0 
157 0 0 
156 0 0 
162 0 0 
162 0 0 
153 0 0 
166 0 0 
168 0 0 
156 0 0 
172 0 0 
175 0 0 
170 0 0 
171 0 0 
167 0 0 
178 0 0 
171 0 0 
168 0 0 
166 0 0 
172 0 0 
178 0 0 
177 0 0 
171 0 0 
183 0 0 
179 0 0 
164 0 0 
177 0 0 
175 0 0 
181 0 0 
176 0 0 
176 0 0 
174 0 0 
184 0 0 
174 0 0 
174 0 0 
186 0 0 
176 0 0 
176 0 0 
187 0 0 
179 0 0 
184 0 0 
172 0 0 
186 0 0 
181 0 0 
180 0 0 
176 0 0 
187 0 0 
183 0 0 
180 0 0 
186 0 0 
187 0 0 
178 0 0 
189 0 0 
185 0 0 
180 0 0 
187 0 0 
182 0 0 
179 0 0 
188 0 0 
183 0 0 
185 0 0 
191 0 0 
184 0 0 
184 0 0 
194 0 0 
190 0 0 
188 0 0 
186 0 0 
183 0 0 
187 0 0 
189 0 0 
184 0 0 
190 0 0 
186 0 0 
190 0 0 
188 0 0 
188 0 0 
187 0 0 
187 0 0 
186 0 0 
187 0 0 
184 0 0 
193 0 0 
184 0 0 
189 0 0 
192 0 0 
184 0 0 
189 0 0 
188 0 0 
192 0 0 
190 0 0 
188 0 0 
189 0 0 
192 0 0 
190 0 0 
190 0 0 
186 0 0 
192 0 0 
195 0 0 
189 0 0 
193 0 0 
186 0 0 
195 0 0 
190 0 0 
193 0 0 
191 0 0 
186 0 0 
193 0 0 
193 0 0 
189 0 0 
187 0 0 
187 0 0 
189 0 0 
194 0 0 
194 0 0 
190 0 0 
192 0 0 
188 0 0 
184 0 0 
189 0 0 
189 0 0 
190 0 0 
185 0 0 
193 0 0 
188 0 0 
193 0 0 
194 0 0 
189 0 0 
191 0 0 
190 0 0 
195 0 0 
193 0 0 
192 0 0 
191 0 0 
197 0 0 
187 0 0 
193 0 0 
193 0 0 
189 0 0 
188 0 0 
188 0 0 
189 0 0 
193 0 0 
194 0 0 
188 0 0 
189 0 0 
191 0 0 
187 0 0 
193 0 0 
193 0 0 
187 0 0 
195 0 0 
191 0 0 
194 0 0 
193 0 0 
192 0 0 
194 0 0 
193 0 0 
195 0 0 
188 0 0 
196 0 0 
192 0 0 
195 0 0 
193 0 0 
194 0 0 
196 0 0 
195 0 0 
193 0 0 
188 0 0 
194 0 0 
190 0 0 
191 0 0 
194 0 0 
194 0 0 
192 0 0 
193 0 0 
195 0 0 
190 0 0 
190 0 0 
193 0 0 
192 0 0 
194 0 0 
0 0 203 
0 0 207 
0 0 203 
0 0 198 
0 0 206 
0 0 212 
0 0 204 
0 0 203 
0 0 194 
0 0 207 
0 0 206 
0 0 193 
0 0 211 
0 0 191 
0 0 198 
0 0 209 
0 0 191 
0 0 207 
0 0 191 
0 0 198 
0 0 214 
0 0 204 
0 0 214 
0 0 198 
0 0 201 
0 0 209 
0 0 214 
0 0 203 
0 0 206 
0 0 217 
0 0 204 
0 0 193 
0 0 206 
0 0 207 
0 0 206 
0 0 189 
0 0 206 
0 0 199 
0 0 188 
0 0 193 
0 0 207 
0 0 206 
0 0 193 
0 0 201 
0 0 211 
0 0 206 
0 0 203 
0 0 211 
0 0 194 
0 0 204 
0 0 193 
0 0 199 
0 0 207 
0 0 203 
0 0 196 
0 0 194 
0 0 198 
0 0 193 
0 0 196 
0 0 194 
0 0 204 
0 0 203 
0 0 198 
0 0 186 
0 0 206 
0 0 207 
0 0 201 
0 0 209 
0 0 206 
0 0 196 
0 0 201 
0 0 204 
0 0 207 
0 0 196 
0 0 179 
0 0 211 
0 0 194 
0 0 198 
0 0 209 
0 0 198 
0 0 212 
0 0 209 
0 0 220 
0 0 186 
0 0 206 
0 0 191 
0 0 207 
0 0 188 
0 0 198 
0 0 209 
0 0 204 
0 0 206 
0 0 206 
0 0 188 
0 0 188 
0 0 186 
0 0 198 
0 0 196 
0 0 207 
0 0 207 
0 0 188 
0 0 203 
0 0 194 
0 0 201 
0 0 198 
0 0 194 
0 0 186 
0 0 211 
0 0 207 
0 0 189 
0 0 196 
0 0 193 
0 0 198 
0 0 191 
0 0 193 
0 0 207 
0 0 199 
0 0 203 
0 0 198 
0 0 198 
0 0 212 
0 0 206 
0 0 173 
0 0 188 
0 0 207 
0 0 194 
0 0 188 
0 0 184 
0 0 194 
0 0 188 
0 0 201 
0 0 203 
0 0 186 
0 0 201 
0 0 182 
0 0 198 
0 0 199 
0 0 201 
0 0 201 
0 0 196 
0 0 194 
0 0 201 
0 0 184 
0 0 193 
0 0 198 
0 0 191 
0 0 201 
0 0 177 
0 0 201 
0 0 181 
0 0 209 
0 0 196 
0 0 201 
0 0 186 
0 0 198 
0 0 202 
0 0 196 
0 0 195 
0 0 181 
0 0 181 
0 0 211 
0 0 198 
0 0 205 
0 0 186 
0 0 178 
0 0 186 
0 0 186 
0 0 179 
0 0 178 
0 0 193 
0 0 181 
0 0 175 
0 0 175 
0 0 173 
0 0 193 
0 0 182 
0 0 176 
0 0 176 
0 0 190 
0 0 181 
0 0 190 
0 0 185 
0 0 184 
0 0 161 
0 0 179 
0 0 186 
0 0 190 
0 0 197 
40 60 165 
54 84 153 
57 89 154 
56 87 157 
53 81 149 
53 81 147 
55 85 148 
56 85 155 
57 88 148 
57 88 148 
56 87 154 
56 85 148 
57 85 146 
59 90 149 
55 83 145 
59 89 151 
58 87 148 
56 84 145 
54 78 134 
57 84 149 
54 79 136 
57 83 137 
56 82 136 
117 50 86 
143 0 0 
140 0 0 
146 0 0 
158 0 0 
162 0 0 
152 0 0 
149 0 0 
166 0 0 
154 0 0 
159 0 0 
153 0 0 
167 0 0 
160 0 0 
172 0 0 
167 0 0 
172 0 0 
174 0 0 
165 0 0 
164 0 0 
172 0 0 
163 0 0 
174 0 0 
165 0 0 
173 0 0 
174 0 0 
174 0 0 
172 0 0 
161 0 0 
173 0 0 
173 0 0 
163 0 0 
177 0 0 
185 0 0 
173 0 0 
174 0 0 
178 0 0 
180 0 0 
180 0 0 
176 0 0 
180 0 0 
189 0 0 
187 0 0 
179 0 0 
187 0 0 
181 0 0 
182 0 0 
179 0 0 
185 0 0 
183 0 0 
177 0 0 
176 0 0 
182 0 0 
185 0 0 
182 0 0 
188 0 0 
177 0 0 
186 0 0 
182 0 0 
187 0 0 
180 0 0 
183 0 0 
182 0 0 
184 0 0 
183 0 0 
187 0 0 
182 0 0 
183 0 0 
186 0 0 
185 0 0 
183 0 0 
185 0 0 
185 0 0 
182 0 0 
188 0 0 
184 0 0 
185 0 0 
191 0 0 
188 0 0 
192 0 0 
187 0 0 
189 0 0 
188 0 0 
182 0 0 
187 0 0 
181 0 0 
180 0 0 
194 0 0 
186 0 0 
186 0 0 
186 0 0 
190 0 0 
190 0 0 
190 0 0 
186 0 0 
188 0 0 
187 0 0 
192 0 0 
188 0 0 
189 0 0 
189 0 0 
188 0 0 
188 0 0 
194 0 0 
192 0 0 
189 0 0 
185 0 0 
185 0 0 
192 0 0 
183 0 0 
189 0 0 
182 0 0 
188 0 0 
192 0 0 
193 0 0 
188 0 0 
193 0 0 
193 0 0 
186 0 0 
195 0 0 
184 0 0 
188 0 0 
190 0 0 
193 0 0 
192 0 0 
186 0 0 
192 0 0 
193 0 0 
192 0 0 
190 0 0 
184 0 0 
190 0 0 
195 0 0 
194 0 0 
190 0 0 
191 0 0 
193 0 0 
197 0 0 
186 0 0 
193 0 0 
189 0 0 
194 0 0 
193 0 0 
193 0 0 
194 0 0 
189 0 0 
190 0 0 
195 0 0 
194 0 0 
193 0 0 
195 0 0 
195 0 0 
192 0 0 
193 0 0 
193 0 0 
192 0 0 
192 0 0 
193 0 0 
191 0 0 
188 0 0 
192 0 0 
189 0 0 
190 0 0 
192 0 0 
195 0 0 
194 0 0 
193 0 0 
197 0 0 
192 0 0 
194 0 0 
194 0 0 
194 0 0 
192 0 0 
192 0 0 
193 0 0 
190 0 0 
197 0 0 
195 0 0 
194 0 0 
191 0 0 
192 0 0 
194 0 0 
193 0 0 
194 0 0 
193 0 0 
192 0 0 
193 0 0 
191 0 0 
190 0 0 
0 0 196 
0 0 206 
0 0 199 
0 0 203 
0 0 198 
0 0 207 
0 0 191 
0 0 199 
0 0 206 
0 0 193 
0 0 196 
0 0 211 
0 0 209 
0 0 193 
0 0 203 
0 0 203 
0 0 211 
0 0 199 
0 0 204 
0 0 196 
0 0 199 
0 0 201 
0 0 214 
0 0 209 
0 0 191 
0 0 188 
0 0 209 
0 0 198 
0 0 193 
0 0 204 
0 0 199 
0 0 211 
0 0 193 
0 0 203 
0 0 191 
0 0 209 
0 0 199 
0 0 209 
0 0 204 
0 0 209 
0 0 207 
0 0 203 
0 0 209 
0 0 204 
0 0 193 
0 0 188 
0 0 194 
0 0 209 
0 0 199 
0 0 193 
0 0 196 
0 0 198 
0 0 207 
0 0 211 
0 0 207 
0 0 194 
0 0 209 
0 0 209 
0 0 189 
0 0 191 
0 0 201 
0 0 209 
0 0 206 
0 0 204 
0 0 207 
0 0 212 
0 0 215 
0 0 215 
0 0 199 
0 0 196 
0 0 204 
0 0 196 
0 0 204 
0 0 201 
0 0 182 
0 0 203 
0 0 196 
0 0 194 
0 0 203 
0 0 199 
0 0 201 
0 0 206 
0 0 201 
0 0 203 
0 0 189 
0 0 204 
0 0 204 
0 0 196 
0 0 211 
0 0 191 
0 0 204 
0 0 201 
0 0 196 
0 0 203 
0 0 206 
0 0 198 
0 0 201 
0 0 188 
0 0 204 
0 0 194 
0 0 199 
0 0 198 
0 0 189 
0 0 199 
0 0 198 
0 0 189 
0 0 194 
0 0 206 
0 0 203 
0 0 191 
0 0 191 
0 0 199 
0 0 203 
0 0 196 
0 0 206 
0 0 201 
0 0 194 
0 0 201 
0 0 191 
0 0 196 
0 0 199 
0 0 193 
0 0 191 
0 0 201 
0 0 196 
0 0 206 
0 0 196 
0 0 203 
0 0 207 
0 0 203 
0 0 194 
0 0 198 
0 0 191 
0 0 188 
0 0 203 
0 0 207 
0 0 191 
0 0 199 
0 0 211 
0 0 207 
0 0 209 
0 0 191 
0 0 196 
0 0 186 
0 0 207 
0 0 196 
0 0 201 
0 0 188 
0 0 191 
0 0 199 
0 0 186 
0 0 206 
0 0 185 
0 0 175 
0 0 193 
0 0 194 
0 0 206 
0 0 191 
0 0 193 
0 0 191 
0 0 191 
0 0 198 
0 0 185 
0 0 216 
0 0 200 
0 0 182 
0 0 181 
0 0 181 
0 0 184 
0 0 194 
0 0 182 
0 0 191 
0 0 185 
0 0 187 
0 0 185 
0 0 183 
0 0 184 
0 0 189 
0 0 175 
0 0 178 
0 0 186 
0 0 184 
0 0 181 
0 0 166 
0 0 177 
0 0 170 
0 0 167 
0 0 187 
38 58 163 
53 82 145 
54 84 158 
55 85 145 
52 81 146 
55 84 137 
55 84 156 
58 89 142 
56 85 154 
58 85 151 
56 86 145 
58 89 147 
56 85 148 
57 87 146 
55 81 136 
60 89 150 
56 84 140 
56 83 139 
57 86 131 
59 86 153 
58 85 142 
55 80 136 
58 85 139 
98 52 91 
148 0 0 
158 0 0 
146 0 0 
153 0 0 
141 0 0 
143 0 0 
161 0 0 
156 0 0 
163 0 0 
169 0 0 
162 0 0 
167 0 0 
166 0 0 
158 0 0 
172 0 0 
160 0 0 
176 0 0 
175 0 0 
165 0 0 
163 0 0 
174 0 0 
169 0 0 
175 0 0 
178 0 0 
178 0 0 
170 0 0 
176 0 0 
177 0 0 
169 0 0 
169 0 0 
167 0 0 
177 0 0 
174 0 0 
181 0 0 
182 0 0 
173 0 0 
175 0 0 
180 0 0 
173 0 0 
181 0 0 
176 0 0 
177 0 0 
181 0 0 
173 0 0 
181 0 0 
180 0 0 
180 0 0 
177 0 0 
182 0 0 
184 0 0 
178 0 0 
185 0 0 
183 0 0 
177 0 0 
179 0 0 
189 0 0 
183 0 0 
176 0 0 
177 0 0 
185 0 0 
190 0 0 
175 0 0 
186 0 0 
186 0 0 
187 0 0 
191 0 0 
185 0 0 
184 0 0 
190 0 0 
188 0 0 
184 0 0 
180 0 0 
192 0 0 
186 0 0 
183 0 0 
185 0 0 
189 0 0 
184 0 0 
190 0 0 
187 0 0 
183 0 0 
188 0 0 
184 0 0 
188 0 0 
192 0 0 
185 0 0 
187 0 0 
193 0 0 
188 0 0 
189 0 0 
185 0 0 
188 0 0 
187 0 0 
189 0 0 
190 0 0 
188 0 0 
187 0 0 
192 0 0 
190 0 0 
188 0 0 
186 0 0 
191 0 0 
190 0 0 
189 0 0 
185 0 0 
185 0 0 
190 0 0 
188 0 0 
190 0 0 
196 0 0 
189 0 0 
191 0 0 
186 0 0 
187 0 0 
190 0 0 
188 0 0 
191 0 0 
192 0 0 
196 0 0 
184 0 0 
190 0 0 
188 0 0 
185 0 0 
188 0 0 
191 0 0 
185 0 0 
187 0 0 
188 0 0 
200 0 0 
194 0 0 
194 0 0 
192 0 0 
191 0 0 
189 0 0 
189 0 0 
195 0 0 
189 0 0 
194 0 0 
190 0 0 
189 0 0 
190 0 0 
189 0 0 
188 0 0 
189 0 0 
191 0 0 
191 0 0 
190 0 0 
192 0 0 
193 0 0 
188 0 0 
191 0 0 
194 0 0 
193 0 0 
188 0 0 
192 0 0 
191 0 0 
196 0 0 
187 0 0 
195 0 0 
191 0 0 
191 0 0 
197 0 0 
191 0 0 
191 0 0 
192 0 0 
188 0 0 
192 0 0 
194 0 0 
189 0 0 
193 0 0 
195 0 0 
195 0 0 
193 0 0 
189 0 0 
191 0 0 
193 0 0 
190 0 0 
194 0 0 
191 0 0 
193 0 0 
194 0 0 
191 0 0 
197 0 0 
192 0 0 
193 0 0 
190 0 0 
192 0 0 
194 0 0 
0 0 204 
0 0 203 
0 0 203 
0 0 209 
0 0 199 
0 0 204 
0 0 196 
0 0 203 
0 0 201 
0 0 215 
0 0 196 
0 0 193 
0 0 217 
0 0 204 
0 0 221 
0 0 214 
0 0 207 
0 0 193 
0 0 198 
0 0 199 
0 0 203 
0 0 203 
0 0 203 
0 0 194 
0 0 211 
0 0 204 
0 0 196 
0 0 199 
0 0 194 
0 0 198 
0 0 203 
0 0 201 
0 0 196 
0 0 191 
0 0 207 
0 0 203 
0 0 206 
0 0 198 
0 0 204 
0 0 191 
0 0 207 
0 0 198 
0 0 199 
0 0 196 
0 0 194 
0 0 189 
0 0 201 
0 0 206 
0 0 201 
0 0 207 
0 0 189 
0 0 203 
0 0 214 
0 0 220 
0 0 207 
0 0 199 
0 0 182 
0 0 204 
0 0 201 
0 0 191 
0 0 196 
0 0 194 
0 0 184 
0 0 191 
0 0 203 
0 0 193 
0 0 206 
0 0 188 
0 0 206 
0 0 201 
0 0 218 
0 0 193 
0 0 204 
0 0 211 
0 0 194 
0 0 189 
0 0 204 
0 0 199 
0 0 201 
0 0 198 
0 0 188 
0 0 186 
0 0 194 
0 0 188 
0 0 188 
0 0 198 
0 0 212 
0 0 188 
0 0 198 
0 0 194 
0 0 204 
0 0 191 
0 0 201 
0 0 193 
0 0 203 
0 0 193 
0 0 194 
0 0 199 
0 0 198 
0 0 193 
0 0 186 
0 0 201 
0 0 199 
0 0 194 
0 0 191 
0 0 196 
0 0 196 
0 0 212 
0 0 199 
0 0 196 
0 0 193 
0 0 194 
0 0 206 
0 0 184 
0 0 207 
0 0 196 
0 0 199 
0 0 193 
0 0 194 
0 0 193 
0 0 186 
0 0 191 
0 0 188 
0 0 194 
0 0 184 
0 0 199 
0 0 189 
0 0 196 
0 0 191 
0 0 203 
0 0 194 
0 0 188 
0 0 182 
0 0 191 
0 0 194 
0 0 188 
0 0 186 
0 0 194 
0 0 184 
0 0 193 
0 0 191 
0 0 188 
0 0 191 
0 0 191 
0 0 186 
0 0 191 
0 0 181 
0 0 188 
0 0 184 
0 0 192 
0 0 186 
0 0 201 
0 0 188 
0 0 207 
0 0 196 
0 0 207 
0 0 194 
0 0 175 
0 0 188 
0 0 184 
0 0 188 
0 0 194 
0 0 188 
0 0 190 
0 0 195 
0 0 179 
0 0 172 
0 0 167 
0 0 194 
0 0 181 
0 0 184 
0 0 167 
0 0 197 
0 0 193 
0 0 178 
0 0 189 
0 0 189 
0 0 203 
0 0 188 
0 0 190 
0 0 190 
0 0 172 
0 0 163 
0 0 185 
0 0 169 
0 0 171 
0 0 177 
0 0 177 
31 49 176 
49 75 140 
51 76 144 
52 80 149 
55 85 156 
54 84 146 
56 87 148 
55 85 153 
54 86 148 
55 86 147 
57 86 140 
56 87 153 
58 87 144 
58 87 147 
58 87 148 
57 88 152 
59 88 147 
58 89 147 
57 83 136 
54 77 137 
56 81 140 
56 82 137 
57 83 142 
126 45 76 
146 0 0 
155 0 0 
145 0 0 
154 0 0 
142 0 0 
153 0 0 
145 0 0 
153 0 0 
165 0 0 
160 0 0 
165 0 0 
160 0 0 
154 0 0 
152 0 0 
171 0 0 
165 0 0 
173 0 0 
173 0 0 
166 0 0 
165 0 0 
172 0 0 
168 0 0 
169 0 0 
174 0 0 
175 0 0 
180 0 0 
183 0 0 
175 0 0 
170 0 0 
175 0 0 
163 0 0 
168 0 0 
180 0 0 
180 0 0 
176 0 0 
166 0 0 
175 0 0 
174 0 0 
179 0 0 
183 0 0 
181 0 0 
170 0 0 
179 0 0 
180 0 0 
177 0 0 
172 0 0 
180 0 0 
177 0 0 
181 0 0 
180 0 0 
182 0 0 
184 0 0 
179 0 0 
182 0 0 
175 0 0 
185 0 0 
179 0 0 
186 0 0 
179 0 0 
186 0 0 
180 0 0 
180 0 0 
186 0 0 
185 0 0 
191 0 0 
183 0 0 
188 0 0 
178 0 0 
193 0 0 
180 0 0 
180 0 0 
186 0 0 
187 0 0 
183 0 0 
185 0 0 
179 0 0 
187 0 0 
188 0 0 
182 0 0 
187 0 0 
191 0 0 
183 0 0 
188 0 0 
187 0 0 
190 0 0 
186 0 0 
190 0 0 
188 0 0 
190 0 0 
184 0 0 
186 0 0 
183 0 0 
191 0 0 
183 0 0 
187 0 0 
195 0 0 
194 0 0 
189 0 0 
192 0 0 
181 0 0 
184 0 0 
188 0 0 
186 0 0 
193 0 0 
192 0 0 
188 0 0 
186 0 0 
190 0 0 
184 0 0 
189 0 0 
186 0 0 
193 0 0 
192 0 0 
190 0 0 
185 0 0 
190 0 0 
194 0 0 
190 0 0 
194 0 0 
192 0 0 
188 0 0 
185 0 0 
189 0 0 
189 0 0 
190 0 0 
193 0 0 
189 0 0 
189 0 0 
192 0 0 
191 0 0 
192 0 0 
193 0 0 
191 0 0 
189 0 0 
188 0 0 
194 0 0 
193 0 0 
190 0 0 
193 0 0 
193 0 0 
190 0 0 
191 0 0 
194 0 0 
193 0 0 
184 0 0 
188 0 0 
190 0 0 
192 0 0 
186 0 0 
193 0 0 
194 0 0 
192 0 0 
193 0 0 
194 0 0 
193 0 0 
191 0 0 
191 0 0 
187 0 0 
187 0 0 
195 0 0 
189 0 0 
189 0 0 
196 0 0 
196 0 0 
191 0 0 
193 0 0 
195 0 0 
190 0 0 
194 0 0 
188 0 0 
192 0 0 
193 0 0 
193 0 0 
194 0 0 
192 0 0 
195 0 0 
193 0 0 
193 0 0 
195 0 0 
192 0 0 
194 0 0 
195 0 0 
194 0 0 
194 0 0 
191 0 0 
193 0 0 
192 0 0 
192 0 0 
0 0 191 
0 0 199 
0 0 191 
0 0 198 
0 0 198 
0 0 206 
0 0 193 
0 0 186 
0 0 196 
0 0 203 
0 0 196 
0 0 201 
0 0 211 
0 0 206 
0 0 207 
0 0 207 
0 0 203 
0 0 173 
0 0 198 
0 0 203 
0 0 194 
0 0 199 
0 0 189 
0 0 209 
0 0 206 
0 0 207 
0 0 188 
0 0 214 
0 0 203 
0 0 198 
0 0 191 
0 0 198 
0 0 204 
0 0 207 
0 0 206 
0 0 186 
0 0 215 
0 0 194 
0 0 214 
0 0 203 
0 0 201 
0 0 189 
0 0 204 
0 0 189 
0 0 206 
0 0 194 
0 0 193 
0 0 196 
0 0 191 
0 0 193 
0 0 207 
0 0 194 
0 0 198 
0 0 207 
0 0 204 
0 0 203 
0 0 209 
0 0 196 
0 0 199 
0 0 209 
0 0 198 
0 0 215 
0 0 201 
0 0 198 
0 0 194 
0 0 196 
0 0 203 
0 0 217 
0 0 204 
0 0 198 
0 0 207 
0 0 212 
0 0 207 
0 0 196 
0 0 186 
0 0 214 
0 0 204 
0 0 189 
0 0 193 
0 0 194 
0 0 206 
0 0 203 
0 0 212 
0 0 199 
0 0 203 
0 0 188 
0 0 215 
0 0 201 
0 0 206 
0 0 207 
0 0 199 
0 0 199 
0 0 203 
0 0 182 
0 0 191 
0 0 206 
0 0 199 
0 0 206 
0 0 203 
0 0 196 
0 0 196 
0 0 191 
0 0 212 
0 0 199 
0 0 204 
0 0 201 
0 0 203 
0 0 194 
0 0 214 
0 0 194 
0 0 201 
0 0 194 
0 0 198 
0 0 194 
0 0 203 
0 0 182 
0 0 201 
0 0 193 
0 0 204 
0 0 198 
0 0 201 
0 0 199 
0 0 203 
0 0 196 
0 0 206 
0 0 181 
0 0 199 
0 0 169 
0 0 214 
0 0 186 
0 0 196 
0 0 191 
0 0 191 
0 0 188 
0 0 193 
0 0 189 
0 0 204 
0 0 194 
0 0 181 
0 0 206 
0 0 196 
0 0 189 
0 0 175 
0 0 203 
0 0 196 
0 0 201 
0 0 201 
0 0 181 
0 0 207 
0 0 193 
0 0 191 
0 0 167 
0 0 194 
0 0 176 
0 0 182 
0 0 206 
0 0 198 
0 0 168 
0 0 191 
0 0 210 
0 0 188 
0 0 176 
0 0 194 
0 0 186 
0 0 198 
0 0 182 
0 0 189 
0 0 187 
0 0 203 
0 0 184 
0 0 195 
0 0 171 
0 0 183 
0 0 174 
0 0 176 
0 0 188 
0 0 194 
0 0 175 
0 0 188 
0 0 183 
0 0 191 
0 0 181 
0 0 184 
0 0 171 
0 0 188 
0 0 162 
0 0 181 
0 0 181 
28 44 148 
52 81 154 
51 80 145 
53 81 146 
57 88 151 
56 87 151 
54 86 149 
57 87 153 
57 89 153 
55 86 151 
55 84 139 
58 86 137 
57 88 144 
55 83 140 
59 88 151 
57 86 152 
56 85 148 
58 85 139 
55 82 137 
55 81 140 
58 83 136 
58 87 144 
54 75 124 
123 41 70 
148 0 0 
143 0 0 
145 0 0 
149 0 0 
147 0 0 
144 0 0 
159 0 0 
142 0 0 
166 0 0 
157 0 0 
160 0 0 
162 0 0 
159 0 0 
165 0 0 
162 0 0 
169 0 0 
174 0 0 
161 0 0 
173 0 0 
161 0 0 
165 0 0 
170 0 0 
174 0 0 
174 0 0 
174 0 0 
164 0 0 
172 0 0 
175 0 0 
180 0 0 
177 0 0 
176 0 0 
173 0 0 
178 0 0 
178 0 0 
181 0 0 
180 0 0 
168 0 0 
177 0 0 
178 0 0 
168 0 0 
183 0 0 
175 0 0 
178 0 0 
180 0 0 
176 0 0 
180 0 0 
176 0 0 
176 0 0 
175 0 0 
181 0 0 
185 0 0 
180 0 0 
185 0 0 
182 0 0 
180 0 0 
179 0 0 
184 0 0 
182 0 0 
188 0 0 
188 0 0 
177 0 0 
180 0 0 
186 0 0 
188 0 0 
180 0 0 
182 0 0 
185 0 0 
181 0 0 
188 0 0 
187 0 0 
177 0 0 
183 0 0 
179 0 0 
188 0 0 
185 0 0 
188 0 0 
184 0 0 
188 0 0 
184 0 0 
189 0 0 
181 0 0 
185 0 0 
182 0 0 
189 0 0 
187 0 0 
185 0 0 
184 0 0 
192 0 0 
191 0 0 
189 0 0 
185 0 0 
186 0 0 
189 0 0 
186 0 0 
187 0 0 
190 0 0 
187 0 0 
187 0 0 
186 0 0 
192 0 0 
191 0 0 
188 0 0 
194 0 0 
186 0 0 
187 0 0 
189 0 0 
183 0 0 
188 0 0 
188 0 0 
191 0 0 
190 0 0 
187 0 0 
189 0 0 
186 0 0 
190 0 0 
186 0 0 
195 0 0 
193 0 0 
189 0 0 
184 0 0 
188 0 0 
191 0 0 
183 0 0 
192 0 0 
190 0 0 
188 0 0 
193 0 0 
193 0 0 
190 0 0 
193 0 0 
194 0 0 
192 0 0 
193 0 0 
194 0 0 
185 0 0 
196 0 0 
190 0 0 
194 0 0 
192 0 0 
191 0 0 
191 0 0 
195 0 0 
190 0 0 
188 0 0 
187 0 0 
193 0 0 
195 0 0 
185 0 0 
187 0 0 
188 0 0 
191 0 0 
190 0 0 
186 0 0 
192 0 0 
192 0 0 
192 0 0 
194 0 0 
196 0 0 
192 0 0 
191 0 0 
191 0 0 
191 0 0 
193 0 0 
196 0 0 
194 0 0 
196 0 0 
189 0 0 
189 0 0 
195 0 0 
190 0 0 
189 0 0 
190 0 0 
191 0 0 
193 0 0 
195 0 0 
193 0 0 
192 0 0 
193 0 0 
194 0 0 
194 0 0 
192 0 0 
194 0 0 
196 0 0 
193 0 0 
191 0 0 
197 0 0 
194 0 0 
191 0 0 
0 0 207 
0 0 201 
0 0 206 
0 0 196 
0 0 199 
0 0 203 
0 0 218 
0 0 203 
0 0 214 
0 0 194 
0 0 207 
0 0 201 
0 0 194 
0 0 198 
0 0 211 
0 0 189 
0 0 211 
0 0 212 
0 0 191 
0 0 194 
0 0 203 
0 0 204 
0 0 191 
0 0 199 
0 0 194 
0 0 199 
0 0 217 
0 0 201 
0 0 194 
0 0 194 
0 0 193 
0 0 203 
0 0 209 
0 0 207 
0 0 188 
0 0 179 
0 0 193 
0 0 206 
0 0 204 
0 0 199 
0 0 201 
0 0 199 
0 0 198 
0 0 204 
0 0 188 
0 0 215 
0 0 198 
0 0 201 
0 0 198 
0 0 206 
0 0 204 
0 0 188 
0 0 211 
0 0 194 
0 0 199 
0 0 188 
0 0 207 
0 0 198 
0 0 194 
0 0 201 
0 0 198 
0 0 199 
0 0 193 
0 0 194 
0 0 198 
0 0 203 
0 0 203 
0 0 201 
0 0 194 
0 0 203 
0 0 189 
0 0 199 
0 0 203 
0 0 196 
0 0 203 
0 0 193 
0 0 201 
0 0 194 
0 0 203 
0 0 194 
0 0 199 
0 0 199 
0 0 194 
0 0 201 
0 0 209 
0 0 196 
0 0 193 
0 0 211 
0 0 198 
0 0 196 
0 0 194 
0 0 201 
0 0 198 
0 0 198 
0 0 189 
0 0 204 
0 0 188 
0 0 198 
0 0 194 
0 0 196 
0 0 193 
0 0 188 
0 0 204 
0 0 206 
0 0 193 
0 0 184 
0 0 198 
0 0 201 
0 0 196 
0 0 189 
0 0 199 
0 0 201 
0 0 191 
0 0 201 
0 0 199 
0 0 184 
0 0 204 
0 0 203 
0 0 194 
0 0 196 
0 0 201 
0 0 206 
0 0 196 
0 0 201 
0 0 196 
0 0 203 
0 0 199 
0 0 191 
0 0 193 
0 0 188 
0 0 196 
0 0 199 
0 0 199 
0 0 199 
0 0 194 
0 0 189 
0 0 198 
0 0 189 
0 0 201 
0 0 196 
0 0 186 
0 0 199 
0 0 194 
0 0 196 
0 0 196 
0 0 182 
0 0 186 
0 0 201 
0 0 175 
0 0 175 
0 0 201 
0 0 181 
0 0 192 
0 0 191 
0 0 181 
0 0 198 
0 0 194 
0 0 191 
0 0 203 
0 0 199 
0 0 184 
0 0 167 
0 0 173 
0 0 181 
0 0 165 
0 0 186 
0 0 192 
0 0 200 
0 0 195 
0 0 202 
0 0 184 
0 0 181 
0 0 179 
0 0 199 
0 0 168 
0 0 176 
0 0 179 
0 0 177 
0 0 163 
0 0 182 
0 0 175 
0 0 186 
0 0 166 
0 0 187 
0 0 173 
0 0 186 
0 0 166 
0 0 173 
11 19 166 
50 76 151 
54 81 149 
52 81 141 
55 85 155 
55 85 149 
54 83 147 
56 85 140 
57 88 156 
57 84 143 
59 87 149 
58 86 145 
59 90 149 
56 85 147 
58 87 139 
56 83 142 
55 84 139 
55 83 139 
56 82 134 
55 80 137 
56 83 143 
55 80 137 
58 78 134 
132 33 51 
121 0 0 
151 0 0 
151 0 0 
145 0 0 
157 0 0 
146 0 0 
156 0 0 
157 0 0 
163 0 0 
151 0 0 
173 0 0 
155 0 0 
151 0 0 
158 0 0 
163 0 0 
174 0 0 
164 0 0 
164 0 0 
163 0 0 
171 0 0 
158 0 0 
173 0 0 
173 0 0 
172 0 0 
172 0 0 
176 0 0 
172 0 0 
168 0 0 
181 0 0 
171 0 0 
172 0 0 
174 0 0 
175 0 0 
175 0 0 
177 0 0 
179 0 0 
174 0 0 
178 0 0 
181 0 0 
184 0 0 
182 0 0 
181 0 0 
184 0 0 
177 0 0 
176 0 0 
176 0 0 
178 0 0 
181 0 0 
175 0 0 
182 0 0 
177 0 0 
183 0 0 
180 0 0 
183 0 0 
178 0 0 
180 0 0 
182 0 0 
182 0 0 
182 0 0 
186 0 0 
186 0 0 
181 0 0 
180 0 0 
181 0 0 
185 0 0 
187 0 0 
187 0 0 
187 0 0 
186 0 0 
178 0 0 
187 0 0 
184 0 0 
183 0 0 
185 0 0 
183 0 0 
183 0 0 
186 0 0 
191 0 0 
190 0 0 
187 0 0 
185 0 0 
181 0 0 
187 0 0 
185 0 0 
181 0 0 
194 0 0 
188 0 0 
188 0 0 
188 0 0 
186 0 0 
181 0 0 
188 0 0 
186 0 0 
190 0 0 
191 0 0 
191 0 0 
187 0 0 
188 0 0 
189 0 0 
188 0 0 
186 0 0 
189 0 0 
191 0 0 
189 0 0 
193 0 0 
186 0 0 
194 0 0 
191 0 0 
190 0 0 
190 0 0 
193 0 0 
186 0 0 
192 0 0 
188 0 0 
189 0 0 
188 0 0 
189 0 0 
189 0 0 
184 0 0 
194 0 0 
193 0 0 
193 0 0 
188 0 0 
189 0 0 
191 0 0 
193 0 0 
190 0 0 
189 0 0 
191 0 0 
195 0 0 
187 0 0 
190 0 0 
189 0 0 
190 0 0 
193 0 0 
196 0 0 
186 0 0 
188 0 0 
198 0 0 
189 0 0 
193 0 0 
194 0 0 
193 0 0 
194 0 0 
194 0 0 
191 0 0 
192 0 0 
190 0 0 
191 0 0 
195 0 0 
187 0 0 
189 0 0 
189 0 0 
191 0 0 
192 0 0 
192 0 0 
188 0 0 
192 0 0 
197 0 0 
194 0 0 
191 0 0 
193 0 0 
192 0 0 
190 0 0 
193 0 0 
192 0 0 
189 0 0 
188 0 0 
192 0 0 
193 0 0 
194 0 0 
195 0 0 
192 0 0 
195 0 0 
192 0 0 
193 0 0 
192 0 0 
192 0 0 
191 0 0 
188 0 0 
193 0 0 
193 0 0 
193 0 0 
191 0 0 
194 0 0 
196 0 0 
198 0 0 
191 0 0 
0 0 206 
0 0 177 
0 0 189 
0 0 218 
0 0 193 
0 0 177 
0 0 194 
0 0 203 
0 0 196 
0 0 209 
0 0 201 
0 0 204 
0 0 198 
0 0 198 
0 0 191 
0 0 191 
0 0 214 
0 0 206 
0 0 199 
0 0 215 
0 0 203 
0 0 201 
0 0 196 
0 0 199 
0 0 206 
0 0 193 
0 0 193 
0 0 199 
0 0 196 
0 0 209 
0 0 196 
0 0 203 
0 0 198 
0 0 184 
0 0 211 
0 0 201 
0 0 198 
0 0 207 
0 0 193 
0 0 198 
0 0 206 
0 0 194 
0 0 214 
0 0 194 
0 0 193 
0 0 193 
0 0 211 
0 0 209 
0 0 215 
0 0 215 
0 0 207 
0 0 199 
0 0 201 
0 0 207 
0 0 204 
0 0 204 
0 0 203 
0 0 199 
0 0 207 
0 0 201 
0 0 196 
0 0 218 
0 0 191 
0 0 203 
0 0 184 
0 0 203 
0 0 196 
0 0 212 
0 0 206 
0 0 194 
0 0 198 
0 0 194 
0 0 193 
0 0 189 
0 0 207 
0 0 182 
0 0 194 
0 0 188 
0 0 189 
0 0 204 
0 0 206 
0 0 203 
0 0 206 
0 0 211 
0 0 191 
0 0 201 
0 0 209 
0 0 199 
0 0 188 
0 0 203 
0 0 206 
0 0 199 
0 0 198 
0 0 188 
0 0 201 
0 0 196 
0 0 193 
0 0 199 
0 0 198 
0 0 186 
0 0 198 
0 0 199 
0 0 186 
0 0 201 
0 0 201 
0 0 203 
0 0 184 
0 0 189 
0 0 189 
0 0 194 
0 0 194 
0 0 189 
0 0 191 
0 0 188 
0 0 203 
0 0 203 
0 0 188 
0 0 196 
0 0 206 
0 0 196 
0 0 173 
0 0 203 
0 0 196 
0 0 198 
0 0 179 
0 0 189 
0 0 199 
0 0 204 
0 0 194 
0 0 184 
0 0 188 
0 0 181 
0 0 193 
0 0 182 
0 0 193 
0 0 189 
0 0 196 
0 0 203 
0 0 203 
0 0 207 
0 0 207 
0 0 186 
0 0 194 
0 0 203 
0 0 184 
0 0 194 
0 0 204 
0 0 193 
0 0 209 
0 0 189 
0 0 194 
0 0 185 
0 0 194 
0 0 199 
0 0 188 
0 0 184 
0 0 177 
0 0 194 
0 0 185 
0 0 186 
0 0 179 
0 0 191 
0 0 199 
0 0 196 
0 0 184 
0 0 194 
0 0 190 
0 0 181 
0 0 182 
0 0 186 
0 0 179 
0 0 201 
0 0 179 
0 0 184 
0 0 192 
0 0 188 
0 0 184 
0 0 192 
0 0 173 
0 0 181 
0 0 178 
0 0 172 
0 0 181 
0 0 180 
0 0 189 
0 0 173 
0 0 193 
0 0 180 
18 29 175 
48 73 145 
52 82 141 
53 82 144 
54 82 136 
55 84 153 
55 86 140 
57 88 146 
56 84 138 
56 86 147 
57 87 150 
55 85 145 
56 84 137 
57 85 146 
57 84 149 
57 84 142 
58 89 154 
57 84 137 
56 83 139 
55 78 132 
55 82 135 
57 85 148 
56 76 126 
137 16 25 
151 0 0 
147 0 0 
154 0 0 
143 0 0 
152 0 0 
151 0 0 
152 0 0 
154 0 0 
154 0 0 
165 0 0 
165 0 0 
156 0 0 
161 0 0 
159 0 0 
165 0 0 
173 0 0 
160 0 0 
164 0 0 
168 0 0 
159 0 0 
171 0 0 
169 0 0 
172 0 0 
171 0 0 
169 0 0 
165 0 0 
178 0 0 
177 0 0 
170 0 0 
169 0 0 
178 0 0 
170 0 0 
175 0 0 
166 0 0 
175 0 0 
172 0 0 
178 0 0 
178 0 0 
179 0 0 
171 0 0 
179 0 0 
182 0 0 
170 0 0 
176 0 0 
174 0 0 
179 0 0 
176 0 0 
186 0 0 
180 0 0 
184 0 0 
178 0 0 
186 0 0 
184 0 0 
190 0 0 
181 0 0 
181 0 0 
184 0 0 
184 0 0 
182 0 0 
173 0 0 
189 0 0 
190 0 0 
187 0 0 
187 0 0 
185 0 0 
178 0 0 
182 0 0 
182 0 0 
177 0 0 
178 0 0 
185 0 0 
183 0 0 
187 0 0 
189 0 0 
189 0 0 
184 0 0 
187 0 0 
187 0 0 
178 0 0 
185 0 0 
188 0 0 
185 0 0 
190 0 0 
192 0 0 
187 0 0 
189 0 0 
189 0 0 
185 0 0 
189 0 0 
182 0 0 
190 0 0 
187 0 0 
187 0 0 
190 0 0 
190 0 0 
185 0 0 
192 0 0 
183 0 0 
190 0 0 
185 0 0 
190 0 0 
192 0 0 
191 0 0 
186 0 0 
187 0 0 
186 0 0 
189 0 0 
187 0 0 
189 0 0 
192 0 0 
188 0 0 
186 0 0 
186 0 0 
188 0 0 
186 0 0 
193 0 0 
187 0 0 
191 0 0 
189 0 0 
190 0 0 
194 0 0 
187 0 0 
190 0 0 
190 0 0 
189 0 0 
189 0 0 
192 0 0 
189 0 0 
192 0 0 
190 0 0 
193 0 0 
198 0 0 
190 0 0 
191 0 0 
191 0 0 
190 0 0 
192 0 0 
192 0 0 
189 0 0 
191 0 0 
190 0 0 
191 0 0 
195 0 0 
196 0 0 
192 0 0 
189 0 0 
191 0 0 
189 0 0 
190 0 0 
191 0 0 
191 0 0 
192 0 0 
191 0 0 
194 0 0 
192 0 0 
192 0 0 
192 0 0 
192 0 0 
194 0 0 
191 0 0 
191 0 0 
190 0 0 
197 0 0 
191 0 0 
193 0 0 
191 0 0 
195 0 0 
196 0 0 
195 0 0 
189 0 0 
195 0 0 
192 0 0 
192 0 0 
197 0 0 
193 0 0 
190 0 0 
194 0 0 
190 0 0 
192 0 0 
195 0 0 
191 0 0 
192 0 0 
195 0 0 
195 0 0 
195 0 0 
191 0 0 
190 0 0 
190 0 0 
0 0 204 
0 0 203 
0 0 189 
0 0 203 
0 0 189 
0 0 201 
0 0 211 
0 0 204 
0 0 206 
0 0 198 
0 0 196 
0 0 215 
0 0 196 
0 0 206 
0 0 203 
0 0 206 
0 0 212 
0 0 209 
0 0 206 
0 0 201 
0 0 193 
0 0 206 
0 0 182 
0 0 196 
0 0 209 
0 0 204 
0 0 189 
0 0 199 
0 0 201 
0 0 201 
0 0 203 
0 0 199 
0 0 196 
0 0 211 
0 0 201 
0 0 189 
0 0 186 
0 0 204 
0 0 201 
0 0 201 
0 0 194 
0 0 203 
0 0 188 
0 0 203 
0 0 201 
0 0 196 
0 0 204 
0 0 204 
0 0 196 
0 0 189 
0 0 206 
0 0 194 
0 0 203 
0 0 212 
0 0 201 
0 0 186 
0 0 207 
0 0 191 
0 0 196 
0 0 203 
0 0 196 
0 0 196 
0 0 203 
0 0 196 
0 0 199 
0 0 196 
0 0 206 
0 0 186 
0 0 203 
0 0 199 
0 0 189 
0 0 193 
0 0 203 
0 0 191 
0 0 196 
0 0 206 
0 0 191 
0 0 194 
0 0 196 
0 0 199 
0 0 212 
0 0 194 
0 0 186 
0 0 196 
0 0 201 
0 0 196 
0 0 182 
0 0 189 
0 0 194 
0 0 193 
0 0 203 
0 0 201 
0 0 203 
0 0 211 
0 0 189 
0 0 206 
0 0 201 
0 0 204 
0 0 198 
0 0 199 
0 0 173 
0 0 203 
0 0 199 
0 0 196 
0 0 198 
0 0 196 
0 0 203 
0 0 203 
0 0 198 
0 0 207 
0 0 196 
0 0 189 
0 0 193 
0 0 198 
0 0 206 
0 0 199 
0 0 188 
0 0 201 
0 0 184 
0 0 209 
0 0 186 
0 0 196 
0 0 181 
0 0 201 
0 0 201 
0 0 186 
0 0 196 
0 0 199 
0 0 182 
0 0 206 
0 0 191 
0 0 209 
0 0 194 
0 0 182 
0 0 198 
0 0 194 
0 0 209 
0 0 181 
0 0 189 
0 0 196 
0 0 175 
0 0 191 
0 0 193 
0 0 188 
0 0 193 
0 0 196 
0 0 196 
0 0 201 
0 0 189 
0 0 203 
0 0 184 
0 0 198 
0 0 190 
0 0 198 
0 0 191 
0 0 188 
0 0 181 
0 0 189 
0 0 189 
0 0 193 
0 0 189 
0 0 178 
0 0 188 
0 0 177 
0 0 205 
0 0 203 
0 0 176 
0 0 165 
0 0 196 
0 0 175 
0 0 188 
0 0 171 
0 0 177 
0 0 186 
0 0 181 
0 0 186 
0 0 198 
0 0 180 
0 0 177 
0 0 168 
0 0 188 
0 0 186 
0 0 168 
0 0 181 
0 0 166 
0 0 181 
0 0 168 
0 0 176 
8 14 167 
50 78 143 
50 77 138 
56 85 151 
55 84 151 
57 89 154 
52 78 133 
56 85 149 
56 83 151 
56 86 150 
56 88 139 
58 88 150 
53 80 139 
56 87 137 
57 86 141 
56 82 131 
56 86 142 
56 82 141 
56 82 142 
56 81 126 
56 80 139 
58 82 137 
57 79 129 
132 9 0 
153 0 0 
135 0 0 
142 0 0 
148 0 0 
155 0 0 
152 0 0 
158 0 0 
157 0 0 
163 0 0 
160 0 0 
160 0 0 
166 0 0 
150 0 0 
162 0 0 
164 0 0 
164 0 0 
163 0 0 
164 0 0 
169 0 0 
169 0 0 
165 0 0 
166 0 0 
163 0 0 
170 0 0 
168 0 0 
170 0 0 
174 0 0 
172 0 0 
172 0 0 
177 0 0 
179 0 0 
174 0 0 
176 0 0 
179 0 0 
175 0 0 
168 0 0 
182 0 0 
184 0 0 
172 0 0 
172 0 0 
180 0 0 
182 0 0 
185 0 0 
172 0 0 
181 0 0 
177 0 0 
178 0 0 
179 0 0 
186 0 0 
190 0 0 
179 0 0 
180 0 0 
182 0 0 
185 0 0 
180 0 0 
184 0 0 
187 0 0 
186 0 0 
185 0 0 
183 0 0 
183 0 0 
181 0 0 
185 0 0 
191 0 0 
185 0 0 
186 0 0 
183 0 0 
183 0 0 
179 0 0 
189 0 0 
184 0 0 
184 0 0 
187 0 0 
180 0 0 
189 0 0 
183 0 0 
184 0 0 
184 0 0 
189 0 0 
183 0 0 
177 0 0 
192 0 0 
180 0 0 
189 0 0 
190 0 0 
186 0 0 
186 0 0 
186 0 0 
183 0 0 
189 0 0 
185 0 0 
188 0 0 
191 0 0 
191 0 0 
192 0 0 
188 0 0 
190 0 0 
185 0 0 
194 0 0 
186 0 0 
181 0 0 
186 0 0 
189 0 0 
192 0 0 
191 0 0 
188 0 0 
194 0 0 
191 0 0 
186 0 0 
187 0 0 
193 0 0 
193 0 0 
189 0 0 
187 0 0 
188 0 0 
187 0 0 
192 0 0 
192 0 0 
185 0 0 
187 0 0 
187 0 0 
189 0 0 
189 0 0 
190 0 0 
190 0 0 
190 0 0 
190 0 0 
191 0 0 
191 0 0 
188 0 0 
182 0 0 
190 0 0 
194 0 0 
188 0 0 
193 0 0 
191 0 0 
191 0 0 
194 0 0 
194 0 0 
192 0 0 
192 0 0 
189 0 0 
190 0 0 
192 0 0 
190 0 0 
189 0 0 
191 0 0 
191 0 0 
192 0 0 
189 0 0 
191 0 0 
187 0 0 
192 0 0 
190 0 0 
195 0 0 
191 0 0 
187 0 0 
191 0 0 
193 0 0 
191 0 0 
190 0 0 
194 0 0 
196 0 0 
193 0 0 
195 0 0 
191 0 0 
190 0 0 
191 0 0 
193 0 0 
186 0 0 
191 0 0 
194 0 0 
194 0 0 
193 0 0 
191 0 0 
195 0 0 
187 0 0 
192 0 0 
195 0 0 
195 0 0 
190 0 0 
190 0 0 
196 0 0 
195 0 0 
188 0 0 
194 0 0 
190 0 0 
190 0 0 
0 0 194 
0 0 188 
0 0 194 
0 0 196 
0 0 193 
0 0 193 
0 0 204 
0 0 203 
0 0 196 
0 0 206 
0 0 196 
0 0 204 
0 0 194 
0 0 201 
0 0 198 
0 0 184 
0 0 182 
0 0 191 
0 0 214 
0 0 198 
0 0 204 
0 0 194 
0 0 179 
0 0 198 
0 0 203 
0 0 194 
0 0 191 
0 0 198 
0 0 188 
0 0 189 
0 0 191 
0 0 188 
0 0 189 
0 0 207 
0 0 193 
0 0 193 
0 0 196 
0 0 201 
0 0 206 
0 0 193 
0 0 188 
0 0 204 
0 0 196 
0 0 214 
0 0 194 
0 0 204 
0 0 194 
0 0 189 
0 0 218 
0 0 194 
0 0 204 
0 0 198 
0 0 203 
0 0 204 
0 0 203 
0 0 212 
0 0 186 
0 0 207 
0 0 189 
0 0 201 
0 0 181 
0 0 188 
0 0 206 
0 0 207 
0 0 188 
0 0 209 
0 0 209 
0 0 182 
0 0 194 
0 0 198 
0 0 199 
0 0 188 
0 0 203 
0 0 199 
0 0 194 
0 0 196 
0 0 206 
0 0 206 
0 0 203 
0 0 203 
0 0 198 
0 0 206 
0 0 194 
0 0 198 
0 0 212 
0 0 198 
0 0 211 
0 0 189 
0 0 198 
0 0 204 
0 0 198 
0 0 209 
0 0 203 
0 0 212 
0 0 211 
0 0 186 
0 0 201 
0 0 186 
0 0 191 
0 0 199 
0 0 191 
0 0 201 
0 0 189 
0 0 203 
0 0 179 
0 0 203 
0 0 206 
0 0 201 
0 0 207 
0 0 194 
0 0 199 
0 0 203 
0 0 184 
0 0 186 
0 0 196 
0 0 206 
0 0 193 
0 0 182 
0 0 196 
0 0 191 
0 0 189 
0 0 186 
0 0 189 
0 0 214 
0 0 188 
0 0 203 
0 0 191 
0 0 179 
0 0 198 
0 0 194 
0 0 186 
0 0 196 
0 0 188 
0 0 203 
0 0 201 
0 0 186 
0 0 193 
0 0 189 
0 0 196 
0 0 198 
0 0 194 
0 0 188 
0 0 184 
0 0 204 
0 0 191 
0 0 186 
0 0 179 
0 0 194 
0 0 188 
0 0 188 
0 0 196 
0 0 174 
0 0 182 
0 0 180 
0 0 199 
0 0 180 
0 0 179 
0 0 184 
0 0 179 
0 0 183 
0 0 191 
0 0 181 
0 0 191 
0 0 184 
0 0 175 
0 0 186 
0 0 185 
0 0 186 
0 0 187 
0 0 192 
0 0 191 
0 0 179 
0 0 175 
0 0 197 
0 0 186 
0 0 182 
0 0 182 
0 0 166 
0 0 185 
0 0 190 
0 0 179 
0 0 172 
0 0 185 
0 0 176 
0 0 176 
0 0 171 
0 0 167 
0 0 171 
0 0 179 
51 79 141 
52 81 149 
54 83 141 
54 84 143 
55 84 144 
53 82 143 
57 88 150 
58 89 153 
53 81 134 
56 86 143 
56 86 141 
55 84 139 
54 82 149 
55 83 138 
56 84 140 
57 86 142 
57 86 142 
59 83 144 
57 82 143 
58 85 129 
54 79 127 
54 79 134 
145 0 0 
146 0 0 
136 0 0 
135 0 0 
149 0 0 
149 0 0 
151 0 0 
154 0 0 
161 0 0 
173 0 0 
166 0 0 
159 0 0 
164 0 0 
146 0 0 
167 0 0 
160 0 0 
158 0 0 
167 0 0 
177 0 0 
167 0 0 
172 0 0 
177 0 0 
169 0 0 
169 0 0 
175 0 0 
174 0 0 
175 0 0 
177 0 0 
176 0 0 
172 0 0 
176 0 0 
169 0 0 
171 0 0 
179 0 0 
167 0 0 
182 0 0 
175 0 0 
177 0 0 
175 0 0 
173 0 0 
174 0 0 
177 0 0 
181 0 0 
186 0 0 
183 0 0 
184 0 0 
179 0 0 
176 0 0 
179 0 0 
178 0 0 
176 0 0 
173 0 0 
173 0 0 
180 0 0 
188 0 0 
181 0 0 
184 0 0 
185 0 0 
183 0 0 
185 0 0 
181 0 0 
189 0 0 
181 0 0 
189 0 0 
184 0 0 
181 0 0 
187 0 0 
182 0 0 
184 0 0 
184 0 0 
189 0 0 
191 0 0 
184 0 0 
190 0 0 
183 0 0 
191 0 0 
184 0 0 
184 0 0 
186 0 0 
183 0 0 
186 0 0 
188 0 0 
184 0 0 
182 0 0 
184 0 0 
193 0 0 
190 0 0 
192 0 0 
190 0 0 
187 0 0 
193 0 0 
185 0 0 
190 0 0 
185 0 0 
185 0 0 
190 0 0 
187 0 0 
190 0 0 
186 0 0 
188 0 0 
189 0 0 
189 0 0 
183 0 0 
190 0 0 
194 0 0 
187 0 0 
189 0 0 
193 0 0 
184 0 0 
187 0 0 
186 0 0 
184 0 0 
183 0 0 
191 0 0 
185 0 0 
191 0 0 
189 0 0 
193 0 0 
193 0 0 
186 0 0 
188 0 0 
191 0 0 
193 0 0 
192 0 0 
188 0 0 
187 0 0 
191 0 0 
192 0 0 
191 0 0 
182 0 0 
190 0 0 
189 0 0 
191 0 0 
187 0 0 
188 0 0 
190 0 0 
193 0 0 
187 0 0 
193 0 0 
198 0 0 
194 0 0 
186 0 0 
191 0 0 
190 0 0 
189 0 0 
194 0 0 
190 0 0 
194 0 0 
188 0 0 
193 0 0 
190 0 0 
192 0 0 
191 0 0 
194 0 0 
190 0 0 
190 0 0 
193 0 0 
191 0 0 
192 0 0 
194 0 0 
192 0 0 
192 0 0 
190 0 0 
188 0 0 
190 0 0 
192 0 0 
190 0 0 
190 0 0 
192 0 0 
194 0 0 
192 0 0 
195 0 0 
191 0 0 
196 0 0 
187 0 0 
189 0 0 
190 0 0 
195 0 0 
191 0 0 
194 0 0 
189 0 0 
191 0 0 
189 0 0 
188 0 0 
191 0 0 
196 0 0 
195 0 0 
191 0 0 
195 0 0 
0 0 207 
0 0 201 
0 0 203 
0 0 193 
0 0 203 
0 0 207 
0 0 204 
0 0 206 
0 0 204 
0 0 186 
0 0 191 
0 0 193 
0 0 188 
0 0 196 
0 0 211 
0 0 186 
0 0 203 
0 0 203 
0 0 196 
0 0 199 
0 0 186 
0 0 182 
0 0 194 
0 0 207 
0 0 191 
0 0 199 
0 0 212 
0 0 193 
0 0 203 
0 0 193 
0 0 198 
0 0 201 
0 0 169 
0 0 201 
0 0 201 
0 0 186 
0 0 203 
0 0 193 
0 0 206 
0 0 198 
0 0 184 
0 0 189 
0 0 204 
0 0 193 
0 0 177 
0 0 206 
0 0 189 
0 0 199 
0 0 207 
0 0 206 
0 0 201 
0 0 214 
0 0 194 
0 0 194 
0 0 209 
0 0 198 
0 0 196 
0 0 207 
0 0 194 
0 0 198 
0 0 191 
0 0 199 
0 0 206 
0 0 196 
0 0 201 
0 0 194 
0 0 199 
0 0 206 
0 0 193 
0 0 193 
0 0 193 
0 0 181 
0 0 196 
0 0 206 
0 0 193 
0 0 203 
0 0 184 
0 0 198 
0 0 189 
0 0 203 
0 0 203 
0 0 191 
0 0 206 
0 0 196 
0 0 196 
0 0 182 
0 0 206 
0 0 209 
0 0 193 
0 0 204 
0 0 189 
0 0 191 
0 0 211 
0 0 194 
0 0 206 
0 0 209 
0 0 181 
0 0 199 
0 0 194 
0 0 189 
0 0 194 
0 0 181 
0 0 198 
0 0 193 
0 0 189 
0 0 206 
0 0 201 
0 0 193 
0 0 184 
0 0 193 
0 0 198 
0 0 199 
0 0 165 
0 0 196 
0 0 198 
0 0 198 
0 0 198 
0 0 191 
0 0 194 
0 0 199 
0 0 186 
0 0 203 
0 0 189 
0 0 181 
0 0 207 
0 0 179 
0 0 194 
0 0 189 
0 0 191 
0 0 206 
0 0 201 
0 0 211 
0 0 193 
0 0 191 
0 0 165 
0 0 188 
0 0 194 
0 0 199 
0 0 196 
0 0 181 
0 0 188 
0 0 194 
0 0 186 
0 0 181 
0 0 184 
0 0 182 
0 0 193 
0 0 191 
0 0 188 
0 0 191 
0 0 191 
0 0 181 
0 0 198 
0 0 184 
0 0 206 
0 0 196 
0 0 173 
0 0 181 
0 0 184 
0 0 175 
0 0 177 
0 0 198 
0 0 186 
0 0 170 
0 0 192 
0 0 193 
0 0 185 
0 0 186 
0 0 179 
0 0 181 
0 0 176 
0 0 181 
0 0 191 
0 0 183 
0 0 184 
0 0 169 
0 0 178 
0 0 167 
0 0 171 
0 0 180 
0 0 175 
0 0 175 
0 0 169 
0 0 185 
0 0 170 
0 0 179 
0 0 186 
0 0 181 
0 0 175 
50 77 142 
50 74 132 
56 88 150 
55 85 139 
52 80 141 
54 81 149 
54 83 140 
57 86 144 
56 84 136 
56 87 143 
58 88 149 
56 85 143 
57 87 134 
57 87 142 
58 87 147 
56 84 140 
56 82 135 
58 85 142 
57 82 128 
59 86 140 
58 86 140 
63 75 131 
134 0 0 
153 0 0 
158 0 0 
151 0 0 
149 0 0 
156 0 0 
151 0 0 
149 0 0 
160 0 0 
157 0 0 
161 0 0 
165 0 0 
156 0 0 
157 0 0 
159 0 0 
162 0 0 
152 0 0 
163 0 0 
170 0 0 
171 0 0 
165 0 0 
174 0 0 
160 0 0 
164 0 0 
175 0 0 
168 0 0 
174 0 0 
167 0 0 
175 0 0 
165 0 0 
171 0 0 
180 0 0 
180 0 0 
174 0 0 
176 0 0 
181 0 0 
178 0 0 
183 0 0 
172 0 0 
175 0 0 
172 0 0 
180 0 0 
176 0 0 
176 0 0 
184 0 0 
176 0 0 
178 0 0 
174 0 0 
179 0 0 
188 0 0 
176 0 0 
177 0 0 
180 0 0 
181 0 0 
190 0 0 
180 0 0 
181 0 0 
188 0 0 
177 0 0 
176 0 0 
189 0 0 
180 0 0 
182 0 0 
187 0 0 
178 0 0 
187 0 0 
180 0 0 
188 0 0 
187 0 0 
185 0 0 
187 0 0 
183 0 0 
183 0 0 
184 0 0 
187 0 0 
182 0 0 
181 0 0 
184 0 0 
188 0 0 
186 0 0 
192 0 0 
188 0 0 
184 0 0 
191 0 0 
190 0 0 
187 0 0 
191 0 0 
188 0 0 
188 0 0 
189 0 0 
184 0 0 
183 0 0 
184 0 0 
190 0 0 
188 0 0 
187 0 0 
190 0 0 
189 0 0 
190 0 0 
190 0 0 
192 0 0 
189 0 0 
187 0 0 
190 0 0 
188 0 0 
187 0 0 
186 0 0 
189 0 0 
186 0 0 
191 0 0 
193 0 0 
190 0 0 
188 0 0 
194 0 0 
187 0 0 
183 0 0 
191 0 0 
183 0 0 
194 0 0 
190 0 0 
188 0 0 
188 0 0 
192 0 0 
186 0 0 
186 0 0 
188 0 0 
192 0 0 
191 0 0 
190 0 0 
187 0 0 
187 0 0 
195 0 0 
191 0 0 
190 0 0 
193 0 0 
191 0 0 
192 0 0 
184 0 0 
188 0 0 
188 0 0 
192 0 0 
194 0 0 
190 0 0 
193 0 0 
190 0 0 
196 0 0 
196 0 0 
189 0 0 
188 0 0 
189 0 0 
193 0 0 
193 0 0 
190 0 0 
192 0 0 
196 0 0 
195 0 0 
196 0 0 
189 0 0 
190 0 0 
195 0 0 
188 0 0 
189 0 0 
189 0 0 
195 0 0 
193 0 0 
193 0 0 
192 0 0 
193 0 0 
195 0 0 
189 0 0 
189 0 0 
192 0 0 
191 0 0 
190 0 0 
194 0 0 
197 0 0 
189 0 0 
195 0 0 
188 0 0 
196 0 0 
192 0 0 
195 0 0 
197 0 0 
195 0 0 
193 0 0 
193 0 0 
190 0 0 
192 0 0 
190 0 0 
0 0 196 
0 0 199 
0 0 201 
0 0 182 
0 0 191 
0 0 193 
0 0 191 
0 0 201 
0 0 193 
0 0 198 
0 0 189 
0 0 193 
0 0 204 
0 0 211 
0 0 186 
0 0 198 
0 0 203 
0 0 212 
0 0 209 
0 0 189 
0 0 207 
0 0 194 
0 0 167 
0 0 204 
0 0 201 
0 0 188 
0 0 184 
0 0 188 
0 0 209 
0 0 189 
0 0 211 
0 0 186 
0 0 212 
0 0 203 
0 0 194 
0 0 194 
0 0 211 
0 0 189 
0 0 207 
0 0 207 
0 0 204 
0 0 206 
0 0 204 
0 0 203 
0 0 194 
0 0 196 
0 0 201 
0 0 196 
0 0 191 
0 0 199 
0 0 199 
0 0 193 
0 0 196 
0 0 184 
0 0 209 
0 0 188 
0 0 204 
0 0 201 
0 0 194 
0 0 186 
0 0 220 
0 0 203 
0 0 188 
0 0 199 
0 0 182 
0 0 203 
0 0 188 
0 0 198 
0 0 179 
0 0 207 
0 0 191 
0 0 201 
0 0 196 
0 0 204 
0 0 184 
0 0 184 
0 0 189 
0 0 203 
0 0 201 
0 0 204 
0 0 199 
0 0 198 
0 0 194 
0 0 186 
0 0 201 
0 0 193 
0 0 201 
0 0 188 
0 0 198 
0 0 194 
0 0 203 
0 0 201 
0 0 201 
0 0 184 
0 0 189 
0 0 203 
0 0 196 
0 0 169 
0 0 186 
0 0 194 
0 0 196 
0 0 203 
0 0 184 
0 0 189 
0 0 188 
0 0 193 
0 0 201 
0 0 191 
0 0 199 
0 0 203 
0 0 182 
0 0 214 
0 0 191 
0 0 193 
0 0 188 
0 0 206 
0 0 199 
0 0 193 
0 0 206 
0 0 182 
0 0 194 
0 0 194 
0 0 204 
0 0 207 
0 0 199 
0 0 199 
0 0 198 
0 0 188 
0 0 188 
0 0 188 
0 0 184 
0 0 194 
0 0 194 
0 0 196 
0 0 194 
0 0 181 
0 0 189 
0 0 182 
0 0 201 
0 0 189 
0 0 179 
0 0 188 
0 0 193 
0 0 180 
0 0 198 
0 0 191 
0 0 198 
0 0 199 
0 0 189 
0 0 193 
0 0 196 
0 0 194 
0 0 191 
0 0 186 
0 0 197 
0 0 194 
0 0 191 
0 0 193 
0 0 177 
0 0 191 
0 0 181 
0 0 182 
0 0 203 
0 0 196 
0 0 207 
0 0 177 
0 0 190 
0 0 166 
0 0 184 
0 0 179 
0 0 170 
0 0 178 
0 0 181 
0 0 186 
0 0 168 
0 0 192 
0 0 175 
0 0 184 
0 0 182 
0 0 181 
0 0 164 
0 0 175 
0 0 176 
0 0 177 
0 0 176 
0 0 169 
0 0 181 
0 0 175 
0 0 169 
51 77 151 
49 77 139 
54 83 146 
56 87 152 
55 84 142 
56 84 134 
53 81 139 
54 83 143 
55 85 145 
57 84 141 
55 86 148 
57 87 145 
57 84 143 
56 84 139 
56 85 139 
56 85 134 
58 87 141 
55 81 139 
56 82 135 
57 84 144 
55 80 120 
66 70 115 
140 0 0 
151 0 0 
150 0 0 
151 0 0 
138 0 0 
157 0 0 
159 0 0 
148 0 0 
159 0 0 
154 0 0 
162 0 0 
153 0 0 
161 0 0 
153 0 0 
153 0 0 
158 0 0 
170 0 0 
175 0 0 
168 0 0 
166 0 0 
161 0 0 
161 0 0 
168 0 0 
167 0 0 
162 0 0 
170 0 0 
172 0 0 
170 0 0 
172 0 0 
169 0 0 
178 0 0 
155 0 0 
179 0 0 
169 0 0 
166 0 0 
176 0 0 
178 0 0 
175 0 0 
168 0 0 
178 0 0 
171 0 0 
177 0 0 
179 0 0 
173 0 0 
186 0 0 
175 0 0 
179 0 0 
179 0 0 
182 0 0 
179 0 0 
179 0 0 
189 0 0 
179 0 0 
184 0 0 
183 0 0 
185 0 0 
177 0 0 
182 0 0 
186 0 0 
178 0 0 
177 0 0 
187 0 0 
179 0 0 
184 0 0 
179 0 0 
182 0 0 
182 0 0 
185 0 0 
190 0 0 
189 0 0 
179 0 0 
180 0 0 
181 0 0 
185 0 0 
187 0 0 
187 0 0 
181 0 0 
183 0 0 
186 0 0 
188 0 0 
183 0 0 
184 0 0 
180 0 0 
188 0 0 
186 0 0 
182 0 0 
186 0 0 
189 0 0 
180 0 0 
188 0 0 
187 0 0 
185 0 0 
188 0 0 
189 0 0 
194 0 0 
191 0 0 
189 0 0 
185 0 0 
190 0 0 
186 0 0 
189 0 0 
190 0 0 
186 0 0 
188 0 0 
187 0 0 
189 0 0 
186 0 0 
189 0 0 
189 0 0 
189 0 0 
192 0 0 
190 0 0 
187 0 0 
193 0 0 
187 0 0 
186 0 0 
195 0 0 
195 0 0 
188 0 0 
187 0 0 
189 0 0 
194 0 0 
189 0 0 
183 0 0 
186 0 0 
188 0 0 
188 0 0 
194 0 0 
190 0 0 
189 0 0 
193 0 0 
189 0 0 
188 0 0 
185 0 0 
194 0 0 
189 0 0 
193 0 0 
188 0 0 
190 0 0 
186 0 0 
195 0 0 
191 0 0 
190 0 0 
190 0 0 
189 0 0 
190 0 0 
194 0 0 
194 0 0 
188 0 0 
190 0 0 
195 0 0 
192 0 0 
190 0 0 
193 0 0 
197 0 0 
190 0 0 
191 0 0 
195 0 0 
192 0 0 
188 0 0 
195 0 0 
197 0 0 
192 0 0 
190 0 0 
188 0 0 
192 0 0 
190 0 0 
189 0 0 
190 0 0 
194 0 0 
195 0 0 
191 0 0 
190 0 0 
193 0 0 
194 0 0 
187 0 0 
189 0 0 
188 0 0 
189 0 0 
192 0 0 
191 0 0 
187 0 0 
196 0 0 
193 0 0 
189 0 0 
190 0 0 
197 0 0 
192 0 0 
192 0 0 
0 0 206 
0 0 186 
0 0 191 
0 0 203 
0 0 188 
0 0 211 
0 0 209 
0 0 206 
0 0 199 
0 0 193 
0 0 199 
0 0 196 
0 0 194 
0 0 214 
0 0 201 
0 0 226 
0 0 194 
0 0 198 
0 0 201 
0 0 199 
0 0 193 
0 0 206 
0 0 211 
0 0 207 
0 0 188 
0 0 196 
0 0 211 
0 0 199 
0 0 196 
0 0 199 
0 0 211 
0 0 188 
0 0 194 
0 0 196 
0 0 226 
0 0 207 
0 0 201 
0 0 182 
0 0 191 
0 0 199 
0 0 212 
0 0 189 
0 0 203 
0 0 206 
0 0 188 
0 0 206 
0 0 191 
0 0 204 
0 0 207 
0 0 211 
0 0 186 
0 0 191 
0 0 199 
0 0 193 
0 0 199 
0 0 194 
0 0 196 
0 0 189 
0 0 206 
0 0 193 
0 0 199 
0 0 198 
0 0 181 
0 0 204 
0 0 186 
0 0 194 
0 0 196 
0 0 218 
0 0 182 
0 0 191 
0 0 193 
0 0 196 
0 0 203 
0 0 186 
0 0 193 
0 0 188 
0 0 189 
0 0 194 
0 0 206 
0 0 194 
0 0 201 
0 0 198 
0 0 207 
0 0 184 
0 0 188 
0 0 207 
0 0 186 
0 0 198 
0 0 201 
0 0 194 
0 0 207 
0 0 201 
0 0 196 
0 0 204 
0 0 194 
0 0 204 
0 0 196 
0 0 198 
0 0 194 
0 0 201 
0 0 198 
0 0 198 
0 0 203 
0 0 196 
0 0 211 
0 0 193 
0 0 204 
0 0 206 
0 0 201 
0 0 198 
0 0 181 
0 0 182 
0 0 196 
0 0 196 
0 0 186 
0 0 189 
0 0 198 
0 0 207 
0 0 193 
0 0 198 
0 0 184 
0 0 203 
0 0 193 
0 0 196 
0 0 194 
0 0 209 
0 0 199 
0 0 188 
0 0 188 
0 0 206 
0 0 201 
0 0 194 
0 0 182 
0 0 199 
0 0 182 
0 0 204 
0 0 193 
0 0 194 
0 0 196 
0 0 173 
0 0 193 
0 0 191 
0 0 194 
0 0 201 
0 0 193 
0 0 194 
0 0 186 
0 0 165 
0 0 184 
0 0 193 
0 0 196 
0 0 184 
0 0 191 
0 0 191 
0 0 191 
0 0 186 
0 0 199 
0 0 194 
0 0 194 
0 0 189 
0 0 165 
0 0 178 
0 0 177 
0 0 184 
0 0 167 
0 0 182 
0 0 187 
0 0 196 
0 0 191 
0 0 184 
0 0 166 
0 0 188 
0 0 171 
0 0 193 
0 0 175 
0 0 186 
0 0 167 
0 0 176 
0 0 176 
0 0 174 
0 0 187 
0 0 172 
0 0 169 
0 0 175 
0 0 181 
0 0 178 
0 0 157 
0 0 158 
0 0 147 
43 67 148 
50 75 137 
53 82 149 
55 84 137 
54 84 133 
56 87 142 
53 81 132 
56 84 146 
57 87 148 
54 80 141 
56 84 143 
56 86 140 
57 87 147 
56 85 143 
58 84 133 
56 81 132 
57 83 136 
56 79 122 
56 82 142 
56 80 129 
54 78 130 
78 68 113 
131 0 0 
158 0 0 
146 0 0 
140 0 0 
145 0 0 
157 0 0 
149 0 0 
150 0 0 
151 0 0 
155 0 0 
160 0 0 
156 0 0 
157 0 0 
153 0 0 
162 0 0 
159 0 0 
157 0 0 
170 0 0 
168 0 0 
165 0 0 
169 0 0 
164 0 0 
173 0 0 
155 0 0 
165 0 0 
175 0 0 
172 0 0 
170 0 0 
172 0 0 
174 0 0 
174 0 0 
174 0 0 
166 0 0 
179 0 0 
179 0 0 
175 0 0 
171 0 0 
171 0 0 
183 0 0 
170 0 0 
179 0 0 
177 0 0 
179 0 0 
179 0 0 
178 0 0 
178 0 0 
183 0 0 
180 0 0 
179 0 0 
178 0 0 
181 0 0 
176 0 0 
177 0 0 
180 0 0 
180 0 0 
177 0 0 
184 0 0 
176 0 0 
183 0 0 
177 0 0 
176 0 0 
179 0 0 
184 0 0 
177 0 0 
180 0 0 
180 0 0 
187 0 0 
185 0 0 
185 0 0 
183 0 0 
188 0 0 
188 0 0 
185 0 0 
175 0 0 
186 0 0 
185 0 0 
186 0 0 
187 0 0 
185 0 0 
192 0 0 
182 0 0 
183 0 0 
188 0 0 
187 0 0 
178 0 0 
177 0 0 
192 0 0 
184 0 0 
185 0 0 
183 0 0 
192 0 0 
188 0 0 
184 0 0 
188 0 0 
183 0 0 
185 0 0 
187 0 0 
185 0 0 
190 0 0 
181 0 0 
191 0 0 
188 0 0 
192 0 0 
188 0 0 
187 0 0 
188 0 0 
185 0 0 
191 0 0 
190 0 0 
190 0 0 
191 0 0 
194 0 0 
186 0 0 
191 0 0 
192 0 0 
193 0 0 
187 0 0 
187 0 0 
189 0 0 
192 0 0 
194 0 0 
187 0 0 
189 0 0 
186 0 0 
188 0 0 
191 0 0 
192 0 0 
190 0 0 
190 0 0 
189 0 0 
192 0 0 
187 0 0 
195 0 0 
190 0 0 
187 0 0 
191 0 0 
192 0 0 
187 0 0 
191 0 0 
189 0 0 
191 0 0 
189 0 0 
193 0 0 
194 0 0 
194 0 0 
192 0 0 
188 0 0 
193 0 0 
191 0 0 
192 0 0 
194 0 0 
194 0 0 
191 0 0 
193 0 0 
190 0 0 
195 0 0 
192 0 0 
193 0 0 
196 0 0 
195 0 0 
189 0 0 
193 0 0 
193 0 0 
191 0 0 
195 0 0 
189 0 0 
195 0 0 
189 0 0 
192 0 0 
190 0 0 
192 0 0 
187 0 0 
193 0 0 
190 0 0 
189 0 0 
193 0 0 
190 0 0 
193 0 0 
192 0 0 
197 0 0 
192 0 0 
188 0 0 
189 0 0 
195 0 0 
191 0 0 
195 0 0 
192 0 0 
195 0 0 
189 0 0 
0 0 181 
0 0 201 
0 0 207 
0 0 204 
0 0 199 
0 0 207 
0 0 198 
0 0 191 
0 0 193 
0 0 196 
0 0 191 
0 0 196 
0 0 194 
0 0 186 
0 0 196 
0 0 193 
0 0 206 
0 0 198 
0 0 214 
0 0 203 
0 0 181 
0 0 198 
0 0 199 
0 0 201 
0 0 193 
0 0 206 
0 0 207 
0 0 191 
0 0 188 
0 0 207 
0 0 201 
0 0 199 
0 0 201 
0 0 204 
0 0 193 
0 0 209 
0 0 204 
0 0 198 
0 0 206 
0 0 207 
0 0 196 
0 0 209 
0 0 201 
0 0 189 
0 0 196 
0 0 203 
0 0 203 
0 0 199 
0 0 199 
0 0 182 
0 0 212 
0 0 207 
0 0 206 
0 0 191 
0 0 199 
0 0 204 
0 0 203 
0 0 201 
0 0 198 
0 0 191 
0 0 191 
0 0 186 
0 0 203 
0 0 196 
0 0 207 
0 0 194 
0 0 203 
0 0 201 
0 0 209 
0 0 196 
0 0 188 
0 0 201 
0 0 182 
0 0 189 
0 0 189 
0 0 194 
0 0 193 
0 0 189 
0 0 193 
0 0 194 
0 0 203 
0 0 206 
0 0 181 
0 0 189 
0 0 209 
0 0 186 
0 0 201 
0 0 211 
0 0 196 
0 0 207 
0 0 191 
0 0 207 
0 0 193 
0 0 196 
0 0 193 
0 0 194 
0 0 196 
0 0 204 
0 0 181 
0 0 203 
0 0 194 
0 0 198 
0 0 198 
0 0 188 
0 0 186 
0 0 189 
0 0 184 
0 0 204 
0 0 198 
0 0 173 
0 0 182 
0 0 186 
0 0 184 
0 0 203 
0 0 189 
0 0 199 
0 0 203 
0 0 184 
0 0 193 
0 0 179 
0 0 191 
0 0 199 
0 0 186 
0 0 193 
0 0 193 
0 0 181 
0 0 177 
0 0 181 
0 0 206 
0 0 198 
0 0 177 
0 0 188 
0 0 204 
0 0 186 
0 0 198 
0 0 204 
0 0 179 
0 0 193 
0 0 194 
0 0 193 
0 0 182 
0 0 181 
0 0 186 
0 0 179 
0 0 184 
0 0 188 
0 0 191 
0 0 194 
0 0 179 
0 0 201 
0 0 189 
0 0 199 
0 0 179 
0 0 184 
0 0 199 
0 0 203 
0 0 193 
0 0 186 
0 0 181 
0 0 181 
0 0 191 
0 0 175 
0 0 179 
0 0 186 
0 0 195 
0 0 193 
0 0 188 
0 0 205 
0 0 188 
0 0 177 
0 0 185 
0 0 189 
0 0 185 
0 0 187 
0 0 155 
0 0 179 
0 0 163 
0 0 172 
0 0 178 
0 0 189 
0 0 173 
0 0 179 
0 0 161 
0 0 157 
0 0 160 
0 0 159 
0 0 163 
0 0 173 
0 0 161 
45 66 138 
53 82 140 
52 80 134 
55 85 147 
54 83 139 
54 83 140 
54 82 131 
53 79 130 
53 83 139 
57 86 146 
55 83 141 
58 86 145 
56 84 137 
56 86 141 
58 87 144 
57 85 142 
58 88 141 
57 80 129 
54 79 124 
57 81 136 
55 79 125 
88 64 103 
145 0 0 
141 0 0 
144 0 0 
148 0 0 
148 0 0 
146 0 0 
151 0 0 
148 0 0 
145 0 0 
157 0 0 
160 0 0 
147 0 0 
170 0 0 
161 0 0 
155 0 0 
160 0 0 
154 0 0 
166 0 0 
162 0 0 
172 0 0 
166 0 0 
161 0 0 
172 0 0 
166 0 0 
166 0 0 
161 0 0 
177 0 0 
175 0 0 
173 0 0 
176 0 0 
175 0 0 
167 0 0 
173 0 0 
180 0 0 
177 0 0 
180 0 0 
170 0 0 
183 0 0 
177 0 0 
178 0 0 
177 0 0 
174 0 0 
174 0 0 
172 0 0 
176 0 0 
183 0 0 
183 0 0 
180 0 0 
187 0 0 
180 0 0 
180 0 0 
177 0 0 
182 0 0 
175 0 0 
189 0 0 
187 0 0 
182 0 0 
175 0 0 
181 0 0 
183 0 0 
183 0 0 
178 0 0 
183 0 0 
183 0 0 
180 0 0 
184 0 0 
187 0 0 
183 0 0 
190 0 0 
183 0 0 
185 0 0 
176 0 0 
190 0 0 
189 0 0 
187 0 0 
183 0 0 
185 0 0 
190 0 0 
180 0 0 
180 0 0 
190 0 0 
183 0 0 
180 0 0 
187 0 0 
187 0 0 
184 0 0 
185 0 0 
187 0 0 
183 0 0 
180 0 0 
187 0 0 
189 0 0 
193 0 0 
185 0 0 
188 0 0 
188 0 0 
193 0 0 
189 0 0 
184 0 0 
187 0 0 
185 0 0 
186 0 0 
180 0 0 
183 0 0 
192 0 0 
189 0 0 
189 0 0 
190 0 0 
188 0 0 
186 0 0 
188 0 0 
186 0 0 
194 0 0 
191 0 0 
186 0 0 
187 0 0 
185 0 0 
193 0 0 
190 0 0 
190 0 0 
182 0 0 
192 0 0 
190 0 0 
189 0 0 
194 0 0 
190 0 0 
188 0 0 
188 0 0 
193 0 0 
181 0 0 
186 0 0 
187 0 0 
192 0 0 
190 0 0 
192 0 0 
187 0 0 
193 0 0 
191 0 0 
193 0 0 
193 0 0 
191 0 0 
190 0 0 
193 0 0 
190 0 0 
186 0 0 
188 0 0 
189 0 0 
189 0 0 
191 0 0 
186 0 0 
193 0 0 
188 0 0 
188 0 0 
191 0 0 
193 0 0 
192 0 0 
193 0 0 
191 0 0 
190 0 0 
191 0 0 
192 0 0 
188 0 0 
189 0 0 
195 0 0 
197 0 0 
190 0 0 
189 0 0 
194 0 0 
191 0 0 
192 0 0 
192 0 0 
190 0 0 
196 0 0 
187 0 0 
187 0 0 
189 0 0 
193 0 0 
187 0 0 
193 0 0 
192 0 0 
191 0 0 
192 0 0 
190 0 0 
194 0 0 
195 0 0 
189 0 0 
193 0 0 
196 0 0 
195 0 0 
0 0 194 
0 0 212 
0 0 198 
0 0 215 
0 0 196 
0 0 196 
0 0 182 
0 0 193 
0 0 201 
0 0 191 
0 0 199 
0 0 186 
0 0 196 
0 0 199 
0 0 198 
0 0 198 
0 0 191 
0 0 201 
0 0 214 
0 0 191 
0 0 209 
0 0 194 
0 0 194 
0 0 199 
0 0 203 
0 0 191 
0 0 198 
0 0 198 
0 0 194 
0 0 198 
0 0 191 
0 0 198 
0 0 184 
0 0 184 
0 0 198 
0 0 207 
0 0 199 
0 0 198 
0 0 188 
0 0 189 
0 0 188 
0 0 199 
0 0 186 
0 0 199 
0 0 189 
0 0 217 
0 0 179 
0 0 193 
0 0 198 
0 0 184 
0 0 196 
0 0 196 
0 0 207 
0 0 201 
0 0 203 
0 0 194 
0 0 186 
0 0 215 
0 0 206 
0 0 182 
0 0 199 
0 0 191 
0 0 186 
0 0 201 
0 0 194 
0 0 199 
0 0 194 
0 0 184 
0 0 212 
0 0 188 
0 0 204 
0 0 201 
0 0 198 
0 0 188 
0 0 188 
0 0 203 
0 0 199 
0 0 184 
0 0 189 
0 0 189 
0 0 211 
0 0 199 
0 0 204 
0 0 198 
0 0 189 
0 0 201 
0 0 184 
0 0 184 
0 0 199 
0 0 207 
0 0 199 
0 0 203 
0 0 193 
0 0 184 
0 0 204 
0 0 198 
0 0 199 
0 0 201 
0 0 186 
0 0 186 
0 0 191 
0 0 196 
0 0 194 
0 0 193 
0 0 193 
0 0 189 
0 0 193 
0 0 188 
0 0 198 
0 0 193 
0 0 203 
0 0 204 
0 0 194 
0 0 184 
0 0 186 
0 0 193 
0 0 186 
0 0 188 
0 0 191 
0 0 198 
0 0 194 
0 0 191 
0 0 199 
0 0 189 
0 0 186 
0 0 191 
0 0 199 
0 0 193 
0 0 201 
0 0 191 
0 0 186 
0 0 204 
0 0 189 
0 0 177 
0 0 186 
0 0 184 
0 0 175 
0 0 194 
0 0 193 
0 0 206 
0 0 193 
0 0 191 
0 0 186 
0 0 199 
0 0 194 
0 0 198 
0 0 189 
0 0 188 
0 0 179 
0 0 171 
0 0 181 
0 0 198 
0 0 188 
0 0 199 
0 0 184 
0 0 194 
0 0 194 
0 0 199 
0 0 165 
0 0 167 
0 0 181 
0 0 171 
0 0 170 
0 0 168 
0 0 181 
0 0 177 
0 0 177 
0 0 185 
0 0 179 
0 0 187 
0 0 198 
0 0 172 
0 0 172 
0 0 177 
0 0 160 
0 0 175 
0 0 181 
0 0 190 
0 0 171 
0 0 168 
0 0 162 
0 0 167 
0 0 183 
0 0 181 
0 0 166 
0 0 179 
0 0 160 
0 0 160 
0 0 167 
47 73 153 
53 82 144 
53 81 134 
54 81 136 
56 86 152 
54 82 139 
54 84 143 
56 85 145 
54 82 138 
55 85 144 
55 86 145 
55 82 134 
57 85 137 
55 82 124 
55 81 124 
56 83 129 
55 82 129 
58 83 126 
57 81 135 
55 80 139 
55 78 118 
72 65 107 
139 0 0 
137 0 0 
150 0 0 
136 0 0 
147 0 0 
147 0 0 
154 0 0 
153 0 0 
146 0 0 
149 0 0 
153 0 0 
171 0 0 
157 0 0 
161 0 0 
156 0 0 
159 0 0 
164 0 0 
148 0 0 
162 0 0 
161 0 0 
169 0 0 
167 0 0 
164 0 0 
168 0 0 
164 0 0 
164 0 0 
176 0 0 
171 0 0 
179 0 0 
179 0 0 
171 0 0 
181 0 0 
176 0 0 
176 0 0 
174 0 0 
178 0 0 
172 0 0 
178 0 0 
180 0 0 
172 0 0 
171 0 0 
185 0 0 
184 0 0 
176 0 0 
182 0 0 
179 0 0 
176 0 0 
179 0 0 
180 0 0 
187 0 0 
179 0 0 
178 0 0 
178 0 0 
179 0 0 
188 0 0 
184 0 0 
179 0 0 
180 0 0 
186 0 0 
175 0 0 
181 0 0 
183 0 0 
178 0 0 
178 0 0 
189 0 0 
186 0 0 
177 0 0 
186 0 0 
181 0 0 
187 0 0 
182 0 0 
179 0 0 
184 0 0 
183 0 0 
188 0 0 
190 0 0 
191 0 0 
189 0 0 
189 0 0 
187 0 0 
186 0 0 
182 0 0 
189 0 0 
179 0 0 
186 0 0 
183 0 0 
184 0 0 
188 0 0 
183 0 0 
184 0 0 
185 0 0 
184 0 0 
187 0 0 
192 0 0 
189 0 0 
185 0 0 
193 0 0 
189 0 0 
184 0 0 
184 0 0 
190 0 0 
189 0 0 
186 0 0 
184 0 0 
190 0 0 
185 0 0 
186 0 0 
191 0 0 
194 0 0 
184 0 0 
190 0 0 
188 0 0 
188 0 0 
191 0 0 
191 0 0 
195 0 0 
186 0 0 
190 0 0 
191 0 0 
195 0 0 
187 0 0 
190 0 0 
186 0 0 
190 0 0 
191 0 0 
188 0 0 
192 0 0 
192 0 0 
189 0 0 
185 0 0 
193 0 0 
191 0 0 
191 0 0 
188 0 0 
193 0 0 
193 0 0 
194 0 0 
192 0 0 
193 0 0 
189 0 0 
192 0 0 
192 0 0 
192 0 0 
192 0 0 
194 0 0 
190 0 0 
190 0 0 
190 0 0 
190 0 0 
188 0 0 
191 0 0 
192 0 0 
193 0 0 
189 0 0 
193 0 0 
190 0 0 
193 0 0 
193 0 0 
191 0 0 
191 0 0 
194 0 0 
191 0 0 
195 0 0 
193 0 0 
193 0 0 
192 0 0 
193 0 0 
190 0 0 
191 0 0 
189 0 0 
195 0 0 
194 0 0 
191 0 0 
190 0 0 
189 0 0 
197 0 0 
192 0 0 
194 0 0 
191 0 0 
194 0 0 
190 0 0 
190 0 0 
191 0 0 
195 0 0 
190 0 0 
190 0 0 
194 0 0 
188 0 0 
191 0 0 
0 0 201 
0 0 198 
0 0 196 
0 0 198 
0 0 194 
0 0 198 
0 0 189 
0 0 193 
0 0 189 
0 0 206 
0 0 194 
0 0 207 
0 0 201 
0 0 212 
0 0 196 
0 0 196 
0 0 184 
0 0 207 
0 0 189 
0 0 209 
0 0 191 
0 0 191 
0 0 215 
0 0 206 
0 0 193 
0 0 198 
0 0 193 
0 0 199 
0 0 198 
0 0 193 
0 0 204 
0 0 191 
0 0 201 
0 0 196 
0 0 186 
0 0 188 
0 0 189 
0 0 196 
0 0 206 
0 0 194 
0 0 186 
0 0 193 
0 0 199 
0 0 193 
0 0 189 
0 0 188 
0 0 196 
0 0 199 
0 0 193 
0 0 196 
0 0 201 
0 0 188 
0 0 201 
0 0 189 
0 0 203 
0 0 206 
0 0 203 
0 0 186 
0 0 188 
0 0 188 
0 0 211 
0 0 186 
0 0 191 
0 0 179 
0 0 212 
0 0 199 
0 0 204 
0 0 191 
0 0 182 
0 0 201 
0 0 189 
0 0 201 
0 0 199 
0 0 188 
0 0 201 
0 0 193 
0 0 201 
0 0 196 
0 0 198 
0 0 204 
0 0 204 
0 0 194 
0 0 194 
0 0 203 
0 0 196 
0 0 201 
0 0 194 
0 0 198 
0 0 177 
0 0 198 
0 0 191 
0 0 193 
0 0 206 
0 0 189 
0 0 198 
0 0 199 
0 0 198 
0 0 188 
0 0 212 
0 0 204 
0 0 184 
0 0 201 
0 0 188 
0 0 204 
0 0 198 
0 0 188 
0 0 184 
0 0 203 
0 0 193 
0 0 188 
0 0 198 
0 0 196 
0 0 193 
0 0 188 
0 0 199 
0 0 199 
0 0 191 
0 0 194 
0 0 189 
0 0 198 
0 0 191 
0 0 167 
0 0 186 
0 0 191 
0 0 179 
0 0 198 
0 0 188 
0 0 201 
0 0 196 
0 0 212 
0 0 201 
0 0 186 
0 0 182 
0 0 181 
0 0 194 
0 0 191 
0 0 184 
0 0 198 
0 0 191 
0 0 193 
0 0 194 
0 0 186 
0 0 194 
0 0 184 
0 0 182 
0 0 181 
0 0 199 
0 0 182 
0 0 206 
0 0 188 
0 0 174 
0 0 184 
0 0 179 
0 0 184 
0 0 175 
0 0 184 
0 0 188 
0 0 189 
0 0 171 
0 0 184 
0 0 179 
0 0 183 
0 0 176 
0 0 171 
0 0 176 
0 0 186 
0 0 173 
0 0 181 
0 0 182 
0 0 171 
0 0 172 
0 0 175 
0 0 175 
0 0 154 
0 0 173 
0 0 185 
0 0 162 
0 0 170 
0 0 174 
0 0 168 
0 0 169 
0 0 176 
0 0 171 
0 0 164 
0 0 176 
0 0 142 
0 0 164 
0 0 177 
0 0 172 
39 58 144 
53 83 140 
54 81 143 
52 80 131 
53 77 135 
54 83 143 
57 88 149 
57 86 137 
57 86 128 
58 85 144 
56 85 133 
54 80 128 
57 85 144 
54 80 141 
56 85 136 
56 85 144 
56 83 140 
57 85 140 
56 83 135 
55 81 130 
54 77 125 
96 62 100 
135 0 0 
132 0 0 
138 0 0 
146 0 0 
147 0 0 
142 0 0 
137 0 0 
151 0 0 
155 0 0 
149 0 0 
165 0 0 
154 0 0 
171 0 0 
154 0 0 
155 0 0 
161 0 0 
154 0 0 
176 0 0 
160 0 0 
161 0 0 
166 0 0 
164 0 0 
183 0 0 
165 0 0 
176 0 0 
171 0 0 
162 0 0 
170 0 0 
168 0 0 
174 0 0 
178 0 0 
175 0 0 
176 0 0 
177 0 0 
174 0 0 
174 0 0 
169 0 0 
183 0 0 
175 0 0 
179 0 0 
180 0 0 
178 0 0 
172 0 0 
175 0 0 
172 0 0 
178 0 0 
175 0 0 
179 0 0 
180 0 0 
180 0 0 
176 0 0 
177 0 0 
177 0 0 
175 0 0 
179 0 0 
179 0 0 
173 0 0 
176 0 0 
182 0 0 
186 0 0 
182 0 0 
181 0 0 
173 0 0 
182 0 0 
183 0 0 
184 0 0 
178 0 0 
189 0 0 
182 0 0 
180 0 0 
185 0 0 
188 0 0 
187 0 0 
186 0 0 
187 0 0 
178 0 0 
190 0 0 
184 0 0 
183 0 0 
182 0 0 
189 0 0 
186 0 0 
192 0 0 
182 0 0 
194 0 0 
186 0 0 
187 0 0 
188 0 0 
188 0 0 
188 0 0 
190 0 0 
194 0 0 
187 0 0 
189 0 0 
187 0 0 
187 0 0 
184 0 0 
186 0 0 
185 0 0 
189 0 0 
187 0 0 
187 0 0 
185 0 0 
194 0 0 
184 0 0 
186 0 0 
187 0 0 
190 0 0 
193 0 0 
192 0 0 
192 0 0 
190 0 0 
190 0 0 
188 0 0 
191 0 0 
190 0 0 
193 0 0 
191 0 0 
191 0 0 
189 0 0 
194 0 0 
193 0 0 
190 0 0 
190 0 0 
189 0 0 
193 0 0 
191 0 0 
190 0 0 
187 0 0 
190 0 0 
189 0 0 
188 0 0 
187 0 0 
192 0 0 
190 0 0 
189 0 0 
190 0 0 
193 0 0 
189 0 0 
189 0 0 
194 0 0 
188 0 0 
189 0 0 
193 0 0 
194 0 0 
191 0 0 
191 0 0 
190 0 0 
193 0 0 
186 0 0 
192 0 0 
191 0 0 
198 0 0 
190 0 0 
192 0 0 
190 0 0 
192 0 0 
189 0 0 
192 0 0 
190 0 0 
194 0 0 
190 0 0 
188 0 0 
189 0 0 
192 0 0 
191 0 0 
190 0 0 
190 0 0 
188 0 0 
195 0 0 
190 0 0 
194 0 0 
195 0 0 
190 0 0 
186 0 0 
191 0 0 
191 0 0 
192 0 0 
193 0 0 
191 0 0 
193 0 0 
189 0 0 
195 0 0 
191 0 0 
188 0 0 
192 0 0 
194 0 0 
191 0 0 
194 0 0 
0 0 201 
0 0 198 
0 0 188 
0 0 201 
0 0 198 
0 0 204 
0 0 194 
0 0 194 
0 0 193 
0 0 207 
0 0 188 
0 0 196 
0 0 207 
0 0 193 
0 0 198 
0 0 193 
0 0 189 
0 0 201 
0 0 196 
0 0 203 
0 0 206 
0 0 209 
0 0 199 
0 0 203 
0 0 198 
0 0 173 
0 0 201 
0 0 193 
0 0 206 
0 0 198 
0 0 194 
0 0 189 
0 0 194 
0 0 194 
0 0 186 
0 0 191 
0 0 177 
0 0 211 
0 0 199 
0 0 201 
0 0 204 
0 0 194 
0 0 196 
0 0 207 
0 0 198 
0 0 199 
0 0 189 
0 0 194 
0 0 177 
0 0 194 
0 0 194 
0 0 179 
0 0 188 
0 0 198 
0 0 198 
0 0 204 
0 0 182 
0 0 194 
0 0 204 
0 0 194 
0 0 196 
0 0 193 
0 0 199 
0 0 196 
0 0 184 
0 0 191 
0 0 206 
0 0 184 
0 0 201 
0 0 188 
0 0 182 
0 0 196 
0 0 184 
0 0 203 
0 0 186 
0 0 194 
0 0 188 
0 0 189 
0 0 184 
0 0 186 
0 0 193 
0 0 199 
0 0 193 
0 0 189 
0 0 196 
0 0 201 
0 0 184 
0 0 201 
0 0 206 
0 0 196 
0 0 206 
0 0 204 
0 0 193 
0 0 203 
0 0 191 
0 0 206 
0 0 207 
0 0 184 
0 0 193 
0 0 193 
0 0 209 
0 0 199 
0 0 194 
0 0 201 
0 0 189 
0 0 196 
0 0 207 
0 0 184 
0 0 203 
0 0 193 
0 0 182 
0 0 184 
0 0 193 
0 0 196 
0 0 193 
0 0 188 
0 0 189 
0 0 211 
0 0 184 
0 0 186 
0 0 194 
0 0 201 
0 0 193 
0 0 196 
0 0 199 
0 0 196 
0 0 189 
0 0 199 
0 0 182 
0 0 181 
0 0 198 
0 0 204 
0 0 184 
0 0 184 
0 0 182 
0 0 186 
0 0 177 
0 0 198 
0 0 182 
0 0 189 
0 0 204 
0 0 185 
0 0 182 
0 0 199 
0 0 165 
0 0 184 
0 0 194 
0 0 181 
0 0 182 
0 0 182 
0 0 191 
0 0 191 
0 0 188 
0 0 194 
0 0 181 
0 0 194 
0 0 182 
0 0 182 
0 0 177 
0 0 180 
0 0 189 
0 0 183 
0 0 184 
0 0 193 
0 0 181 
0 0 194 
0 0 155 
0 0 194 
0 0 172 
0 0 184 
0 0 184 
0 0 188 
0 0 181 
0 0 176 
0 0 163 
0 0 177 
0 0 162 
0 0 155 
0 0 180 
0 0 167 
0 0 173 
0 0 168 
0 0 176 
0 0 171 
0 0 168 
0 0 169 
0 0 142 
0 0 171 
0 0 164 
39 61 143 
47 72 126 
53 83 144 
52 79 140 
52 81 146 
52 82 133 
55 86 136 
54 81 139 
54 82 143 
55 81 136 
57 85 140 
55 78 131 
56 86 144 
56 85 139 
57 86 134 
56 84 140 
54 80 129 
55 80 122 
56 79 124 
54 80 125 
53 78 124 
87 64 103 
136 0 0 
138 0 0 
129 0 0 
150 0 0 
147 0 0 
146 0 0 
150 0 0 
160 0 0 
148 0 0 
163 0 0 
160 0 0 
149 0 0 
154 0 0 
172 0 0 
163 0 0 
160 0 0 
161 0 0 
169 0 0 
171 0 0 
163 0 0 
156 0 0 
166 0 0 
164 0 0 
166 0 0 
167 0 0 
165 0 0 
170 0 0 
170 0 0 
169 0 0 
174 0 0 
176 0 0 
173 0 0 
176 0 0 
174 0 0 
174 0 0 
175 0 0 
172 0 0 
165 0 0 
183 0 0 
175 0 0 
170 0 0 
183 0 0 
178 0 0 
175 0 0 
177 0 0 
174 0 0 
184 0 0 
175 0 0 
180 0 0 
177 0 0 
187 0 0 
180 0 0 
183 0 0 
177 0 0 
180 0 0 
182 0 0 
184 0 0 
184 0 0 
183 0 0 
181 0 0 
181 0 0 
185 0 0 
187 0 0 
186 0 0 
189 0 0 
173 0 0 
180 0 0 
180 0 0 
181 0 0 
189 0 0 
188 0 0 
186 0 0 
183 0 0 
182 0 0 
184 0 0 
183 0 0 
181 0 0 
187 0 0 
185 0 0 
187 0 0 
190 0 0 
181 0 0 
182 0 0 
185 0 0 
186 0 0 
186 0 0 
184 0 0 
188 0 0 
187 0 0 
188 0 0 
189 0 0 
182 0 0 
183 0 0 
189 0 0 
186 0 0 
190 0 0 
191 0 0 
190 0 0 
185 0 0 
186 0 0 
184 0 0 
191 0 0 
189 0 0 
185 0 0 
189 0 0 
190 0 0 
181 0 0 
187 0 0 
185 0 0 
188 0 0 
188 0 0 
192 0 0 
189 0 0 
194 0 0 
186 0 0 
192 0 0 
195 0 0 
193 0 0 
182 0 0 
186 0 0 
189 0 0 
192 0 0 
188 0 0 
182 0 0 
192 0 0 
192 0 0 
191 0 0 
186 0 0 
189 0 0 
192 0 0 
194 0 0 
192 0 0 
190 0 0 
191 0 0 
196 0 0 
187 0 0 
188 0 0 
190 0 0 
187 0 0 
191 0 0 
191 0 0 
189 0 0 
190 0 0 
189 0 0 
185 0 0 
191 0 0 
193 0 0 
191 0 0 
194 0 0 
188 0 0 
192 0 0 
196 0 0 
191 0 0 
190 0 0 
191 0 0 
189 0 0 
193 0 0 
196 0 0 
195 0 0 
193 0 0 
191 0 0 
191 0 0 
191 0 0 
191 0 0 
187 0 0 
187 0 0 
186 0 0 
190 0 0 
190 0 0 
187 0 0 
194 0 0 
191 0 0 
191 0 0 
194 0 0 
193 0 0 
192 0 0 
192 0 0 
191 0 0 
193 0 0 
187 0 0 
189 0 0 
192 0 0 
189 0 0 
193 0 0 
193 0 0 
187 0 0 
185 0 0 
191 0 0 
187 0 0 
0 0 193 
0 0 196 
0 0 198 
0 0 188 
0 0 194 
0 0 181 
0 0 196 
0 0 181 
0 0 199 
0 0 191 
0 0 209 
0 0 203 
0 0 182 
0 0 188 
0 0 196 
0 0 207 
0 0 179 
0 0 188 
0 0 196 
0 0 199 
0 0 201 
0 0 198 
0 0 191 
0 0 206 
0 0 201 
0 0 182 
0 0 212 
0 0 193 
0 0 199 
0 0 207 
0 0 184 
0 0 199 
0 0 181 
0 0 182 
0 0 181 
0 0 186 
0 0 203 
0 0 188 
0 0 207 
0 0 206 
0 0 189 
0 0 204 
0 0 191 
0 0 199 
0 0 207 
0 0 199 
0 0 206 
0 0 191 
0 0 203 
0 0 198 
0 0 203 
0 0 191 
0 0 199 
0 0 191 
0 0 198 
0 0 198 
0 0 212 
0 0 177 
0 0 204 
0 0 201 
0 0 199 
0 0 191 
0 0 188 
0 0 204 
0 0 191 
0 0 194 
0 0 203 
0 0 201 
0 0 203 
0 0 198 
0 0 206 
0 0 189 
0 0 198 
0 0 196 
0 0 191 
0 0 199 
0 0 201 
0 0 189 
0 0 188 
0 0 220 
0 0 196 
0 0 196 
0 0 193 
0 0 191 
0 0 188 
0 0 179 
0 0 191 
0 0 196 
0 0 194 
0 0 198 
0 0 173 
0 0 189 
0 0 173 
0 0 196 
0 0 179 
0 0 196 
0 0 188 
0 0 191 
0 0 184 
0 0 201 
0 0 199 
0 0 201 
0 0 207 
0 0 191 
0 0 193 
0 0 189 
0 0 189 
0 0 189 
0 0 189 
0 0 198 
0 0 196 
0 0 196 
0 0 184 
0 0 188 
0 0 182 
0 0 182 
0 0 181 
0 0 194 
0 0 194 
0 0 196 
0 0 188 
0 0 177 
0 0 182 
0 0 193 
0 0 184 
0 0 196 
0 0 193 
0 0 193 
0 0 196 
0 0 191 
0 0 193 
0 0 175 
0 0 179 
0 0 188 
0 0 179 
0 0 186 
0 0 203 
0 0 203 
0 0 194 
0 0 203 
0 0 204 
0 0 184 
0 0 206 
0 0 188 
0 0 199 
0 0 197 
0 0 191 
0 0 188 
0 0 179 
0 0 181 
0 0 182 
0 0 191 
0 0 182 
0 0 189 
0 0 173 
0 0 188 
0 0 182 
0 0 182 
0 0 175 
0 0 180 
0 0 178 
0 0 182 
0 0 182 
0 0 161 
0 0 188 
0 0 175 
0 0 179 
0 0 191 
0 0 169 
0 0 169 
0 0 178 
0 0 176 
0 0 185 
0 0 181 
0 0 175 
0 0 170 
0 0 180 
0 0 172 
0 0 181 
0 0 173 
0 0 168 
0 0 159 
0 0 184 
0 0 149 
0 0 155 
0 0 175 
0 0 166 
0 0 162 
0 0 171 
40 59 137 
50 77 133 
49 75 131 
55 84 146 
55 86 146 
54 84 131 
56 87 140 
56 83 126 
54 83 141 
53 79 126 
52 78 128 
56 82 135 
57 84 130 
54 81 123 
57 86 139 
55 77 110 
57 80 125 
56 78 128 
52 75 120 
55 76 122 
53 73 114 
106 59 95 
146 0 0 
136 0 0 
140 0 0 
151 0 0 
148 0 0 
154 0 0 
148 0 0 
139 0 0 
148 0 0 
160 0 0 
151 0 0 
168 0 0 
147 0 0 
161 0 0 
158 0 0 
167 0 0 
172 0 0 
160 0 0 
172 0 0 
163 0 0 
154 0 0 
169 0 0 
172 0 0 
164 0 0 
167 0 0 
164 0 0 
174 0 0 
177 0 0 
164 0 0 
184 0 0 
166 0 0 
182 0 0 
177 0 0 
177 0 0 
170 0 0 
173 0 0 
176 0 0 
181 0 0 
180 0 0 
177 0 0 
178 0 0 
179 0 0 
178 0 0 
172 0 0 
181 0 0 
180 0 0 
186 0 0 
175 0 0 
179 0 0 
178 0 0 
182 0 0 
174 0 0 
175 0 0 
181 0 0 
173 0 0 
179 0 0 
178 0 0 
179 0 0 
178 0 0 
181 0 0 
180 0 0 
178 0 0 
182 0 0 
175 0 0 
188 0 0 
181 0 0 
182 0 0 
182 0 0 
184 0 0 
185 0 0 
181 0 0 
186 0 0 
189 0 0 
181 0 0 
191 0 0 
184 0 0 
188 0 0 
185 0 0 
180 0 0 
185 0 0 
187 0 0 
188 0 0 
188 0 0 
187 0 0 
188 0 0 
178 0 0 
191 0 0 
182 0 0 
182 0 0 
183 0 0 
182 0 0 
189 0 0 
185 0 0 
188 0 0 
187 0 0 
185 0 0 
189 0 0 
185 0 0 
189 0 0 
189 0 0 
188 0 0 
186 0 0 
187 0 0 
186 0 0 
190 0 0 
186 0 0 
188 0 0 
188 0 0 
189 0 0 
182 0 0 
191 0 0 
186 0 0 
188 0 0 
187 0 0 
187 0 0 
188 0 0 
191 0 0 
192 0 0 
190 0 0 
188 0 0 
189 0 0 
189 0 0 
189 0 0 
194 0 0 
190 0 0 
191 0 0 
189 0 0 
189 0 0 
185 0 0 
188 0 0 
182 0 0 
193 0 0 
190 0 0 
189 0 0 
192 0 0 
187 0 0 
187 0 0 
187 0 0 
193 0 0 
194 0 0 
185 0 0 
196 0 0 
193 0 0 
188 0 0 
192 0 0 
192 0 0 
197 0 0 
193 0 0 
189 0 0 
194 0 0 
187 0 0 
194 0 0 
190 0 0 
191 0 0 
193 0 0 
193 0 0 
196 0 0 
186 0 0 
191 0 0 
191 0 0 
192 0 0 
190 0 0 
189 0 0 
192 0 0 
188 0 0 
195 0 0 
188 0 0 
191 0 0 
193 0 0 
190 0 0 
193 0 0 
193 0 0 
195 0 0 
190 0 0 
194 0 0 
190 0 0 
189 0 0 
191 0 0 
190 0 0 
192 0 0 
192 0 0 
193 0 0 
189 0 0 
193 0 0 
194 0 0 
190 0 0 
190 0 0 
196 0 0 
185 0 0 
0 0 194 
0 0 203 
0 0 206 
0 0 191 
0 0 196 
0 0 204 
0 0 198 
0 0 194 
0 0 182 
0 0 193 
0 0 191 
0 0 204 
0 0 194 
0 0 199 
0 0 198 
0 0 194 
0 0 189 
0 0 212 
0 0 201 
0 0 201 
0 0 203 
0 0 175 
0 0 196 
0 0 201 
0 0 182 
0 0 191 
0 0 199 
0 0 186 
0 0 207 
0 0 193 
0 0 203 
0 0 191 
0 0 209 
0 0 206 
0 0 199 
0 0 207 
0 0 204 
0 0 198 
0 0 188 
0 0 194 
0 0 193 
0 0 181 
0 0 191 
0 0 206 
0 0 199 
0 0 206 
0 0 196 
0 0 193 
0 0 189 
0 0 186 
0 0 193 
0 0 188 
0 0 181 
0 0 184 
0 0 199 
0 0 199 
0 0 193 
0 0 189 
0 0 177 
0 0 211 
0 0 186 
0 0 201 
0 0 201 
0 0 186 
0 0 194 
0 0 189 
0 0 211 
0 0 204 
0 0 191 
0 0 201 
0 0 184 
0 0 193 
0 0 188 
0 0 189 
0 0 193 
0 0 171 
0 0 201 
0 0 191 
0 0 191 
0 0 191 
0 0 199 
0 0 189 
0 0 199 
0 0 193 
0 0 184 
0 0 181 
0 0 206 
0 0 184 
0 0 184 
0 0 196 
0 0 175 
0 0 194 
0 0 186 
0 0 177 
0 0 191 
0 0 179 
0 0 186 
0 0 186 
0 0 191 
0 0 189 
0 0 189 
0 0 204 
0 0 193 
0 0 175 
0 0 188 
0 0 204 
0 0 193 
0 0 179 
0 0 165 
0 0 201 
0 0 181 
0 0 194 
0 0 186 
0 0 191 
0 0 199 
0 0 191 
0 0 188 
0 0 184 
0 0 188 
0 0 179 
0 0 188 
0 0 206 
0 0 201 
0 0 193 
0 0 182 
0 0 193 
0 0 181 
0 0 175 
0 0 201 
0 0 186 
0 0 201 
0 0 184 
0 0 189 
0 0 191 
0 0 184 
0 0 186 
0 0 188 
0 0 198 
0 0 186 
0 0 188 
0 0 191 
0 0 189 
0 0 204 
0 0 163 
0 0 188 
0 0 188 
0 0 189 
0 0 193 
0 0 198 
0 0 193 
0 0 179 
0 0 177 
0 0 188 
0 0 175 
0 0 186 
0 0 180 
0 0 186 
0 0 181 
0 0 168 
0 0 185 
0 0 181 
0 0 175 
0 0 193 
0 0 179 
0 0 167 
0 0 186 
0 0 169 
0 0 189 
0 0 168 
0 0 196 
0 0 179 
0 0 188 
0 0 167 
0 0 165 
0 0 181 
0 0 161 
0 0 176 
0 0 177 
0 0 176 
0 0 165 
0 0 155 
0 0 161 
0 0 166 
0 0 176 
0 0 156 
0 0 155 
0 0 174 
0 0 161 
0 0 165 
37 59 147 
54 83 144 
51 79 129 
50 77 118 
53 82 135 
54 81 133 
56 88 139 
56 85 143 
57 85 143 
55 85 132 
58 86 144 
57 84 136 
57 84 135 
54 79 131 
55 84 133 
55 83 133 
56 81 134 
56 83 139 
57 84 137 
55 78 134 
54 78 122 
93 58 97 
142 0 0 
141 0 0 
143 0 0 
140 0 0 
147 0 0 
153 0 0 
132 0 0 
148 0 0 
146 0 0 
142 0 0 
158 0 0 
144 0 0 
157 0 0 
159 0 0 
166 0 0 
154 0 0 
166 0 0 
159 0 0 
163 0 0 
170 0 0 
172 0 0 
161 0 0 
169 0 0 
174 0 0 
172 0 0 
166 0 0 
162 0 0 
172 0 0 
174 0 0 
178 0 0 
178 0 0 
171 0 0 
176 0 0 
161 0 0 
176 0 0 
179 0 0 
169 0 0 
165 0 0 
182 0 0 
174 0 0 
183 0 0 
181 0 0 
184 0 0 
177 0 0 
177 0 0 
183 0 0 
180 0 0 
181 0 0 
183 0 0 
188 0 0 
177 0 0 
187 0 0 
179 0 0 
180 0 0 
186 0 0 
179 0 0 
184 0 0 
184 0 0 
178 0 0 
181 0 0 
185 0 0 
178 0 0 
182 0 0 
187 0 0 
174 0 0 
179 0 0 
180 0 0 
172 0 0 
186 0 0 
187 0 0 
188 0 0 
185 0 0 
184 0 0 
178 0 0 
182 0 0 
184 0 0 
191 0 0 
177 0 0 
187 0 0 
188 0 0 
191 0 0 
188 0 0 
182 0 0 
185 0 0 
184 0 0 
179 0 0 
184 0 0 
187 0 0 
187 0 0 
179 0 0 
189 0 0 
181 0 0 
178 0 0 
183 0 0 
193 0 0 
177 0 0 
184 0 0 
187 0 0 
191 0 0 
185 0 0 
189 0 0 
181 0 0 
188 0 0 
185 0 0 
193 0 0 
185 0 0 
184 0 0 
185 0 0 
191 0 0 
187 0 0 
191 0 0 
190 0 0 
189 0 0 
192 0 0 
182 0 0 
185 0 0 
189 0 0 
186 0 0 
189 0 0 
189 0 0 
188 0 0 
191 0 0 
187 0 0 
189 0 0 
185 0 0 
185 0 0 
188 0 0 
183 0 0 
191 0 0 
190 0 0 
187 0 0 
194 0 0 
190 0 0 
188 0 0 
187 0 0 
191 0 0 
195 0 0 
193 0 0 
191 0 0 
190 0 0 
191 0 0 
186 0 0 
188 0 0 
189 0 0 
192 0 0 
193 0 0 
187 0 0 
191 0 0 
188 0 0 
191 0 0 
192 0 0 
188 0 0 
188 0 0 
189 0 0 
185 0 0 
190 0 0 
191 0 0 
194 0 0 
194 0 0 
189 0 0 
195 0 0 
190 0 0 
193 0 0 
190 0 0 
190 0 0 
193 0 0 
189 0 0 
191 0 0 
194 0 0 
197 0 0 
189 0 0 
192 0 0 
190 0 0 
195 0 0 
191 0 0 
191 0 0 
194 0 0 
186 0 0 
191 0 0 
195 0 0 
192 0 0 
191 0 0 
191 0 0 
192 0 0 
189 0 0 
193 0 0 
194 0 0 
192 0 0 
196 0 0 
0 0 207 
0 0 203 
0 0 196 
0 0 194 
0 0 193 
0 0 193 
0 0 189 
0 0 201 
0 0 193 
0 0 201 
0 0 203 
0 0 199 
0 0 188 
0 0 207 
0 0 201 
0 0 189 
0 0 196 
0 0 203 
0 0 191 
0 0 193 
0 0 191 
0 0 193 
0 0 198 
0 0 199 
0 0 196 
0 0 196 
0 0 186 
0 0 203 
0 0 189 
0 0 175 
0 0 191 
0 0 189 
0 0 198 
0 0 193 
0 0 188 
0 0 196 
0 0 196 
0 0 201 
0 0 201 
0 0 204 
0 0 191 
0 0 206 
0 0 189 
0 0 194 
0 0 214 
0 0 196 
0 0 189 
0 0 179 
0 0 198 
0 0 199 
0 0 193 
0 0 191 
0 0 189 
0 0 198 
0 0 194 
0 0 193 
0 0 194 
0 0 196 
0 0 194 
0 0 201 
0 0 207 
0 0 179 
0 0 189 
0 0 189 
0 0 179 
0 0 188 
0 0 193 
0 0 182 
0 0 184 
0 0 182 
0 0 199 
0 0 191 
0 0 196 
0 0 189 
0 0 201 
0 0 191 
0 0 194 
0 0 203 
0 0 203 
0 0 186 
0 0 181 
0 0 193 
0 0 196 
0 0 199 
0 0 199 
0 0 211 
0 0 188 
0 0 193 
0 0 193 
0 0 194 
0 0 188 
0 0 186 
0 0 194 
0 0 189 
0 0 198 
0 0 191 
0 0 207 
0 0 199 
0 0 182 
0 0 189 
0 0 204 
0 0 193 
0 0 199 
0 0 193 
0 0 203 
0 0 204 
0 0 198 
0 0 171 
0 0 186 
0 0 186 
0 0 169 
0 0 194 
0 0 188 
0 0 191 
0 0 188 
0 0 186 
0 0 201 
0 0 179 
0 0 198 
0 0 206 
0 0 196 
0 0 181 
0 0 189 
0 0 189 
0 0 182 
0 0 191 
0 0 193 
0 0 184 
0 0 203 
0 0 179 
0 0 193 
0 0 186 
0 0 199 
0 0 181 
0 0 189 
0 0 189 
0 0 199 
0 0 199 
0 0 194 
0 0 182 
0 0 186 
0 0 193 
0 0 193 
0 0 186 
0 0 184 
0 0 189 
0 0 177 
0 0 188 
0 0 194 
0 0 188 
0 0 196 
0 0 181 
0 0 191 
0 0 193 
0 0 189 
0 0 181 
0 0 182 
0 0 188 
0 0 177 
0 0 181 
0 0 199 
0 0 182 
0 0 176 
0 0 188 
0 0 166 
0 0 181 
0 0 165 
0 0 195 
0 0 161 
0 0 184 
0 0 181 
0 0 170 
0 0 181 
0 0 177 
0 0 173 
0 0 162 
0 0 180 
0 0 182 
0 0 179 
0 0 158 
0 0 175 
0 0 168 
0 0 159 
0 0 164 
0 0 147 
0 0 164 
0 0 163 
0 0 148 
0 0 169 
39 61 142 
47 75 137 
54 82 144 
54 84 137 
55 84 131 
52 80 132 
52 80 136 
56 86 129 
56 84 133 
56 86 135 
54 85 139 
55 84 128 
56 83 130 
56 82 129 
56 80 137 
55 83 130 
56 83 130 
56 77 134 
55 81 120 
55 78 127 
56 81 125 
103 58 95 
139 0 0 
141 0 0 
136 0 0 
138 0 0 
139 0 0 
140 0 0 
157 0 0 
158 0 0 
143 0 0 
145 0 0 
155 0 0 
159 0 0 
159 0 0 
155 0 0 
163 0 0 
163 0 0 
159 0 0 
156 0 0 
159 0 0 
169 0 0 
167 0 0 
160 0 0 
163 0 0 
177 0 0 
165 0 0 
171 0 0 
171 0 0 
171 0 0 
168 0 0 
177 0 0 
162 0 0 
174 0 0 
169 0 0 
175 0 0 
175 0 0 
184 0 0 
178 0 0 
177 0 0 
172 0 0 
176 0 0 
178 0 0 
180 0 0 
183 0 0 
175 0 0 
180 0 0 
178 0 0 
170 0 0 
180 0 0 
175 0 0 
179 0 0 
185 0 0 
178 0 0 
175 0 0 
183 0 0 
182 0 0 
179 0 0 
186 0 0 
186 0 0 
177 0 0 
177 0 0 
180 0 0 
181 0 0 
176 0 0 
186 0 0 
176 0 0 
181 0 0 
184 0 0 
180 0 0 
183 0 0 
180 0 0 
187 0 0 
184 0 0 
179 0 0 
186 0 0 
178 0 0 
177 0 0 
183 0 0 
180 0 0 
186 0 0 
180 0 0 
182 0 0 
188 0 0 
184 0 0 
193 0 0 
184 0 0 
189 0 0 
189 0 0 
182 0 0 
185 0 0 
189 0 0 
183 0 0 
184 0 0 
185 0 0 
190 0 0 
185 0 0 
187 0 0 
185 0 0 
187 0 0 
190 0 0 
187 0 0 
192 0 0 
187 0 0 
181 0 0 
188 0 0 
188 0 0 
185 0 0 
189 0 0 
189 0 0 
185 0 0 
186 0 0 
185 0 0 
193 0 0 
186 0 0 
191 0 0 
189 0 0 
189 0 0 
189 0 0 
190 0 0 
189 0 0 
191 0 0 
193 0 0 
189 0 0 
189 0 0 
191 0 0 
192 0 0 
189 0 0 
188 0 0 
191 0 0 
192 0 0 
186 0 0 
192 0 0 
188 0 0 
195 0 0 
183 0 0 
193 0 0 
193 0 0 
189 0 0 
196 0 0 
189 0 0 
191 0 0 
189 0 0 
187 0 0 
189 0 0 
189 0 0 
191 0 0 
192 0 0 
194 0 0 
188 0 0 
191 0 0 
186 0 0 
190 0 0 
191 0 0 
191 0 0 
190 0 0 
190 0 0 
192 0 0 
191 0 0 
193 0 0 
194 0 0 
192 0 0 
190 0 0 
187 0 0 
193 0 0 
193 0 0 
188 0 0 
193 0 0 
191 0 0 
190 0 0 
193 0 0 
190 0 0 
192 0 0 
191 0 0 
191 0 0 
188 0 0 
193 0 0 
195 0 0 
189 0 0 
189 0 0 
189 0 0 
193 0 0 
190 0 0 
189 0 0 
193 0 0 
193 0 0 
191 0 0 
189 0 0 
191 0 0 
194 0 0 
193 0 0 
0 0 204 
0 0 193 
0 0 186 
0 0 184 
0 0 194 
0 0 207 
0 0 199 
0 0 199 
0 0 191 
0 0 193 
0 0 188 
0 0 201 
0 0 201 
0 0 184 
0 0 191 
0 0 193 
0 0 188 
0 0 209 
0 0 209 
0 0 186 
0 0 201 
0 0 201 
0 0 184 
0 0 186 
0 0 189 
0 0 188 
0 0 196 
0 0 194 
0 0 193 
0 0 188 
0 0 203 
0 0 204 
0 0 209 
0 0 194 
0 0 201 
0 0 204 
0 0 196 
0 0 196 
0 0 199 
0 0 201 
0 0 191 
0 0 194 
0 0 193 
0 0 199 
0 0 198 
0 0 191 
0 0 201 
0 0 203 
0 0 194 
0 0 186 
0 0 199 
0 0 191 
0 0 189 
0 0 203 
0 0 194 
0 0 203 
0 0 194 
0 0 203 
0 0 193 
0 0 188 
0 0 198 
0 0 204 
0 0 196 
0 0 191 
0 0 212 
0 0 196 
0 0 196 
0 0 193 
0 0 188 
0 0 189 
0 0 177 
0 0 198 
0 0 182 
0 0 173 
0 0 182 
0 0 177 
0 0 196 
0 0 186 
0 0 198 
0 0 194 
0 0 189 
0 0 191 
0 0 206 
0 0 189 
0 0 189 
0 0 182 
0 0 193 
0 0 198 
0 0 215 
0 0 182 
0 0 186 
0 0 194 
0 0 184 
0 0 203 
0 0 193 
0 0 186 
0 0 186 
0 0 203 
0 0 184 
0 0 179 
0 0 193 
0 0 189 
0 0 188 
0 0 184 
0 0 199 
0 0 211 
0 0 181 
0 0 177 
0 0 191 
0 0 189 
0 0 196 
0 0 201 
0 0 188 
0 0 189 
0 0 203 
0 0 198 
0 0 189 
0 0 196 
0 0 191 
0 0 199 
0 0 191 
0 0 188 
0 0 182 
0 0 182 
0 0 193 
0 0 177 
0 0 182 
0 0 188 
0 0 171 
0 0 189 
0 0 188 
0 0 182 
0 0 188 
0 0 196 
0 0 184 
0 0 194 
0 0 179 
0 0 181 
0 0 182 
0 0 198 
0 0 186 
0 0 198 
0 0 186 
0 0 173 
0 0 188 
0 0 177 
0 0 191 
0 0 182 
0 0 189 
0 0 193 
0 0 181 
0 0 173 
0 0 188 
0 0 182 
0 0 173 
0 0 182 
0 0 167 
0 0 185 
0 0 188 
0 0 186 
0 0 187 
0 0 167 
0 0 182 
0 0 185 
0 0 160 
0 0 184 
0 0 165 
0 0 174 
0 0 177 
0 0 178 
0 0 167 
0 0 172 
0 0 177 
0 0 170 
0 0 190 
0 0 173 
0 0 181 
0 0 164 
0 0 181 
0 0 175 
0 0 164 
0 0 164 
0 0 173 
0 0 167 
0 0 158 
0 0 152 
0 0 134 
0 0 172 
0 0 170 
38 59 155 
53 80 128 
52 80 139 
53 81 129 
54 81 131 
52 83 131 
57 86 142 
55 82 129 
54 82 133 
55 84 132 
55 81 121 
55 85 134 
56 84 128 
56 82 131 
55 84 131 
55 81 135 
54 80 125 
55 83 129 
54 76 116 
56 82 120 
56 79 122 
89 57 78 
127 0 0 
125 0 0 
135 0 0 
141 0 0 
141 0 0 
149 0 0 
137 0 0 
144 0 0 
161 0 0 
155 0 0 
161 0 0 
154 0 0 
152 0 0 
168 0 0 
168 0 0 
161 0 0 
155 0 0 
151 0 0 
167 0 0 
166 0 0 
163 0 0 
168 0 0 
168 0 0 
164 0 0 
176 0 0 
163 0 0 
162 0 0 
163 0 0 
170 0 0 
176 0 0 
180 0 0 
171 0 0 
166 0 0 
179 0 0 
167 0 0 
167 0 0 
183 0 0 
175 0 0 
177 0 0 
174 0 0 
188 0 0 
171 0 0 
183 0 0 
184 0 0 
168 0 0 
181 0 0 
179 0 0 
175 0 0 
177 0 0 
179 0 0 
182 0 0 
176 0 0 
179 0 0 
182 0 0 
181 0 0 
182 0 0 
175 0 0 
183 0 0 
178 0 0 
181 0 0 
182 0 0 
179 0 0 
177 0 0 
175 0 0 
189 0 0 
183 0 0 
180 0 0 
178 0 0 
178 0 0 
183 0 0 
178 0 0 
180 0 0 
187 0 0 
183 0 0 
190 0 0 
188 0 0 
183 0 0 
185 0 0 
181 0 0 
187 0 0 
181 0 0 
179 0 0 
185 0 0 
186 0 0 
185 0 0 
189 0 0 
186 0 0 
191 0 0 
187 0 0 
183 0 0 
192 0 0 
188 0 0 
185 0 0 
193 0 0 
185 0 0 
181 0 0 
191 0 0 
190 0 0 
188 0 0 
183 0 0 
179 0 0 
188 0 0 
187 0 0 
188 0 0 
183 0 0 
187 0 0 
190 0 0 
186 0 0 
192 0 0 
188 0 0 
186 0 0 
187 0 0 
186 0 0 
187 0 0 
191 0 0 
187 0 0 
191 0 0 
184 0 0 
188 0 0 
192 0 0 
192 0 0 
194 0 0 
190 0 0 
189 0 0 
193 0 0 
187 0 0 
189 0 0 
190 0 0 
192 0 0 
191 0 0 
186 0 0 
189 0 0 
190 0 0 
190 0 0 
193 0 0 
185 0 0 
189 0 0 
194 0 0 
195 0 0 
193 0 0 
192 0 0 
190 0 0 
190 0 0 
190 0 0 
191 0 0 
189 0 0 
189 0 0 
193 0 0 
190 0 0 
188 0 0 
186 0 0 
191 0 0 
191 0 0 
191 0 0 
194 0 0 
186 0 0 
191 0 0 
186 0 0 
187 0 0 
189 0 0 
189 0 0 
188 0 0 
192 0 0 
193 0 0 
195 0 0 
193 0 0 
191 0 0 
188 0 0 
194 0 0 
190 0 0 
195 0 0 
188 0 0 
190 0 0 
195 0 0 
193 0 0 
194 0 0 
190 0 0 
192 0 0 
196 0 0 
193 0 0 
184 0 0 
194 0 0 
186 0 0 
194 0 0 
193 0 0 
193 0 0 
191 0 0 
190 0 0 
190 0 0 
0 0 189 
0 0 191 
0 0 198 
0 0 184 
0 0 189 
0 0 189 
0 0 179 
0 0 201 
0 0 206 
0 0 179 
0 0 177 
0 0 199 
0 0 191 
0 0 206 
0 0 201 
0 0 204 
0 0 191 
0 0 199 
0 0 201 
0 0 196 
0 0 198 
0 0 191 
0 0 189 
0 0 184 
0 0 199 
0 0 191 
0 0 199 
0 0 181 
0 0 199 
0 0 182 
0 0 203 
0 0 191 
0 0 189 
0 0 206 
0 0 201 
0 0 196 
0 0 198 
0 0 194 
0 0 194 
0 0 194 
0 0 198 
0 0 199 
0 0 203 
0 0 191 
0 0 196 
0 0 196 
0 0 196 
0 0 206 
0 0 196 
0 0 212 
0 0 191 
0 0 182 
0 0 203 
0 0 186 
0 0 196 
0 0 207 
0 0 198 
0 0 184 
0 0 203 
0 0 175 
0 0 194 
0 0 191 
0 0 196 
0 0 198 
0 0 196 
0 0 193 
0 0 188 
0 0 212 
0 0 212 
0 0 201 
0 0 188 
0 0 188 
0 0 181 
0 0 203 
0 0 204 
0 0 171 
0 0 189 
0 0 191 
0 0 179 
0 0 196 
0 0 203 
0 0 194 
0 0 203 
0 0 189 
0 0 194 
0 0 199 
0 0 188 
0 0 194 
0 0 198 
0 0 184 
0 0 191 
0 0 194 
0 0 189 
0 0 194 
0 0 175 
0 0 189 
0 0 181 
0 0 203 
0 0 198 
0 0 179 
0 0 189 
0 0 171 
0 0 204 
0 0 177 
0 0 188 
0 0 167 
0 0 194 
0 0 184 
0 0 191 
0 0 196 
0 0 182 
0 0 196 
0 0 191 
0 0 198 
0 0 171 
0 0 193 
0 0 201 
0 0 201 
0 0 194 
0 0 194 
0 0 188 
0 0 196 
0 0 201 
0 0 184 
0 0 188 
0 0 188 
0 0 184 
0 0 165 
0 0 175 
0 0 177 
0 0 191 
0 0 188 
0 0 194 
0 0 191 
0 0 191 
0 0 181 
0 0 184 
0 0 182 
0 0 196 
0 0 194 
0 0 161 
0 0 175 
0 0 193 
0 0 181 
0 0 184 
0 0 189 
0 0 189 
0 0 177 
0 0 196 
0 0 188 
0 0 178 
0 0 186 
0 0 179 
0 0 179 
0 0 187 
0 0 198 
0 0 184 
0 0 170 
0 0 182 
0 0 179 
0 0 186 
0 0 194 
0 0 185 
0 0 159 
0 0 177 
0 0 181 
0 0 177 
0 0 181 
0 0 191 
0 0 171 
0 0 180 
0 0 165 
0 0 157 
0 0 170 
0 0 157 
0 0 157 
0 0 181 
0 0 173 
0 0 164 
0 0 179 
0 0 145 
0 0 165 
0 0 147 
0 0 164 
0 0 148 
0 0 165 
0 0 169 
0 0 165 
0 0 134 
36 57 155 
52 79 137 
51 77 128 
53 84 138 
53 80 135 
55 83 132 
52 78 129 
52 80 137 
57 85 140 
53 81 131 
57 87 132 
57 86 135 
55 81 134 
56 85 142 
56 83 124 
57 86 133 
54 78 117 
56 82 133 
55 81 135 
57 81 124 
56 78 128 
103 50 78 
132 0 0 
139 0 0 
135 0 0 
125 0 0 
142 0 0 
138 0 0 
145 0 0 
153 0 0 
154 0 0 
157 0 0 
160 0 0 
162 0 0 
166 0 0 
153 0 0 
166 0 0 
154 0 0 
166 0 0 
162 0 0 
162 0 0 
170 0 0 
166 0 0 
164 0 0 
155 0 0 
158 0 0 
167 0 0 
157 0 0 
168 0 0 
165 0 0 
178 0 0 
173 0 0 
169 0 0 
163 0 0 
172 0 0 
174 0 0 
177 0 0 
169 0 0 
179 0 0 
181 0 0 
176 0 0 
177 0 0 
175 0 0 
168 0 0 
180 0 0 
187 0 0 
179 0 0 
176 0 0 
178 0 0 
178 0 0 
177 0 0 
170 0 0 
175 0 0 
168 0 0 
172 0 0 
180 0 0 
186 0 0 
179 0 0 
183 0 0 
170 0 0 
186 0 0 
174 0 0 
186 0 0 
180 0 0 
184 0 0 
181 0 0 
190 0 0 
181 0 0 
183 0 0 
185 0 0 
185 0 0 
182 0 0 
179 0 0 
179 0 0 
191 0 0 
179 0 0 
182 0 0 
185 0 0 
191 0 0 
184 0 0 
188 0 0 
188 0 0 
188 0 0 
186 0 0 
182 0 0 
175 0 0 
184 0 0 
193 0 0 
185 0 0 
184 0 0 
183 0 0 
191 0 0 
189 0 0 
187 0 0 
188 0 0 
183 0 0 
189 0 0 
185 0 0 
187 0 0 
183 0 0 
189 0 0 
187 0 0 
191 0 0 
188 0 0 
190 0 0 
185 0 0 
183 0 0 
193 0 0 
189 0 0 
184 0 0 
188 0 0 
186 0 0 
193 0 0 
184 0 0 
189 0 0 
188 0 0 
190 0 0 
190 0 0 
190 0 0 
186 0 0 
192 0 0 
183 0 0 
191 0 0 
191 0 0 
193 0 0 
187 0 0 
188 0 0 
189 0 0 
189 0 0 
190 0 0 
191 0 0 
190 0 0 
186 0 0 
192 0 0 
191 0 0 
193 0 0 
191 0 0 
193 0 0 
190 0 0 
195 0 0 
190 0 0 
186 0 0 
195 0 0 
194 0 0 
192 0 0 
194 0 0 
189 0 0 
195 0 0 
196 0 0 
192 0 0 
189 0 0 
196 0 0 
193 0 0 
191 0 0 
187 0 0 
192 0 0 
188 0 0 
192 0 0 
190 0 0 
189 0 0 
187 0 0 
188 0 0 
190 0 0 
188 0 0 
192 0 0 
191 0 0 
192 0 0 
191 0 0 
195 0 0 
191 0 0 
193 0 0 
194 0 0 
191 0 0 
195 0 0 
192 0 0 
193 0 0 
191 0 0 
190 0 0 
191 0 0 
190 0 0 
191 0 0 
187 0 0 
191 0 0 
184 0 0 
191 0 0 
197 0 0 
193 0 0 
192 0 0 
192 0 0 
190 0 0 
192 0 0 
0 0 198 
0 0 182 
0 0 191 
0 0 189 
0 0 193 
0 0 191 
0 0 193 
0 0 193 
0 0 198 
0 0 189 
0 0 191 
0 0 199 
0 0 198 
0 0 191 
0 0 196 
0 0 188 
0 0 184 
0 0 204 
0 0 206 
0 0 189 
0 0 204 
0 0 181 
0 0 182 
0 0 189 
0 0 188 
0 0 191 
0 0 201 
0 0 191 
0 0 204 
0 0 198 
0 0 212 
0 0 189 
0 0 196 
0 0 199 
0 0 204 
0 0 196 
0 0 186 
0 0 198 
0 0 194 
0 0 171 
0 0 191 
0 0 194 
0 0 189 
0 0 196 
0 0 193 
0 0 201 
0 0 199 
0 0 203 
0 0 204 
0 0 203 
0 0 199 
0 0 193 
0 0 196 
0 0 196 
0 0 201 
0 0 191 
0 0 181 
0 0 196 
0 0 201 
0 0 193 
0 0 194 
0 0 193 
0 0 206 
0 0 206 
0 0 209 
0 0 201 
0 0 184 
0 0 196 
0 0 191 
0 0 191 
0 0 201 
0 0 191 
0 0 193 
0 0 186 
0 0 189 
0 0 196 
0 0 204 
0 0 194 
0 0 194 
0 0 194 
0 0 193 
0 0 179 
0 0 182 
0 0 188 
0 0 191 
0 0 189 
0 0 181 
0 0 191 
0 0 184 
0 0 181 
0 0 184 
0 0 189 
0 0 198 
0 0 182 
0 0 194 
0 0 198 
0 0 196 
0 0 189 
0 0 201 
0 0 177 
0 0 186 
0 0 198 
0 0 181 
0 0 189 
0 0 182 
0 0 198 
0 0 186 
0 0 214 
0 0 188 
0 0 184 
0 0 169 
0 0 201 
0 0 177 
0 0 193 
0 0 193 
0 0 186 
0 0 199 
0 0 196 
0 0 179 
0 0 186 
0 0 206 
0 0 198 
0 0 186 
0 0 182 
0 0 182 
0 0 194 
0 0 181 
0 0 212 
0 0 188 
0 0 191 
0 0 189 
0 0 181 
0 0 199 
0 0 175 
0 0 188 
0 0 177 
0 0 182 
0 0 194 
0 0 181 
0 0 182 
0 0 182 
0 0 184 
0 0 175 
0 0 193 
0 0 193 
0 0 182 
0 0 181 
0 0 168 
0 0 188 
0 0 181 
0 0 176 
0 0 179 
0 0 163 
0 0 191 
0 0 171 
0 0 188 
0 0 173 
0 0 182 
0 0 175 
0 0 184 
0 0 175 
0 0 173 
0 0 182 
0 0 191 
0 0 197 
0 0 165 
0 0 178 
0 0 171 
0 0 193 
0 0 172 
0 0 161 
0 0 177 
0 0 180 
0 0 173 
0 0 153 
0 0 166 
0 0 190 
0 0 156 
0 0 179 
0 0 159 
0 0 166 
0 0 135 
0 0 170 
0 0 148 
0 0 154 
0 0 171 
0 0 152 
0 0 161 
0 0 160 
36 54 129 
52 79 122 
50 77 136 
54 83 140 
53 82 134 
53 80 120 
53 79 133 
54 81 129 
54 82 141 
57 86 143 
55 81 130 
57 86 139 
52 77 128 
54 80 133 
55 83 142 
57 86 133 
57 87 137 
56 84 134 
57 85 136 
51 74 122 
55 78 119 
108 55 82 
136 0 0 
131 0 0 
142 0 0 
148 0 0 
142 0 0 
146 0 0 
159 0 0 
139 0 0 
145 0 0 
151 0 0 
157 0 0 
157 0 0 
156 0 0 
159 0 0 
169 0 0 
161 0 0 
155 0 0 
152 0 0 
175 0 0 
162 0 0 
161 0 0 
162 0 0 
171 0 0 
168 0 0 
169 0 0 
156 0 0 
165 0 0 
167 0 0 
175 0 0 
162 0 0 
170 0 0 
172 0 0 
181 0 0 
160 0 0 
176 0 0 
177 0 0 
174 0 0 
174 0 0 
168 0 0 
176 0 0 
173 0 0 
175 0 0 
176 0 0 
174 0 0 
183 0 0 
170 0 0 
173 0 0 
181 0 0 
181 0 0 
180 0 0 
173 0 0 
184 0 0 
179 0 0 
184 0 0 
172 0 0 
180 0 0 
185 0 0 
180 0 0 
184 0 0 
182 0 0 
179 0 0 
187 0 0 
181 0 0 
180 0 0 
181 0 0 
186 0 0 
186 0 0 
184 0 0 
179 0 0 
184 0 0 
181 0 0 
182 0 0 
181 0 0 
172 0 0 
180 0 0 
183 0 0 
185 0 0 
182 0 0 
182 0 0 
185 0 0 
181 0 0 
185 0 0 
184 0 0 
188 0 0 
186 0 0 
183 0 0 
185 0 0 
187 0 0 
183 0 0 
178 0 0 
182 0 0 
188 0 0 
186 0 0 
185 0 0 
190 0 0 
182 0 0 
181 0 0 
186 0 0 
186 0 0 
186 0 0 
188 0 0 
186 0 0 
183 0 0 
184 0 0 
187 0 0 
187 0 0 
184 0 0 
188 0 0 
191 0 0 
190 0 0 
183 0 0 
193 0 0 
193 0 0 
189 0 0 
189 0 0 
189 0 0 
190 0 0 
188 0 0 
193 0 0 
183 0 0 
187 0 0 
195 0 0 
188 0 0 
189 0 0 
187 0 0 
193 0 0 
189 0 0 
194 0 0 
190 0 0 
187 0 0 
192 0 0 
186 0 0 
189 0 0 
189 0 0 
185 0 0 
188 0 0 
187 0 0 
190 0 0 
189 0 0 
190 0 0 
190 0 0 
189 0 0 
191 0 0 
190 0 0 
185 0 0 
190 0 0 
192 0 0 
186 0 0 
189 0 0 
194 0 0 
195 0 0 
193 0 0 
187 0 0 
192 0 0 
189 0 0 
193 0 0 
190 0 0 
188 0 0 
189 0 0 
195 0 0 
193 0 0 
190 0 0 
192 0 0 
191 0 0 
191 0 0 
196 0 0 
193 0 0 
188 0 0 
192 0 0 
194 0 0 
192 0 0 
186 0 0 
188 0 0 
192 0 0 
187 0 0 
189 0 0 
193 0 0 
192 0 0 
191 0 0 
192 0 0 
192 0 0 
188 0 0 
189 0 0 
193 0 0 
191 0 0 
189 0 0 
191 0 0 
188 0 0 
190 0 0 
0 0 186 
0 0 207 
0 0 188 
0 0 184 
0 0 191 
0 0 191 
0 0 206 
0 0 211 
0 0 191 
0 0 193 
0 0 188 
0 0 203 
0 0 191 
0 0 199 
0 0 191 
0 0 206 
0 0 196 
0 0 201 
0 0 199 
0 0 198 
0 0 182 
0 0 189 
0 0 194 
0 0 177 
0 0 186 
0 0 207 
0 0 212 
0 0 189 
0 0 194 
0 0 199 
0 0 203 
0 0 206 
0 0 201 
0 0 177 
0 0 179 
0 0 194 
0 0 188 
0 0 201 
0 0 188 
0 0 203 
0 0 198 
0 0 198 
0 0 189 
0 0 189 
0 0 203 
0 0 191 
0 0 184 
0 0 189 
0 0 196 
0 0 181 
0 0 203 
0 0 188 
0 0 186 
0 0 199 
0 0 201 
0 0 189 
0 0 186 
0 0 196 
0 0 191 
0 0 186 
0 0 199 
0 0 204 
0 0 193 
0 0 188 
0 0 196 
0 0 173 
0 0 193 
0 0 203 
0 0 191 
0 0 175 
0 0 196 
0 0 194 
0 0 182 
0 0 207 
0 0 199 
0 0 193 
0 0 198 
0 0 201 
0 0 188 
0 0 206 
0 0 163 
0 0 193 
0 0 184 
0 0 199 
0 0 201 
0 0 181 
0 0 189 
0 0 199 
0 0 194 
0 0 191 
0 0 179 
0 0 199 
0 0 206 
0 0 188 
0 0 189 
0 0 184 
0 0 206 
0 0 194 
0 0 204 
0 0 194 
0 0 203 
0 0 182 
0 0 191 
0 0 177 
0 0 193 
0 0 196 
0 0 179 
0 0 188 
0 0 204 
0 0 182 
0 0 175 
0 0 207 
0 0 182 
0 0 184 
0 0 186 
0 0 191 
0 0 184 
0 0 181 
0 0 194 
0 0 186 
0 0 182 
0 0 177 
0 0 188 
0 0 186 
0 0 181 
0 0 177 
0 0 181 
0 0 189 
0 0 179 
0 0 181 
0 0 181 
0 0 188 
0 0 184 
0 0 182 
0 0 184 
0 0 189 
0 0 191 
0 0 182 
0 0 179 
0 0 196 
0 0 186 
0 0 186 
0 0 184 
0 0 184 
0 0 193 
0 0 184 
0 0 171 
0 0 155 
0 0 177 
0 0 167 
0 0 177 
0 0 175 
0 0 173 
0 0 173 
0 0 193 
0 0 182 
0 0 167 
0 0 188 
0 0 163 
0 0 168 
0 0 183 
0 0 171 
0 0 182 
0 0 177 
0 0 167 
0 0 169 
0 0 165 
0 0 159 
0 0 171 
0 0 174 
0 0 166 
0 0 161 
0 0 153 
0 0 172 
0 0 162 
0 0 160 
0 0 165 
0 0 170 
0 0 168 
0 0 169 
0 0 165 
0 0 151 
0 0 166 
0 0 172 
0 0 161 
0 0 162 
0 0 161 
0 0 155 
0 0 160 
36 52 147 
50 75 130 
51 77 118 
53 83 141 
54 83 140 
54 83 126 
53 79 116 
54 79 126 
54 82 132 
53 81 128 
53 80 131 
56 84 134 
56 84 128 
55 84 135 
55 80 121 
53 81 129 
56 84 136 
55 80 126 
53 75 124 
54 80 126 
53 78 117 
100 44 70 
136 0 0 
130 0 0 
142 0 0 
145 0 0 
145 0 0 
144 0 0 
149 0 0 
148 0 0 
162 0 0 
160 0 0 
155 0 0 
158 0 0 
151 0 0 
156 0 0 
162 0 0 
161 0 0 
162 0 0 
162 0 0 
163 0 0 
167 0 0 
157 0 0 
159 0 0 
159 0 0 
155 0 0 
171 0 0 
170 0 0 
166 0 0 
169 0 0 
167 0 0 
183 0 0 
172 0 0 
178 0 0 
181 0 0 
177 0 0 
170 0 0 
178 0 0 
176 0 0 
177 0 0 
175 0 0 
176 0 0 
166 0 0 
176 0 0 
184 0 0 
173 0 0 
186 0 0 
182 0 0 
180 0 0 
181 0 0 
183 0 0 
179 0 0 
184 0 0 
173 0 0 
174 0 0 
180 0 0 
174 0 0 
176 0 0 
181 0 0 
176 0 0 
176 0 0 
177 0 0 
182 0 0 
178 0 0 
186 0 0 
184 0 0 
182 0 0 
180 0 0 
191 0 0 
181 0 0 
183 0 0 
183 0 0 
184 0 0 
182 0 0 
181 0 0 
188 0 0 
189 0 0 
182 0 0 
189 0 0 
187 0 0 
186 0 0 
175 0 0 
184 0 0 
183 0 0 
187 0 0 
184 0 0 
183 0 0 
181 0 0 
187 0 0 
186 0 0 
185 0 0 
189 0 0 
186 0 0 
186 0 0 
187 0 0 
181 0 0 
184 0 0 
182 0 0 
188 0 0 
189 0 0 
188 0 0 
188 0 0 
192 0 0 
188 0 0 
187 0 0 
184 0 0 
189 0 0 
191 0 0 
191 0 0 
185 0 0 
192 0 0 
187 0 0 
188 0 0 
185 0 0 
188 0 0 
190 0 0 
184 0 0 
189 0 0 
188 0 0 
192 0 0 
194 0 0 
189 0 0 
188 0 0 
184 0 0 
188 0 0 
189 0 0 
187 0 0 
188 0 0 
187 0 0 
185 0 0 
192 0 0 
184 0 0 
193 0 0 
189 0 0 
189 0 0 
190 0 0 
189 0 0 
190 0 0 
193 0 0 
195 0 0 
191 0 0 
189 0 0 
192 0 0 
194 0 0 
188 0 0 
189 0 0 
192 0 0 
188 0 0 
192 0 0 
189 0 0 
187 0 0 
191 0 0 
188 0 0 
192 0 0 
193 0 0 
191 0 0 
190 0 0 
192 0 0 
187 0 0 
186 0 0 
189 0 0 
192 0 0 
193 0 0 
188 0 0 
195 0 0 
193 0 0 
187 0 0 
192 0 0 
193 0 0 
188 0 0 
188 0 0 
194 0 0 
187 0 0 
193 0 0 
191 0 0 
189 0 0 
189 0 0 
190 0 0 
193 0 0 
187 0 0 
192 0 0 
191 0 0 
192 0 0 
196 0 0 
191 0 0 
194 0 0 
194 0 0 
188 0 0 
192 0 0 
192 0 0 
188 0 0 
0 0 189 
0 0 189 
0 0 189 
0 0 179 
0 0 193 
0 0 209 
0 0 189 
0 0 194 
0 0 196 
0 0 189 
0 0 199 
0 0 199 
0 0 189 
0 0 196 
0 0 198 
0 0 194 
0 0 198 
0 0 193 
0 0 193 
0 0 198 
0 0 193 
0 0 188 
0 0 184 
0 0 196 
0 0 191 
0 0 203 
0 0 206 
0 0 191 
0 0 203 
0 0 196 
0 0 179 
0 0 209 
0 0 211 
0 0 191 
0 0 189 
0 0 212 
0 0 171 
0 0 203 
0 0 191 
0 0 189 
0 0 173 
0 0 191 
0 0 189 
0 0 193 
0 0 188 
0 0 191 
0 0 199 
0 0 184 
0 0 188 
0 0 196 
0 0 193 
0 0 182 
0 0 203 
0 0 193 
0 0 196 
0 0 196 
0 0 196 
0 0 198 
0 0 188 
0 0 203 
0 0 184 
0 0 188 
0 0 199 
0 0 203 
0 0 198 
0 0 198 
0 0 201 
0 0 186 
0 0 193 
0 0 188 
0 0 206 
0 0 188 
0 0 184 
0 0 201 
0 0 203 
0 0 182 
0 0 194 
0 0 191 
0 0 182 
0 0 175 
0 0 196 
0 0 188 
0 0 194 
0 0 186 
0 0 189 
0 0 193 
0 0 194 
0 0 189 
0 0 203 
0 0 194 
0 0 203 
0 0 184 
0 0 191 
0 0 193 
0 0 173 
0 0 169 
0 0 191 
0 0 189 
0 0 181 
0 0 189 
0 0 186 
0 0 191 
0 0 188 
0 0 184 
0 0 198 
0 0 203 
0 0 201 
0 0 199 
0 0 177 
0 0 191 
0 0 182 
0 0 186 
0 0 177 
0 0 193 
0 0 182 
0 0 188 
0 0 199 
0 0 181 
0 0 184 
0 0 177 
0 0 175 
0 0 184 
0 0 194 
0 0 169 
0 0 188 
0 0 198 
0 0 175 
0 0 165 
0 0 177 
0 0 186 
0 0 184 
0 0 179 
0 0 181 
0 0 189 
0 0 173 
0 0 193 
0 0 189 
0 0 201 
0 0 177 
0 0 179 
0 0 186 
0 0 186 
0 0 189 
0 0 169 
0 0 175 
0 0 177 
0 0 189 
0 0 184 
0 0 186 
0 0 181 
0 0 191 
0 0 184 
0 0 186 
0 0 186 
0 0 151 
0 0 206 
0 0 181 
0 0 181 
0 0 173 
0 0 194 
0 0 183 
0 0 169 
0 0 167 
0 0 188 
0 0 169 
0 0 178 
0 0 170 
0 0 174 
0 0 181 
0 0 147 
0 0 171 
0 0 172 
0 0 174 
0 0 168 
0 0 166 
0 0 159 
0 0 181 
0 0 174 
0 0 163 
0 0 170 
0 0 157 
0 0 161 
0 0 148 
0 0 173 
0 0 155 
0 0 159 
0 0 167 
0 0 151 
0 0 145 
32 49 140 
55 83 136 
52 79 137 
52 78 127 
54 82 126 
51 76 125 
54 82 135 
55 80 129 
57 88 144 
56 86 136 
54 82 121 
54 80 121 
54 80 133 
55 81 128 
54 80 121 
55 79 125 
55 83 131 
55 78 125 
55 78 128 
53 78 125 
53 71 110 
95 51 80 
140 0 0 
141 0 0 
141 0 0 
139 0 0 
142 0 0 
148 0 0 
157 0 0 
158 0 0 
153 0 0 
150 0 0 
163 0 0 
140 0 0 
151 0 0 
154 0 0 
155 0 0 
163 0 0 
160 0 0 
161 0 0 
168 0 0 
161 0 0 
164 0 0 
164 0 0 
165 0 0 
171 0 0 
160 0 0 
171 0 0 
174 0 0 
168 0 0 
171 0 0 
166 0 0 
175 0 0 
175 0 0 
174 0 0 
170 0 0 
177 0 0 
176 0 0 
180 0 0 
164 0 0 
179 0 0 
178 0 0 
172 0 0 
178 0 0 
175 0 0 
170 0 0 
176 0 0 
174 0 0 
176 0 0 
183 0 0 
179 0 0 
174 0 0 
178 0 0 
177 0 0 
179 0 0 
178 0 0 
179 0 0 
177 0 0 
182 0 0 
180 0 0 
175 0 0 
181 0 0 
175 0 0 
182 0 0 
184 0 0 
178 0 0 
175 0 0 
177 0 0 
180 0 0 
188 0 0 
189 0 0 
185 0 0 
177 0 0 
180 0 0 
178 0 0 
187 0 0 
181 0 0 
185 0 0 
180 0 0 
188 0 0 
185 0 0 
180 0 0 
183 0 0 
187 0 0 
184 0 0 
189 0 0 
193 0 0 
185 0 0 
182 0 0 
188 0 0 
185 0 0 
179 0 0 
185 0 0 
191 0 0 
183 0 0 
178 0 0 
182 0 0 
186 0 0 
192 0 0 
188 0 0 
187 0 0 
184 0 0 
193 0 0 
184 0 0 
191 0 0 
184 0 0 
192 0 0 
191 0 0 
185 0 0 
194 0 0 
186 0 0 
186 0 0 
184 0 0 
190 0 0 
190 0 0 
186 0 0 
189 0 0 
184 0 0 
189 0 0 
193 0 0 
193 0 0 
193 0 0 
185 0 0 
191 0 0 
192 0 0 
194 0 0 
189 0 0 
185 0 0 
192 0 0 
187 0 0 
190 0 0 
188 0 0 
188 0 0 
186 0 0 
187 0 0 
190 0 0 
189 0 0 
192 0 0 
191 0 0 
191 0 0 
186 0 0 
183 0 0 
187 0 0 
193 0 0 
196 0 0 
188 0 0 
199 0 0 
191 0 0 
194 0 0 
187 0 0 
187 0 0 
190 0 0 
194 0 0 
192 0 0 
193 0 0 
194 0 0 
186 0 0 
187 0 0 
193 0 0 
186 0 0 
193 0 0 
186 0 0 
190 0 0 
188 0 0 
193 0 0 
190 0 0 
192 0 0 
190 0 0 
194 0 0 
192 0 0 
188 0 0 
193 0 0 
194 0 0 
188 0 0 
192 0 0 
189 0 0 
192 0 0 
192 0 0 
192 0 0 
195 0 0 
193 0 0 
191 0 0 
192 0 0 
193 0 0 
185 0 0 
191 0 0 
187 0 0 
190 0 0 
189 0 0 
189 0 0 
192 0 0 
0 0 199 
0 0 194 
0 0 204 
0 0 177 
0 0 188 
0 0 184 
0 0 206 
0 0 182 
0 0 191 
0 0 184 
0 0 194 
0 0 209 
0 0 196 
0 0 186 
0 0 181 
0 0 188 
0 0 194 
0 0 186 
0 0 182 
0 0 201 
0 0 203 
0 0 186 
0 0 201 
0 0 194 
0 0 193 
0 0 201 
0 0 206 
0 0 206 
0 0 194 
0 0 181 
0 0 184 
0 0 184 
0 0 196 
0 0 181 
0 0 198 
0 0 203 
0 0 201 
0 0 196 
0 0 194 
0 0 198 
0 0 191 
0 0 194 
0 0 186 
0 0 201 
0 0 193 
0 0 203 
0 0 194 
0 0 196 
0 0 186 
0 0 193 
0 0 184 
0 0 184 
0 0 203 
0 0 196 
0 0 204 
0 0 189 
0 0 189 
0 0 184 
0 0 198 
0 0 182 
0 0 181 
0 0 171 
0 0 198 
0 0 175 
0 0 212 
0 0 203 
0 0 189 
0 0 193 
0 0 181 
0 0 182 
0 0 199 
0 0 171 
0 0 198 
0 0 203 
0 0 177 
0 0 199 
0 0 188 
0 0 203 
0 0 198 
0 0 186 
0 0 189 
0 0 189 
0 0 184 
0 0 184 
0 0 198 
0 0 194 
0 0 191 
0 0 191 
0 0 189 
0 0 177 
0 0 179 
0 0 186 
0 0 196 
0 0 169 
0 0 189 
0 0 194 
0 0 191 
0 0 186 
0 0 193 
0 0 182 
0 0 189 
0 0 188 
0 0 199 
0 0 199 
0 0 211 
0 0 193 
0 0 198 
0 0 182 
0 0 186 
0 0 198 
0 0 196 
0 0 188 
0 0 155 
0 0 199 
0 0 204 
0 0 196 
0 0 206 
0 0 196 
0 0 181 
0 0 188 
0 0 182 
0 0 184 
0 0 186 
0 0 179 
0 0 181 
0 0 193 
0 0 189 
0 0 191 
0 0 184 
0 0 189 
0 0 181 
0 0 175 
0 0 179 
0 0 165 
0 0 177 
0 0 167 
0 0 173 
0 0 194 
0 0 159 
0 0 181 
0 0 179 
0 0 196 
0 0 191 
0 0 186 
0 0 173 
0 0 161 
0 0 189 
0 0 181 
0 0 181 
0 0 182 
0 0 198 
0 0 188 
0 0 169 
0 0 181 
0 0 191 
0 0 165 
0 0 177 
0 0 181 
0 0 177 
0 0 184 
0 0 171 
0 0 169 
0 0 163 
0 0 173 
0 0 165 
0 0 176 
0 0 186 
0 0 161 
0 0 169 
0 0 176 
0 0 153 
0 0 172 
0 0 165 
0 0 180 
0 0 170 
0 0 168 
0 0 158 
0 0 165 
0 0 156 
0 0 165 
0 0 147 
0 0 171 
0 0 162 
0 0 150 
0 0 160 
0 0 157 
0 0 124 
0 0 139 
0 0 161 
27 42 134 
50 77 127 
52 79 141 
52 80 135 
53 79 136 
53 78 131 
55 83 135 
52 80 137 
53 80 133 
56 85 139 
51 77 124 
53 80 122 
54 80 131 
57 87 130 
54 82 121 
56 80 120 
56 77 118 
56 82 124 
57 83 128 
55 77 126 
53 74 110 
108 49 72 
130 0 0 
132 0 0 
137 0 0 
147 0 0 
145 0 0 
138 0 0 
157 0 0 
141 0 0 
148 0 0 
147 0 0 
160 0 0 
149 0 0 
152 0 0 
165 0 0 
149 0 0 
151 0 0 
160 0 0 
163 0 0 
157 0 0 
164 0 0 
165 0 0 
160 0 0 
167 0 0 
160 0 0 
161 0 0 
173 0 0 
167 0 0 
174 0 0 
176 0 0 
171 0 0 
177 0 0 
177 0 0 
168 0 0 
174 0 0 
169 0 0 
179 0 0 
176 0 0 
175 0 0 
179 0 0 
174 0 0 
169 0 0 
178 0 0 
175 0 0 
176 0 0 
179 0 0 
177 0 0 
173 0 0 
181 0 0 
180 0 0 
173 0 0 
176 0 0 
178 0 0 
178 0 0 
185 0 0 
180 0 0 
184 0 0 
173 0 0 
182 0 0 
182 0 0 
177 0 0 
181 0 0 
185 0 0 
184 0 0 
180 0 0 
182 0 0 
183 0 0 
181 0 0 
190 0 0 
183 0 0 
179 0 0 
179 0 0 
182 0 0 
184 0 0 
187 0 0 
180 0 0 
179 0 0 
180 0 0 
181 0 0 
183 0 0 
185 0 0 
184 0 0 
182 0 0 
183 0 0 
177 0 0 
183 0 0 
183 0 0 
185 0 0 
182 0 0 
193 0 0 
184 0 0 
188 0 0 
184 0 0 
186 0 0 
184 0 0 
186 0 0 
189 0 0 
181 0 0 
187 0 0 
189 0 0 
181 0 0 
195 0 0 
189 0 0 
182 0 0 
186 0 0 
188 0 0 
185 0 0 
186 0 0 
193 0 0 
188 0 0 
187 0 0 
187 0 0 
192 0 0 
190 0 0 
189 0 0 
183 0 0 
194 0 0 
185 0 0 
185 0 0 
186 0 0 
186 0 0 
189 0 0 
190 0 0 
191 0 0 
192 0 0 
187 0 0 
189 0 0 
192 0 0 
190 0 0 
183 0 0 
190 0 0 
191 0 0 
191 0 0 
186 0 0 
185 0 0 
189 0 0 
185 0 0 
189 0 0 
192 0 0 
190 0 0 
193 0 0 
186 0 0 
189 0 0 
188 0 0 
190 0 0 
183 0 0 
184 0 0 
187 0 0 
185 0 0 
191 0 0 
188 0 0 
192 0 0 
190 0 0 
192 0 0 
185 0 0 
191 0 0 
189 0 0 
191 0 0 
194 0 0 
189 0 0 
188 0 0 
189 0 0 
193 0 0 
189 0 0 
193 0 0 
192 0 0 
195 0 0 
193 0 0 
195 0 0 
192 0 0 
185 0 0 
190 0 0 
190 0 0 
195 0 0 
190 0 0 
193 0 0 
196 0 0 
195 0 0 
189 0 0 
190 0 0 
192 0 0 
191 0 0 
195 0 0 
194 0 0 
194 0 0 
191 0 0 
190 0 0 
191 0 0 
191 0 0 
194 0 0 
0 0 193 
0 0 191 
0 0 182 
0 0 199 
0 0 193 
0 0 194 
0 0 193 
0 0 206 
0 0 186 
0 0 201 
0 0 184 
0 0 196 
0 0 184 
0 0 188 
0 0 201 
0 0 193 
0 0 188 
0 0 184 
0 0 186 
0 0 194 
0 0 198 
0 0 209 
0 0 196 
0 0 175 
0 0 179 
0 0 194 
0 0 188 
0 0 173 
0 0 204 
0 0 184 
0 0 182 
0 0 194 
0 0 193 
0 0 199 
0 0 184 
0 0 198 
0 0 206 
0 0 198 
0 0 201 
0 0 199 
0 0 209 
0 0 189 
0 0 189 
0 0 188 
0 0 191 
0 0 182 
0 0 193 
0 0 206 
0 0 186 
0 0 207 
0 0 198 
0 0 184 
0 0 191 
0 0 179 
0 0 188 
0 0 194 
0 0 196 
0 0 206 
0 0 198 
0 0 186 
0 0 179 
0 0 177 
0 0 186 
0 0 189 
0 0 189 
0 0 193 
0 0 184 
0 0 177 
0 0 177 
0 0 203 
0 0 194 
0 0 198 
0 0 182 
0 0 191 
0 0 182 
0 0 181 
0 0 194 
0 0 194 
0 0 206 
0 0 201 
0 0 189 
0 0 203 
0 0 173 
0 0 193 
0 0 184 
0 0 191 
0 0 189 
0 0 186 
0 0 198 
0 0 177 
0 0 188 
0 0 184 
0 0 177 
0 0 182 
0 0 181 
0 0 193 
0 0 177 
0 0 167 
0 0 204 
0 0 196 
0 0 199 
0 0 196 
0 0 191 
0 0 186 
0 0 193 
0 0 193 
0 0 188 
0 0 184 
0 0 193 
0 0 194 
0 0 175 
0 0 209 
0 0 179 
0 0 188 
0 0 181 
0 0 198 
0 0 203 
0 0 196 
0 0 201 
0 0 196 
0 0 194 
0 0 182 
0 0 182 
0 0 177 
0 0 175 
0 0 186 
0 0 189 
0 0 171 
0 0 189 
0 0 179 
0 0 201 
0 0 194 
0 0 181 
0 0 169 
0 0 179 
0 0 177 
0 0 157 
0 0 184 
0 0 189 
0 0 198 
0 0 181 
0 0 179 
0 0 167 
0 0 196 
0 0 171 
0 0 177 
0 0 175 
0 0 191 
0 0 188 
0 0 179 
0 0 189 
0 0 179 
0 0 173 
0 0 175 
0 0 171 
0 0 158 
0 0 179 
0 0 163 
0 0 178 
0 0 187 
0 0 163 
0 0 182 
0 0 161 
0 0 171 
0 0 155 
0 0 147 
0 0 158 
0 0 175 
0 0 165 
0 0 173 
0 0 169 
0 0 174 
0 0 160 
0 0 171 
0 0 171 
0 0 173 
0 0 161 
0 0 156 
0 0 160 
0 0 155 
0 0 165 
0 0 152 
0 0 153 
0 0 143 
0 0 125 
0 0 141 
0 0 140 
0 0 143 
0 0 171 
30 46 140 
52 77 132 
50 75 123 
52 81 131 
54 81 132 
53 81 139 
55 83 145 
55 83 138 
52 79 122 
55 83 130 
55 81 134 
56 86 129 
53 79 126 
53 79 128 
55 80 126 
55 83 124 
55 84 134 
56 84 130 
54 75 114 
58 87 137 
55 79 122 
106 45 72 
138 0 0 
133 0 0 
151 0 0 
147 0 0 
141 0 0 
150 0 0 
149 0 0 
152 0 0 
148 0 0 
131 0 0 
150 0 0 
148 0 0 
160 0 0 
159 0 0 
157 0 0 
161 0 0 
154 0 0 
164 0 0 
162 0 0 
157 0 0 
161 0 0 
164 0 0 
164 0 0 
165 0 0 
169 0 0 
163 0 0 
158 0 0 
161 0 0 
168 0 0 
176 0 0 
175 0 0 
175 0 0 
177 0 0 
176 0 0 
176 0 0 
171 0 0 
170 0 0 
177 0 0 
167 0 0 
176 0 0 
174 0 0 
181 0 0 
176 0 0 
180 0 0 
175 0 0 
175 0 0 
172 0 0 
178 0 0 
177 0 0 
178 0 0 
180 0 0 
176 0 0 
173 0 0 
182 0 0 
176 0 0 
183 0 0 
183 0 0 
176 0 0 
183 0 0 
178 0 0 
181 0 0 
179 0 0 
176 0 0 
183 0 0 
183 0 0 
177 0 0 
181 0 0 
184 0 0 
181 0 0 
180 0 0 
186 0 0 
186 0 0 
183 0 0 
185 0 0 
176 0 0 
183 0 0 
185 0 0 
180 0 0 
184 0 0 
189 0 0 
184 0 0 
179 0 0 
185 0 0 
185 0 0 
186 0 0 
181 0 0 
184 0 0 
184 0 0 
189 0 0 
190 0 0 
188 0 0 
185 0 0 
189 0 0 
186 0 0 
182 0 0 
187 0 0 
188 0 0 
191 0 0 
185 0 0 
187 0 0 
186 0 0 
181 0 0 
186 0 0 
186 0 0 
184 0 0 
186 0 0 
190 0 0 
182 0 0 
184 0 0 
187 0 0 
190 0 0 
185 0 0 
193 0 0 
190 0 0 
187 0 0 
188 0 0 
188 0 0 
186 0 0 
183 0 0 
190 0 0 
188 0 0 
179 0 0 
191 0 0 
189 0 0 
189 0 0 
192 0 0 
187 0 0 
185 0 0 
184 0 0 
192 0 0 
192 0 0 
193 0 0 
186 0 0 
192 0 0 
192 0 0 
189 0 0 
191 0 0 
192 0 0 
193 0 0 
192 0 0 
193 0 0 
188 0 0 
193 0 0 
191 0 0 
185 0 0 
188 0 0 
192 0 0 
189 0 0 
188 0 0 
194 0 0 
189 0 0 
189 0 0 
187 0 0 
189 0 0 
187 0 0 
187 0 0 
184 0 0 
195 0 0 
191 0 0 
194 0 0 
195 0 0 
194 0 0 
192 0 0 
191 0 0 
192 0 0 
191 0 0 
192 0 0 
188 0 0 
188 0 0 
190 0 0 
189 0 0 
191 0 0 
189 0 0 
194 0 0 
193 0 0 
189 0 0 
189 0 0 
191 0 0 
192 0 0 
187 0 0 
192 0 0 
191 0 0 
195 0 0 
194 0 0 
189 0 0 
188 0 0 
192 0 0 
189 0 0 
192 0 0 
0 0 204 
0 0 171 
0 0 191 
0 0 196 
0 0 191 
0 0 206 
0 0 184 
0 0 199 
0 0 201 
0 0 194 
0 0 196 
0 0 186 
0 0 189 
0 0 199 
0 0 191 
0 0 196 
0 0 194 
0 0 199 
0 0 198 
0 0 194 
0 0 188 
0 0 188 
0 0 188 
0 0 177 
0 0 188 
0 0 194 
0 0 194 
0 0 201 
0 0 184 
0 0 189 
0 0 188 
0 0 193 
0 0 204 
0 0 188 
0 0 203 
0 0 198 
0 0 199 
0 0 182 
0 0 175 
0 0 201 
0 0 198 
0 0 186 
0 0 191 
0 0 188 
0 0 191 
0 0 179 
0 0 179 
0 0 194 
0 0 214 
0 0 204 
0 0 179 
0 0 181 
0 0 181 
0 0 204 
0 0 196 
0 0 193 
0 0 194 
0 0 193 
0 0 189 
0 0 173 
0 0 193 
0 0 184 
0 0 211 
0 0 186 
0 0 203 
0 0 201 
0 0 181 
0 0 196 
0 0 186 
0 0 198 
0 0 182 
0 0 188 
0 0 194 
0 0 201 
0 0 191 
0 0 186 
0 0 188 
0 0 199 
0 0 182 
0 0 181 
0 0 186 
0 0 182 
0 0 204 
0 0 193 
0 0 184 
0 0 201 
0 0 182 
0 0 198 
0 0 188 
0 0 177 
0 0 206 
0 0 189 
0 0 194 
0 0 198 
0 0 193 
0 0 177 
0 0 188 
0 0 193 
0 0 171 
0 0 199 
0 0 167 
0 0 193 
0 0 193 
0 0 186 
0 0 199 
0 0 196 
0 0 198 
0 0 191 
0 0 184 
0 0 169 
0 0 204 
0 0 193 
0 0 194 
0 0 188 
0 0 177 
0 0 189 
0 0 194 
0 0 193 
0 0 194 
0 0 189 
0 0 177 
0 0 182 
0 0 179 
0 0 184 
0 0 186 
0 0 189 
0 0 179 
0 0 173 
0 0 182 
0 0 179 
0 0 194 
0 0 194 
0 0 177 
0 0 182 
0 0 186 
0 0 189 
0 0 177 
0 0 193 
0 0 177 
0 0 186 
0 0 173 
0 0 169 
0 0 177 
0 0 177 
0 0 191 
0 0 188 
0 0 169 
0 0 175 
0 0 169 
0 0 184 
0 0 191 
0 0 163 
0 0 194 
0 0 186 
0 0 179 
0 0 169 
0 0 159 
0 0 179 
0 0 173 
0 0 158 
0 0 174 
0 0 183 
0 0 161 
0 0 181 
0 0 181 
0 0 182 
0 0 163 
0 0 169 
0 0 167 
0 0 179 
0 0 183 
0 0 179 
0 0 175 
0 0 152 
0 0 158 
0 0 173 
0 0 155 
0 0 160 
0 0 162 
0 0 157 
0 0 176 
0 0 144 
0 0 159 
0 0 163 
0 0 155 
0 0 168 
0 0 165 
0 0 145 
0 0 147 
26 41 132 
49 76 121 
49 76 122 
50 74 118 
53 80 125 
53 79 128 
55 84 135 
52 79 123 
53 80 123 
53 79 122 
54 81 108 
54 80 124 
54 82 130 
54 79 129 
53 77 121 
52 76 125 
53 75 110 
54 77 118 
56 81 129 
54 76 127 
50 72 115 
101 48 74 
139 0 0 
130 0 0 
135 0 0 
143 0 0 
134 0 0 
150 0 0 
141 0 0 
142 0 0 
162 0 0 
156 0 0 
150 0 0 
153 0 0 
163 0 0 
150 0 0 
158 0 0 
148 0 0 
156 0 0 
157 0 0 
161 0 0 
159 0 0 
149 0 0 
160 0 0 
164 0 0 
168 0 0 
160 0 0 
162 0 0 
156 0 0 
161 0 0 
162 0 0 
173 0 0 
174 0 0 
155 0 0 
173 0 0 
177 0 0 
171 0 0 
173 0 0 
172 0 0 
171 0 0 
176 0 0 
170 0 0 
180 0 0 
175 0 0 
161 0 0 
177 0 0 
174 0 0 
174 0 0 
179 0 0 
182 0 0 
172 0 0 
183 0 0 
179 0 0 
186 0 0 
178 0 0 
175 0 0 
181 0 0 
183 0 0 
176 0 0 
179 0 0 
184 0 0 
179 0 0 
182 0 0 
180 0 0 
182 0 0 
184 0 0 
178 0 0 
186 0 0 
182 0 0 
172 0 0 
177 0 0 
182 0 0 
183 0 0 
183 0 0 
184 0 0 
187 0 0 
187 0 0 
187 0 0 
187 0 0 
188 0 0 
188 0 0 
185 0 0 
185 0 0 
184 0 0 
186 0 0 
182 0 0 
190 0 0 
186 0 0 
185 0 0 
182 0 0 
190 0 0 
187 0 0 
187 0 0 
181 0 0 
184 0 0 
185 0 0 
186 0 0 
182 0 0 
189 0 0 
185 0 0 
185 0 0 
188 0 0 
189 0 0 
193 0 0 
187 0 0 
189 0 0 
187 0 0 
188 0 0 
189 0 0 
188 0 0 
188 0 0 
188 0 0 
190 0 0 
183 0 0 
186 0 0 
186 0 0 
191 0 0 
191 0 0 
186 0 0 
188 0 0 
187 0 0 
191 0 0 
186 0 0 
193 0 0 
184 0 0 
186 0 0 
188 0 0 
187 0 0 
186 0 0 
190 0 0 
189 0 0 
195 0 0 
188 0 0 
182 0 0 
193 0 0 
194 0 0 
191 0 0 
190 0 0 
189 0 0 
190 0 0 
185 0 0 
193 0 0 
190 0 0 
192 0 0 
182 0 0 
183 0 0 
187 0 0 
192 0 0 
190 0 0 
188 0 0 
191 0 0 
192 0 0 
184 0 0 
190 0 0 
188 0 0 
192 0 0 
190 0 0 
189 0 0 
191 0 0 
188 0 0 
189 0 0 
192 0 0 
195 0 0 
193 0 0 
193 0 0 
194 0 0 
193 0 0 
189 0 0 
193 0 0 
192 0 0 
192 0 0 
188 0 0 
190 0 0 
192 0 0 
191 0 0 
189 0 0 
192 0 0 
189 0 0 
186 0 0 
185 0 0 
193 0 0 
188 0 0 
192 0 0 
192 0 0 
189 0 0 
193 0 0 
190 0 0 
188 0 0 
187 0 0 
192 0 0 
196 0 0 
0 0 203 
0 0 206 
0 0 191 
0 0 179 
0 0 184 
0 0 189 
0 0 193 
0 0 188 
0 0 198 
0 0 196 
0 0 184 
0 0 214 
0 0 206 
0 0 189 
0 0 179 
0 0 206 
0 0 198 
0 0 194 
0 0 193 
0 0 189 
0 0 198 
0 0 194 
0 0 204 
0 0 188 
0 0 206 
0 0 196 
0 0 194 
0 0 189 
0 0 186 
0 0 196 
0 0 186 
0 0 207 
0 0 191 
0 0 191 
0 0 198 
0 0 206 
0 0 184 
0 0 198 
0 0 196 
0 0 193 
0 0 194 
0 0 193 
0 0 181 
0 0 182 
0 0 177 
0 0 181 
0 0 191 
0 0 194 
0 0 189 
0 0 186 
0 0 184 
0 0 188 
0 0 201 
0 0 198 
0 0 184 
0 0 203 
0 0 198 
0 0 182 
0 0 189 
0 0 186 
0 0 196 
0 0 191 
0 0 189 
0 0 179 
0 0 179 
0 0 181 
0 0 201 
0 0 201 
0 0 203 
0 0 198 
0 0 188 
0 0 191 
0 0 206 
0 0 191 
0 0 182 
0 0 184 
0 0 182 
0 0 191 
0 0 188 
0 0 191 
0 0 189 
0 0 188 
0 0 196 
0 0 211 
0 0 198 
0 0 169 
0 0 184 
0 0 193 
0 0 191 
0 0 193 
0 0 189 
0 0 181 
0 0 182 
0 0 179 
0 0 199 
0 0 184 
0 0 186 
0 0 196 
0 0 188 
0 0 186 
0 0 179 
0 0 188 
0 0 184 
0 0 194 
0 0 184 
0 0 198 
0 0 194 
0 0 184 
0 0 186 
0 0 194 
0 0 191 
0 0 191 
0 0 182 
0 0 193 
0 0 189 
0 0 171 
0 0 188 
0 0 186 
0 0 177 
0 0 182 
0 0 182 
0 0 189 
0 0 198 
0 0 177 
0 0 188 
0 0 194 
0 0 177 
0 0 161 
0 0 186 
0 0 175 
0 0 173 
0 0 171 
0 0 196 
0 0 201 
0 0 175 
0 0 201 
0 0 188 
0 0 177 
0 0 173 
0 0 169 
0 0 173 
0 0 182 
0 0 182 
0 0 184 
0 0 182 
0 0 181 
0 0 177 
0 0 175 
0 0 191 
0 0 161 
0 0 163 
0 0 182 
0 0 182 
0 0 177 
0 0 173 
0 0 182 
0 0 194 
0 0 184 
0 0 177 
0 0 172 
0 0 173 
0 0 181 
0 0 171 
0 0 186 
0 0 163 
0 0 177 
0 0 165 
0 0 181 
0 0 171 
0 0 180 
0 0 142 
0 0 150 
0 0 177 
0 0 156 
0 0 165 
0 0 183 
0 0 147 
0 0 173 
0 0 156 
0 0 157 
0 0 159 
0 0 149 
0 0 155 
0 0 147 
0 0 159 
0 0 167 
0 0 144 
0 0 150 
0 0 144 
28 42 140 
48 74 125 
50 76 131 
50 76 133 
51 78 131 
54 83 123 
55 84 130 
52 80 133 
52 79 139 
56 86 129 
54 83 126 
55 79 118 
54 81 128 
55 78 126 
54 80 123 
56 82 134 
53 75 126 
55 82 126 
52 76 120 
55 83 130 
53 77 117 
113 43 51 
127 0 0 
122 0 0 
134 0 0 
142 0 0 
146 0 0 
134 0 0 
153 0 0 
145 0 0 
152 0 0 
153 0 0 
146 0 0 
147 0 0 
158 0 0 
157 0 0 
158 0 0 
153 0 0 
149 0 0 
155 0 0 
164 0 0 
161 0 0 
167 0 0 
171 0 0 
164 0 0 
166 0 0 
167 0 0 
168 0 0 
160 0 0 
172 0 0 
162 0 0 
172 0 0 
171 0 0 
168 0 0 
172 0 0 
178 0 0 
165 0 0 
172 0 0 
183 0 0 
174 0 0 
171 0 0 
166 0 0 
176 0 0 
176 0 0 
176 0 0 
171 0 0 
179 0 0 
174 0 0 
174 0 0 
175 0 0 
174 0 0 
179 0 0 
180 0 0 
181 0 0 
183 0 0 
171 0 0 
175 0 0 
178 0 0 
164 0 0 
174 0 0 
178 0 0 
183 0 0 
181 0 0 
179 0 0 
179 0 0 
185 0 0 
184 0 0 
173 0 0 
190 0 0 
185 0 0 
183 0 0 
176 0 0 
182 0 0 
180 0 0 
185 0 0 
180 0 0 
182 0 0 
186 0 0 
177 0 0 
184 0 0 
185 0 0 
184 0 0 
186 0 0 
185 0 0 
189 0 0 
188 0 0 
184 0 0 
180 0 0 
181 0 0 
182 0 0 
181 0 0 
186 0 0 
185 0 0 
187 0 0 
185 0 0 
189 0 0 
188 0 0 
183 0 0 
186 0 0 
188 0 0 
186 0 0 
188 0 0 
186 0 0 
189 0 0 
188 0 0 
185 0 0 
189 0 0 
183 0 0 
187 0 0 
192 0 0 
188 0 0 
187 0 0 
192 0 0 
189 0 0 
187 0 0 
191 0 0 
194 0 0 
182 0 0 
187 0 0 
185 0 0 
191 0 0 
185 0 0 
187 0 0 
190 0 0 
192 0 0 
192 0 0 
189 0 0 
188 0 0 
187 0 0 
194 0 0 
191 0 0 
189 0 0 
189 0 0 
185 0 0 
192 0 0 
191 0 0 
184 0 0 
193 0 0 
192 0 0 
192 0 0 
193 0 0 
187 0 0 
193 0 0 
190 0 0 
190 0 0 
186 0 0 
192 0 0 
191 0 0 
188 0 0 
192 0 0 
190 0 0 
191 0 0 
189 0 0 
188 0 0 
188 0 0 
185 0 0 
191 0 0 
192 0 0 
189 0 0 
191 0 0 
191 0 0 
192 0 0 
192 0 0 
188 0 0 
193 0 0 
191 0 0 
189 0 0 
192 0 0 
189 0 0 
190 0 0 
185 0 0 
190 0 0 
192 0 0 
191 0 0 
186 0 0 
191 0 0 
192 0 0 
187 0 0 
193 0 0 
190 0 0 
198 0 0 
192 0 0 
189 0 0 
186 0 0 
190 0 0 
186 0 0 
193 0 0 
192 0 0 
192 0 0 
193 0 0 
187 0 0 
0 0 191 
0 0 203 
0 0 194 
0 0 182 
0 0 191 
0 0 177 
0 0 193 
0 0 209 
0 0 182 
0 0 206 
0 0 201 
0 0 199 
0 0 196 
0 0 179 
0 0 191 
0 0 181 
0 0 189 
0 0 201 
0 0 191 
0 0 189 
0 0 186 
0 0 188 
0 0 194 
0 0 198 
0 0 191 
0 0 199 
0 0 196 
0 0 191 
0 0 191 
0 0 196 
0 0 203 
0 0 191 
0 0 204 
0 0 198 
0 0 186 
0 0 182 
0 0 182 
0 0 186 
0 0 184 
0 0 181 
0 0 191 
0 0 196 
0 0 196 
0 0 179 
0 0 201 
0 0 201 
0 0 194 
0 0 181 
0 0 189 
0 0 201 
0 0 181 
0 0 194 
0 0 194 
0 0 207 
0 0 203 
0 0 175 
0 0 201 
0 0 169 
0 0 194 
0 0 196 
0 0 199 
0 0 201 
0 0 193 
0 0 198 
0 0 199 
0 0 171 
0 0 203 
0 0 191 
0 0 193 
0 0 177 
0 0 193 
0 0 196 
0 0 198 
0 0 204 
0 0 189 
0 0 191 
0 0 206 
0 0 181 
0 0 186 
0 0 193 
0 0 177 
0 0 189 
0 0 193 
0 0 191 
0 0 179 
0 0 193 
0 0 193 
0 0 198 
0 0 196 
0 0 198 
0 0 184 
0 0 204 
0 0 193 
0 0 194 
0 0 181 
0 0 189 
0 0 196 
0 0 189 
0 0 186 
0 0 191 
0 0 175 
0 0 194 
0 0 184 
0 0 206 
0 0 199 
0 0 181 
0 0 181 
0 0 184 
0 0 198 
0 0 182 
0 0 186 
0 0 198 
0 0 191 
0 0 196 
0 0 177 
0 0 186 
0 0 188 
0 0 196 
0 0 198 
0 0 198 
0 0 173 
0 0 182 
0 0 186 
0 0 163 
0 0 169 
0 0 179 
0 0 179 
0 0 201 
0 0 189 
0 0 191 
0 0 171 
0 0 186 
0 0 189 
0 0 193 
0 0 186 
0 0 181 
0 0 193 
0 0 181 
0 0 188 
0 0 175 
0 0 182 
0 0 173 
0 0 167 
0 0 189 
0 0 172 
0 0 175 
0 0 177 
0 0 182 
0 0 177 
0 0 198 
0 0 175 
0 0 165 
0 0 175 
0 0 188 
0 0 171 
0 0 181 
0 0 171 
0 0 184 
0 0 159 
0 0 179 
0 0 155 
0 0 181 
0 0 186 
0 0 189 
0 0 153 
0 0 172 
0 0 157 
0 0 159 
0 0 179 
0 0 163 
0 0 174 
0 0 153 
0 0 162 
0 0 167 
0 0 181 
0 0 161 
0 0 186 
0 0 164 
0 0 178 
0 0 155 
0 0 145 
0 0 149 
0 0 149 
0 0 148 
0 0 157 
0 0 153 
0 0 149 
0 0 152 
0 0 147 
28 42 157 
48 71 121 
52 78 124 
51 79 130 
54 81 125 
52 77 117 
57 86 136 
53 81 116 
56 83 133 
53 77 115 
56 84 136 
51 77 115 
54 80 127 
55 82 122 
54 79 129 
57 85 126 
54 79 115 
53 76 107 
52 72 107 
53 78 122 
52 75 105 
108 47 70 
121 0 0 
144 0 0 
135 0 0 
127 0 0 
134 0 0 
135 0 0 
144 0 0 
158 0 0 
149 0 0 
160 0 0 
151 0 0 
156 0 0 
158 0 0 
153 0 0 
151 0 0 
155 0 0 
167 0 0 
156 0 0 
156 0 0 
170 0 0 
165 0 0 
161 0 0 
166 0 0 
156 0 0 
162 0 0 
175 0 0 
170 0 0 
170 0 0 
173 0 0 
170 0 0 
173 0 0 
181 0 0 
172 0 0 
172 0 0 
166 0 0 
174 0 0 
175 0 0 
161 0 0 
186 0 0 
178 0 0 
172 0 0 
176 0 0 
169 0 0 
171 0 0 
177 0 0 
171 0 0 
175 0 0 
179 0 0 
178 0 0 
178 0 0 
184 0 0 
182 0 0 
184 0 0 
178 0 0 
177 0 0 
187 0 0 
182 0 0 
176 0 0 
173 0 0 
185 0 0 
184 0 0 
178 0 0 
178 0 0 
181 0 0 
179 0 0 
186 0 0 
183 0 0 
177 0 0 
183 0 0 
176 0 0 
180 0 0 
175 0 0 
179 0 0 
188 0 0 
172 0 0 
181 0 0 
186 0 0 
182 0 0 
178 0 0 
181 0 0 
182 0 0 
185 0 0 
185 0 0 
181 0 0 
179 0 0 
186 0 0 
184 0 0 
189 0 0 
182 0 0 
186 0 0 
187 0 0 
184 0 0 
189 0 0 
181 0 0 
190 0 0 
186 0 0 
186 0 0 
182 0 0 
187 0 0 
188 0 0 
184 0 0 
188 0 0 
185 0 0 
194 0 0 
188 0 0 
181 0 0 
188 0 0 
188 0 0 
185 0 0 
184 0 0 
188 0 0 
187 0 0 
183 0 0 
187 0 0 
184 0 0 
186 0 0 
189 0 0 
189 0 0 
187 0 0 
191 0 0 
189 0 0 
191 0 0 
186 0 0 
193 0 0 
188 0 0 
187 0 0 
188 0 0 
190 0 0 
188 0 0 
185 0 0 
185 0 0 
190 0 0 
189 0 0 
187 0 0 
192 0 0 
190 0 0 
191 0 0 
190 0 0 
193 0 0 
192 0 0 
189 0 0 
188 0 0 
186 0 0 
188 0 0 
193 0 0 
185 0 0 
195 0 0 
192 0 0 
189 0 0 
186 0 0 
195 0 0 
190 0 0 
186 0 0 
188 0 0 
190 0 0 
192 0 0 
194 0 0 
193 0 0 
189 0 0 
190 0 0 
189 0 0 
191 0 0 
186 0 0 
193 0 0 
183 0 0 
191 0 0 
190 0 0 
194 0 0 
188 0 0 
195 0 0 
189 0 0 
191 0 0 
188 0 0 
195 0 0 
187 0 0 
187 0 0 
186 0 0 
194 0 0 
185 0 0 
189 0 0 
191 0 0 
191 0 0 
193 0 0 
192 0 0 
195 0 0 
197 0 0 
192 0 0 
191 0 0 
187 0 0 
0 0 186 
0 0 186 
0 0 189 
0 0 196 
0 0 191 
0 0 191 
0 0 196 
0 0 193 
0 0 198 
0 0 198 
0 0 171 
0 0 199 
0 0 191 
0 0 220 
0 0 203 
0 0 194 
0 0 188 
0 0 189 
0 0 188 
0 0 189 
0 0 199 
0 0 215 
0 0 204 
0 0 196 
0 0 184 
0 0 201 
0 0 196 
0 0 203 
0 0 191 
0 0 186 
0 0 188 
0 0 179 
0 0 186 
0 0 188 
0 0 201 
0 0 196 
0 0 191 
0 0 188 
0 0 203 
0 0 188 
0 0 189 
0 0 186 
0 0 182 
0 0 189 
0 0 194 
0 0 189 
0 0 193 
0 0 198 
0 0 191 
0 0 186 
0 0 212 
0 0 194 
0 0 179 
0 0 186 
0 0 186 
0 0 184 
0 0 173 
0 0 181 
0 0 193 
0 0 191 
0 0 207 
0 0 199 
0 0 188 
0 0 189 
0 0 167 
0 0 184 
0 0 179 
0 0 188 
0 0 194 
0 0 203 
0 0 175 
0 0 201 
0 0 194 
0 0 191 
0 0 198 
0 0 173 
0 0 194 
0 0 203 
0 0 191 
0 0 186 
0 0 169 
0 0 194 
0 0 196 
0 0 198 
0 0 179 
0 0 199 
0 0 181 
0 0 201 
0 0 186 
0 0 163 
0 0 177 
0 0 186 
0 0 182 
0 0 199 
0 0 179 
0 0 191 
0 0 188 
0 0 194 
0 0 184 
0 0 169 
0 0 175 
0 0 193 
0 0 181 
0 0 191 
0 0 194 
0 0 161 
0 0 181 
0 0 179 
0 0 196 
0 0 199 
0 0 194 
0 0 171 
0 0 186 
0 0 191 
0 0 181 
0 0 173 
0 0 206 
0 0 191 
0 0 181 
0 0 181 
0 0 179 
0 0 188 
0 0 189 
0 0 171 
0 0 179 
0 0 189 
0 0 175 
0 0 179 
0 0 184 
0 0 191 
0 0 179 
0 0 179 
0 0 171 
0 0 177 
0 0 179 
0 0 173 
0 0 163 
0 0 181 
0 0 189 
0 0 186 
0 0 186 
0 0 175 
0 0 159 
0 0 177 
0 0 182 
0 0 198 
0 0 181 
0 0 179 
0 0 175 
0 0 169 
0 0 179 
0 0 196 
0 0 178 
0 0 181 
0 0 167 
0 0 171 
0 0 175 
0 0 151 
0 0 177 
0 0 187 
0 0 163 
0 0 172 
0 0 163 
0 0 177 
0 0 177 
0 0 166 
0 0 175 
0 0 168 
0 0 168 
0 0 157 
0 0 175 
0 0 184 
0 0 165 
0 0 169 
0 0 149 
0 0 166 
0 0 164 
0 0 141 
0 0 164 
0 0 161 
0 0 136 
0 0 157 
0 0 152 
0 0 144 
0 0 160 
0 0 136 
0 0 140 
0 0 141 
0 0 145 
34 52 143 
50 72 120 
49 75 116 
52 77 136 
51 78 122 
51 77 122 
53 80 131 
53 80 128 
52 81 129 
54 80 124 
55 84 125 
53 82 136 
52 77 119 
56 84 131 
52 75 118 
54 79 121 
56 81 132 
55 79 122 
54 77 126 
54 75 122 
54 77 122 
109 40 67 
119 0 0 
124 0 0 
131 0 0 
134 0 0 
149 0 0 
155 0 0 
138 0 0 
151 0 0 
151 0 0 
156 0 0 
142 0 0 
159 0 0 
160 0 0 
158 0 0 
154 0 0 
154 0 0 
150 0 0 
159 0 0 
168 0 0 
161 0 0 
164 0 0 
150 0 0 
158 0 0 
169 0 0 
162 0 0 
165 0 0 
165 0 0 
165 0 0 
173 0 0 
168 0 0 
171 0 0 
165 0 0 
169 0 0 
178 0 0 
180 0 0 
169 0 0 
181 0 0 
165 0 0 
177 0 0 
173 0 0 
178 0 0 
176 0 0 
170 0 0 
175 0 0 
176 0 0 
167 0 0 
168 0 0 
181 0 0 
183 0 0 
181 0 0 
180 0 0 
179 0 0 
179 0 0 
187 0 0 
173 0 0 
181 0 0 
184 0 0 
183 0 0 
178 0 0 
174 0 0 
180 0 0 
176 0 0 
178 0 0 
182 0 0 
184 0 0 
182 0 0 
183 0 0 
181 0 0 
178 0 0 
183 0 0 
180 0 0 
179 0 0 
185 0 0 
180 0 0 
188 0 0 
187 0 0 
180 0 0 
181 0 0 
181 0 0 
190 0 0 
190 0 0 
183 0 0 
182 0 0 
184 0 0 
180 0 0 
190 0 0 
178 0 0 
183 0 0 
182 0 0 
184 0 0 
183 0 0 
190 0 0 
182 0 0 
184 0 0 
185 0 0 
189 0 0 
185 0 0 
189 0 0 
184 0 0 
182 0 0 
181 0 0 
189 0 0 
184 0 0 
184 0 0 
190 0 0 
188 0 0 
184 0 0 
192 0 0 
183 0 0 
185 0 0 
187 0 0 
185 0 0 
189 0 0 
191 0 0 
189 0 0 
185 0 0 
187 0 0 
192 0 0 
184 0 0 
189 0 0 
191 0 0 
185 0 0 
188 0 0 
188 0 0 
195 0 0 
191 0 0 
191 0 0 
191 0 0 
187 0 0 
190 0 0 
184 0 0 
189 0 0 
188 0 0 
185 0 0 
187 0 0 
191 0 0 
188 0 0 
186 0 0 
179 0 0 
190 0 0 
184 0 0 
195 0 0 
186 0 0 
188 0 0 
192 0 0 
187 0 0 
191 0 0 
188 0 0 
191 0 0 
193 0 0 
192 0 0 
187 0 0 
195 0 0 
190 0 0 
187 0 0 
191 0 0 
193 0 0 
192 0 0 
191 0 0 
190 0 0 
191 0 0 
192 0 0 
189 0 0 
193 0 0 
190 0 0 
193 0 0 
193 0 0 
192 0 0 
195 0 0 
186 0 0 
188 0 0 
191 0 0 
193 0 0 
186 0 0 
191 0 0 
192 0 0 
194 0 0 
193 0 0 
193 0 0 
193 0 0 
190 0 0 
192 0 0 
191 0 0 
192 0 0 
193 0 0 
190 0 0 
194 0 0 
189 0 0 
193 0 0 
0 0 186 
0 0 184 
0 0 177 
0 0 177 
0 0 193 
0 0 189 
0 0 196 
0 0 194 
0 0 193 
0 0 189 
0 0 194 
0 0 188 
0 0 199 
0 0 193 
0 0 191 
0 0 198 
0 0 186 
0 0 193 
0 0 184 
0 0 194 
0 0 206 
0 0 204 
0 0 179 
0 0 189 
0 0 204 
0 0 196 
0 0 188 
0 0 171 
0 0 194 
0 0 194 
0 0 177 
0 0 182 
0 0 191 
0 0 179 
0 0 194 
0 0 201 
0 0 203 
0 0 196 
0 0 191 
0 0 189 
0 0 189 
0 0 186 
0 0 184 
0 0 189 
0 0 196 
0 0 188 
0 0 209 
0 0 179 
0 0 196 
0 0 191 
0 0 191 
0 0 189 
0 0 203 
0 0 193 
0 0 184 
0 0 188 
0 0 186 
0 0 181 
0 0 177 
0 0 186 
0 0 198 
0 0 184 
0 0 177 
0 0 182 
0 0 188 
0 0 184 
0 0 181 
0 0 191 
0 0 204 
0 0 177 
0 0 194 
0 0 169 
0 0 188 
0 0 181 
0 0 201 
0 0 188 
0 0 181 
0 0 199 
0 0 194 
0 0 182 
0 0 186 
0 0 175 
0 0 194 
0 0 191 
0 0 184 
0 0 184 
0 0 191 
0 0 173 
0 0 189 
0 0 199 
0 0 177 
0 0 181 
0 0 194 
0 0 182 
0 0 182 
0 0 181 
0 0 179 
0 0 175 
0 0 191 
0 0 171 
0 0 182 
0 0 188 
0 0 194 
0 0 194 
0 0 194 
0 0 199 
0 0 179 
0 0 173 
0 0 191 
0 0 193 
0 0 173 
0 0 179 
0 0 179 
0 0 182 
0 0 181 
0 0 199 
0 0 173 
0 0 186 
0 0 191 
0 0 182 
0 0 157 
0 0 175 
0 0 175 
0 0 167 
0 0 194 
0 0 177 
0 0 173 
0 0 177 
0 0 169 
0 0 177 
0 0 196 
0 0 191 
0 0 184 
0 0 169 
0 0 171 
0 0 175 
0 0 173 
0 0 171 
0 0 177 
0 0 182 
0 0 177 
0 0 184 
0 0 181 
0 0 177 
0 0 173 
0 0 169 
0 0 165 
0 0 177 
0 0 173 
0 0 173 
0 0 186 
0 0 165 
0 0 161 
0 0 174 
0 0 177 
0 0 186 
0 0 173 
0 0 182 
0 0 181 
0 0 181 
0 0 159 
0 0 171 
0 0 171 
0 0 182 
0 0 191 
0 0 167 
0 0 181 
0 0 168 
0 0 166 
0 0 158 
0 0 155 
0 0 167 
0 0 160 
0 0 173 
0 0 157 
0 0 156 
0 0 161 
0 0 160 
0 0 158 
0 0 156 
0 0 164 
0 0 145 
0 0 164 
0 0 145 
0 0 152 
0 0 149 
0 0 149 
0 0 153 
0 0 160 
29 44 130 
50 75 136 
51 77 122 
52 78 116 
53 81 132 
55 83 132 
51 79 123 
51 78 115 
53 81 128 
54 81 132 
53 81 126 
54 80 124 
53 77 122 
56 82 122 
55 81 120 
53 77 120 
57 84 124 
53 78 113 
52 76 118 
52 73 118 
53 77 119 
106 46 76 
137 0 0 
128 0 0 
150 0 0 
131 0 0 
138 0 0 
156 0 0 
142 0 0 
151 0 0 
153 0 0 
147 0 0 
158 0 0 
150 0 0 
141 0 0 
156 0 0 
162 0 0 
162 0 0 
161 0 0 
154 0 0 
168 0 0 
161 0 0 
158 0 0 
165 0 0 
153 0 0 
164 0 0 
165 0 0 
168 0 0 
152 0 0 
163 0 0 
157 0 0 
167 0 0 
169 0 0 
163 0 0 
171 0 0 
166 0 0 
173 0 0 
173 0 0 
178 0 0 
171 0 0 
165 0 0 
165 0 0 
178 0 0 
175 0 0 
168 0 0 
178 0 0 
172 0 0 
173 0 0 
183 0 0 
180 0 0 
178 0 0 
180 0 0 
169 0 0 
174 0 0 
180 0 0 
179 0 0 
178 0 0 
180 0 0 
171 0 0 
178 0 0 
183 0 0 
181 0 0 
185 0 0 
177 0 0 
184 0 0 
177 0 0 
177 0 0 
187 0 0 
178 0 0 
183 0 0 
175 0 0 
182 0 0 
174 0 0 
186 0 0 
182 0 0 
184 0 0 
187 0 0 
184 0 0 
185 0 0 
184 0 0 
188 0 0 
185 0 0 
181 0 0 
177 0 0 
186 0 0 
177 0 0 
181 0 0 
184 0 0 
180 0 0 
185 0 0 
186 0 0 
177 0 0 
185 0 0 
183 0 0 
185 0 0 
183 0 0 
177 0 0 
192 0 0 
184 0 0 
185 0 0 
192 0 0 
188 0 0 
185 0 0 
187 0 0 
188 0 0 
183 0 0 
185 0 0 
187 0 0 
191 0 0 
187 0 0 
182 0 0 
190 0 0 
193 0 0 
186 0 0 
185 0 0 
183 0 0 
189 0 0 
186 0 0 
184 0 0 
181 0 0 
185 0 0 
188 0 0 
188 0 0 
185 0 0 
189 0 0 
185 0 0 
190 0 0 
189 0 0 
191 0 0 
189 0 0 
191 0 0 
190 0 0 
193 0 0 
188 0 0 
188 0 0 
182 0 0 
189 0 0 
183 0 0 
184 0 0 
191 0 0 
185 0 0 
192 0 0 
186 0 0 
193 0 0 
194 0 0 
187 0 0 
193 0 0 
192 0 0 
189 0 0 
187 0 0 
186 0 0 
191 0 0 
191 0 0 
189 0 0 
188 0 0 
189 0 0 
189 0 0 
185 0 0 
192 0 0 
191 0 0 
189 0 0 
187 0 0 
184 0 0 
194 0 0 
189 0 0 
191 0 0 
194 0 0 
196 0 0 
189 0 0 
190 0 0 
191 0 0 
187 0 0 
189 0 0 
189 0 0 
190 0 0 
193 0 0 
194 0 0 
189 0 0 
187 0 0 
193 0 0 
192 0 0 
192 0 0 
189 0 0 
189 0 0 
193 0 0 
192 0 0 
195 0 0 
191 0 0 
191 0 0 
192 0 0 
191 0 0 
0 0 189 
0 0 194 
0 0 188 
0 0 188 
0 0 179 
0 0 196 
0 0 182 
0 0 186 
0 0 196 
0 0 193 
0 0 191 
0 0 184 
0 0 184 
0 0 199 
0 0 188 
0 0 193 
0 0 181 
0 0 198 
0 0 188 
0 0 194 
0 0 196 
0 0 196 
0 0 179 
0 0 184 
0 0 193 
0 0 189 
0 0 173 
0 0 188 
0 0 201 
0 0 188 
0 0 196 
0 0 194 
0 0 191 
0 0 186 
0 0 171 
0 0 181 
0 0 198 
0 0 186 
0 0 186 
0 0 191 
0 0 177 
0 0 182 
0 0 198 
0 0 201 
0 0 196 
0 0 196 
0 0 181 
0 0 188 
0 0 186 
0 0 194 
0 0 188 
0 0 189 
0 0 191 
0 0 175 
0 0 193 
0 0 193 
0 0 182 
0 0 198 
0 0 201 
0 0 173 
0 0 181 
0 0 206 
0 0 182 
0 0 196 
0 0 193 
0 0 184 
0 0 177 
0 0 182 
0 0 182 
0 0 196 
0 0 198 
0 0 198 
0 0 194 
0 0 177 
0 0 189 
0 0 196 
0 0 196 
0 0 184 
0 0 198 
0 0 189 
0 0 196 
0 0 179 
0 0 182 
0 0 173 
0 0 189 
0 0 184 
0 0 199 
0 0 194 
0 0 171 
0 0 204 
0 0 188 
0 0 177 
0 0 182 
0 0 175 
0 0 179 
0 0 177 
0 0 189 
0 0 177 
0 0 186 
0 0 184 
0 0 186 
0 0 189 
0 0 175 
0 0 196 
0 0 193 
0 0 193 
0 0 188 
0 0 194 
0 0 181 
0 0 182 
0 0 182 
0 0 188 
0 0 167 
0 0 189 
0 0 181 
0 0 184 
0 0 184 
0 0 188 
0 0 171 
0 0 184 
0 0 191 
0 0 188 
0 0 188 
0 0 165 
0 0 204 
0 0 191 
0 0 179 
0 0 182 
0 0 169 
0 0 184 
0 0 181 
0 0 184 
0 0 177 
0 0 189 
0 0 177 
0 0 191 
0 0 186 
0 0 177 
0 0 188 
0 0 188 
0 0 182 
0 0 167 
0 0 186 
0 0 161 
0 0 182 
0 0 191 
0 0 177 
0 0 189 
0 0 188 
0 0 193 
0 0 159 
0 0 167 
0 0 175 
0 0 182 
0 0 184 
0 0 177 
0 0 179 
0 0 181 
0 0 167 
0 0 185 
0 0 159 
0 0 181 
0 0 173 
0 0 175 
0 0 177 
0 0 165 
0 0 186 
0 0 183 
0 0 177 
0 0 166 
0 0 179 
0 0 155 
0 0 153 
0 0 144 
0 0 171 
0 0 160 
0 0 162 
0 0 155 
0 0 165 
0 0 163 
0 0 164 
0 0 157 
0 0 152 
0 0 140 
0 0 144 
0 0 150 
0 0 135 
0 0 125 
0 0 128 
29 43 133 
49 73 122 
49 74 120 
50 76 119 
51 79 141 
55 83 133 
55 82 120 
57 88 137 
52 78 119 
53 79 110 
57 84 122 
52 80 117 
54 79 129 
53 78 125 
56 83 120 
53 77 115 
53 80 115 
55 78 114 
53 75 115 
54 77 115 
53 77 103 
113 46 67 
119 0 0 
137 0 0 
138 0 0 
145 0 0 
144 0 0 
136 0 0 
147 0 0 
137 0 0 
141 0 0 
149 0 0 
149 0 0 
157 0 0 
146 0 0 
161 0 0 
166 0 0 
148 0 0 
161 0 0 
143 0 0 
154 0 0 
161 0 0 
165 0 0 
168 0 0 
168 0 0 
173 0 0 
175 0 0 
164 0 0 
166 0 0 
167 0 0 
173 0 0 
164 0 0 
172 0 0 
174 0 0 
169 0 0 
166 0 0 
175 0 0 
171 0 0 
170 0 0 
166 0 0 
163 0 0 
179 0 0 
172 0 0 
174 0 0 
176 0 0 
173 0 0 
181 0 0 
182 0 0 
177 0 0 
180 0 0 
171 0 0 
177 0 0 
179 0 0 
174 0 0 
179 0 0 
175 0 0 
183 0 0 
185 0 0 
183 0 0 
190 0 0 
174 0 0 
185 0 0 
184 0 0 
181 0 0 
182 0 0 
178 0 0 
174 0 0 
180 0 0 
182 0 0 
175 0 0 
187 0 0 
182 0 0 
183 0 0 
176 0 0 
182 0 0 
183 0 0 
184 0 0 
185 0 0 
182 0 0 
186 0 0 
180 0 0 
172 0 0 
180 0 0 
182 0 0 
182 0 0 
191 0 0 
185 0 0 
187 0 0 
180 0 0 
184 0 0 
184 0 0 
184 0 0 
180 0 0 
180 0 0 
181 0 0 
187 0 0 
178 0 0 
184 0 0 
184 0 0 
190 0 0 
186 0 0 
188 0 0 
190 0 0 
190 0 0 
183 0 0 
186 0 0 
183 0 0 
184 0 0 
188 0 0 
189 0 0 
186 0 0 
190 0 0 
184 0 0 
188 0 0 
188 0 0 
187 0 0 
186 0 0 
185 0 0 
194 0 0 
184 0 0 
190 0 0 
188 0 0 
191 0 0 
186 0 0 
195 0 0 
190 0 0 
186 0 0 
188 0 0 
190 0 0 
183 0 0 
189 0 0 
188 0 0 
188 0 0 
189 0 0 
194 0 0 
190 0 0 
189 0 0 
189 0 0 
188 0 0 
184 0 0 
192 0 0 
190 0 0 
191 0 0 
190 0 0 
188 0 0 
188 0 0 
189 0 0 
187 0 0 
188 0 0 
190 0 0 
186 0 0 
189 0 0 
195 0 0 
192 0 0 
192 0 0 
186 0 0 
191 0 0 
189 0 0 
188 0 0 
191 0 0 
186 0 0 
190 0 0 
190 0 0 
193 0 0 
193 0 0 
195 0 0 
186 0 0 
189 0 0 
190 0 0 
192 0 0 
191 0 0 
191 0 0 
194 0 0 
195 0 0 
184 0 0 
191 0 0 
190 0 0 
195 0 0 
190 0 0 
196 0 0 
195 0 0 
189 0 0 
196 0 0 
190 0 0 
191 0 0 
188 0 0 
187 0 0 
191 0 0 
189 0 0 
191 0 0 
194 0 0 
0 0 179 
0 0 196 
0 0 188 
0 0 182 
0 0 193 
0 0 203 
0 0 189 
0 0 194 
0 0 193 
0 0 181 
0 0 191 
0 0 181 
0 0 189 
0 0 201 
0 0 203 
0 0 207 
0 0 194 
0 0 188 
0 0 186 
0 0 194 
0 0 203 
0 0 198 
0 0 184 
0 0 198 
0 0 193 
0 0 163 
0 0 194 
0 0 182 
0 0 196 
0 0 191 
0 0 196 
0 0 189 
0 0 199 
0 0 188 
0 0 199 
0 0 199 
0 0 186 
0 0 189 
0 0 184 
0 0 181 
0 0 193 
0 0 199 
0 0 196 
0 0 188 
0 0 203 
0 0 177 
0 0 199 
0 0 189 
0 0 203 
0 0 188 
0 0 191 
0 0 189 
0 0 188 
0 0 198 
0 0 189 
0 0 171 
0 0 204 
0 0 203 
0 0 184 
0 0 186 
0 0 175 
0 0 171 
0 0 194 
0 0 177 
0 0 181 
0 0 196 
0 0 179 
0 0 182 
0 0 189 
0 0 181 
0 0 169 
0 0 191 
0 0 188 
0 0 179 
0 0 194 
0 0 184 
0 0 184 
0 0 182 
0 0 179 
0 0 182 
0 0 182 
0 0 177 
0 0 186 
0 0 201 
0 0 194 
0 0 191 
0 0 181 
0 0 184 
0 0 173 
0 0 186 
0 0 188 
0 0 193 
0 0 184 
0 0 182 
0 0 189 
0 0 173 
0 0 177 
0 0 175 
0 0 189 
0 0 191 
0 0 206 
0 0 184 
0 0 171 
0 0 189 
0 0 206 
0 0 177 
0 0 194 
0 0 186 
0 0 181 
0 0 177 
0 0 193 
0 0 189 
0 0 179 
0 0 179 
0 0 194 
0 0 175 
0 0 188 
0 0 179 
0 0 194 
0 0 184 
0 0 188 
0 0 186 
0 0 188 
0 0 186 
0 0 169 
0 0 173 
0 0 189 
0 0 199 
0 0 169 
0 0 191 
0 0 203 
0 0 184 
0 0 184 
0 0 181 
0 0 181 
0 0 184 
0 0 175 
0 0 181 
0 0 173 
0 0 169 
0 0 181 
0 0 179 
0 0 184 
0 0 157 
0 0 179 
0 0 171 
0 0 179 
0 0 189 
0 0 182 
0 0 182 
0 0 159 
0 0 179 
0 0 175 
0 0 177 
0 0 160 
0 0 179 
0 0 184 
0 0 182 
0 0 179 
0 0 159 
0 0 169 
0 0 177 
0 0 172 
0 0 163 
0 0 175 
0 0 171 
0 0 181 
0 0 151 
0 0 173 
0 0 156 
0 0 164 
0 0 178 
0 0 152 
0 0 164 
0 0 161 
0 0 154 
0 0 168 
0 0 143 
0 0 155 
0 0 129 
0 0 151 
0 0 157 
0 0 145 
0 0 147 
0 0 141 
0 0 154 
0 0 152 
0 0 162 
0 0 145 
28 44 141 
47 72 122 
51 76 117 
50 77 130 
49 76 107 
49 68 117 
51 78 126 
55 81 126 
55 84 129 
54 81 132 
51 73 110 
55 82 124 
57 84 125 
54 81 122 
54 79 127 
53 76 121 
56 81 125 
53 74 107 
53 78 114 
53 71 99 
50 73 110 
107 42 62 
132 0 0 
145 0 0 
143 0 0 
126 0 0 
129 0 0 
138 0 0 
133 0 0 
143 0 0 
148 0 0 
160 0 0 
158 0 0 
147 0 0 
148 0 0 
163 0 0 
144 0 0 
152 0 0 
162 0 0 
159 0 0 
168 0 0 
167 0 0 
152 0 0 
147 0 0 
161 0 0 
164 0 0 
171 0 0 
170 0 0 
166 0 0 
168 0 0 
178 0 0 
165 0 0 
170 0 0 
169 0 0 
175 0 0 
164 0 0 
177 0 0 
171 0 0 
172 0 0 
173 0 0 
177 0 0 
170 0 0 
180 0 0 
172 0 0 
178 0 0 
169 0 0 
173 0 0 
180 0 0 
176 0 0 
181 0 0 
175 0 0 
177 0 0 
184 0 0 
183 0 0 
178 0 0 
174 0 0 
178 0 0 
166 0 0 
180 0 0 
176 0 0 
181 0 0 
189 0 0 
182 0 0 
181 0 0 
182 0 0 
181 0 0 
180 0 0 
184 0 0 
178 0 0 
183 0 0 
181 0 0 
184 0 0 
185 0 0 
179 0 0 
178 0 0 
188 0 0 
186 0 0 
183 0 0 
178 0 0 
177 0 0 
184 0 0 
187 0 0 
182 0 0 
178 0 0 
178 0 0 
184 0 0 
184 0 0 
182 0 0 
187 0 0 
186 0 0 
187 0 0 
187 0 0 
186 0 0 
182 0 0 
186 0 0 
181 0 0 
190 0 0 
179 0 0 
186 0 0 
180 0 0 
185 0 0 
183 0 0 
182 0 0 
188 0 0 
189 0 0 
186 0 0 
181 0 0 
187 0 0 
185 0 0 
184 0 0 
191 0 0 
187 0 0 
184 0 0 
188 0 0 
187 0 0 
189 0 0 
181 0 0 
186 0 0 
192 0 0 
184 0 0 
186 0 0 
190 0 0 
186 0 0 
186 0 0 
188 0 0 
179 0 0 
181 0 0 
190 0 0 
191 0 0 
189 0 0 
189 0 0 
189 0 0 
184 0 0 
184 0 0 
188 0 0 
186 0 0 
191 0 0 
188 0 0 
186 0 0 
192 0 0 
193 0 0 
192 0 0 
191 0 0 
182 0 0 
194 0 0 
189 0 0 
192 0 0 
196 0 0 
192 0 0 
192 0 0 
187 0 0 
186 0 0 
191 0 0 
191 0 0 
191 0 0 
188 0 0 
190 0 0 
182 0 0 
192 0 0 
196 0 0 
196 0 0 
192 0 0 
192 0 0 
185 0 0 
189 0 0 
194 0 0 
193 0 0 
184 0 0 
192 0 0 
191 0 0 
190 0 0 
191 0 0 
194 0 0 
191 0 0 
189 0 0 
184 0 0 
188 0 0 
191 0 0 
194 0 0 
193 0 0 
191 0 0 
194 0 0 
189 0 0 
190 0 0 
193 0 0 
194 0 0 
187 0 0 
185 0 0 
192 0 0 
190 0 0 
190 0 0 
0 0 169 
0 0 184 
0 0 194 
0 0 201 
0 0 207 
0 0 188 
0 0 181 
0 0 186 
0 0 184 
0 0 194 
0 0 201 
0 0 177 
0 0 186 
0 0 191 
0 0 189 
0 0 189 
0 0 181 
0 0 188 
0 0 173 
0 0 189 
0 0 191 
0 0 194 
0 0 199 
0 0 182 
0 0 179 
0 0 177 
0 0 188 
0 0 184 
0 0 194 
0 0 198 
0 0 189 
0 0 184 
0 0 206 
0 0 181 
0 0 177 
0 0 188 
0 0 188 
0 0 191 
0 0 163 
0 0 194 
0 0 194 
0 0 181 
0 0 181 
0 0 201 
0 0 199 
0 0 181 
0 0 181 
0 0 184 
0 0 186 
0 0 189 
0 0 188 
0 0 186 
0 0 186 
0 0 188 
0 0 191 
0 0 191 
0 0 175 
0 0 198 
0 0 173 
0 0 194 
0 0 198 
0 0 193 
0 0 186 
0 0 163 
0 0 188 
0 0 186 
0 0 193 
0 0 184 
0 0 181 
0 0 182 
0 0 191 
0 0 193 
0 0 182 
0 0 188 
0 0 191 
0 0 194 
0 0 186 
0 0 207 
0 0 188 
0 0 198 
0 0 181 
0 0 193 
0 0 184 
0 0 198 
0 0 182 
0 0 182 
0 0 186 
0 0 186 
0 0 181 
0 0 199 
0 0 184 
0 0 177 
0 0 191 
0 0 196 
0 0 189 
0 0 177 
0 0 171 
0 0 181 
0 0 193 
0 0 203 
0 0 167 
0 0 188 
0 0 189 
0 0 175 
0 0 181 
0 0 199 
0 0 182 
0 0 186 
0 0 179 
0 0 188 
0 0 186 
0 0 196 
0 0 191 
0 0 181 
0 0 194 
0 0 188 
0 0 182 
0 0 175 
0 0 182 
0 0 173 
0 0 159 
0 0 157 
0 0 179 
0 0 199 
0 0 179 
0 0 179 
0 0 182 
0 0 181 
0 0 186 
0 0 184 
0 0 182 
0 0 198 
0 0 167 
0 0 181 
0 0 175 
0 0 201 
0 0 182 
0 0 179 
0 0 165 
0 0 157 
0 0 177 
0 0 175 
0 0 177 
0 0 171 
0 0 169 
0 0 181 
0 0 179 
0 0 175 
0 0 182 
0 0 153 
0 0 169 
0 0 168 
0 0 184 
0 0 167 
0 0 163 
0 0 159 
0 0 163 
0 0 171 
0 0 170 
0 0 175 
0 0 179 
0 0 165 
0 0 163 
0 0 167 
0 0 161 
0 0 158 
0 0 149 
0 0 163 
0 0 180 
0 0 160 
0 0 165 
0 0 158 
0 0 151 
0 0 147 
0 0 154 
0 0 155 
0 0 151 
0 0 167 
0 0 167 
0 0 159 
0 0 139 
0 0 153 
0 0 151 
0 0 153 
0 0 156 
0 0 142 
0 0 150 
0 0 124 
0 0 153 
29 44 138 
47 71 121 
51 80 137 
50 77 115 
52 78 119 
53 81 117 
52 80 111 
50 77 121 
50 75 111 
56 83 124 
54 76 117 
51 77 121 
52 75 112 
53 79 118 
54 81 120 
53 79 121 
53 77 117 
54 78 114 
53 78 118 
57 81 124 
52 74 111 
100 36 47 
128 0 0 
120 0 0 
133 0 0 
137 0 0 
146 0 0 
140 0 0 
149 0 0 
147 0 0 
148 0 0 
156 0 0 
151 0 0 
151 0 0 
155 0 0 
147 0 0 
148 0 0 
158 0 0 
163 0 0 
165 0 0 
155 0 0 
157 0 0 
155 0 0 
163 0 0 
166 0 0 
172 0 0 
172 0 0 
161 0 0 
164 0 0 
166 0 0 
162 0 0 
166 0 0 
163 0 0 
160 0 0 
170 0 0 
160 0 0 
168 0 0 
175 0 0 
168 0 0 
177 0 0 
180 0 0 
166 0 0 
175 0 0 
175 0 0 
179 0 0 
166 0 0 
164 0 0 
174 0 0 
173 0 0 
177 0 0 
176 0 0 
166 0 0 
177 0 0 
180 0 0 
171 0 0 
175 0 0 
173 0 0 
178 0 0 
179 0 0 
181 0 0 
182 0 0 
181 0 0 
180 0 0 
183 0 0 
182 0 0 
180 0 0 
180 0 0 
172 0 0 
184 0 0 
176 0 0 
180 0 0 
181 0 0 
174 0 0 
183 0 0 
183 0 0 
177 0 0 
177 0 0 
184 0 0 
179 0 0 
185 0 0 
182 0 0 
186 0 0 
183 0 0 
182 0 0 
188 0 0 
179 0 0 
183 0 0 
179 0 0 
186 0 0 
185 0 0 
181 0 0 
182 0 0 
187 0 0 
187 0 0 
183 0 0 
181 0 0 
181 0 0 
181 0 0 
183 0 0 
187 0 0 
184 0 0 
187 0 0 
184 0 0 
187 0 0 
182 0 0 
181 0 0 
185 0 0 
186 0 0 
187 0 0 
183 0 0 
184 0 0 
182 0 0 
183 0 0 
190 0 0 
179 0 0 
185 0 0 
186 0 0 
188 0 0 
185 0 0 
181 0 0 
183 0 0 
187 0 0 
188 0 0 
191 0 0 
188 0 0 
188 0 0 
190 0 0 
185 0 0 
187 0 0 
189 0 0 
188 0 0 
189 0 0 
188 0 0 
188 0 0 
185 0 0 
186 0 0 
185 0 0 
192 0 0 
192 0 0 
196 0 0 
189 0 0 
192 0 0 
190 0 0 
187 0 0 
189 0 0 
187 0 0 
183 0 0 
189 0 0 
188 0 0 
191 0 0 
193 0 0 
188 0 0 
187 0 0 
186 0 0 
192 0 0 
195 0 0 
193 0 0 
193 0 0 
194 0 0 
193 0 0 
187 0 0 
189 0 0 
188 0 0 
187 0 0 
186 0 0 
189 0 0 
188 0 0 
189 0 0 
194 0 0 
191 0 0 
188 0 0 
192 0 0 
192 0 0 
187 0 0 
187 0 0 
193 0 0 
189 0 0 
191 0 0 
192 0 0 
192 0 0 
192 0 0 
193 0 0 
192 0 0 
192 0 0 
191 0 0 
187 0 0 
190 0 0 
189 0 0 
192 0 0 
190 0 0 
190 0 0 
0 0 207 
0 0 193 
0 0 203 
0 0 182 
0 0 191 
0 0 194 
0 0 193 
0 0 193 
0 0 186 
0 0 186 
0 0 196 
0 0 177 
0 0 188 
0 0 189 
0 0 189 
0 0 181 
0 0 201 
0 0 175 
0 0 184 
0 0 201 
0 0 189 
0 0 191 
0 0 189 
0 0 175 
0 0 179 
0 0 175 
0 0 182 
0 0 189 
0 0 194 
0 0 184 
0 0 189 
0 0 199 
0 0 203 
0 0 196 
0 0 188 
0 0 198 
0 0 181 
0 0 189 
0 0 179 
0 0 203 
0 0 186 
0 0 194 
0 0 199 
0 0 179 
0 0 191 
0 0 199 
0 0 196 
0 0 189 
0 0 179 
0 0 193 
0 0 196 
0 0 182 
0 0 186 
0 0 193 
0 0 194 
0 0 201 
0 0 194 
0 0 182 
0 0 191 
0 0 189 
0 0 191 
0 0 193 
0 0 189 
0 0 171 
0 0 184 
0 0 193 
0 0 179 
0 0 179 
0 0 184 
0 0 182 
0 0 179 
0 0 193 
0 0 194 
0 0 194 
0 0 177 
0 0 188 
0 0 199 
0 0 194 
0 0 191 
0 0 191 
0 0 179 
0 0 181 
0 0 189 
0 0 184 
0 0 193 
0 0 198 
0 0 193 
0 0 165 
0 0 191 
0 0 181 
0 0 188 
0 0 184 
0 0 189 
0 0 181 
0 0 198 
0 0 184 
0 0 181 
0 0 186 
0 0 196 
0 0 199 
0 0 181 
0 0 193 
0 0 186 
0 0 181 
0 0 186 
0 0 181 
0 0 188 
0 0 196 
0 0 182 
0 0 167 
0 0 186 
0 0 173 
0 0 191 
0 0 177 
0 0 193 
0 0 188 
0 0 181 
0 0 189 
0 0 169 
0 0 175 
0 0 203 
0 0 182 
0 0 203 
0 0 179 
0 0 177 
0 0 186 
0 0 188 
0 0 177 
0 0 177 
0 0 161 
0 0 173 
0 0 179 
0 0 184 
0 0 163 
0 0 184 
0 0 175 
0 0 191 
0 0 165 
0 0 186 
0 0 173 
0 0 184 
0 0 165 
0 0 169 
0 0 173 
0 0 182 
0 0 194 
0 0 175 
0 0 184 
0 0 163 
0 0 173 
0 0 173 
0 0 175 
0 0 181 
0 0 153 
0 0 182 
0 0 181 
0 0 179 
0 0 173 
0 0 175 
0 0 193 
0 0 189 
0 0 171 
0 0 161 
0 0 175 
0 0 160 
0 0 177 
0 0 163 
0 0 178 
0 0 167 
0 0 158 
0 0 161 
0 0 171 
0 0 170 
0 0 167 
0 0 177 
0 0 158 
0 0 153 
0 0 170 
0 0 161 
0 0 156 
0 0 145 
0 0 143 
0 0 150 
0 0 134 
0 0 151 
0 0 134 
0 0 138 
0 0 141 
0 0 153 
31 46 136 
48 75 124 
51 78 124 
51 77 126 
50 74 115 
55 83 127 
50 74 118 
53 81 132 
55 82 121 
54 81 120 
54 82 123 
55 81 130 
52 77 118 
52 74 111 
54 81 122 
54 77 115 
53 80 110 
53 74 118 
53 79 115 
54 78 117 
53 77 103 
120 45 60 
136 0 0 
134 0 0 
137 0 0 
128 0 0 
130 0 0 
136 0 0 
131 0 0 
137 0 0 
140 0 0 
147 0 0 
149 0 0 
163 0 0 
151 0 0 
143 0 0 
163 0 0 
158 0 0 
156 0 0 
155 0 0 
151 0 0 
164 0 0 
157 0 0 
168 0 0 
157 0 0 
170 0 0 
160 0 0 
156 0 0 
168 0 0 
172 0 0 
168 0 0 
168 0 0 
172 0 0 
159 0 0 
178 0 0 
169 0 0 
173 0 0 
178 0 0 
169 0 0 
172 0 0 
179 0 0 
169 0 0 
175 0 0 
168 0 0 
170 0 0 
181 0 0 
177 0 0 
177 0 0 
179 0 0 
170 0 0 
180 0 0 
183 0 0 
178 0 0 
169 0 0 
182 0 0 
182 0 0 
189 0 0 
170 0 0 
184 0 0 
175 0 0 
177 0 0 
180 0 0 
179 0 0 
183 0 0 
174 0 0 
185 0 0 
181 0 0 
172 0 0 
185 0 0 
177 0 0 
179 0 0 
181 0 0 
186 0 0 
183 0 0 
184 0 0 
184 0 0 
179 0 0 
186 0 0 
180 0 0 
184 0 0 
185 0 0 
181 0 0 
187 0 0 
180 0 0 
179 0 0 
185 0 0 
182 0 0 
177 0 0 
182 0 0 
184 0 0 
177 0 0 
183 0 0 
181 0 0 
185 0 0 
186 0 0 
184 0 0 
194 0 0 
182 0 0 
183 0 0 
186 0 0 
186 0 0 
187 0 0 
183 0 0 
185 0 0 
189 0 0 
184 0 0 
185 0 0 
190 0 0 
184 0 0 
181 0 0 
185 0 0 
188 0 0 
187 0 0 
188 0 0 
180 0 0 
188 0 0 
193 0 0 
185 0 0 
186 0 0 
186 0 0 
187 0 0 
185 0 0 
181 0 0 
188 0 0 
184 0 0 
186 0 0 
188 0 0 
189 0 0 
191 0 0 
189 0 0 
188 0 0 
188 0 0 
185 0 0 
191 0 0 
192 0 0 
180 0 0 
184 0 0 
189 0 0 
185 0 0 
192 0 0 
191 0 0 
187 0 0 
190 0 0 
187 0 0 
190 0 0 
187 0 0 
194 0 0 
192 0 0 
190 0 0 
189 0 0 
185 0 0 
187 0 0 
189 0 0 
189 0 0 
192 0 0 
191 0 0 
188 0 0 
191 0 0 
188 0 0 
186 0 0 
188 0 0 
186 0 0 
190 0 0 
193 0 0 
191 0 0 
188 0 0 
191 0 0 
186 0 0 
198 0 0 
187 0 0 
194 0 0 
189 0 0 
192 0 0 
193 0 0 
191 0 0 
190 0 0 
193 0 0 
189 0 0 
185 0 0 
186 0 0 
193 0 0 
190 0 0 
191 0 0 
188 0 0 
190 0 0 
183 0 0 
189 0 0 
189 0 0 
187 0 0 
190 0 0 
191 0 0 
0 0 186 
0 0 167 
0 0 193 
0 0 199 
0 0 189 
0 0 171 
0 0 204 
0 0 186 
0 0 189 
0 0 204 
0 0 189 
0 0 194 
0 0 193 
0 0 182 
0 0 193 
0 0 196 
0 0 171 
0 0 191 
0 0 198 
0 0 198 
0 0 201 
0 0 191 
0 0 184 
0 0 189 
0 0 175 
0 0 186 
0 0 199 
0 0 186 
0 0 186 
0 0 189 
0 0 182 
0 0 186 
0 0 198 
0 0 194 
0 0 188 
0 0 177 
0 0 193 
0 0 201 
0 0 201 
0 0 196 
0 0 191 
0 0 196 
0 0 177 
0 0 199 
0 0 194 
0 0 179 
0 0 188 
0 0 196 
0 0 184 
0 0 179 
0 0 181 
0 0 194 
0 0 188 
0 0 209 
0 0 199 
0 0 179 
0 0 189 
0 0 177 
0 0 184 
0 0 188 
0 0 188 
0 0 186 
0 0 198 
0 0 189 
0 0 199 
0 0 203 
0 0 198 
0 0 196 
0 0 193 
0 0 193 
0 0 196 
0 0 189 
0 0 189 
0 0 181 
0 0 199 
0 0 186 
0 0 181 
0 0 194 
0 0 201 
0 0 175 
0 0 196 
0 0 189 
0 0 189 
0 0 186 
0 0 169 
0 0 186 
0 0 175 
0 0 196 
0 0 171 
0 0 186 
0 0 179 
0 0 188 
0 0 191 
0 0 198 
0 0 169 
0 0 182 
0 0 177 
0 0 198 
0 0 189 
0 0 167 
0 0 181 
0 0 199 
0 0 175 
0 0 193 
0 0 189 
0 0 181 
0 0 179 
0 0 181 
0 0 194 
0 0 179 
0 0 194 
0 0 196 
0 0 177 
0 0 196 
0 0 184 
0 0 165 
0 0 173 
0 0 175 
0 0 196 
0 0 189 
0 0 165 
0 0 191 
0 0 177 
0 0 181 
0 0 188 
0 0 191 
0 0 173 
0 0 181 
0 0 175 
0 0 196 
0 0 171 
0 0 177 
0 0 175 
0 0 184 
0 0 175 
0 0 191 
0 0 173 
0 0 182 
0 0 188 
0 0 189 
0 0 171 
0 0 171 
0 0 181 
0 0 169 
0 0 179 
0 0 175 
0 0 189 
0 0 186 
0 0 163 
0 0 181 
0 0 181 
0 0 175 
0 0 171 
0 0 157 
0 0 163 
0 0 175 
0 0 159 
0 0 166 
0 0 164 
0 0 149 
0 0 181 
0 0 161 
0 0 158 
0 0 180 
0 0 156 
0 0 153 
0 0 154 
0 0 147 
0 0 162 
0 0 176 
0 0 128 
0 0 155 
0 0 171 
0 0 179 
0 0 162 
0 0 154 
0 0 133 
0 0 157 
0 0 158 
0 0 147 
0 0 152 
0 0 135 
0 0 147 
0 0 156 
0 0 154 
0 0 149 
0 0 151 
0 0 140 
0 0 131 
34 51 137 
48 73 118 
51 79 136 
51 80 124 
53 81 126 
53 82 133 
53 80 123 
53 80 118 
53 79 117 
53 80 125 
51 77 118 
56 82 120 
54 83 132 
54 81 122 
54 79 114 
55 83 136 
53 71 110 
52 79 113 
51 75 111 
52 71 107 
52 73 116 
99 44 60 
114 0 0 
119 0 0 
136 0 0 
144 0 0 
134 0 0 
148 0 0 
152 0 0 
139 0 0 
153 0 0 
162 0 0 
156 0 0 
137 0 0 
156 0 0 
152 0 0 
146 0 0 
149 0 0 
160 0 0 
157 0 0 
162 0 0 
155 0 0 
158 0 0 
149 0 0 
157 0 0 
164 0 0 
169 0 0 
156 0 0 
161 0 0 
162 0 0 
162 0 0 
170 0 0 
161 0 0 
162 0 0 
166 0 0 
167 0 0 
169 0 0 
172 0 0 
169 0 0 
175 0 0 
172 0 0 
174 0 0 
161 0 0 
173 0 0 
171 0 0 
176 0 0 
176 0 0 
177 0 0 
182 0 0 
183 0 0 
179 0 0 
179 0 0 
173 0 0 
182 0 0 
180 0 0 
178 0 0 
182 0 0 
178 0 0 
184 0 0 
183 0 0 
177 0 0 
184 0 0 
181 0 0 
172 0 0 
177 0 0 
179 0 0 
176 0 0 
181 0 0 
181 0 0 
178 0 0 
177 0 0 
186 0 0 
179 0 0 
181 0 0 
186 0 0 
184 0 0 
184 0 0 
182 0 0 
182 0 0 
186 0 0 
189 0 0 
182 0 0 
183 0 0 
181 0 0 
178 0 0 
180 0 0 
183 0 0 
187 0 0 
184 0 0 
179 0 0 
179 0 0 
179 0 0 
182 0 0 
179 0 0 
182 0 0 
185 0 0 
186 0 0 
185 0 0 
188 0 0 
190 0 0 
183 0 0 
193 0 0 
187 0 0 
185 0 0 
189 0 0 
188 0 0 
194 0 0 
193 0 0 
190 0 0 
178 0 0 
186 0 0 
189 0 0 
190 0 0 
184 0 0 
186 0 0 
186 0 0 
189 0 0 
188 0 0 
187 0 0 
185 0 0 
191 0 0 
188 0 0 
183 0 0 
189 0 0 
190 0 0 
189 0 0 
192 0 0 
187 0 0 
188 0 0 
190 0 0 
185 0 0 
191 0 0 
187 0 0 
192 0 0 
187 0 0 
193 0 0 
192 0 0 
189 0 0 
190 0 0 
190 0 0 
186 0 0 
189 0 0 
191 0 0 
191 0 0 
193 0 0 
193 0 0 
187 0 0 
187 0 0 
187 0 0 
192 0 0 
188 0 0 
191 0 0 
195 0 0 
193 0 0 
191 0 0 
191 0 0 
188 0 0 
188 0 0 
191 0 0 
192 0 0 
188 0 0 
191 0 0 
194 0 0 
189 0 0 
192 0 0 
186 0 0 
184 0 0 
189 0 0 
183 0 0 
195 0 0 
193 0 0 
192 0 0 
189 0 0 
189 0 0 
189 0 0 
190 0 0 
193 0 0 
189 0 0 
194 0 0 
186 0 0 
189 0 0 
186 0 0 
190 0 0 
192 0 0 
189 0 0 
188 0 0 
192 0 0 
194 0 0 
190 0 0 
193 0 0 
191 0 0 
0 0 201 
0 0 179 
0 0 193 
0 0 204 
0 0 189 
0 0 171 
0 0 196 
0 0 175 
0 0 188 
0 0 207 
0 0 209 
0 0 191 
0 0 193 
0 0 196 
0 0 193 
0 0 186 
0 0 203 
0 0 207 
0 0 184 
0 0 189 
0 0 182 
0 0 177 
0 0 201 
0 0 186 
0 0 196 
0 0 191 
0 0 181 
0 0 179 
0 0 189 
0 0 188 
0 0 198 
0 0 181 
0 0 194 
0 0 163 
0 0 198 
0 0 165 
0 0 188 
0 0 188 
0 0 201 
0 0 173 
0 0 194 
0 0 175 
0 0 191 
0 0 191 
0 0 188 
0 0 184 
0 0 182 
0 0 186 
0 0 173 
0 0 186 
0 0 196 
0 0 163 
0 0 194 
0 0 181 
0 0 198 
0 0 193 
0 0 179 
0 0 189 
0 0 193 
0 0 189 
0 0 182 
0 0 191 
0 0 189 
0 0 186 
0 0 194 
0 0 193 
0 0 199 
0 0 182 
0 0 181 
0 0 184 
0 0 199 
0 0 175 
0 0 196 
0 0 179 
0 0 182 
0 0 189 
0 0 184 
0 0 196 
0 0 165 
0 0 169 
0 0 182 
0 0 182 
0 0 177 
0 0 196 
0 0 198 
0 0 199 
0 0 196 
0 0 189 
0 0 184 
0 0 191 
0 0 179 
0 0 177 
0 0 196 
0 0 194 
0 0 179 
0 0 194 
0 0 196 
0 0 177 
0 0 189 
0 0 188 
0 0 161 
0 0 175 
0 0 179 
0 0 189 
0 0 191 
0 0 184 
0 0 193 
0 0 165 
0 0 163 
0 0 184 
0 0 201 
0 0 191 
0 0 193 
0 0 179 
0 0 181 
0 0 177 
0 0 199 
0 0 186 
0 0 177 
0 0 165 
0 0 169 
0 0 188 
0 0 186 
0 0 182 
0 0 167 
0 0 159 
0 0 169 
0 0 189 
0 0 189 
0 0 169 
0 0 184 
0 0 173 
0 0 188 
0 0 188 
0 0 165 
0 0 179 
0 0 184 
0 0 171 
0 0 189 
0 0 177 
0 0 173 
0 0 171 
0 0 182 
0 0 189 
0 0 163 
0 0 169 
0 0 175 
0 0 181 
0 0 167 
0 0 171 
0 0 182 
0 0 173 
0 0 155 
0 0 165 
0 0 159 
0 0 163 
0 0 169 
0 0 189 
0 0 188 
0 0 179 
0 0 184 
0 0 171 
0 0 164 
0 0 165 
0 0 157 
0 0 162 
0 0 171 
0 0 159 
0 0 137 
0 0 166 
0 0 161 
0 0 162 
0 0 160 
0 0 156 
0 0 157 
0 0 143 
0 0 159 
0 0 161 
0 0 158 
0 0 152 
0 0 154 
0 0 162 
0 0 137 
0 0 150 
0 0 145 
0 0 130 
0 0 141 
0 0 150 
0 0 148 
34 52 140 
52 79 122 
50 76 120 
50 75 115 
54 79 125 
50 73 120 
53 82 121 
53 82 129 
54 80 125 
54 81 120 
53 81 129 
54 82 126 
53 76 112 
57 84 130 
53 78 115 
53 74 111 
52 73 112 
55 83 117 
54 77 121 
55 77 100 
51 74 108 
100 47 72 
132 0 0 
135 0 0 
129 0 0 
136 0 0 
155 0 0 
147 0 0 
143 0 0 
140 0 0 
144 0 0 
141 0 0 
145 0 0 
151 0 0 
144 0 0 
150 0 0 
153 0 0 
157 0 0 
155 0 0 
150 0 0 
152 0 0 
164 0 0 
161 0 0 
165 0 0 
163 0 0 
169 0 0 
160 0 0 
151 0 0 
172 0 0 
166 0 0 
163 0 0 
165 0 0 
174 0 0 
174 0 0 
165 0 0 
171 0 0 
172 0 0 
178 0 0 
174 0 0 
172 0 0 
171 0 0 
168 0 0 
168 0 0 
173 0 0 
172 0 0 
172 0 0 
176 0 0 
173 0 0 
175 0 0 
180 0 0 
178 0 0 
181 0 0 
177 0 0 
176 0 0 
184 0 0 
173 0 0 
181 0 0 
177 0 0 
174 0 0 
178 0 0 
179 0 0 
178 0 0 
180 0 0 
181 0 0 
186 0 0 
176 0 0 
176 0 0 
175 0 0 
179 0 0 
180 0 0 
178 0 0 
185 0 0 
185 0 0 
186 0 0 
182 0 0 
179 0 0 
174 0 0 
181 0 0 
189 0 0 
188 0 0 
180 0 0 
188 0 0 
175 0 0 
179 0 0 
183 0 0 
186 0 0 
189 0 0 
182 0 0 
181 0 0 
180 0 0 
186 0 0 
184 0 0 
180 0 0 
186 0 0 
189 0 0 
184 0 0 
184 0 0 
184 0 0 
178 0 0 
183 0 0 
184 0 0 
192 0 0 
186 0 0 
179 0 0 
186 0 0 
184 0 0 
184 0 0 
194 0 0 
190 0 0 
186 0 0 
181 0 0 
184 0 0 
185 0 0 
188 0 0 
184 0 0 
181 0 0 
190 0 0 
190 0 0 
188 0 0 
190 0 0 
188 0 0 
185 0 0 
184 0 0 
185 0 0 
188 0 0 
185 0 0 
191 0 0 
189 0 0 
190 0 0 
187 0 0 
187 0 0 
195 0 0 
188 0 0 
190 0 0 
187 0 0 
187 0 0 
188 0 0 
188 0 0 
186 0 0 
189 0 0 
188 0 0 
187 0 0 
186 0 0 
189 0 0 
182 0 0 
191 0 0 
188 0 0 
188 0 0 
187 0 0 
190 0 0 
188 0 0 
190 0 0 
189 0 0 
188 0 0 
190 0 0 
190 0 0 
188 0 0 
192 0 0 
188 0 0 
188 0 0 
188 0 0 
179 0 0 
197 0 0 
190 0 0 
188 0 0 
191 0 0 
194 0 0 
193 0 0 
189 0 0 
191 0 0 
187 0 0 
191 0 0 
187 0 0 
185 0 0 
189 0 0 
192 0 0 
193 0 0 
190 0 0 
189 0 0 
190 0 0 
193 0 0 
191 0 0 
193 0 0 
191 0 0 
189 0 0 
186 0 0 
194 0 0 
190 0 0 
188 0 0 
188 0 0 
184 0 0 
0 0 194 
0 0 211 
0 0 204 
0 0 184 
0 0 194 
0 0 189 
0 0 196 
0 0 191 
0 0 189 
0 0 198 
0 0 179 
0 0 189 
0 0 199 
0 0 181 
0 0 191 
0 0 194 
0 0 188 
0 0 193 
0 0 203 
0 0 191 
0 0 186 
0 0 194 
0 0 198 
0 0 198 
0 0 209 
0 0 189 
0 0 179 
0 0 194 
0 0 184 
0 0 198 
0 0 191 
0 0 181 
0 0 182 
0 0 177 
0 0 189 
0 0 177 
0 0 193 
0 0 173 
0 0 175 
0 0 191 
0 0 184 
0 0 193 
0 0 186 
0 0 194 
0 0 189 
0 0 175 
0 0 191 
0 0 179 
0 0 188 
0 0 194 
0 0 193 
0 0 181 
0 0 188 
0 0 189 
0 0 186 
0 0 198 
0 0 181 
0 0 181 
0 0 189 
0 0 188 
0 0 188 
0 0 189 
0 0 193 
0 0 169 
0 0 194 
0 0 179 
0 0 191 
0 0 199 
0 0 199 
0 0 175 
0 0 189 
0 0 194 
0 0 191 
0 0 171 
0 0 198 
0 0 182 
0 0 177 
0 0 184 
0 0 179 
0 0 196 
0 0 194 
0 0 179 
0 0 181 
0 0 184 
0 0 189 
0 0 184 
0 0 175 
0 0 179 
0 0 198 
0 0 199 
0 0 177 
0 0 181 
0 0 188 
0 0 175 
0 0 186 
0 0 173 
0 0 177 
0 0 194 
0 0 181 
0 0 179 
0 0 186 
0 0 189 
0 0 177 
0 0 175 
0 0 188 
0 0 182 
0 0 191 
0 0 165 
0 0 177 
0 0 171 
0 0 188 
0 0 184 
0 0 198 
0 0 163 
0 0 179 
0 0 157 
0 0 173 
0 0 188 
0 0 175 
0 0 186 
0 0 188 
0 0 179 
0 0 167 
0 0 165 
0 0 194 
0 0 191 
0 0 184 
0 0 186 
0 0 191 
0 0 181 
0 0 175 
0 0 165 
0 0 179 
0 0 184 
0 0 181 
0 0 179 
0 0 177 
0 0 181 
0 0 163 
0 0 175 
0 0 165 
0 0 179 
0 0 171 
0 0 175 
0 0 184 
0 0 173 
0 0 175 
0 0 169 
0 0 167 
0 0 163 
0 0 169 
0 0 167 
0 0 171 
0 0 184 
0 0 171 
0 0 179 
0 0 167 
0 0 181 
0 0 169 
0 0 169 
0 0 165 
0 0 173 
0 0 187 
0 0 171 
0 0 181 
0 0 161 
0 0 159 
0 0 165 
0 0 175 
0 0 144 
0 0 161 
0 0 166 
0 0 149 
0 0 144 
0 0 173 
0 0 156 
0 0 147 
0 0 149 
0 0 171 
0 0 137 
0 0 153 
0 0 147 
0 0 140 
0 0 136 
0 0 130 
0 0 148 
0 0 145 
0 0 130 
0 0 139 
31 48 116 
47 71 120 
51 74 112 
54 82 123 
54 81 134 
53 80 115 
54 83 131 
52 79 119 
54 77 126 
52 77 114 
55 82 128 
53 80 120 
53 78 113 
54 79 113 
54 77 110 
54 82 126 
55 80 122 
54 81 117 
53 77 117 
52 74 100 
53 73 111 
99 41 72 
133 0 0 
126 0 0 
127 0 0 
126 0 0 
138 0 0 
136 0 0 
143 0 0 
149 0 0 
137 0 0 
153 0 0 
140 0 0 
158 0 0 
155 0 0 
153 0 0 
141 0 0 
157 0 0 
153 0 0 
162 0 0 
168 0 0 
156 0 0 
171 0 0 
154 0 0 
164 0 0 
154 0 0 
167 0 0 
172 0 0 
157 0 0 
170 0 0 
174 0 0 
160 0 0 
162 0 0 
165 0 0 
170 0 0 
173 0 0 
169 0 0 
176 0 0 
168 0 0 
181 0 0 
166 0 0 
174 0 0 
171 0 0 
175 0 0 
166 0 0 
170 0 0 
171 0 0 
178 0 0 
175 0 0 
176 0 0 
180 0 0 
178 0 0 
176 0 0 
176 0 0 
177 0 0 
183 0 0 
186 0 0 
173 0 0 
170 0 0 
176 0 0 
183 0 0 
184 0 0 
185 0 0 
180 0 0 
181 0 0 
175 0 0 
181 0 0 
182 0 0 
175 0 0 
178 0 0 
183 0 0 
181 0 0 
178 0 0 
182 0 0 
175 0 0 
187 0 0 
182 0 0 
183 0 0 
186 0 0 
182 0 0 
183 0 0 
185 0 0 
182 0 0 
177 0 0 
183 0 0 
181 0 0 
190 0 0 
188 0 0 
181 0 0 
184 0 0 
177 0 0 
185 0 0 
181 0 0 
187 0 0 
187 0 0 
178 0 0 
186 0 0 
189 0 0 
185 0 0 
187 0 0 
185 0 0 
188 0 0 
187 0 0 
186 0 0 
186 0 0 
186 0 0 
189 0 0 
191 0 0 
187 0 0 
185 0 0 
181 0 0 
188 0 0 
185 0 0 
187 0 0 
177 0 0 
185 0 0 
191 0 0 
185 0 0 
184 0 0 
188 0 0 
181 0 0 
188 0 0 
186 0 0 
185 0 0 
187 0 0 
186 0 0 
187 0 0 
192 0 0 
190 0 0 
183 0 0 
190 0 0 
184 0 0 
190 0 0 
186 0 0 
186 0 0 
188 0 0 
191 0 0 
192 0 0 
189 0 0 
184 0 0 
188 0 0 
186 0 0 
186 0 0 
191 0 0 
191 0 0 
189 0 0 
186 0 0 
187 0 0 
190 0 0 
194 0 0 
189 0 0 
186 0 0 
192 0 0 
186 0 0 
189 0 0 
190 0 0 
189 0 0 
192 0 0 
185 0 0 
190 0 0 
192 0 0 
189 0 0 
189 0 0 
195 0 0 
192 0 0 
192 0 0 
187 0 0 
192 0 0 
191 0 0 
184 0 0 
187 0 0 
192 0 0 
188 0 0 
187 0 0 
192 0 0 
190 0 0 
190 0 0 
193 0 0 
188 0 0 
191 0 0 
194 0 0 
190 0 0 
191 0 0 
197 0 0 
183 0 0 
190 0 0 
192 0 0 
188 0 0 
190 0 0 
188 0 0 
191 0 0 
0 0 204 
0 0 199 
0 0 203 
0 0 209 
0 0 188 
0 0 186 
0 0 204 
0 0 196 
0 0 186 
0 0 184 
0 0 173 
0 0 186 
0 0 188 
0 0 184 
0 0 193 
0 0 189 
0 0 189 
0 0 199 
0 0 201 
0 0 203 
0 0 167 
0 0 193 
0 0 188 
0 0 182 
0 0 186 
0 0 175 
0 0 182 
0 0 165 
0 0 191 
0 0 186 
0 0 188 
0 0 177 
0 0 193 
0 0 204 
0 0 186 
0 0 163 
0 0 182 
0 0 186 
0 0 186 
0 0 191 
0 0 186 
0 0 186 
0 0 184 
0 0 179 
0 0 194 
0 0 173 
0 0 188 
0 0 181 
0 0 189 
0 0 191 
0 0 191 
0 0 196 
0 0 188 
0 0 184 
0 0 188 
0 0 175 
0 0 179 
0 0 181 
0 0 186 
0 0 191 
0 0 188 
0 0 184 
0 0 184 
0 0 191 
0 0 177 
0 0 191 
0 0 169 
0 0 182 
0 0 198 
0 0 193 
0 0 186 
0 0 191 
0 0 193 
0 0 191 
0 0 193 
0 0 194 
0 0 201 
0 0 188 
0 0 179 
0 0 193 
0 0 181 
0 0 177 
0 0 186 
0 0 196 
0 0 182 
0 0 182 
0 0 181 
0 0 189 
0 0 175 
0 0 196 
0 0 173 
0 0 198 
0 0 189 
0 0 184 
0 0 161 
0 0 188 
0 0 189 
0 0 173 
0 0 194 
0 0 184 
0 0 181 
0 0 169 
0 0 189 
0 0 193 
0 0 184 
0 0 177 
0 0 194 
0 0 182 
0 0 189 
0 0 188 
0 0 179 
0 0 189 
0 0 173 
0 0 186 
0 0 179 
0 0 175 
0 0 201 
0 0 186 
0 0 188 
0 0 163 
0 0 188 
0 0 179 
0 0 182 
0 0 169 
0 0 177 
0 0 184 
0 0 179 
0 0 169 
0 0 181 
0 0 155 
0 0 177 
0 0 167 
0 0 173 
0 0 177 
0 0 173 
0 0 198 
0 0 177 
0 0 173 
0 0 181 
0 0 171 
0 0 177 
0 0 175 
0 0 191 
0 0 199 
0 0 167 
0 0 169 
0 0 157 
0 0 181 
0 0 171 
0 0 173 
0 0 159 
0 0 181 
0 0 149 
0 0 181 
0 0 165 
0 0 169 
0 0 171 
0 0 175 
0 0 177 
0 0 149 
0 0 147 
0 0 179 
0 0 165 
0 0 153 
0 0 161 
0 0 153 
0 0 171 
0 0 154 
0 0 161 
0 0 169 
0 0 171 
0 0 159 
0 0 166 
0 0 142 
0 0 137 
0 0 158 
0 0 157 
0 0 154 
0 0 143 
0 0 120 
0 0 158 
0 0 145 
0 0 129 
0 0 125 
0 0 151 
0 0 144 
0 0 139 
0 0 118 
0 0 129 
32 48 143 
45 66 103 
50 74 115 
50 76 114 
53 79 124 
52 78 123 
53 78 122 
54 80 118 
52 80 117 
53 78 114 
54 80 114 
56 83 118 
57 81 121 
55 80 124 
51 77 111 
52 75 110 
53 79 115 
55 81 124 
56 78 122 
51 72 102 
52 79 108 
79 46 70 
122 0 0 
138 0 0 
136 0 0 
146 0 0 
147 0 0 
138 0 0 
139 0 0 
149 0 0 
145 0 0 
148 0 0 
153 0 0 
153 0 0 
141 0 0 
158 0 0 
150 0 0 
155 0 0 
159 0 0 
157 0 0 
160 0 0 
164 0 0 
150 0 0 
169 0 0 
156 0 0 
160 0 0 
165 0 0 
168 0 0 
176 0 0 
160 0 0 
175 0 0 
171 0 0 
161 0 0 
157 0 0 
161 0 0 
167 0 0 
168 0 0 
178 0 0 
166 0 0 
169 0 0 
176 0 0 
173 0 0 
169 0 0 
166 0 0 
176 0 0 
166 0 0 
177 0 0 
171 0 0 
173 0 0 
174 0 0 
176 0 0 
172 0 0 
173 0 0 
170 0 0 
177 0 0 
182 0 0 
175 0 0 
177 0 0 
176 0 0 
186 0 0 
182 0 0 
182 0 0 
182 0 0 
179 0 0 
177 0 0 
186 0 0 
179 0 0 
184 0 0 
180 0 0 
177 0 0 
182 0 0 
180 0 0 
180 0 0 
183 0 0 
185 0 0 
184 0 0 
173 0 0 
186 0 0 
179 0 0 
178 0 0 
184 0 0 
184 0 0 
183 0 0 
181 0 0 
188 0 0 
182 0 0 
179 0 0 
180 0 0 
184 0 0 
183 0 0 
188 0 0 
184 0 0 
185 0 0 
180 0 0 
186 0 0 
184 0 0 
179 0 0 
187 0 0 
187 0 0 
185 0 0 
191 0 0 
181 0 0 
188 0 0 
182 0 0 
185 0 0 
186 0 0 
188 0 0 
188 0 0 
186 0 0 
186 0 0 
183 0 0 
185 0 0 
189 0 0 
189 0 0 
188 0 0 
185 0 0 
187 0 0 
189 0 0 
186 0 0 
191 0 0 
185 0 0 
192 0 0 
188 0 0 
182 0 0 
187 0 0 
187 0 0 
185 0 0 
186 0 0 
182 0 0 
187 0 0 
189 0 0 
188 0 0 
192 0 0 
181 0 0 
184 0 0 
190 0 0 
182 0 0 
184 0 0 
188 0 0 
189 0 0 
184 0 0 
186 0 0 
177 0 0 
187 0 0 
187 0 0 
191 0 0 
188 0 0 
190 0 0 
189 0 0 
188 0 0 
193 0 0 
194 0 0 
184 0 0 
191 0 0 
193 0 0 
191 0 0 
194 0 0 
189 0 0 
191 0 0 
190 0 0 
190 0 0 
188 0 0 
188 0 0 
186 0 0 
191 0 0 
190 0 0 
190 0 0 
190 0 0 
188 0 0 
195 0 0 
194 0 0 
190 0 0 
185 0 0 
188 0 0 
191 0 0 
187 0 0 
187 0 0 
188 0 0 
196 0 0 
191 0 0 
186 0 0 
186 0 0 
193 0 0 
191 0 0 
190 0 0 
194 0 0 
193 0 0 
189 0 0 
192 0 0 
196 0 0 
190 0 0 
0 0 198 
0 0 175 
0 0 181 
0 0 184 
0 0 175 
0 0 194 
0 0 191 
0 0 191 
0 0 193 
0 0 191 
0 0 189 
0 0 177 
0 0 196 
0 0 184 
0 0 188 
0 0 173 
0 0 179 
0 0 199 
0 0 177 
0 0 186 
0 0 188 
0 0 206 
0 0 177 
0 0 175 
0 0 171 
0 0 182 
0 0 198 
0 0 179 
0 0 189 
0 0 209 
0 0 189 
0 0 206 
0 0 186 
0 0 186 
0 0 193 
0 0 181 
0 0 184 
0 0 193 
0 0 189 
0 0 184 
0 0 182 
0 0 201 
0 0 189 
0 0 161 
0 0 189 
0 0 191 
0 0 182 
0 0 186 
0 0 194 
0 0 191 
0 0 196 
0 0 198 
0 0 188 
0 0 186 
0 0 186 
0 0 189 
0 0 199 
0 0 181 
0 0 184 
0 0 204 
0 0 175 
0 0 182 
0 0 194 
0 0 193 
0 0 177 
0 0 193 
0 0 193 
0 0 165 
0 0 173 
0 0 182 
0 0 194 
0 0 177 
0 0 173 
0 0 186 
0 0 181 
0 0 186 
0 0 177 
0 0 188 
0 0 171 
0 0 189 
0 0 184 
0 0 177 
0 0 184 
0 0 175 
0 0 182 
0 0 181 
0 0 199 
0 0 159 
0 0 175 
0 0 181 
0 0 177 
0 0 182 
0 0 184 
0 0 188 
0 0 189 
0 0 184 
0 0 191 
0 0 184 
0 0 173 
0 0 177 
0 0 194 
0 0 175 
0 0 184 
0 0 171 
0 0 175 
0 0 181 
0 0 181 
0 0 186 
0 0 167 
0 0 177 
0 0 189 
0 0 181 
0 0 171 
0 0 181 
0 0 165 
0 0 175 
0 0 173 
0 0 173 
0 0 169 
0 0 188 
0 0 177 
0 0 167 
0 0 184 
0 0 181 
0 0 173 
0 0 173 
0 0 171 
0 0 165 
0 0 182 
0 0 182 
0 0 179 
0 0 194 
0 0 175 
0 0 181 
0 0 175 
0 0 182 
0 0 177 
0 0 175 
0 0 181 
0 0 184 
0 0 189 
0 0 165 
0 0 169 
0 0 182 
0 0 165 
0 0 181 
0 0 182 
0 0 157 
0 0 159 
0 0 165 
0 0 171 
0 0 159 
0 0 171 
0 0 161 
0 0 180 
0 0 165 
0 0 159 
0 0 159 
0 0 171 
0 0 161 
0 0 156 
0 0 161 
0 0 151 
0 0 149 
0 0 162 
0 0 173 
0 0 159 
0 0 158 
0 0 160 
0 0 181 
0 0 161 
0 0 135 
0 0 145 
0 0 148 
0 0 152 
0 0 152 
0 0 139 
0 0 134 
0 0 149 
0 0 137 
0 0 150 
0 0 161 
0 0 151 
0 0 144 
0 0 129 
0 0 139 
0 0 156 
0 0 148 
0 0 121 
34 50 115 
50 73 103 
49 76 122 
52 75 110 
50 78 117 
56 86 128 
50 77 116 
52 79 117 
54 81 124 
51 76 110 
53 79 118 
51 76 121 
53 78 115 
52 75 118 
52 78 113 
53 81 114 
53 76 100 
52 77 107 
52 75 103 
52 72 110 
51 72 110 
110 43 54 
134 0 0 
141 0 0 
133 0 0 
124 0 0 
131 0 0 
142 0 0 
134 0 0 
141 0 0 
142 0 0 
151 0 0 
152 0 0 
155 0 0 
160 0 0 
158 0 0 
156 0 0 
164 0 0 
155 0 0 
153 0 0 
164 0 0 
161 0 0 
158 0 0 
162 0 0 
153 0 0 
168 0 0 
167 0 0 
159 0 0 
160 0 0 
163 0 0 
158 0 0 
159 0 0 
158 0 0 
165 0 0 
162 0 0 
174 0 0 
174 0 0 
169 0 0 
167 0 0 
174 0 0 
168 0 0 
173 0 0 
174 0 0 
165 0 0 
173 0 0 
168 0 0 
174 0 0 
170 0 0 
172 0 0 
180 0 0 
179 0 0 
169 0 0 
176 0 0 
189 0 0 
174 0 0 
181 0 0 
176 0 0 
178 0 0 
177 0 0 
180 0 0 
167 0 0 
173 0 0 
168 0 0 
174 0 0 
178 0 0 
182 0 0 
179 0 0 
182 0 0 
174 0 0 
175 0 0 
168 0 0 
182 0 0 
182 0 0 
178 0 0 
184 0 0 
184 0 0 
185 0 0 
181 0 0 
186 0 0 
174 0 0 
181 0 0 
180 0 0 
180 0 0 
184 0 0 
186 0 0 
188 0 0 
179 0 0 
182 0 0 
186 0 0 
185 0 0 
182 0 0 
186 0 0 
191 0 0 
188 0 0 
183 0 0 
190 0 0 
183 0 0 
180 0 0 
181 0 0 
186 0 0 
187 0 0 
190 0 0 
182 0 0 
183 0 0 
182 0 0 
190 0 0 
183 0 0 
189 0 0 
176 0 0 
190 0 0 
187 0 0 
186 0 0 
188 0 0 
183 0 0 
185 0 0 
187 0 0 
186 0 0 
189 0 0 
190 0 0 
186 0 0 
190 0 0 
188 0 0 
185 0 0 
190 0 0 
184 0 0 
187 0 0 
186 0 0 
186 0 0 
185 0 0 
186 0 0 
193 0 0 
191 0 0 
186 0 0 
192 0 0 
192 0 0 
186 0 0 
188 0 0 
189 0 0 
187 0 0 
189 0 0 
188 0 0 
188 0 0 
190 0 0 
186 0 0 
183 0 0 
189 0 0 
189 0 0 
182 0 0 
189 0 0 
187 0 0 
195 0 0 
190 0 0 
188 0 0 
190 0 0 
188 0 0 
190 0 0 
190 0 0 
191 0 0 
191 0 0 
192 0 0 
184 0 0 
191 0 0 
186 0 0 
193 0 0 
193 0 0 
189 0 0 
185 0 0 
190 0 0 
189 0 0 
190 0 0 
191 0 0 
190 0 0 
189 0 0 
189 0 0 
186 0 0 
191 0 0 
195 0 0 
191 0 0 
189 0 0 
193 0 0 
191 0 0 
190 0 0 
195 0 0 
189 0 0 
194 0 0 
187 0 0 
194 0 0 
186 0 0 
192 0 0 
189 0 0 
188 0 0 
0 0 189 
0 0 194 
0 0 193 
0 0 179 
0 0 199 
0 0 194 
0 0 199 
0 0 186 
0 0 181 
0 0 184 
0 0 193 
0 0 182 
0 0 177 
0 0 204 
0 0 167 
0 0 203 
0 0 181 
0 0 177 
0 0 186 
0 0 193 
0 0 182 
0 0 181 
0 0 199 
0 0 196 
0 0 179 
0 0 167 
0 0 186 
0 0 188 
0 0 167 
0 0 186 
0 0 182 
0 0 193 
0 0 184 
0 0 196 
0 0 182 
0 0 175 
0 0 186 
0 0 189 
0 0 191 
0 0 186 
0 0 182 
0 0 188 
0 0 186 
0 0 199 
0 0 201 
0 0 184 
0 0 173 
0 0 188 
0 0 181 
0 0 184 
0 0 188 
0 0 189 
0 0 189 
0 0 186 
0 0 173 
0 0 184 
0 0 188 
0 0 196 
0 0 189 
0 0 171 
0 0 186 
0 0 169 
0 0 186 
0 0 204 
0 0 203 
0 0 184 
0 0 157 
0 0 189 
0 0 181 
0 0 196 
0 0 188 
0 0 177 
0 0 181 
0 0 184 
0 0 196 
0 0 184 
0 0 184 
0 0 189 
0 0 181 
0 0 188 
0 0 165 
0 0 173 
0 0 191 
0 0 196 
0 0 181 
0 0 182 
0 0 189 
0 0 171 
0 0 186 
0 0 186 
0 0 175 
0 0 198 
0 0 188 
0 0 186 
0 0 173 
0 0 181 
0 0 191 
0 0 169 
0 0 175 
0 0 196 
0 0 175 
0 0 186 
0 0 169 
0 0 191 
0 0 179 
0 0 191 
0 0 184 
0 0 184 
0 0 186 
0 0 196 
0 0 177 
0 0 196 
0 0 184 
0 0 169 
0 0 181 
0 0 199 
0 0 167 
0 0 188 
0 0 173 
0 0 182 
0 0 188 
0 0 177 
0 0 186 
0 0 167 
0 0 179 
0 0 188 
0 0 175 
0 0 198 
0 0 173 
0 0 167 
0 0 182 
0 0 171 
0 0 186 
0 0 175 
0 0 173 
0 0 182 
0 0 181 
0 0 169 
0 0 193 
0 0 171 
0 0 175 
0 0 177 
0 0 171 
0 0 173 
0 0 179 
0 0 163 
0 0 182 
0 0 181 
0 0 147 
0 0 169 
0 0 165 
0 0 181 
0 0 177 
0 0 175 
0 0 163 
0 0 167 
0 0 175 
0 0 159 
0 0 181 
0 0 155 
0 0 163 
0 0 173 
0 0 173 
0 0 170 
0 0 161 
0 0 181 
0 0 142 
0 0 159 
0 0 158 
0 0 162 
0 0 158 
0 0 175 
0 0 130 
0 0 141 
0 0 153 
0 0 143 
0 0 154 
0 0 143 
0 0 144 
0 0 126 
0 0 142 
0 0 152 
0 0 151 
0 0 148 
0 0 136 
0 0 159 
0 0 118 
0 0 134 
0 0 129 
36 55 116 
50 75 126 
49 70 118 
51 77 126 
52 78 124 
54 82 114 
53 79 128 
50 77 109 
54 76 113 
52 75 117 
52 77 117 
53 79 120 
57 84 121 
53 78 117 
54 78 117 
51 75 118 
54 82 120 
53 77 111 
53 71 110 
51 75 110 
52 73 102 
107 52 74 
125 0 0 
140 0 0 
125 0 0 
142 0 0 
137 0 0 
132 0 0 
145 0 0 
151 0 0 
137 0 0 
134 0 0 
141 0 0 
157 0 0 
150 0 0 
142 0 0 
156 0 0 
162 0 0 
150 0 0 
159 0 0 
162 0 0 
151 0 0 
161 0 0 
150 0 0 
162 0 0 
155 0 0 
160 0 0 
156 0 0 
161 0 0 
172 0 0 
166 0 0 
172 0 0 
169 0 0 
162 0 0 
171 0 0 
173 0 0 
184 0 0 
160 0 0 
165 0 0 
174 0 0 
168 0 0 
169 0 0 
176 0 0 
173 0 0 
170 0 0 
173 0 0 
178 0 0 
175 0 0 
173 0 0 
173 0 0 
172 0 0 
177 0 0 
176 0 0 
173 0 0 
167 0 0 
182 0 0 
179 0 0 
172 0 0 
179 0 0 
173 0 0 
176 0 0 
182 0 0 
174 0 0 
173 0 0 
186 0 0 
187 0 0 
175 0 0 
174 0 0 
187 0 0 
185 0 0 
182 0 0 
183 0 0 
174 0 0 
183 0 0 
178 0 0 
184 0 0 
189 0 0 
187 0 0 
181 0 0 
178 0 0 
182 0 0 
182 0 0 
182 0 0 
182 0 0 
178 0 0 
180 0 0 
179 0 0 
179 0 0 
186 0 0 
186 0 0 
180 0 0 
184 0 0 
181 0 0 
183 0 0 
187 0 0 
177 0 0 
180 0 0 
185 0 0 
186 0 0 
178 0 0 
185 0 0 
185 0 0 
185 0 0 
185 0 0 
187 0 0 
183 0 0 
188 0 0 
176 0 0 
184 0 0 
193 0 0 
183 0 0 
186 0 0 
185 0 0 
191 0 0 
185 0 0 
183 0 0 
190 0 0 
186 0 0 
185 0 0 
192 0 0 
184 0 0 
186 0 0 
183 0 0 
190 0 0 
189 0 0 
186 0 0 
185 0 0 
185 0 0 
187 0 0 
192 0 0 
188 0 0 
190 0 0 
190 0 0 
189 0 0 
188 0 0 
187 0 0 
183 0 0 
188 0 0 
191 0 0 
189 0 0 
186 0 0 
187 0 0 
190 0 0 
195 0 0 
192 0 0 
183 0 0 
191 0 0 
187 0 0 
194 0 0 
192 0 0 
189 0 0 
190 0 0 
186 0 0 
186 0 0 
192 0 0 
192 0 0 
190 0 0 
190 0 0 
190 0 0 
190 0 0 
187 0 0 
189 0 0 
187 0 0 
186 0 0 
193 0 0 
186 0 0 
183 0 0 
186 0 0 
190 0 0 
191 0 0 
194 0 0 
189 0 0 
190 0 0 
191 0 0 
185 0 0 
188 0 0 
188 0 0 
193 0 0 
195 0 0 
186 0 0 
189 0 0 
186 0 0 
196 0 0 
192 0 0 
192 0 0 
191 0 0 
189 0 0 
187 0 0 
192 0 0 
189 0 0 
195 0 0 
0 0 193 
0 0 181 
0 0 184 
0 0 186 
0 0 198 
0 0 182 
0 0 184 
0 0 182 
0 0 188 
0 0 181 
0 0 184 
0 0 194 
0 0 184 
0 0 179 
0 0 181 
0 0 194 
0 0 181 
0 0 188 
0 0 189 
0 0 194 
0 0 193 
0 0 191 
0 0 165 
0 0 184 
0 0 179 
0 0 191 
0 0 199 
0 0 175 
0 0 181 
0 0 179 
0 0 182 
0 0 191 
0 0 188 
0 0 191 
0 0 194 
0 0 182 
0 0 191 
0 0 184 
0 0 186 
0 0 179 
0 0 191 
0 0 167 
0 0 193 
0 0 184 
0 0 179 
0 0 182 
0 0 189 
0 0 182 
0 0 189 
0 0 186 
0 0 179 
0 0 179 
0 0 198 
0 0 194 
0 0 188 
0 0 177 
0 0 194 
0 0 196 
0 0 175 
0 0 194 
0 0 171 
0 0 184 
0 0 196 
0 0 181 
0 0 184 
0 0 182 
0 0 186 
0 0 181 
0 0 167 
0 0 181 
0 0 199 
0 0 181 
0 0 194 
0 0 188 
0 0 182 
0 0 189 
0 0 182 
0 0 179 
0 0 188 
0 0 169 
0 0 179 
0 0 193 
0 0 184 
0 0 182 
0 0 169 
0 0 191 
0 0 184 
0 0 163 
0 0 177 
0 0 184 
0 0 184 
0 0 191 
0 0 191 
0 0 193 
0 0 188 
0 0 188 
0 0 177 
0 0 179 
0 0 181 
0 0 191 
0 0 191 
0 0 177 
0 0 188 
0 0 194 
0 0 189 
0 0 181 
0 0 184 
0 0 173 
0 0 188 
0 0 173 
0 0 175 
0 0 175 
0 0 169 
0 0 184 
0 0 181 
0 0 193 
0 0 184 
0 0 169 
0 0 191 
0 0 189 
0 0 184 
0 0 194 
0 0 189 
0 0 171 
0 0 173 
0 0 175 
0 0 186 
0 0 167 
0 0 179 
0 0 181 
0 0 179 
0 0 157 
0 0 159 
0 0 175 
0 0 181 
0 0 196 
0 0 167 
0 0 169 
0 0 181 
0 0 171 
0 0 167 
0 0 175 
0 0 167 
0 0 186 
0 0 177 
0 0 167 
0 0 151 
0 0 165 
0 0 167 
0 0 175 
0 0 177 
0 0 161 
0 0 171 
0 0 151 
0 0 168 
0 0 171 
0 0 177 
0 0 154 
0 0 167 
0 0 177 
0 0 163 
0 0 173 
0 0 168 
0 0 177 
0 0 149 
0 0 171 
0 0 152 
0 0 149 
0 0 159 
0 0 154 
0 0 153 
0 0 161 
0 0 159 
0 0 149 
0 0 142 
0 0 141 
0 0 152 
0 0 154 
0 0 141 
0 0 149 
0 0 141 
0 0 133 
0 0 126 
0 0 152 
0 0 137 
0 0 139 
0 0 134 
0 0 135 
0 0 141 
37 57 126 
51 77 119 
50 76 112 
50 77 116 
49 74 115 
53 81 118 
51 76 115 
51 74 109 
53 75 114 
54 81 126 
54 80 115 
53 78 107 
54 79 125 
55 84 122 
52 73 110 
54 77 107 
51 76 105 
53 80 115 
53 76 103 
55 84 117 
53 75 111 
83 52 82 
130 0 0 
124 0 0 
133 0 0 
143 0 0 
153 0 0 
143 0 0 
149 0 0 
144 0 0 
149 0 0 
146 0 0 
143 0 0 
156 0 0 
154 0 0 
150 0 0 
146 0 0 
164 0 0 
165 0 0 
157 0 0 
159 0 0 
157 0 0 
156 0 0 
156 0 0 
165 0 0 
165 0 0 
163 0 0 
160 0 0 
156 0 0 
171 0 0 
164 0 0 
159 0 0 
169 0 0 
165 0 0 
155 0 0 
175 0 0 
170 0 0 
157 0 0 
165 0 0 
173 0 0 
170 0 0 
178 0 0 
180 0 0 
167 0 0 
174 0 0 
168 0 0 
169 0 0 
172 0 0 
164 0 0 
173 0 0 
176 0 0 
176 0 0 
163 0 0 
172 0 0 
180 0 0 
177 0 0 
173 0 0 
183 0 0 
180 0 0 
175 0 0 
176 0 0 
174 0 0 
181 0 0 
174 0 0 
176 0 0 
173 0 0 
182 0 0 
183 0 0 
178 0 0 
173 0 0 
174 0 0 
180 0 0 
179 0 0 
173 0 0 
177 0 0 
180 0 0 
179 0 0 
183 0 0 
183 0 0 
178 0 0 
181 0 0 
182 0 0 
183 0 0 
178 0 0 
183 0 0 
184 0 0 
192 0 0 
190 0 0 
185 0 0 
181 0 0 
184 0 0 
183 0 0 
178 0 0 
185 0 0 
181 0 0 
177 0 0 
183 0 0 
189 0 0 
185 0 0 
193 0 0 
192 0 0 
186 0 0 
187 0 0 
186 0 0 
191 0 0 
185 0 0 
189 0 0 
186 0 0 
188 0 0 
188 0 0 
183 0 0 
186 0 0 
190 0 0 
177 0 0 
181 0 0 
189 0 0 
190 0 0 
185 0 0 
191 0 0 
187 0 0 
188 0 0 
188 0 0 
187 0 0 
187 0 0 
190 0 0 
192 0 0 
187 0 0 
184 0 0 
187 0 0 
186 0 0 
189 0 0 
186 0 0 
187 0 0 
184 0 0 
186 0 0 
189 0 0 
192 0 0 
187 0 0 
183 0 0 
193 0 0 
191 0 0 
190 0 0 
187 0 0 
182 0 0 
192 0 0 
194 0 0 
191 0 0 
190 0 0 
191 0 0 
188 0 0 
193 0 0 
187 0 0 
188 0 0 
182 0 0 
187 0 0 
191 0 0 
184 0 0 
188 0 0 
189 0 0 
186 0 0 
191 0 0 
193 0 0 
188 0 0 
192 0 0 
193 0 0 
189 0 0 
192 0 0 
191 0 0 
192 0 0 
193 0 0 
185 0 0 
192 0 0 
191 0 0 
187 0 0 
193 0 0 
190 0 0 
186 0 0 
190 0 0 
194 0 0 
187 0 0 
187 0 0 
192 0 0 
186 0 0 
196 0 0 
189 0 0 
192 0 0 
191 0 0 
190 0 0 
188 0 0 
189 0 0 
188 0 0 
0 0 189 
0 0 204 
0 0 189 
0 0 179 
0 0 196 
0 0 191 
0 0 186 
0 0 184 
0 0 179 
0 0 173 
0 0 201 
0 0 194 
0 0 169 
0 0 188 
0 0 189 
0 0 188 
0 0 193 
0 0 191 
0 0 184 
0 0 186 
0 0 189 
0 0 194 
0 0 206 
0 0 184 
0 0 191 
0 0 181 
0 0 184 
0 0 184 
0 0 186 
0 0 184 
0 0 182 
0 0 181 
0 0 189 
0 0 184 
0 0 179 
0 0 182 
0 0 189 
0 0 186 
0 0 186 
0 0 181 
0 0 171 
0 0 184 
0 0 181 
0 0 188 
0 0 177 
0 0 194 
0 0 179 
0 0 173 
0 0 184 
0 0 184 
0 0 177 
0 0 177 
0 0 193 
0 0 184 
0 0 184 
0 0 173 
0 0 198 
0 0 203 
0 0 184 
0 0 196 
0 0 182 
0 0 186 
0 0 203 
0 0 198 
0 0 186 
0 0 189 
0 0 191 
0 0 184 
0 0 194 
0 0 184 
0 0 171 
0 0 163 
0 0 167 
0 0 184 
0 0 181 
0 0 204 
0 0 191 
0 0 179 
0 0 184 
0 0 189 
0 0 165 
0 0 191 
0 0 165 
0 0 186 
0 0 175 
0 0 163 
0 0 182 
0 0 171 
0 0 171 
0 0 167 
0 0 184 
0 0 175 
0 0 182 
0 0 175 
0 0 191 
0 0 201 
0 0 191 
0 0 182 
0 0 175 
0 0 182 
0 0 161 
0 0 179 
0 0 169 
0 0 171 
0 0 167 
0 0 196 
0 0 204 
0 0 169 
0 0 184 
0 0 179 
0 0 177 
0 0 171 
0 0 179 
0 0 196 
0 0 193 
0 0 177 
0 0 182 
0 0 194 
0 0 181 
0 0 167 
0 0 184 
0 0 177 
0 0 167 
0 0 167 
0 0 175 
0 0 184 
0 0 184 
0 0 175 
0 0 186 
0 0 189 
0 0 171 
0 0 169 
0 0 159 
0 0 167 
0 0 165 
0 0 179 
0 0 157 
0 0 177 
0 0 182 
0 0 149 
0 0 167 
0 0 181 
0 0 177 
0 0 153 
0 0 179 
0 0 173 
0 0 157 
0 0 159 
0 0 182 
0 0 171 
0 0 177 
0 0 171 
0 0 155 
0 0 159 
0 0 175 
0 0 179 
0 0 159 
0 0 144 
0 0 154 
0 0 163 
0 0 163 
0 0 185 
0 0 175 
0 0 163 
0 0 155 
0 0 156 
0 0 147 
0 0 169 
0 0 160 
0 0 155 
0 0 143 
0 0 145 
0 0 147 
0 0 160 
0 0 144 
0 0 153 
0 0 153 
0 0 154 
0 0 156 
0 0 156 
0 0 139 
0 0 150 
0 0 153 
0 0 144 
0 0 137 
0 0 122 
0 0 133 
0 0 140 
0 0 129 
39 58 134 
50 77 106 
50 75 118 
52 76 118 
49 76 103 
51 77 112 
53 79 124 
55 80 115 
54 80 126 
55 80 120 
51 75 117 
53 77 107 
50 68 101 
54 79 114 
52 75 104 
53 80 110 
54 78 119 
53 76 120 
53 74 105 
48 70 103 
51 75 107 
91 44 70 
124 0 0 
121 0 0 
127 0 0 
126 0 0 
145 0 0 
138 0 0 
138 0 0 
143 0 0 
145 0 0 
147 0 0 
148 0 0 
143 0 0 
149 0 0 
154 0 0 
155 0 0 
147 0 0 
148 0 0 
157 0 0 
155 0 0 
159 0 0 
157 0 0 
158 0 0 
165 0 0 
156 0 0 
162 0 0 
161 0 0 
164 0 0 
150 0 0 
164 0 0 
164 0 0 
168 0 0 
167 0 0 
164 0 0 
174 0 0 
174 0 0 
166 0 0 
165 0 0 
170 0 0 
176 0 0 
170 0 0 
183 0 0 
177 0 0 
166 0 0 
176 0 0 
165 0 0 
169 0 0 
170 0 0 
171 0 0 
181 0 0 
171 0 0 
176 0 0 
177 0 0 
171 0 0 
175 0 0 
170 0 0 
177 0 0 
176 0 0 
177 0 0 
173 0 0 
178 0 0 
181 0 0 
175 0 0 
181 0 0 
179 0 0 
174 0 0 
178 0 0 
181 0 0 
172 0 0 
180 0 0 
180 0 0 
184 0 0 
180 0 0 
178 0 0 
183 0 0 
181 0 0 
181 0 0 
183 0 0 
186 0 0 
179 0 0 
177 0 0 
184 0 0 
180 0 0 
178 0 0 
186 0 0 
179 0 0 
184 0 0 
185 0 0 
177 0 0 
178 0 0 
180 0 0 
182 0 0 
187 0 0 
180 0 0 
185 0 0 
177 0 0 
184 0 0 
185 0 0 
179 0 0 
191 0 0 
183 0 0 
185 0 0 
184 0 0 
187 0 0 
186 0 0 
182 0 0 
186 0 0 
188 0 0 
186 0 0 
189 0 0 
184 0 0 
186 0 0 
187 0 0 
191 0 0 
187 0 0 
185 0 0 
189 0 0 
187 0 0 
191 0 0 
183 0 0 
186 0 0 
190 0 0 
185 0 0 
187 0 0 
193 0 0 
180 0 0 
187 0 0 
189 0 0 
188 0 0 
193 0 0 
186 0 0 
188 0 0 
189 0 0 
190 0 0 
185 0 0 
186 0 0 
187 0 0 
184 0 0 
189 0 0 
186 0 0 
185 0 0 
187 0 0 
180 0 0 
187 0 0 
186 0 0 
188 0 0 
189 0 0 
187 0 0 
193 0 0 
190 0 0 
193 0 0 
192 0 0 
193 0 0 
195 0 0 
191 0 0 
185 0 0 
190 0 0 
191 0 0 
186 0 0 
189 0 0 
192 0 0 
189 0 0 
190 0 0 
189 0 0 
189 0 0 
186 0 0 
187 0 0 
189 0 0 
187 0 0 
190 0 0 
188 0 0 
190 0 0 
195 0 0 
191 0 0 
189 0 0 
190 0 0 
189 0 0 
189 0 0 
184 0 0 
192 0 0 
193 0 0 
195 0 0 
190 0 0 
188 0 0 
191 0 0 
192 0 0 
192 0 0 
193 0 0 
191 0 0 
192 0 0 
0 0 191 
0 0 177 
0 0 186 
0 0 191 
0 0 186 
0 0 194 
0 0 186 
0 0 199 
0 0 179 
0 0 177 
0 0 194 
0 0 194 
0 0 181 
0 0 177 
0 0 184 
0 0 179 
0 0 184 
0 0 199 
0 0 186 
0 0 199 
0 0 191 
0 0 186 
0 0 169 
0 0 198 
0 0 201 
0 0 193 
0 0 186 
0 0 167 
0 0 182 
0 0 196 
0 0 181 
0 0 186 
0 0 189 
0 0 163 
0 0 203 
0 0 157 
0 0 167 
0 0 179 
0 0 188 
0 0 179 
0 0 175 
0 0 189 
0 0 193 
0 0 194 
0 0 188 
0 0 184 
0 0 182 
0 0 191 
0 0 186 
0 0 175 
0 0 161 
0 0 175 
0 0 194 
0 0 179 
0 0 182 
0 0 189 
0 0 196 
0 0 193 
0 0 193 
0 0 188 
0 0 184 
0 0 188 
0 0 181 
0 0 186 
0 0 188 
0 0 173 
0 0 171 
0 0 188 
0 0 173 
0 0 177 
0 0 188 
0 0 171 
0 0 184 
0 0 184 
0 0 182 
0 0 165 
0 0 188 
0 0 186 
0 0 173 
0 0 188 
0 0 169 
0 0 189 
0 0 182 
0 0 184 
0 0 189 
0 0 182 
0 0 171 
0 0 186 
0 0 186 
0 0 189 
0 0 175 
0 0 182 
0 0 171 
0 0 181 
0 0 196 
0 0 165 
0 0 194 
0 0 182 
0 0 173 
0 0 182 
0 0 181 
0 0 179 
0 0 175 
0 0 188 
0 0 177 
0 0 182 
0 0 181 
0 0 155 
0 0 177 
0 0 188 
0 0 194 
0 0 167 
0 0 179 
0 0 191 
0 0 181 
0 0 175 
0 0 182 
0 0 157 
0 0 193 
0 0 169 
0 0 175 
0 0 191 
0 0 179 
0 0 167 
0 0 182 
0 0 175 
0 0 193 
0 0 193 
0 0 165 
0 0 193 
0 0 167 
0 0 161 
0 0 175 
0 0 177 
0 0 171 
0 0 181 
0 0 147 
0 0 182 
0 0 173 
0 0 184 
0 0 181 
0 0 175 
0 0 177 
0 0 182 
0 0 159 
0 0 179 
0 0 149 
0 0 167 
0 0 182 
0 0 169 
0 0 175 
0 0 175 
0 0 151 
0 0 175 
0 0 157 
0 0 165 
0 0 169 
0 0 151 
0 0 165 
0 0 163 
0 0 181 
0 0 162 
0 0 157 
0 0 168 
0 0 155 
0 0 155 
0 0 160 
0 0 168 
0 0 154 
0 0 144 
0 0 151 
0 0 149 
0 0 145 
0 0 149 
0 0 150 
0 0 162 
0 0 142 
0 0 151 
0 0 117 
0 0 130 
0 0 139 
0 0 134 
0 0 156 
0 0 142 
0 0 143 
0 0 94 
0 0 148 
0 0 140 
0 0 115 
33 50 110 
48 73 119 
48 74 113 
49 74 103 
53 79 126 
49 76 108 
48 73 107 
51 73 114 
52 75 103 
50 75 108 
50 74 106 
52 76 105 
53 77 110 
50 76 111 
53 77 115 
52 76 118 
50 71 94 
54 77 114 
52 76 107 
51 77 95 
51 74 105 
90 51 67 
114 0 0 
116 0 0 
119 0 0 
131 0 0 
130 0 0 
149 0 0 
148 0 0 
136 0 0 
150 0 0 
156 0 0 
140 0 0 
142 0 0 
146 0 0 
149 0 0 
155 0 0 
161 0 0 
143 0 0 
157 0 0 
162 0 0 
150 0 0 
155 0 0 
155 0 0 
162 0 0 
160 0 0 
158 0 0 
164 0 0 
156 0 0 
165 0 0 
161 0 0 
162 0 0 
162 0 0 
167 0 0 
168 0 0 
174 0 0 
171 0 0 
171 0 0 
171 0 0 
177 0 0 
176 0 0 
171 0 0 
169 0 0 
160 0 0 
172 0 0 
171 0 0 
176 0 0 
166 0 0 
172 0 0 
169 0 0 
171 0 0 
166 0 0 
167 0 0 
182 0 0 
170 0 0 
178 0 0 
176 0 0 
175 0 0 
185 0 0 
179 0 0 
181 0 0 
177 0 0 
172 0 0 
175 0 0 
184 0 0 
173 0 0 
176 0 0 
187 0 0 
176 0 0 
172 0 0 
173 0 0 
182 0 0 
181 0 0 
181 0 0 
181 0 0 
179 0 0 
186 0 0 
185 0 0 
181 0 0 
182 0 0 
180 0 0 
184 0 0 
181 0 0 
181 0 0 
179 0 0 
189 0 0 
180 0 0 
179 0 0 
188 0 0 
188 0 0 
187 0 0 
180 0 0 
186 0 0 
182 0 0 
184 0 0 
188 0 0 
184 0 0 
185 0 0 
183 0 0 
184 0 0 
186 0 0 
183 0 0 
185 0 0 
181 0 0 
185 0 0 
183 0 0 
185 0 0 
185 0 0 
188 0 0 
189 0 0 
189 0 0 
186 0 0 
186 0 0 
182 0 0 
187 0 0 
181 0 0 
189 0 0 
189 0 0 
188 0 0 
184 0 0 
187 0 0 
186 0 0 
189 0 0 
188 0 0 
188 0 0 
194 0 0 
188 0 0 
185 0 0 
186 0 0 
190 0 0 
184 0 0 
192 0 0 
186 0 0 
194 0 0 
188 0 0 
185 0 0 
191 0 0 
190 0 0 
188 0 0 
186 0 0 
183 0 0 
187 0 0 
191 0 0 
191 0 0 
190 0 0 
187 0 0 
190 0 0 
191 0 0 
186 0 0 
184 0 0 
190 0 0 
189 0 0 
185 0 0 
185 0 0 
193 0 0 
189 0 0 
183 0 0 
189 0 0 
190 0 0 
184 0 0 
187 0 0 
191 0 0 
189 0 0 
193 0 0 
187 0 0 
190 0 0 
190 0 0 
188 0 0 
191 0 0 
188 0 0 
186 0 0 
192 0 0 
189 0 0 
186 0 0 
189 0 0 
193 0 0 
190 0 0 
190 0 0 
198 0 0 
187 0 0 
196 0 0 
189 0 0 
187 0 0 
194 0 0 
194 0 0 
194 0 0 
189 0 0 
190 0 0 
189 0 0 
192 0 0 
186 0 0 
0 0 199 
0 0 173 
0 0 203 
0 0 181 
0 0 169 
0 0 181 
0 0 179 
0 0 184 
0 0 203 
0 0 179 
0 0 181 
0 0 182 
0 0 179 
0 0 194 
0 0 184 
0 0 189 
0 0 186 
0 0 182 
0 0 204 
0 0 191 
0 0 188 
0 0 181 
0 0 173 
0 0 206 
0 0 171 
0 0 182 
0 0 182 
0 0 184 
0 0 204 
0 0 189 
0 0 189 
0 0 184 
0 0 193 
0 0 182 
0 0 191 
0 0 181 
0 0 189 
0 0 186 
0 0 193 
0 0 193 
0 0 177 
0 0 182 
0 0 159 
0 0 173 
0 0 179 
0 0 177 
0 0 189 
0 0 175 
0 0 173 
0 0 186 
0 0 188 
0 0 171 
0 0 186 
0 0 171 
0 0 189 
0 0 189 
0 0 188 
0 0 189 
0 0 193 
0 0 184 
0 0 186 
0 0 182 
0 0 198 
0 0 169 
0 0 199 
0 0 182 
0 0 177 
0 0 173 
0 0 165 
0 0 173 
0 0 177 
0 0 186 
0 0 181 
0 0 203 
0 0 191 
0 0 184 
0 0 179 
0 0 182 
0 0 182 
0 0 173 
0 0 175 
0 0 184 
0 0 181 
0 0 177 
0 0 191 
0 0 191 
0 0 182 
0 0 191 
0 0 182 
0 0 184 
0 0 179 
0 0 167 
0 0 177 
0 0 184 
0 0 179 
0 0 186 
0 0 179 
0 0 182 
0 0 177 
0 0 179 
0 0 184 
0 0 175 
0 0 188 
0 0 173 
0 0 175 
0 0 182 
0 0 189 
0 0 182 
0 0 175 
0 0 175 
0 0 171 
0 0 186 
0 0 184 
0 0 189 
0 0 159 
0 0 173 
0 0 175 
0 0 159 
0 0 173 
0 0 179 
0 0 189 
0 0 167 
0 0 167 
0 0 181 
0 0 163 
0 0 163 
0 0 163 
0 0 171 
0 0 188 
0 0 165 
0 0 173 
0 0 173 
0 0 188 
0 0 163 
0 0 151 
0 0 173 
0 0 181 
0 0 188 
0 0 186 
0 0 173 
0 0 165 
0 0 161 
0 0 171 
0 0 179 
0 0 177 
0 0 173 
0 0 171 
0 0 184 
0 0 157 
0 0 171 
0 0 167 
0 0 153 
0 0 159 
0 0 163 
0 0 169 
0 0 163 
0 0 170 
0 0 167 
0 0 144 
0 0 160 
0 0 179 
0 0 184 
0 0 177 
0 0 145 
0 0 171 
0 0 159 
0 0 147 
0 0 130 
0 0 156 
0 0 157 
0 0 172 
0 0 150 
0 0 172 
0 0 147 
0 0 161 
0 0 163 
0 0 144 
0 0 141 
0 0 134 
0 0 155 
0 0 130 
0 0 140 
0 0 136 
0 0 155 
0 0 140 
0 0 137 
0 0 134 
0 0 147 
0 0 133 
38 59 120 
48 72 122 
52 79 132 
49 72 102 
52 76 112 
51 78 110 
50 76 112 
52 79 116 
48 73 105 
50 73 111 
53 80 114 
54 83 120 
49 73 102 
55 80 124 
53 75 103 
52 75 115 
51 76 105 
53 76 103 
51 74 99 
55 75 103 
54 72 116 
71 54 76 
119 0 0 
103 0 0 
112 0 0 
134 0 0 
133 0 0 
135 0 0 
144 0 0 
135 0 0 
153 0 0 
137 0 0 
146 0 0 
157 0 0 
165 0 0 
143 0 0 
151 0 0 
156 0 0 
148 0 0 
151 0 0 
148 0 0 
163 0 0 
162 0 0 
166 0 0 
166 0 0 
162 0 0 
167 0 0 
158 0 0 
164 0 0 
164 0 0 
162 0 0 
174 0 0 
162 0 0 
166 0 0 
161 0 0 
168 0 0 
161 0 0 
168 0 0 
170 0 0 
165 0 0 
166 0 0 
166 0 0 
173 0 0 
167 0 0 
177 0 0 
174 0 0 
168 0 0 
173 0 0 
176 0 0 
180 0 0 
172 0 0 
176 0 0 
175 0 0 
178 0 0 
171 0 0 
177 0 0 
177 0 0 
172 0 0 
172 0 0 
183 0 0 
172 0 0 
171 0 0 
177 0 0 
184 0 0 
176 0 0 
183 0 0 
179 0 0 
173 0 0 
182 0 0 
180 0 0 
185 0 0 
181 0 0 
173 0 0 
188 0 0 
177 0 0 
175 0 0 
176 0 0 
186 0 0 
187 0 0 
184 0 0 
178 0 0 
182 0 0 
186 0 0 
180 0 0 
182 0 0 
189 0 0 
181 0 0 
180 0 0 
180 0 0 
185 0 0 
190 0 0 
183 0 0 
182 0 0 
186 0 0 
188 0 0 
184 0 0 
185 0 0 
185 0 0 
186 0 0 
189 0 0 
187 0 0 
186 0 0 
186 0 0 
182 0 0 
185 0 0 
188 0 0 
188 0 0 
191 0 0 
186 0 0 
184 0 0 
186 0 0 
182 0 0 
188 0 0 
184 0 0 
185 0 0 
186 0 0 
188 0 0 
192 0 0 
187 0 0 
186 0 0 
186 0 0 
185 0 0 
187 0 0 
186 0 0 
187 0 0 
191 0 0 
186 0 0 
189 0 0 
186 0 0 
184 0 0 
194 0 0 
183 0 0 
189 0 0 
183 0 0 
184 0 0 
187 0 0 
184 0 0 
189 0 0 
185 0 0 
188 0 0 
187 0 0 
191 0 0 
186 0 0 
188 0 0 
190 0 0 
186 0 0 
190 0 0 
186 0 0 
190 0 0 
188 0 0 
189 0 0 
187 0 0 
192 0 0 
190 0 0 
190 0 0 
189 0 0 
185 0 0 
190 0 0 
186 0 0 
189 0 0 
190 0 0 
188 0 0 
186 0 0 
191 0 0 
192 0 0 
188 0 0 
187 0 0 
189 0 0 
186 0 0 
188 0 0 
190 0 0 
185 0 0 
193 0 0 
188 0 0 
189 0 0 
190 0 0 
190 0 0 
190 0 0 
188 0 0 
191 0 0 
190 0 0 
189 0 0 
190 0 0 
189 0 0 
191 0 0 
192 0 0 
188 0 0 
191 0 0 
188 0 0 
191 0 0 
189 0 0 
0 0 184 
0 0 182 
0 0 193 
0 0 177 
0 0 186 
0 0 177 
0 0 188 
0 0 196 
0 0 184 
0 0 196 
0 0 207 
0 0 194 
0 0 177 
0 0 181 
0 0 207 
0 0 188 
0 0 194 
0 0 201 
0 0 171 
0 0 186 
0 0 179 
0 0 198 
0 0 165 
0 0 193 
0 0 181 
0 0 203 
0 0 184 
0 0 189 
0 0 199 
0 0 194 
0 0 184 
0 0 189 
0 0 177 
0 0 177 
0 0 179 
0 0 194 
0 0 188 
0 0 169 
0 0 191 
0 0 182 
0 0 181 
0 0 175 
0 0 182 
0 0 181 
0 0 175 
0 0 175 
0 0 198 
0 0 188 
0 0 186 
0 0 169 
0 0 177 
0 0 194 
0 0 196 
0 0 193 
0 0 184 
0 0 179 
0 0 175 
0 0 198 
0 0 186 
0 0 171 
0 0 182 
0 0 165 
0 0 189 
0 0 182 
0 0 184 
0 0 181 
0 0 184 
0 0 191 
0 0 188 
0 0 188 
0 0 177 
0 0 182 
0 0 184 
0 0 175 
0 0 196 
0 0 175 
0 0 181 
0 0 167 
0 0 182 
0 0 175 
0 0 186 
0 0 181 
0 0 161 
0 0 173 
0 0 163 
0 0 182 
0 0 184 
0 0 189 
0 0 186 
0 0 188 
0 0 182 
0 0 169 
0 0 189 
0 0 169 
0 0 184 
0 0 179 
0 0 182 
0 0 175 
0 0 181 
0 0 177 
0 0 189 
0 0 173 
0 0 189 
0 0 165 
0 0 175 
0 0 191 
0 0 173 
0 0 165 
0 0 173 
0 0 165 
0 0 177 
0 0 182 
0 0 184 
0 0 188 
0 0 165 
0 0 175 
0 0 184 
0 0 177 
0 0 181 
0 0 177 
0 0 182 
0 0 173 
0 0 173 
0 0 173 
0 0 179 
0 0 173 
0 0 171 
0 0 177 
0 0 189 
0 0 177 
0 0 182 
0 0 191 
0 0 184 
0 0 171 
0 0 182 
0 0 161 
0 0 181 
0 0 191 
0 0 184 
0 0 181 
0 0 175 
0 0 173 
0 0 151 
0 0 167 
0 0 161 
0 0 177 
0 0 159 
0 0 167 
0 0 165 
0 0 147 
0 0 169 
0 0 167 
0 0 173 
0 0 163 
0 0 167 
0 0 181 
0 0 175 
0 0 159 
0 0 161 
0 0 164 
0 0 153 
0 0 154 
0 0 171 
0 0 161 
0 0 174 
0 0 155 
0 0 160 
0 0 154 
0 0 140 
0 0 163 
0 0 149 
0 0 153 
0 0 153 
0 0 153 
0 0 137 
0 0 138 
0 0 139 
0 0 134 
0 0 139 
0 0 140 
0 0 163 
0 0 141 
0 0 125 
0 0 153 
0 0 142 
0 0 133 
0 0 111 
0 0 124 
0 0 141 
38 57 116 
42 62 99 
52 78 107 
47 73 110 
51 77 113 
48 72 102 
50 76 114 
52 76 118 
51 75 120 
50 71 103 
51 77 114 
48 70 103 
49 74 103 
53 76 114 
49 75 99 
57 83 125 
55 81 117 
48 67 99 
51 74 97 
52 75 107 
51 74 103 
92 52 67 
119 0 0 
139 0 0 
123 0 0 
135 0 0 
134 0 0 
138 0 0 
135 0 0 
138 0 0 
140 0 0 
138 0 0 
139 0 0 
148 0 0 
156 0 0 
145 0 0 
148 0 0 
159 0 0 
152 0 0 
160 0 0 
166 0 0 
166 0 0 
153 0 0 
158 0 0 
166 0 0 
174 0 0 
163 0 0 
172 0 0 
163 0 0 
154 0 0 
167 0 0 
170 0 0 
165 0 0 
161 0 0 
170 0 0 
167 0 0 
173 0 0 
178 0 0 
166 0 0 
167 0 0 
169 0 0 
172 0 0 
171 0 0 
173 0 0 
168 0 0 
168 0 0 
170 0 0 
171 0 0 
173 0 0 
168 0 0 
178 0 0 
168 0 0 
168 0 0 
172 0 0 
174 0 0 
169 0 0 
173 0 0 
164 0 0 
178 0 0 
178 0 0 
182 0 0 
179 0 0 
176 0 0 
174 0 0 
176 0 0 
178 0 0 
183 0 0 
172 0 0 
182 0 0 
183 0 0 
179 0 0 
175 0 0 
177 0 0 
179 0 0 
167 0 0 
178 0 0 
179 0 0 
178 0 0 
190 0 0 
177 0 0 
185 0 0 
179 0 0 
182 0 0 
179 0 0 
181 0 0 
184 0 0 
175 0 0 
175 0 0 
187 0 0 
181 0 0 
184 0 0 
178 0 0 
186 0 0 
182 0 0 
185 0 0 
192 0 0 
187 0 0 
187 0 0 
182 0 0 
181 0 0 
186 0 0 
184 0 0 
185 0 0 
183 0 0 
184 0 0 
186 0 0 
186 0 0 
190 0 0 
183 0 0 
184 0 0 
191 0 0 
187 0 0 
189 0 0 
188 0 0 
182 0 0 
184 0 0 
185 0 0 
188 0 0 
183 0 0 
185 0 0 
185 0 0 
181 0 0 
183 0 0 
187 0 0 
191 0 0 
184 0 0 
185 0 0 
189 0 0 
191 0 0 
189 0 0 
187 0 0 
186 0 0 
187 0 0 
190 0 0 
189 0 0 
187 0 0 
191 0 0 
187 0 0 
188 0 0 
194 0 0 
187 0 0 
195 0 0 
192 0 0 
185 0 0 
191 0 0 
186 0 0 
187 0 0 
192 0 0 
190 0 0 
192 0 0 
183 0 0 
189 0 0 
187 0 0 
189 0 0 
190 0 0 
190 0 0 
187 0 0 
187 0 0 
189 0 0 
192 0 0 
186 0 0 
191 0 0 
193 0 0 
187 0 0 
194 0 0 
186 0 0 
192 0 0 
186 0 0 
193 0 0 
184 0 0 
190 0 0 
189 0 0 
193 0 0 
193 0 0 
186 0 0 
192 0 0 
186 0 0 
191 0 0 
192 0 0 
192 0 0 
193 0 0 
191 0 0 
187 0 0 
192 0 0 
189 0 0 
188 0 0 
190 0 0 
193 0 0 
191 0 0 
190 0 0 
189 0 0 
0 0 188 
0 0 177 
0 0 181 
0 0 188 
0 0 196 
0 0 181 
0 0 189 
0 0 169 
0 0 179 
0 0 177 
0 0 179 
0 0 199 
0 0 196 
0 0 181 
0 0 177 
0 0 167 
0 0 175 
0 0 189 
0 0 193 
0 0 181 
0 0 179 
0 0 196 
0 0 189 
0 0 167 
0 0 191 
0 0 181 
0 0 171 
0 0 181 
0 0 181 
0 0 186 
0 0 191 
0 0 175 
0 0 194 
0 0 189 
0 0 175 
0 0 177 
0 0 181 
0 0 181 
0 0 177 
0 0 199 
0 0 177 
0 0 198 
0 0 177 
0 0 175 
0 0 165 
0 0 194 
0 0 184 
0 0 196 
0 0 191 
0 0 184 
0 0 206 
0 0 188 
0 0 163 
0 0 171 
0 0 186 
0 0 186 
0 0 188 
0 0 184 
0 0 181 
0 0 171 
0 0 179 
0 0 181 
0 0 188 
0 0 196 
0 0 184 
0 0 199 
0 0 175 
0 0 175 
0 0 175 
0 0 189 
0 0 189 
0 0 181 
0 0 186 
0 0 163 
0 0 175 
0 0 189 
0 0 177 
0 0 182 
0 0 184 
0 0 161 
0 0 173 
0 0 186 
0 0 171 
0 0 196 
0 0 188 
0 0 189 
0 0 175 
0 0 179 
0 0 196 
0 0 169 
0 0 179 
0 0 191 
0 0 186 
0 0 181 
0 0 165 
0 0 186 
0 0 189 
0 0 193 
0 0 153 
0 0 167 
0 0 189 
0 0 193 
0 0 171 
0 0 159 
0 0 186 
0 0 169 
0 0 175 
0 0 179 
0 0 171 
0 0 188 
0 0 177 
0 0 175 
0 0 179 
0 0 165 
0 0 186 
0 0 173 
0 0 189 
0 0 186 
0 0 171 
0 0 173 
0 0 173 
0 0 159 
0 0 179 
0 0 196 
0 0 167 
0 0 173 
0 0 151 
0 0 165 
0 0 181 
0 0 157 
0 0 169 
0 0 173 
0 0 182 
0 0 165 
0 0 188 
0 0 165 
0 0 163 
0 0 167 
0 0 155 
0 0 193 
0 0 165 
0 0 161 
0 0 171 
0 0 167 
0 0 167 
0 0 171 
0 0 163 
0 0 161 
0 0 154 
0 0 181 
0 0 167 
0 0 162 
0 0 167 
0 0 153 
0 0 169 
0 0 173 
0 0 184 
0 0 181 
0 0 179 
0 0 159 
0 0 182 
0 0 153 
0 0 165 
0 0 161 
0 0 165 
0 0 157 
0 0 162 
0 0 157 
0 0 139 
0 0 153 
0 0 142 
0 0 159 
0 0 144 
0 0 161 
0 0 122 
0 0 153 
0 0 141 
0 0 139 
0 0 144 
0 0 135 
0 0 147 
0 0 136 
0 0 131 
0 0 126 
0 0 151 
0 0 129 
0 0 131 
0 0 134 
0 0 149 
37 56 119 
49 75 120 
47 69 107 
50 75 107 
48 70 98 
49 76 108 
50 76 103 
53 78 105 
52 78 112 
48 69 110 
52 78 120 
53 76 117 
52 74 99 
52 74 108 
53 73 102 
54 78 115 
51 77 108 
55 79 108 
52 77 118 
52 77 110 
53 78 118 
84 62 92 
120 0 0 
130 0 0 
132 0 0 
132 0 0 
133 0 0 
125 0 0 
150 0 0 
145 0 0 
137 0 0 
131 0 0 
144 0 0 
137 0 0 
161 0 0 
154 0 0 
153 0 0 
156 0 0 
148 0 0 
168 0 0 
154 0 0 
159 0 0 
152 0 0 
163 0 0 
161 0 0 
157 0 0 
167 0 0 
154 0 0 
161 0 0 
154 0 0 
166 0 0 
172 0 0 
169 0 0 
162 0 0 
164 0 0 
165 0 0 
165 0 0 
165 0 0 
165 0 0 
166 0 0 
165 0 0 
174 0 0 
158 0 0 
174 0 0 
173 0 0 
165 0 0 
167 0 0 
168 0 0 
171 0 0 
169 0 0 
178 0 0 
174 0 0 
177 0 0 
179 0 0 
179 0 0 
170 0 0 
179 0 0 
172 0 0 
178 0 0 
174 0 0 
180 0 0 
178 0 0 
181 0 0 
179 0 0 
175 0 0 
174 0 0 
175 0 0 
181 0 0 
177 0 0 
183 0 0 
176 0 0 
188 0 0 
186 0 0 
190 0 0 
182 0 0 
180 0 0 
178 0 0 
178 0 0 
184 0 0 
179 0 0 
182 0 0 
180 0 0 
182 0 0 
178 0 0 
188 0 0 
184 0 0 
184 0 0 
179 0 0 
181 0 0 
183 0 0 
189 0 0 
188 0 0 
175 0 0 
186 0 0 
184 0 0 
183 0 0 
184 0 0 
180 0 0 
185 0 0 
183 0 0 
185 0 0 
185 0 0 
181 0 0 
184 0 0 
185 0 0 
184 0 0 
179 0 0 
185 0 0 
184 0 0 
185 0 0 
183 0 0 
188 0 0 
180 0 0 
183 0 0 
186 0 0 
185 0 0 
189 0 0 
188 0 0 
190 0 0 
188 0 0 
182 0 0 
189 0 0 
189 0 0 
185 0 0 
186 0 0 
183 0 0 
188 0 0 
190 0 0 
182 0 0 
185 0 0 
186 0 0 
189 0 0 
188 0 0 
182 0 0 
184 0 0 
185 0 0 
192 0 0 
189 0 0 
189 0 0 
184 0 0 
191 0 0 
188 0 0 
188 0 0 
188 0 0 
187 0 0 
192 0 0 
191 0 0 
191 0 0 
191 0 0 
191 0 0 
189 0 0 
187 0 0 
189 0 0 
191 0 0 
185 0 0 
190 0 0 
186 0 0 
186 0 0 
190 0 0 
188 0 0 
191 0 0 
190 0 0 
186 0 0 
193 0 0 
188 0 0 
189 0 0 
190 0 0 
192 0 0 
186 0 0 
194 0 0 
184 0 0 
191 0 0 
186 0 0 
187 0 0 
191 0 0 
188 0 0 
191 0 0 
185 0 0 
191 0 0 
189 0 0 
191 0 0 
190 0 0 
190 0 0 
190 0 0 
188 0 0 
187 0 0 
189 0 0 
190 0 0 
191 0 0 
191 0 0 
186 0 0 
0 0 191 
0 0 188 
0 0 182 
0 0 196 
0 0 189 
0 0 199 
0 0 193 
0 0 199 
0 0 186 
0 0 181 
0 0 177 
0 0 196 
0 0 188 
0 0 189 
0 0 171 
0 0 191 
0 0 186 
0 0 196 
0 0 182 
0 0 184 
0 0 191 
0 0 173 
0 0 175 
0 0 182 
0 0 193 
0 0 173 
0 0 179 
0 0 181 
0 0 184 
0 0 193 
0 0 191 
0 0 186 
0 0 193 
0 0 177 
0 0 184 
0 0 175 
0 0 182 
0 0 182 
0 0 194 
0 0 177 
0 0 188 
0 0 179 
0 0 182 
0 0 175 
0 0 188 
0 0 182 
0 0 179 
0 0 179 
0 0 173 
0 0 186 
0 0 182 
0 0 193 
0 0 184 
0 0 179 
0 0 188 
0 0 191 
0 0 186 
0 0 193 
0 0 181 
0 0 171 
0 0 177 
0 0 173 
0 0 186 
0 0 175 
0 0 189 
0 0 189 
0 0 179 
0 0 194 
0 0 173 
0 0 177 
0 0 179 
0 0 179 
0 0 175 
0 0 198 
0 0 181 
0 0 175 
0 0 177 
0 0 171 
0 0 184 
0 0 179 
0 0 189 
0 0 177 
0 0 186 
0 0 182 
0 0 191 
0 0 179 
0 0 157 
0 0 157 
0 0 189 
0 0 186 
0 0 175 
0 0 186 
0 0 189 
0 0 181 
0 0 175 
0 0 186 
0 0 182 
0 0 186 
0 0 175 
0 0 161 
0 0 196 
0 0 182 
0 0 167 
0 0 186 
0 0 171 
0 0 173 
0 0 175 
0 0 181 
0 0 177 
0 0 175 
0 0 188 
0 0 188 
0 0 169 
0 0 165 
0 0 161 
0 0 191 
0 0 177 
0 0 161 
0 0 181 
0 0 184 
0 0 167 
0 0 179 
0 0 177 
0 0 177 
0 0 186 
0 0 175 
0 0 167 
0 0 181 
0 0 189 
0 0 182 
0 0 167 
0 0 188 
0 0 163 
0 0 165 
0 0 161 
0 0 167 
0 0 157 
0 0 167 
0 0 171 
0 0 165 
0 0 177 
0 0 167 
0 0 157 
0 0 167 
0 0 144 
0 0 163 
0 0 171 
0 0 153 
0 0 135 
0 0 147 
0 0 161 
0 0 157 
0 0 172 
0 0 159 
0 0 163 
0 0 167 
0 0 159 
0 0 147 
0 0 149 
0 0 161 
0 0 165 
0 0 148 
0 0 171 
0 0 151 
0 0 173 
0 0 151 
0 0 153 
0 0 141 
0 0 161 
0 0 149 
0 0 151 
0 0 140 
0 0 150 
0 0 153 
0 0 135 
0 0 140 
0 0 133 
0 0 144 
0 0 118 
0 0 136 
0 0 149 
0 0 119 
0 0 135 
0 0 129 
0 0 129 
0 0 135 
0 0 129 
0 0 125 
0 0 95 
39 56 118 
49 72 111 
49 72 95 
51 76 110 
50 75 115 
50 75 109 
52 74 107 
50 75 110 
52 78 105 
52 79 113 
50 73 102 
50 72 97 
53 80 112 
53 77 110 
54 81 120 
49 69 95 
52 77 105 
50 72 92 
50 68 93 
52 74 108 
52 74 103 
73 66 94 
114 0 0 
128 0 0 
138 0 0 
131 0 0 
141 0 0 
140 0 0 
147 0 0 
136 0 0 
138 0 0 
146 0 0 
152 0 0 
146 0 0 
156 0 0 
161 0 0 
151 0 0 
158 0 0 
146 0 0 
153 0 0 
155 0 0 
146 0 0 
173 0 0 
157 0 0 
152 0 0 
160 0 0 
153 0 0 
159 0 0 
150 0 0 
156 0 0 
167 0 0 
167 0 0 
153 0 0 
172 0 0 
166 0 0 
169 0 0 
164 0 0 
169 0 0 
166 0 0 
170 0 0 
172 0 0 
167 0 0 
167 0 0 
173 0 0 
171 0 0 
164 0 0 
170 0 0 
177 0 0 
179 0 0 
168 0 0 
182 0 0 
172 0 0 
167 0 0 
174 0 0 
176 0 0 
168 0 0 
171 0 0 
166 0 0 
177 0 0 
182 0 0 
177 0 0 
180 0 0 
179 0 0 
180 0 0 
177 0 0 
183 0 0 
176 0 0 
179 0 0 
178 0 0 
181 0 0 
181 0 0 
177 0 0 
182 0 0 
185 0 0 
181 0 0 
181 0 0 
179 0 0 
182 0 0 
176 0 0 
181 0 0 
185 0 0 
186 0 0 
185 0 0 
186 0 0 
186 0 0 
181 0 0 
178 0 0 
184 0 0 
186 0 0 
180 0 0 
185 0 0 
181 0 0 
181 0 0 
185 0 0 
179 0 0 
179 0 0 
187 0 0 
182 0 0 
177 0 0 
187 0 0 
184 0 0 
183 0 0 
190 0 0 
185 0 0 
182 0 0 
181 0 0 
186 0 0 
187 0 0 
186 0 0 
187 0 0 
184 0 0 
180 0 0 
182 0 0 
185 0 0 
187 0 0 
183 0 0 
188 0 0 
179 0 0 
184 0 0 
190 0 0 
181 0 0 
188 0 0 
187 0 0 
184 0 0 
183 0 0 
190 0 0 
178 0 0 
191 0 0 
186 0 0 
186 0 0 
189 0 0 
193 0 0 
190 0 0 
195 0 0 
192 0 0 
186 0 0 
184 0 0 
184 0 0 
191 0 0 
188 0 0 
185 0 0 
193 0 0 
189 0 0 
181 0 0 
187 0 0 
181 0 0 
189 0 0 
193 0 0 
191 0 0 
182 0 0 
184 0 0 
185 0 0 
188 0 0 
188 0 0 
188 0 0 
186 0 0 
192 0 0 
190 0 0 
188 0 0 
185 0 0 
189 0 0 
188 0 0 
188 0 0 
192 0 0 
184 0 0 
190 0 0 
185 0 0 
184 0 0 
191 0 0 
188 0 0 
190 0 0 
187 0 0 
196 0 0 
185 0 0 
183 0 0 
193 0 0 
189 0 0 
187 0 0 
195 0 0 
190 0 0 
192 0 0 
187 0 0 
188 0 0 
189 0 0 
197 0 0 
189 0 0 
192 0 0 
190 0 0 
190 0 0 
187 0 0 
193 0 0 
0 0 188 
0 0 198 
0 0 182 
0 0 196 
0 0 189 
0 0 173 
0 0 177 
0 0 175 
0 0 186 
0 0 186 
0 0 188 
0 0 179 
0 0 186 
0 0 179 
0 0 184 
0 0 186 
0 0 204 
0 0 171 
0 0 189 
0 0 188 
0 0 181 
0 0 184 
0 0 177 
0 0 191 
0 0 182 
0 0 188 
0 0 198 
0 0 179 
0 0 196 
0 0 179 
0 0 175 
0 0 182 
0 0 191 
0 0 177 
0 0 201 
0 0 191 
0 0 194 
0 0 167 
0 0 188 
0 0 191 
0 0 186 
0 0 188 
0 0 198 
0 0 175 
0 0 177 
0 0 175 
0 0 167 
0 0 188 
0 0 184 
0 0 179 
0 0 199 
0 0 184 
0 0 177 
0 0 193 
0 0 165 
0 0 175 
0 0 194 
0 0 189 
0 0 184 
0 0 188 
0 0 175 
0 0 175 
0 0 169 
0 0 199 
0 0 188 
0 0 184 
0 0 179 
0 0 186 
0 0 199 
0 0 182 
0 0 198 
0 0 179 
0 0 177 
0 0 169 
0 0 191 
0 0 186 
0 0 188 
0 0 184 
0 0 181 
0 0 175 
0 0 173 
0 0 184 
0 0 184 
0 0 173 
0 0 193 
0 0 173 
0 0 181 
0 0 167 
0 0 181 
0 0 163 
0 0 184 
0 0 184 
0 0 189 
0 0 184 
0 0 179 
0 0 177 
0 0 188 
0 0 182 
0 0 175 
0 0 181 
0 0 175 
0 0 182 
0 0 181 
0 0 177 
0 0 175 
0 0 182 
0 0 182 
0 0 175 
0 0 167 
0 0 179 
0 0 175 
0 0 175 
0 0 189 
0 0 167 
0 0 167 
0 0 181 
0 0 179 
0 0 173 
0 0 186 
0 0 191 
0 0 177 
0 0 177 
0 0 179 
0 0 169 
0 0 186 
0 0 159 
0 0 173 
0 0 173 
0 0 175 
0 0 171 
0 0 157 
0 0 157 
0 0 167 
0 0 179 
0 0 173 
0 0 177 
0 0 171 
0 0 153 
0 0 177 
0 0 169 
0 0 163 
0 0 161 
0 0 167 
0 0 169 
0 0 175 
0 0 159 
0 0 157 
0 0 179 
0 0 165 
0 0 155 
0 0 177 
0 0 147 
0 0 149 
0 0 165 
0 0 161 
0 0 175 
0 0 175 
0 0 163 
0 0 159 
0 0 151 
0 0 153 
0 0 167 
0 0 163 
0 0 173 
0 0 153 
0 0 173 
0 0 160 
0 0 137 
0 0 149 
0 0 157 
0 0 154 
0 0 140 
0 0 140 
0 0 151 
0 0 142 
0 0 137 
0 0 142 
0 0 139 
0 0 147 
0 0 117 
0 0 133 
0 0 137 
0 0 108 
0 0 136 
0 0 108 
0 0 137 
0 0 135 
0 0 117 
0 0 128 
41 60 98 
49 73 104 
45 69 114 
49 75 119 
46 65 90 
51 75 117 
51 75 115 
50 74 103 
49 73 103 
50 77 102 
52 79 110 
53 80 115 
52 75 103 
51 77 112 
53 77 103 
54 74 95 
51 72 96 
52 75 107 
50 71 102 
53 74 96 
49 69 92 
71 62 90 
123 0 0 
131 0 0 
132 0 0 
132 0 0 
120 0 0 
140 0 0 
140 0 0 
141 0 0 
144 0 0 
145 0 0 
153 0 0 
148 0 0 
153 0 0 
148 0 0 
152 0 0 
144 0 0 
151 0 0 
151 0 0 
161 0 0 
155 0 0 
155 0 0 
151 0 0 
163 0 0 
164 0 0 
166 0 0 
162 0 0 
155 0 0 
173 0 0 
155 0 0 
170 0 0 
163 0 0 
175 0 0 
174 0 0 
170 0 0 
163 0 0 
166 0 0 
160 0 0 
173 0 0 
171 0 0 
177 0 0 
169 0 0 
175 0 0 
167 0 0 
172 0 0 
172 0 0 
174 0 0 
165 0 0 
172 0 0 
168 0 0 
180 0 0 
175 0 0 
179 0 0 
179 0 0 
177 0 0 
171 0 0 
172 0 0 
175 0 0 
182 0 0 
175 0 0 
183 0 0 
177 0 0 
180 0 0 
177 0 0 
173 0 0 
180 0 0 
180 0 0 
185 0 0 
181 0 0 
181 0 0 
180 0 0 
185 0 0 
175 0 0 
175 0 0 
185 0 0 
184 0 0 
182 0 0 
178 0 0 
176 0 0 
185 0 0 
186 0 0 
183 0 0 
185 0 0 
179 0 0 
183 0 0 
184 0 0 
184 0 0 
183 0 0 
190 0 0 
184 0 0 
180 0 0 
181 0 0 
183 0 0 
183 0 0 
183 0 0 
188 0 0 
181 0 0 
184 0 0 
183 0 0 
177 0 0 
180 0 0 
185 0 0 
184 0 0 
180 0 0 
183 0 0 
186 0 0 
187 0 0 
187 0 0 
189 0 0 
187 0 0 
185 0 0 
187 0 0 
184 0 0 
185 0 0 
185 0 0 
179 0 0 
189 0 0 
187 0 0 
190 0 0 
184 0 0 
186 0 0 
189 0 0 
189 0 0 
188 0 0 
186 0 0 
190 0 0 
185 0 0 
185 0 0 
183 0 0 
187 0 0 
185 0 0 
184 0 0 
193 0 0 
187 0 0 
188 0 0 
187 0 0 
189 0 0 
188 0 0 
188 0 0 
187 0 0 
192 0 0 
189 0 0 
184 0 0 
187 0 0 
192 0 0 
184 0 0 
188 0 0 
189 0 0 
186 0 0 
188 0 0 
187 0 0 
188 0 0 
190 0 0 
191 0 0 
185 0 0 
188 0 0 
189 0 0 
194 0 0 
189 0 0 
187 0 0 
184 0 0 
185 0 0 
192 0 0 
186 0 0 
187 0 0 
188 0 0 
186 0 0 
187 0 0 
190 0 0 
188 0 0 
190 0 0 
192 0 0 
192 0 0 
187 0 0 
185 0 0 
194 0 0 
189 0 0 
192 0 0 
188 0 0 
190 0 0 
192 0 0 
189 0 0 
187 0 0 
191 0 0 
193 0 0 
185 0 0 
188 0 0 
186 0 0 
188 0 0 
194 0 0 
0 0 199 
0 0 177 
0 0 171 
0 0 182 
0 0 188 
0 0 181 
0 0 186 
0 0 167 
0 0 173 
0 0 181 
0 0 182 
0 0 171 
0 0 199 
0 0 177 
0 0 188 
0 0 184 
0 0 201 
0 0 188 
0 0 184 
0 0 189 
0 0 184 
0 0 186 
0 0 173 
0 0 189 
0 0 193 
0 0 189 
0 0 171 
0 0 182 
0 0 189 
0 0 182 
0 0 189 
0 0 177 
0 0 159 
0 0 163 
0 0 189 
0 0 169 
0 0 186 
0 0 163 
0 0 159 
0 0 182 
0 0 173 
0 0 188 
0 0 177 
0 0 182 
0 0 184 
0 0 188 
0 0 177 
0 0 194 
0 0 186 
0 0 182 
0 0 188 
0 0 179 
0 0 175 
0 0 159 
0 0 177 
0 0 191 
0 0 182 
0 0 184 
0 0 165 
0 0 188 
0 0 186 
0 0 181 
0 0 182 
0 0 193 
0 0 189 
0 0 184 
0 0 182 
0 0 165 
0 0 181 
0 0 186 
0 0 177 
0 0 189 
0 0 167 
0 0 182 
0 0 193 
0 0 181 
0 0 173 
0 0 165 
0 0 193 
0 0 171 
0 0 167 
0 0 177 
0 0 155 
0 0 186 
0 0 171 
0 0 184 
0 0 186 
0 0 171 
0 0 177 
0 0 171 
0 0 193 
0 0 171 
0 0 179 
0 0 169 
0 0 171 
0 0 165 
0 0 159 
0 0 167 
0 0 189 
0 0 182 
0 0 191 
0 0 188 
0 0 167 
0 0 171 
0 0 188 
0 0 169 
0 0 182 
0 0 167 
0 0 188 
0 0 191 
0 0 171 
0 0 177 
0 0 181 
0 0 175 
0 0 179 
0 0 169 
0 0 186 
0 0 181 
0 0 181 
0 0 163 
0 0 186 
0 0 165 
0 0 171 
0 0 181 
0 0 186 
0 0 184 
0 0 193 
0 0 161 
0 0 163 
0 0 186 
0 0 173 
0 0 173 
0 0 175 
0 0 159 
0 0 169 
0 0 167 
0 0 177 
0 0 155 
0 0 159 
0 0 175 
0 0 188 
0 0 171 
0 0 171 
0 0 167 
0 0 167 
0 0 165 
0 0 167 
0 0 171 
0 0 171 
0 0 179 
0 0 167 
0 0 151 
0 0 179 
0 0 149 
0 0 169 
0 0 150 
0 0 156 
0 0 155 
0 0 165 
0 0 140 
0 0 154 
0 0 163 
0 0 163 
0 0 144 
0 0 162 
0 0 152 
0 0 130 
0 0 150 
0 0 168 
0 0 151 
0 0 143 
0 0 142 
0 0 164 
0 0 145 
0 0 133 
0 0 134 
0 0 143 
0 0 129 
0 0 129 
0 0 133 
0 0 149 
0 0 145 
0 0 139 
0 0 150 
0 0 120 
0 0 126 
0 0 128 
0 0 128 
0 0 118 
44 64 105 
45 68 104 
48 73 101 
47 72 107 
48 71 105 
52 78 120 
46 67 87 
51 77 115 
50 71 104 
52 77 108 
50 74 104 
53 75 108 
52 75 110 
52 71 99 
52 78 105 
52 72 106 
49 71 99 
54 78 113 
52 72 99 
52 77 102 
49 67 92 
70 58 80 
120 0 0 
128 0 0 
137 0 0 
144 0 0 
132 0 0 
125 0 0 
133 0 0 
141 0 0 
141 0 0 
145 0 0 
142 0 0 
150 0 0 
152 0 0 
151 0 0 
151 0 0 
161 0 0 
156 0 0 
162 0 0 
148 0 0 
148 0 0 
158 0 0 
165 0 0 
156 0 0 
160 0 0 
159 0 0 
164 0 0 
163 0 0 
161 0 0 
167 0 0 
171 0 0 
159 0 0 
174 0 0 
173 0 0 
165 0 0 
176 0 0 
171 0 0 
165 0 0 
170 0 0 
172 0 0 
172 0 0 
170 0 0 
171 0 0 
167 0 0 
174 0 0 
173 0 0 
173 0 0 
170 0 0 
175 0 0 
173 0 0 
177 0 0 
169 0 0 
177 0 0 
177 0 0 
171 0 0 
172 0 0 
180 0 0 
177 0 0 
177 0 0 
179 0 0 
174 0 0 
175 0 0 
170 0 0 
178 0 0 
177 0 0 
177 0 0 
176 0 0 
178 0 0 
184 0 0 
176 0 0 
181 0 0 
181 0 0 
175 0 0 
182 0 0 
183 0 0 
187 0 0 
181 0 0 
177 0 0 
183 0 0 
184 0 0 
171 0 0 
184 0 0 
183 0 0 
181 0 0 
177 0 0 
180 0 0 
187 0 0 
183 0 0 
178 0 0 
180 0 0 
187 0 0 
187 0 0 
180 0 0 
183 0 0 
183 0 0 
183 0 0 
181 0 0 
189 0 0 
190 0 0 
179 0 0 
185 0 0 
185 0 0 
188 0 0 
184 0 0 
185 0 0 
183 0 0 
183 0 0 
181 0 0 
185 0 0 
181 0 0 
186 0 0 
189 0 0 
184 0 0 
191 0 0 
187 0 0 
183 0 0 
191 0 0 
183 0 0 
190 0 0 
186 0 0 
183 0 0 
181 0 0 
180 0 0 
186 0 0 
185 0 0 
187 0 0 
180 0 0 
184 0 0 
189 0 0 
190 0 0 
188 0 0 
190 0 0 
190 0 0 
187 0 0 
187 0 0 
178 0 0 
185 0 0 
185 0 0 
188 0 0 
189 0 0 
183 0 0 
184 0 0 
188 0 0 
187 0 0 
187 0 0 
187 0 0 
190 0 0 
189 0 0 
189 0 0 
187 0 0 
190 0 0 
190 0 0 
192 0 0 
188 0 0 
186 0 0 
189 0 0 
190 0 0 
190 0 0 
183 0 0 
188 0 0 
189 0 0 
187 0 0 
191 0 0 
191 0 0 
190 0 0 
194 0 0 
184 0 0 
189 0 0 
185 0 0 
188 0 0 
189 0 0 
191 0 0 
190 0 0 
187 0 0 
194 0 0 
189 0 0 
190 0 0 
188 0 0 
189 0 0 
191 0 0 
188 0 0 
193 0 0 
189 0 0 
190 0 0 
192 0 0 
186 0 0 
192 0 0 
187 0 0 
195 0 0 
192 0 0 
0 0 189 
0 0 191 
0 0 175 
0 0 165 
0 0 177 
0 0 186 
0 0 175 
0 0 184 
0 0 171 
0 0 182 
0 0 193 
0 0 181 
0 0 182 
0 0 189 
0 0 177 
0 0 175 
0 0 194 
0 0 196 
0 0 182 
0 0 182 
0 0 188 
0 0 181 
0 0 184 
0 0 184 
0 0 177 
0 0 186 
0 0 182 
0 0 182 
0 0 184 
0 0 188 
0 0 191 
0 0 182 
0 0 182 
0 0 175 
0 0 193 
0 0 194 
0 0 171 
0 0 184 
0 0 175 
0 0 175 
0 0 191 
0 0 193 
0 0 171 
0 0 179 
0 0 182 
0 0 191 
0 0 171 
0 0 182 
0 0 163 
0 0 188 
0 0 188 
0 0 204 
0 0 186 
0 0 181 
0 0 177 
0 0 182 
0 0 191 
0 0 171 
0 0 184 
0 0 181 
0 0 175 
0 0 173 
0 0 186 
0 0 179 
0 0 181 
0 0 169 
0 0 184 
0 0 188 
0 0 175 
0 0 181 
0 0 182 
0 0 188 
0 0 181 
0 0 179 
0 0 165 
0 0 175 
0 0 182 
0 0 175 
0 0 171 
0 0 196 
0 0 196 
0 0 179 
0 0 181 
0 0 173 
0 0 182 
0 0 173 
0 0 177 
0 0 193 
0 0 186 
0 0 177 
0 0 182 
0 0 184 
0 0 191 
0 0 181 
0 0 194 
0 0 182 
0 0 182 
0 0 177 
0 0 177 
0 0 184 
0 0 173 
0 0 179 
0 0 179 
0 0 161 
0 0 173 
0 0 175 
0 0 179 
0 0 165 
0 0 184 
0 0 173 
0 0 169 
0 0 179 
0 0 177 
0 0 173 
0 0 173 
0 0 169 
0 0 165 
0 0 181 
0 0 155 
0 0 175 
0 0 173 
0 0 161 
0 0 175 
0 0 173 
0 0 181 
0 0 163 
0 0 175 
0 0 177 
0 0 169 
0 0 177 
0 0 169 
0 0 167 
0 0 163 
0 0 169 
0 0 163 
0 0 171 
0 0 155 
0 0 167 
0 0 155 
0 0 177 
0 0 161 
0 0 167 
0 0 177 
0 0 179 
0 0 167 
0 0 179 
0 0 173 
0 0 159 
0 0 181 
0 0 157 
0 0 160 
0 0 145 
0 0 144 
0 0 155 
0 0 186 
0 0 165 
0 0 153 
0 0 151 
0 0 142 
0 0 147 
0 0 165 
0 0 142 
0 0 147 
0 0 155 
0 0 142 
0 0 151 
0 0 161 
0 0 161 
0 0 159 
0 0 161 
0 0 158 
0 0 147 
0 0 176 
0 0 140 
0 0 151 
0 0 128 
0 0 136 
0 0 113 
0 0 135 
0 0 134 
0 0 124 
0 0 130 
0 0 130 
0 0 150 
0 0 118 
0 0 131 
0 0 122 
0 0 124 
0 0 106 
42 60 94 
50 75 107 
48 72 105 
48 70 107 
50 74 110 
53 78 106 
49 71 92 
50 73 99 
53 79 103 
51 77 107 
53 80 118 
49 69 95 
51 77 90 
54 76 103 
49 70 94 
57 84 125 
49 69 90 
53 76 110 
50 70 90 
49 70 98 
47 66 90 
66 61 84 
118 0 0 
114 0 0 
124 0 0 
144 0 0 
133 0 0 
129 0 0 
133 0 0 
132 0 0 
142 0 0 
130 0 0 
129 0 0 
148 0 0 
145 0 0 
132 0 0 
147 0 0 
148 0 0 
152 0 0 
148 0 0 
161 0 0 
157 0 0 
152 0 0 
161 0 0 
155 0 0 
161 0 0 
158 0 0 
157 0 0 
167 0 0 
156 0 0 
158 0 0 
167 0 0 
161 0 0 
169 0 0 
167 0 0 
174 0 0 
162 0 0 
184 0 0 
166 0 0 
162 0 0 
163 0 0 
166 0 0 
169 0 0 
171 0 0 
168 0 0 
161 0 0 
179 0 0 
166 0 0 
171 0 0 
171 0 0 
169 0 0 
175 0 0 
172 0 0 
174 0 0 
174 0 0 
179 0 0 
174 0 0 
172 0 0 
178 0 0 
176 0 0 
173 0 0 
173 0 0 
183 0 0 
172 0 0 
182 0 0 
173 0 0 
177 0 0 
173 0 0 
185 0 0 
177 0 0 
177 0 0 
181 0 0 
179 0 0 
181 0 0 
176 0 0 
174 0 0 
181 0 0 
187 0 0 
188 0 0 
179 0 0 
186 0 0 
174 0 0 
177 0 0 
181 0 0 
181 0 0 
179 0 0 
181 0 0 
174 0 0 
187 0 0 
176 0 0 
177 0 0 
186 0 0 
184 0 0 
186 0 0 
186 0 0 
177 0 0 
180 0 0 
181 0 0 
185 0 0 
188 0 0 
185 0 0 
188 0 0 
184 0 0 
183 0 0 
182 0 0 
185 0 0 
186 0 0 
189 0 0 
183 0 0 
188 0 0 
183 0 0 
187 0 0 
190 0 0 
189 0 0 
183 0 0 
190 0 0 
183 0 0 
185 0 0 
189 0 0 
185 0 0 
180 0 0 
182 0 0 
184 0 0 
186 0 0 
189 0 0 
188 0 0 
194 0 0 
182 0 0 
183 0 0 
180 0 0 
190 0 0 
189 0 0 
185 0 0 
190 0 0 
188 0 0 
186 0 0 
190 0 0 
188 0 0 
181 0 0 
186 0 0 
180 0 0 
192 0 0 
188 0 0 
185 0 0 
183 0 0 
188 0 0 
184 0 0 
190 0 0 
183 0 0 
189 0 0 
183 0 0 
191 0 0 
186 0 0 
192 0 0 
190 0 0 
187 0 0 
191 0 0 
193 0 0 
189 0 0 
193 0 0 
191 0 0 
190 0 0 
185 0 0 
189 0 0 
187 0 0 
189 0 0 
186 0 0 
188 0 0 
191 0 0 
188 0 0 
192 0 0 
187 0 0 
189 0 0 
186 0 0 
191 0 0 
191 0 0 
192 0 0 
187 0 0 
190 0 0 
192 0 0 
186 0 0 
193 0 0 
191 0 0 
190 0 0 
189 0 0 
192 0 0 
189 0 0 
187 0 0 
186 0 0 
184 0 0 
187 0 0 
0 0 179 
0 0 182 
0 0 189 
0 0 171 
0 0 179 
0 0 181 
0 0 175 
0 0 175 
0 0 186 
0 0 169 
0 0 188 
0 0 194 
0 0 186 
0 0 188 
0 0 189 
0 0 184 
0 0 191 
0 0 199 
0 0 181 
0 0 199 
0 0 179 
0 0 188 
0 0 186 
0 0 184 
0 0 181 
0 0 179 
0 0 193 
0 0 201 
0 0 171 
0 0 186 
0 0 173 
0 0 191 
0 0 194 
0 0 179 
0 0 186 
0 0 182 
0 0 169 
0 0 198 
0 0 184 
0 0 182 
0 0 184 
0 0 196 
0 0 188 
0 0 179 
0 0 175 
0 0 189 
0 0 186 
0 0 193 
0 0 171 
0 0 193 
0 0 171 
0 0 193 
0 0 181 
0 0 165 
0 0 175 
0 0 181 
0 0 184 
0 0 189 
0 0 175 
0 0 175 
0 0 169 
0 0 184 
0 0 179 
0 0 186 
0 0 177 
0 0 163 
0 0 191 
0 0 184 
0 0 177 
0 0 173 
0 0 184 
0 0 173 
0 0 171 
0 0 171 
0 0 179 
0 0 167 
0 0 188 
0 0 194 
0 0 179 
0 0 184 
0 0 182 
0 0 173 
0 0 191 
0 0 179 
0 0 159 
0 0 169 
0 0 184 
0 0 186 
0 0 191 
0 0 175 
0 0 175 
0 0 173 
0 0 184 
0 0 186 
0 0 199 
0 0 177 
0 0 177 
0 0 179 
0 0 169 
0 0 188 
0 0 194 
0 0 182 
0 0 182 
0 0 177 
0 0 182 
0 0 179 
0 0 179 
0 0 167 
0 0 159 
0 0 159 
0 0 167 
0 0 196 
0 0 151 
0 0 173 
0 0 182 
0 0 189 
0 0 186 
0 0 179 
0 0 169 
0 0 151 
0 0 179 
0 0 159 
0 0 184 
0 0 173 
0 0 184 
0 0 153 
0 0 167 
0 0 163 
0 0 175 
0 0 173 
0 0 169 
0 0 159 
0 0 151 
0 0 186 
0 0 153 
0 0 157 
0 0 186 
0 0 159 
0 0 159 
0 0 159 
0 0 157 
0 0 151 
0 0 167 
0 0 181 
0 0 149 
0 0 147 
0 0 188 
0 0 144 
0 0 161 
0 0 165 
0 0 161 
0 0 142 
0 0 181 
0 0 160 
0 0 159 
0 0 155 
0 0 159 
0 0 161 
0 0 147 
0 0 154 
0 0 161 
0 0 161 
0 0 159 
0 0 155 
0 0 142 
0 0 159 
0 0 159 
0 0 148 
0 0 156 
0 0 145 
0 0 145 
0 0 136 
0 0 133 
0 0 151 
0 0 140 
0 0 129 
0 0 139 
0 0 143 
0 0 147 
0 0 122 
0 0 121 
0 0 124 
0 0 136 
0 0 117 
0 0 129 
0 0 125 
0 0 113 
0 0 122 
0 0 111 
45 69 108 
46 69 111 
47 69 100 
50 73 99 
48 68 103 
50 76 107 
49 72 100 
50 75 107 
50 75 110 
50 76 112 
53 77 113 
51 74 103 
51 74 103 
52 78 105 
52 75 100 
56 81 118 
50 73 113 
52 74 105 
51 71 97 
51 67 92 
50 73 91 
56 68 92 
134 0 0 
127 0 0 
139 0 0 
130 0 0 
127 0 0 
144 0 0 
135 0 0 
146 0 0 
142 0 0 
146 0 0 
148 0 0 
146 0 0 
147 0 0 
146 0 0 
146 0 0 
144 0 0 
148 0 0 
144 0 0 
163 0 0 
159 0 0 
158 0 0 
157 0 0 
153 0 0 
168 0 0 
149 0 0 
155 0 0 
161 0 0 
159 0 0 
165 0 0 
165 0 0 
166 0 0 
165 0 0 
167 0 0 
172 0 0 
163 0 0 
174 0 0 
181 0 0 
170 0 0 
173 0 0 
175 0 0 
170 0 0 
170 0 0 
175 0 0 
179 0 0 
180 0 0 
180 0 0 
175 0 0 
175 0 0 
175 0 0 
171 0 0 
176 0 0 
172 0 0 
175 0 0 
178 0 0 
176 0 0 
172 0 0 
176 0 0 
171 0 0 
185 0 0 
181 0 0 
185 0 0 
180 0 0 
174 0 0 
178 0 0 
175 0 0 
181 0 0 
176 0 0 
180 0 0 
186 0 0 
177 0 0 
185 0 0 
183 0 0 
174 0 0 
180 0 0 
176 0 0 
181 0 0 
180 0 0 
184 0 0 
181 0 0 
181 0 0 
169 0 0 
178 0 0 
182 0 0 
183 0 0 
186 0 0 
184 0 0 
180 0 0 
180 0 0 
178 0 0 
180 0 0 
182 0 0 
183 0 0 
183 0 0 
186 0 0 
182 0 0 
183 0 0 
190 0 0 
183 0 0 
187 0 0 
186 0 0 
186 0 0 
189 0 0 
182 0 0 
183 0 0 
182 0 0 
182 0 0 
182 0 0 
180 0 0 
184 0 0 
187 0 0 
185 0 0 
181 0 0 
184 0 0 
187 0 0 
181 0 0 
185 0 0 
181 0 0 
190 0 0 
192 0 0 
182 0 0 
186 0 0 
184 0 0 
184 0 0 
185 0 0 
185 0 0 
189 0 0 
183 0 0 
182 0 0 
187 0 0 
186 0 0 
188 0 0 
183 0 0 
190 0 0 
189 0 0 
190 0 0 
185 0 0 
191 0 0 
184 0 0 
187 0 0 
182 0 0 
189 0 0 
187 0 0 
189 0 0 
189 0 0 
187 0 0 
182 0 0 
187 0 0 
185 0 0 
188 0 0 
186 0 0 
177 0 0 
182 0 0 
189 0 0 
189 0 0 
187 0 0 
191 0 0 
190 0 0 
189 0 0 
187 0 0 
187 0 0 
193 0 0 
189 0 0 
189 0 0 
184 0 0 
190 0 0 
190 0 0 
190 0 0 
189 0 0 
191 0 0 
193 0 0 
190 0 0 
193 0 0 
191 0 0 
186 0 0 
193 0 0 
186 0 0 
190 0 0 
187 0 0 
190 0 0 
185 0 0 
193 0 0 
192 0 0 
191 0 0 
190 0 0 
190 0 0 
186 0 0 
192 0 0 
186 0 0 
192 0 0 
0 0 177 
0 0 182 
0 0 179 
0 0 173 
0 0 191 
0 0 184 
0 0 194 
0 0 184 
0 0 189 
0 0 163 
0 0 181 
0 0 175 
0 0 173 
0 0 188 
0 0 181 
0 0 193 
0 0 181 
0 0 173 
0 0 196 
0 0 171 
0 0 206 
0 0 177 
0 0 177 
0 0 188 
0 0 191 
0 0 177 
0 0 186 
0 0 194 
0 0 167 
0 0 173 
0 0 163 
0 0 188 
0 0 169 
0 0 167 
0 0 173 
0 0 184 
0 0 175 
0 0 173 
0 0 188 
0 0 188 
0 0 167 
0 0 191 
0 0 179 
0 0 186 
0 0 179 
0 0 199 
0 0 181 
0 0 175 
0 0 167 
0 0 179 
0 0 179 
0 0 181 
0 0 175 
0 0 194 
0 0 177 
0 0 193 
0 0 191 
0 0 171 
0 0 191 
0 0 188 
0 0 169 
0 0 159 
0 0 163 
0 0 184 
0 0 171 
0 0 184 
0 0 171 
0 0 177 
0 0 167 
0 0 175 
0 0 188 
0 0 191 
0 0 189 
0 0 173 
0 0 173 
0 0 184 
0 0 179 
0 0 171 
0 0 181 
0 0 181 
0 0 191 
0 0 179 
0 0 173 
0 0 181 
0 0 169 
0 0 171 
0 0 175 
0 0 189 
0 0 169 
0 0 159 
0 0 182 
0 0 188 
0 0 198 
0 0 186 
0 0 182 
0 0 177 
0 0 165 
0 0 177 
0 0 173 
0 0 173 
0 0 181 
0 0 163 
0 0 169 
0 0 173 
0 0 173 
0 0 186 
0 0 182 
0 0 171 
0 0 184 
0 0 173 
0 0 165 
0 0 167 
0 0 175 
0 0 177 
0 0 165 
0 0 171 
0 0 184 
0 0 184 
0 0 177 
0 0 177 
0 0 153 
0 0 167 
0 0 169 
0 0 177 
0 0 163 
0 0 169 
0 0 177 
0 0 175 
0 0 173 
0 0 165 
0 0 149 
0 0 171 
0 0 194 
0 0 184 
0 0 177 
0 0 153 
0 0 165 
0 0 161 
0 0 173 
0 0 155 
0 0 175 
0 0 165 
0 0 151 
0 0 177 
0 0 149 
0 0 171 
0 0 161 
0 0 165 
0 0 169 
0 0 169 
0 0 165 
0 0 166 
0 0 151 
0 0 163 
0 0 161 
0 0 173 
0 0 157 
0 0 147 
0 0 144 
0 0 157 
0 0 144 
0 0 168 
0 0 159 
0 0 153 
0 0 135 
0 0 169 
0 0 147 
0 0 140 
0 0 173 
0 0 151 
0 0 144 
0 0 144 
0 0 131 
0 0 152 
0 0 149 
0 0 130 
0 0 133 
0 0 144 
0 0 135 
0 0 122 
0 0 129 
0 0 152 
0 0 133 
0 0 102 
0 0 126 
0 0 125 
0 0 128 
0 0 117 
0 0 140 
47 69 99 
49 75 97 
48 74 108 
52 79 113 
50 76 107 
48 71 89 
48 69 96 
48 72 112 
52 73 105 
51 73 97 
50 75 92 
52 75 113 
49 74 105 
53 74 114 
54 76 112 
51 72 105 
52 74 114 
51 75 114 
50 69 86 
50 70 88 
51 73 94 
48 68 94 
127 0 0 
114 0 0 
130 0 0 
118 0 0 
137 0 0 
133 0 0 
134 0 0 
149 0 0 
137 0 0 
141 0 0 
143 0 0 
154 0 0 
158 0 0 
149 0 0 
159 0 0 
155 0 0 
142 0 0 
151 0 0 
158 0 0 
157 0 0 
152 0 0 
144 0 0 
158 0 0 
156 0 0 
163 0 0 
152 0 0 
163 0 0 
165 0 0 
148 0 0 
164 0 0 
159 0 0 
174 0 0 
156 0 0 
175 0 0 
170 0 0 
162 0 0 
176 0 0 
164 0 0 
170 0 0 
174 0 0 
164 0 0 
165 0 0 
171 0 0 
171 0 0 
170 0 0 
175 0 0 
164 0 0 
170 0 0 
174 0 0 
173 0 0 
175 0 0 
167 0 0 
174 0 0 
172 0 0 
178 0 0 
167 0 0 
178 0 0 
177 0 0 
171 0 0 
175 0 0 
172 0 0 
173 0 0 
186 0 0 
174 0 0 
173 0 0 
175 0 0 
171 0 0 
184 0 0 
179 0 0 
178 0 0 
176 0 0 
172 0 0 
178 0 0 
176 0 0 
179 0 0 
183 0 0 
184 0 0 
176 0 0 
181 0 0 
183 0 0 
181 0 0 
183 0 0 
183 0 0 
181 0 0 
175 0 0 
183 0 0 
182 0 0 
181 0 0 
178 0 0 
185 0 0 
186 0 0 
181 0 0 
187 0 0 
187 0 0 
183 0 0 
184 0 0 
175 0 0 
187 0 0 
183 0 0 
183 0 0 
187 0 0 
183 0 0 
184 0 0 
185 0 0 
181 0 0 
180 0 0 
186 0 0 
177 0 0 
187 0 0 
191 0 0 
187 0 0 
189 0 0 
180 0 0 
182 0 0 
186 0 0 
176 0 0 
186 0 0 
182 0 0 
186 0 0 
186 0 0 
190 0 0 
188 0 0 
187 0 0 
187 0 0 
182 0 0 
185 0 0 
181 0 0 
186 0 0 
188 0 0 
190 0 0 
185 0 0 
190 0 0 
184 0 0 
186 0 0 
188 0 0 
183 0 0 
192 0 0 
186 0 0 
188 0 0 
186 0 0 
180 0 0 
193 0 0 
185 0 0 
189 0 0 
190 0 0 
186 0 0 
189 0 0 
191 0 0 
189 0 0 
194 0 0 
186 0 0 
191 0 0 
191 0 0 
186 0 0 
186 0 0 
192 0 0 
189 0 0 
186 0 0 
186 0 0 
188 0 0 
187 0 0 
187 0 0 
183 0 0 
189 0 0 
192 0 0 
193 0 0 
187 0 0 
188 0 0 
188 0 0 
190 0 0 
188 0 0 
192 0 0 
189 0 0 
188 0 0 
185 0 0 
188 0 0 
194 0 0 
185 0 0 
193 0 0 
190 0 0 
189 0 0 
190 0 0 
187 0 0 
193 0 0 
190 0 0 
193 0 0 
185 0 0 
190 0 0 
195 0 0 
0 0 186 
0 0 181 
0 0 194 
0 0 194 
0 0 189 
0 0 188 
0 0 188 
0 0 186 
0 0 179 
0 0 186 
0 0 189 
0 0 204 
0 0 186 
0 0 177 
0 0 189 
0 0 181 
0 0 184 
0 0 188 
0 0 186 
0 0 177 
0 0 191 
0 0 157 
0 0 173 
0 0 184 
0 0 188 
0 0 186 
0 0 194 
0 0 189 
0 0 177 
0 0 179 
0 0 191 
0 0 186 
0 0 194 
0 0 188 
0 0 181 
0 0 184 
0 0 182 
0 0 186 
0 0 193 
0 0 171 
0 0 181 
0 0 188 
0 0 196 
0 0 188 
0 0 189 
0 0 194 
0 0 173 
0 0 175 
0 0 184 
0 0 188 
0 0 181 
0 0 188 
0 0 177 
0 0 191 
0 0 169 
0 0 175 
0 0 177 
0 0 169 
0 0 171 
0 0 191 
0 0 177 
0 0 186 
0 0 163 
0 0 188 
0 0 189 
0 0 196 
0 0 169 
0 0 182 
0 0 169 
0 0 169 
0 0 182 
0 0 184 
0 0 167 
0 0 188 
0 0 181 
0 0 186 
0 0 157 
0 0 181 
0 0 177 
0 0 169 
0 0 169 
0 0 179 
0 0 163 
0 0 175 
0 0 188 
0 0 171 
0 0 177 
0 0 171 
0 0 157 
0 0 175 
0 0 161 
0 0 177 
0 0 179 
0 0 171 
0 0 167 
0 0 193 
0 0 177 
0 0 179 
0 0 177 
0 0 175 
0 0 167 
0 0 194 
0 0 179 
0 0 189 
0 0 159 
0 0 182 
0 0 179 
0 0 173 
0 0 169 
0 0 182 
0 0 186 
0 0 151 
0 0 184 
0 0 171 
0 0 165 
0 0 177 
0 0 167 
0 0 163 
0 0 159 
0 0 181 
0 0 165 
0 0 157 
0 0 179 
0 0 173 
0 0 184 
0 0 151 
0 0 149 
0 0 157 
0 0 161 
0 0 155 
0 0 196 
0 0 171 
0 0 169 
0 0 171 
0 0 173 
0 0 165 
0 0 163 
0 0 171 
0 0 157 
0 0 165 
0 0 186 
0 0 169 
0 0 147 
0 0 153 
0 0 153 
0 0 163 
0 0 149 
0 0 159 
0 0 151 
0 0 157 
0 0 157 
0 0 165 
0 0 159 
0 0 155 
0 0 153 
0 0 163 
0 0 159 
0 0 151 
0 0 159 
0 0 155 
0 0 153 
0 0 155 
0 0 168 
0 0 162 
0 0 172 
0 0 155 
0 0 158 
0 0 149 
0 0 154 
0 0 145 
0 0 147 
0 0 158 
0 0 142 
0 0 149 
0 0 167 
0 0 141 
0 0 141 
0 0 149 
0 0 149 
0 0 137 
0 0 155 
0 0 134 
0 0 134 
0 0 105 
0 0 126 
0 0 135 
0 0 110 
0 0 124 
8 13 115 
45 65 104 
45 68 99 
47 71 100 
46 69 111 
49 72 98 
49 75 106 
48 70 82 
52 73 97 
48 71 99 
49 74 97 
51 74 117 
51 73 98 
52 74 97 
50 74 100 
50 73 95 
49 70 102 
54 75 105 
50 72 96 
49 72 95 
50 73 95 
49 72 88 
50 72 94 
109 20 25 
120 0 0 
123 0 0 
127 0 0 
136 0 0 
144 0 0 
138 0 0 
138 0 0 
132 0 0 
137 0 0 
149 0 0 
145 0 0 
147 0 0 
143 0 0 
145 0 0 
152 0 0 
152 0 0 
158 0 0 
151 0 0 
150 0 0 
165 0 0 
158 0 0 
164 0 0 
168 0 0 
156 0 0 
159 0 0 
172 0 0 
162 0 0 
165 0 0 
165 0 0 
159 0 0 
165 0 0 
162 0 0 
167 0 0 
162 0 0 
170 0 0 
171 0 0 
158 0 0 
165 0 0 
170 0 0 
169 0 0 
163 0 0 
173 0 0 
177 0 0 
167 0 0 
172 0 0 
164 0 0 
169 0 0 
173 0 0 
173 0 0 
180 0 0 
172 0 0 
169 0 0 
174 0 0 
172 0 0 
172 0 0 
176 0 0 
176 0 0 
183 0 0 
171 0 0 
171 0 0 
176 0 0 
177 0 0 
182 0 0 
182 0 0 
180 0 0 
182 0 0 
184 0 0 
185 0 0 
186 0 0 
177 0 0 
181 0 0 
182 0 0 
175 0 0 
182 0 0 
180 0 0 
186 0 0 
183 0 0 
186 0 0 
180 0 0 
183 0 0 
180 0 0 
185 0 0 
185 0 0 
171 0 0 
182 0 0 
179 0 0 
181 0 0 
186 0 0 
187 0 0 
187 0 0 
189 0 0 
178 0 0 
184 0 0 
185 0 0 
185 0 0 
177 0 0 
181 0 0 
185 0 0 
176 0 0 
175 0 0 
185 0 0 
191 0 0 
180 0 0 
178 0 0 
187 0 0 
186 0 0 
177 0 0 
185 0 0 
189 0 0 
183 0 0 
185 0 0 
184 0 0 
186 0 0 
186 0 0 
188 0 0 
186 0 0 
186 0 0 
189 0 0 
181 0 0 
187 0 0 
191 0 0 
189 0 0 
187 0 0 
191 0 0 
186 0 0 
190 0 0 
186 0 0 
182 0 0 
189 0 0 
184 0 0 
178 0 0 
184 0 0 
190 0 0 
186 0 0 
187 0 0 
185 0 0 
188 0 0 
183 0 0 
187 0 0 
186 0 0 
190 0 0 
189 0 0 
190 0 0 
187 0 0 
186 0 0 
186 0 0 
194 0 0 
182 0 0 
190 0 0 
191 0 0 
192 0 0 
186 0 0 
190 0 0 
186 0 0 
185 0 0 
195 0 0 
187 0 0 
190 0 0 
186 0 0 
189 0 0 
189 0 0 
186 0 0 
185 0 0 
188 0 0 
185 0 0 
190 0 0 
191 0 0 
189 0 0 
190 0 0 
192 0 0 
189 0 0 
187 0 0 
189 0 0 
190 0 0 
185 0 0 
188 0 0 
190 0 0 
191 0 0 
186 0 0 
186 0 0 
184 0 0 
192 0 0 
185 0 0 
191 0 0 
189 0 0 
187 0 0 
193 0 0 
185 0 0 
0 0 177 
0 0 177 
0 0 188 
0 0 186 
0 0 199 
0 0 186 
0 0 179 
0 0 173 
0 0 182 
0 0 175 
0 0 186 
0 0 184 
0 0 184 
0 0 173 
0 0 179 
0 0 173 
0 0 181 
0 0 184 
0 0 189 
0 0 181 
0 0 175 
0 0 177 
0 0 189 
0 0 184 
0 0 171 
0 0 198 
0 0 175 
0 0 196 
0 0 169 
0 0 179 
0 0 189 
0 0 177 
0 0 184 
0 0 175 
0 0 169 
0 0 169 
0 0 165 
0 0 191 
0 0 173 
0 0 182 
0 0 173 
0 0 181 
0 0 167 
0 0 171 
0 0 171 
0 0 186 
0 0 181 
0 0 184 
0 0 173 
0 0 177 
0 0 173 
0 0 189 
0 0 184 
0 0 171 
0 0 157 
0 0 182 
0 0 181 
0 0 163 
0 0 196 
0 0 179 
0 0 181 
0 0 177 
0 0 169 
0 0 167 
0 0 196 
0 0 184 
0 0 179 
0 0 186 
0 0 181 
0 0 159 
0 0 186 
0 0 173 
0 0 173 
0 0 182 
0 0 175 
0 0 171 
0 0 177 
0 0 179 
0 0 165 
0 0 165 
0 0 179 
0 0 179 
0 0 165 
0 0 184 
0 0 179 
0 0 186 
0 0 182 
0 0 173 
0 0 161 
0 0 188 
0 0 161 
0 0 165 
0 0 177 
0 0 161 
0 0 155 
0 0 173 
0 0 161 
0 0 147 
0 0 177 
0 0 171 
0 0 181 
0 0 182 
0 0 165 
0 0 159 
0 0 179 
0 0 194 
0 0 177 
0 0 182 
0 0 167 
0 0 173 
0 0 175 
0 0 169 
0 0 167 
0 0 175 
0 0 181 
0 0 179 
0 0 165 
0 0 163 
0 0 149 
0 0 173 
0 0 179 
0 0 177 
0 0 177 
0 0 153 
0 0 175 
0 0 163 
0 0 163 
0 0 144 
0 0 175 
0 0 167 
0 0 169 
0 0 163 
0 0 173 
0 0 169 
0 0 171 
0 0 177 
0 0 182 
0 0 175 
0 0 155 
0 0 157 
0 0 182 
0 0 161 
0 0 161 
0 0 167 
0 0 169 
0 0 180 
0 0 157 
0 0 155 
0 0 169 
0 0 161 
0 0 151 
0 0 149 
0 0 163 
0 0 171 
0 0 171 
0 0 140 
0 0 161 
0 0 148 
0 0 161 
0 0 171 
0 0 149 
0 0 159 
0 0 148 
0 0 163 
0 0 135 
0 0 161 
0 0 126 
0 0 155 
0 0 149 
0 0 155 
0 0 142 
0 0 157 
0 0 148 
0 0 125 
0 0 162 
0 0 150 
0 0 118 
0 0 148 
0 0 141 
0 0 131 
0 0 129 
0 0 120 
0 0 116 
0 0 136 
0 0 107 
0 0 122 
0 0 108 
0 0 100 
10 16 121 
44 67 103 
47 68 100 
49 73 97 
49 74 107 
46 69 101 
47 71 99 
50 77 108 
49 73 107 
49 70 102 
51 74 99 
49 73 104 
48 71 95 
51 74 108 
50 69 102 
52 75 103 
53 77 111 
52 76 100 
52 76 106 
52 70 94 
47 66 97 
50 71 102 
52 75 97 
118 26 36 
122 0 0 
119 0 0 
115 0 0 
122 0 0 
148 0 0 
140 0 0 
136 0 0 
145 0 0 
136 0 0 
150 0 0 
151 0 0 
146 0 0 
142 0 0 
150 0 0 
151 0 0 
160 0 0 
158 0 0 
157 0 0 
157 0 0 
162 0 0 
165 0 0 
152 0 0 
156 0 0 
154 0 0 
166 0 0 
171 0 0 
164 0 0 
161 0 0 
172 0 0 
173 0 0 
160 0 0 
166 0 0 
163 0 0 
171 0 0 
172 0 0 
174 0 0 
168 0 0 
165 0 0 
162 0 0 
169 0 0 
167 0 0 
166 0 0 
171 0 0 
169 0 0 
169 0 0 
167 0 0 
171 0 0 
178 0 0 
174 0 0 
168 0 0 
173 0 0 
166 0 0 
168 0 0 
172 0 0 
173 0 0 
166 0 0 
182 0 0 
177 0 0 
177 0 0 
169 0 0 
180 0 0 
177 0 0 
182 0 0 
185 0 0 
176 0 0 
177 0 0 
186 0 0 
178 0 0 
187 0 0 
174 0 0 
182 0 0 
178 0 0 
176 0 0 
180 0 0 
178 0 0 
179 0 0 
179 0 0 
180 0 0 
180 0 0 
172 0 0 
181 0 0 
179 0 0 
176 0 0 
184 0 0 
181 0 0 
181 0 0 
178 0 0 
181 0 0 
180 0 0 
182 0 0 
175 0 0 
181 0 0 
185 0 0 
176 0 0 
182 0 0 
185 0 0 
184 0 0 
184 0 0 
182 0 0 
180 0 0 
173 0 0 
190 0 0 
185 0 0 
183 0 0 
177 0 0 
182 0 0 
183 0 0 
182 0 0 
187 0 0 
186 0 0 
183 0 0 
179 0 0 
188 0 0 
188 0 0 
184 0 0 
187 0 0 
186 0 0 
189 0 0 
180 0 0 
183 0 0 
189 0 0 
187 0 0 
182 0 0 
188 0 0 
187 0 0 
183 0 0 
185 0 0 
189 0 0 
185 0 0 
185 0 0 
188 0 0 
185 0 0 
186 0 0 
187 0 0 
188 0 0 
186 0 0 
187 0 0 
190 0 0 
186 0 0 
190 0 0 
189 0 0 
189 0 0 
184 0 0 
187 0 0 
186 0 0 
188 0 0 
182 0 0 
190 0 0 
188 0 0 
185 0 0 
186 0 0 
185 0 0 
192 0 0 
187 0 0 
182 0 0 
189 0 0 
182 0 0 
193 0 0 
185 0 0 
185 0 0 
189 0 0 
187 0 0 
187 0 0 
186 0 0 
189 0 0 
190 0 0 
191 0 0 
188 0 0 
183 0 0 
187 0 0 
189 0 0 
187 0 0 
194 0 0 
187 0 0 
187 0 0 
188 0 0 
189 0 0 
188 0 0 
184 0 0 
190 0 0 
189 0 0 
190 0 0 
186 0 0 
190 0 0 
184 0 0 
189 0 0 
194 0 0 
190 0 0 
0 0 193 
0 0 186 
0 0 179 
0 0 157 
0 0 196 
0 0 199 
0 0 182 
0 0 175 
0 0 189 
0 0 184 
0 0 169 
0 0 165 
0 0 182 
0 0 181 
0 0 175 
0 0 179 
0 0 189 
0 0 175 
0 0 179 
0 0 191 
0 0 196 
0 0 163 
0 0 171 
0 0 173 
0 0 196 
0 0 177 
0 0 194 
0 0 186 
0 0 186 
0 0 171 
0 0 175 
0 0 175 
0 0 194 
0 0 189 
0 0 181 
0 0 181 
0 0 186 
0 0 173 
0 0 186 
0 0 188 
0 0 182 
0 0 189 
0 0 177 
0 0 191 
0 0 165 
0 0 177 
0 0 189 
0 0 198 
0 0 169 
0 0 159 
0 0 186 
0 0 179 
0 0 179 
0 0 182 
0 0 182 
0 0 198 
0 0 186 
0 0 163 
0 0 177 
0 0 173 
0 0 179 
0 0 177 
0 0 169 
0 0 177 
0 0 194 
0 0 186 
0 0 171 
0 0 188 
0 0 173 
0 0 169 
0 0 196 
0 0 186 
0 0 179 
0 0 177 
0 0 171 
0 0 188 
0 0 184 
0 0 165 
0 0 179 
0 0 182 
0 0 188 
0 0 179 
0 0 196 
0 0 177 
0 0 165 
0 0 179 
0 0 186 
0 0 175 
0 0 175 
0 0 184 
0 0 184 
0 0 177 
0 0 173 
0 0 171 
0 0 165 
0 0 181 
0 0 181 
0 0 159 
0 0 153 
0 0 179 
0 0 173 
0 0 193 
0 0 186 
0 0 155 
0 0 175 
0 0 171 
0 0 173 
0 0 159 
0 0 171 
0 0 165 
0 0 171 
0 0 169 
0 0 184 
0 0 159 
0 0 179 
0 0 167 
0 0 173 
0 0 189 
0 0 161 
0 0 163 
0 0 171 
0 0 171 
0 0 163 
0 0 169 
0 0 153 
0 0 177 
0 0 149 
0 0 163 
0 0 163 
0 0 159 
0 0 155 
0 0 155 
0 0 155 
0 0 169 
0 0 161 
0 0 177 
0 0 155 
0 0 151 
0 0 177 
0 0 151 
0 0 155 
0 0 140 
0 0 161 
0 0 161 
0 0 157 
0 0 151 
0 0 175 
0 0 165 
0 0 188 
0 0 153 
0 0 151 
0 0 167 
0 0 151 
0 0 157 
0 0 165 
0 0 171 
0 0 157 
0 0 155 
0 0 149 
0 0 167 
0 0 145 
0 0 163 
0 0 137 
0 0 151 
0 0 167 
0 0 134 
0 0 144 
0 0 156 
0 0 126 
0 0 136 
0 0 137 
0 0 142 
0 0 139 
0 0 145 
0 0 142 
0 0 164 
0 0 140 
0 0 118 
0 0 135 
0 0 135 
0 0 157 
0 0 128 
0 0 133 
0 0 133 
0 0 124 
0 0 108 
0 0 95 
0 0 115 
19 30 107 
45 69 91 
47 69 96 
44 67 101 
47 69 95 
48 70 97 
48 72 105 
46 71 104 
51 77 99 
48 71 100 
51 71 99 
49 71 97 
51 76 99 
50 69 94 
52 75 103 
50 72 107 
50 71 86 
51 72 92 
52 75 107 
48 68 90 
47 67 90 
46 63 88 
45 65 76 
119 37 47 
116 0 0 
121 0 0 
117 0 0 
114 0 0 
139 0 0 
133 0 0 
133 0 0 
146 0 0 
137 0 0 
147 0 0 
135 0 0 
140 0 0 
160 0 0 
145 0 0 
150 0 0 
143 0 0 
142 0 0 
143 0 0 
156 0 0 
149 0 0 
159 0 0 
155 0 0 
159 0 0 
155 0 0 
168 0 0 
168 0 0 
147 0 0 
162 0 0 
164 0 0 
158 0 0 
163 0 0 
168 0 0 
164 0 0 
157 0 0 
171 0 0 
174 0 0 
169 0 0 
177 0 0 
172 0 0 
170 0 0 
173 0 0 
175 0 0 
171 0 0 
168 0 0 
173 0 0 
177 0 0 
173 0 0 
169 0 0 
170 0 0 
164 0 0 
173 0 0 
171 0 0 
175 0 0 
173 0 0 
178 0 0 
175 0 0 
174 0 0 
182 0 0 
175 0 0 
172 0 0 
172 0 0 
178 0 0 
176 0 0 
177 0 0 
172 0 0 
179 0 0 
179 0 0 
179 0 0 
179 0 0 
176 0 0 
179 0 0 
176 0 0 
177 0 0 
178 0 0 
184 0 0 
178 0 0 
178 0 0 
183 0 0 
173 0 0 
180 0 0 
176 0 0 
182 0 0 
174 0 0 
186 0 0 
178 0 0 
173 0 0 
182 0 0 
182 0 0 
186 0 0 
179 0 0 
179 0 0 
183 0 0 
176 0 0 
176 0 0 
182 0 0 
184 0 0 
187 0 0 
182 0 0 
184 0 0 
193 0 0 
186 0 0 
184 0 0 
185 0 0 
185 0 0 
180 0 0 
187 0 0 
189 0 0 
180 0 0 
185 0 0 
181 0 0 
184 0 0 
184 0 0 
180 0 0 
187 0 0 
182 0 0 
187 0 0 
185 0 0 
190 0 0 
189 0 0 
185 0 0 
187 0 0 
183 0 0 
187 0 0 
182 0 0 
187 0 0 
184 0 0 
188 0 0 
187 0 0 
186 0 0 
183 0 0 
187 0 0 
187 0 0 
188 0 0 
189 0 0 
178 0 0 
181 0 0 
183 0 0 
183 0 0 
189 0 0 
186 0 0 
193 0 0 
180 0 0 
184 0 0 
186 0 0 
191 0 0 
185 0 0 
190 0 0 
183 0 0 
185 0 0 
187 0 0 
183 0 0 
191 0 0 
188 0 0 
183 0 0 
190 0 0 
187 0 0 
191 0 0 
186 0 0 
190 0 0 
187 0 0 
190 0 0 
187 0 0 
189 0 0 
189 0 0 
191 0 0 
189 0 0 
187 0 0 
191 0 0 
191 0 0 
188 0 0 
190 0 0 
190 0 0 
186 0 0 
190 0 0 
191 0 0 
188 0 0 
191 0 0 
187 0 0 
188 0 0 
185 0 0 
189 0 0 
189 0 0 
188 0 0 
188 0 0 
193 0 0 
192 0 0 
188 0 0 
188 0 0 
0 0 184 
0 0 193 
0 0 165 
0 0 184 
0 0 181 
0 0 173 
0 0 186 
0 0 184 
0 0 191 
0 0 177 
0 0 181 
0 0 175 
0 0 171 
0 0 165 
0 0 188 
0 0 182 
0 0 182 
0 0 179 
0 0 177 
0 0 186 
0 0 169 
0 0 194 
0 0 191 
0 0 181 
0 0 169 
0 0 179 
0 0 181 
0 0 203 
0 0 189 
0 0 191 
0 0 182 
0 0 175 
0 0 175 
0 0 182 
0 0 179 
0 0 189 
0 0 167 
0 0 188 
0 0 179 
0 0 186 
0 0 188 
0 0 179 
0 0 171 
0 0 182 
0 0 203 
0 0 181 
0 0 181 
0 0 177 
0 0 177 
0 0 163 
0 0 188 
0 0 198 
0 0 173 
0 0 161 
0 0 175 
0 0 167 
0 0 175 
0 0 184 
0 0 167 
0 0 191 
0 0 171 
0 0 175 
0 0 171 
0 0 181 
0 0 169 
0 0 177 
0 0 169 
0 0 186 
0 0 184 
0 0 171 
0 0 171 
0 0 188 
0 0 186 
0 0 181 
0 0 181 
0 0 173 
0 0 173 
0 0 186 
0 0 177 
0 0 184 
0 0 179 
0 0 159 
0 0 167 
0 0 177 
0 0 189 
0 0 189 
0 0 175 
0 0 179 
0 0 163 
0 0 171 
0 0 175 
0 0 182 
0 0 175 
0 0 165 
0 0 188 
0 0 186 
0 0 198 
0 0 159 
0 0 198 
0 0 181 
0 0 184 
0 0 177 
0 0 169 
0 0 177 
0 0 179 
0 0 157 
0 0 179 
0 0 173 
0 0 142 
0 0 163 
0 0 179 
0 0 177 
0 0 171 
0 0 167 
0 0 186 
0 0 193 
0 0 163 
0 0 177 
0 0 181 
0 0 163 
0 0 182 
0 0 181 
0 0 169 
0 0 169 
0 0 163 
0 0 163 
0 0 171 
0 0 165 
0 0 157 
0 0 169 
0 0 153 
0 0 157 
0 0 155 
0 0 175 
0 0 153 
0 0 165 
0 0 171 
0 0 163 
0 0 175 
0 0 167 
0 0 163 
0 0 144 
0 0 163 
0 0 161 
0 0 163 
0 0 169 
0 0 151 
0 0 179 
0 0 140 
0 0 172 
0 0 163 
0 0 157 
0 0 184 
0 0 158 
0 0 149 
0 0 162 
0 0 161 
0 0 154 
0 0 151 
0 0 163 
0 0 143 
0 0 147 
0 0 140 
0 0 149 
0 0 161 
0 0 122 
0 0 153 
0 0 153 
0 0 152 
0 0 131 
0 0 133 
0 0 135 
0 0 137 
0 0 152 
0 0 125 
0 0 142 
0 0 134 
0 0 145 
0 0 125 
0 0 114 
0 0 129 
0 0 118 
0 0 130 
0 0 130 
0 0 126 
0 0 121 
0 0 105 
0 0 120 
21 32 102 
50 75 104 
47 72 96 
50 74 96 
49 72 92 
46 68 99 
51 74 103 
48 69 89 
52 75 113 
50 73 102 
49 67 89 
52 76 100 
49 73 92 
49 73 96 
49 70 98 
49 73 99 
49 71 99 
50 70 90 
50 70 88 
50 74 107 
52 77 99 
49 69 94 
48 64 74 
110 31 31 
116 0 0 
133 0 0 
134 0 0 
125 0 0 
125 0 0 
137 0 0 
151 0 0 
142 0 0 
150 0 0 
146 0 0 
149 0 0 
147 0 0 
129 0 0 
151 0 0 
152 0 0 
151 0 0 
146 0 0 
150 0 0 
150 0 0 
163 0 0 
162 0 0 
167 0 0 
152 0 0 
154 0 0 
154 0 0 
156 0 0 
157 0 0 
164 0 0 
166 0 0 
167 0 0 
166 0 0 
167 0 0 
167 0 0 
157 0 0 
173 0 0 
170 0 0 
174 0 0 
173 0 0 
176 0 0 
172 0 0 
161 0 0 
169 0 0 
168 0 0 
178 0 0 
175 0 0 
170 0 0 
173 0 0 
168 0 0 
173 0 0 
174 0 0 
168 0 0 
176 0 0 
167 0 0 
175 0 0 
179 0 0 
181 0 0 
175 0 0 
174 0 0 
175 0 0 
179 0 0 
176 0 0 
176 0 0 
173 0 0 
178 0 0 
178 0 0 
176 0 0 
176 0 0 
176 0 0 
180 0 0 
169 0 0 
174 0 0 
182 0 0 
185 0 0 
181 0 0 
168 0 0 
178 0 0 
181 0 0 
180 0 0 
184 0 0 
178 0 0 
172 0 0 
183 0 0 
181 0 0 
179 0 0 
182 0 0 
182 0 0 
188 0 0 
183 0 0 
189 0 0 
183 0 0 
179 0 0 
181 0 0 
184 0 0 
184 0 0 
179 0 0 
181 0 0 
178 0 0 
180 0 0 
192 0 0 
178 0 0 
187 0 0 
185 0 0 
191 0 0 
178 0 0 
188 0 0 
185 0 0 
188 0 0 
181 0 0 
186 0 0 
190 0 0 
186 0 0 
189 0 0 
178 0 0 
184 0 0 
193 0 0 
180 0 0 
184 0 0 
181 0 0 
184 0 0 
186 0 0 
190 0 0 
187 0 0 
182 0 0 
189 0 0 
187 0 0 
183 0 0 
189 0 0 
180 0 0 
189 0 0 
181 0 0 
190 0 0 
184 0 0 
188 0 0 
188 0 0 
186 0 0 
184 0 0 
186 0 0 
186 0 0 
187 0 0 
185 0 0 
187 0 0 
185 0 0 
185 0 0 
182 0 0 
182 0 0 
185 0 0 
186 0 0 
188 0 0 
180 0 0 
184 0 0 
189 0 0 
188 0 0 
191 0 0 
189 0 0 
190 0 0 
191 0 0 
186 0 0 
191 0 0 
185 0 0 
192 0 0 
186 0 0 
190 0 0 
187 0 0 
187 0 0 
185 0 0 
188 0 0 
188 0 0 
184 0 0 
183 0 0 
194 0 0 
188 0 0 
189 0 0 
187 0 0 
187 0 0 
190 0 0 
189 0 0 
192 0 0 
189 0 0 
191 0 0 
191 0 0 
186 0 0 
185 0 0 
182 0 0 
188 0 0 
190 0 0 
189 0 0 
188 0 0 
185 0 0 
0 0 175 
0 0 184 
0 0 177 
0 0 175 
0 0 182 
0 0 194 
0 0 191 
0 0 182 
0 0 175 
0 0 179 
0 0 189 
0 0 169 
0 0 179 
0 0 147 
0 0 181 
0 0 173 
0 0 182 
0 0 161 
0 0 179 
0 0 181 
0 0 169 
0 0 169 
0 0 173 
0 0 175 
0 0 188 
0 0 182 
0 0 188 
0 0 181 
0 0 171 
0 0 175 
0 0 173 
0 0 182 
0 0 179 
0 0 177 
0 0 177 
0 0 161 
0 0 184 
0 0 206 
0 0 177 
0 0 177 
0 0 181 
0 0 184 
0 0 201 
0 0 179 
0 0 181 
0 0 196 
0 0 184 
0 0 186 
0 0 198 
0 0 184 
0 0 182 
0 0 177 
0 0 159 
0 0 177 
0 0 191 
0 0 194 
0 0 182 
0 0 189 
0 0 184 
0 0 179 
0 0 189 
0 0 159 
0 0 193 
0 0 189 
0 0 191 
0 0 184 
0 0 179 
0 0 186 
0 0 173 
0 0 169 
0 0 165 
0 0 182 
0 0 165 
0 0 171 
0 0 161 
0 0 181 
0 0 186 
0 0 171 
0 0 175 
0 0 182 
0 0 182 
0 0 171 
0 0 177 
0 0 171 
0 0 153 
0 0 151 
0 0 167 
0 0 173 
0 0 173 
0 0 175 
0 0 153 
0 0 171 
0 0 173 
0 0 171 
0 0 175 
0 0 153 
0 0 181 
0 0 169 
0 0 147 
0 0 159 
0 0 165 
0 0 175 
0 0 173 
0 0 181 
0 0 169 
0 0 161 
0 0 175 
0 0 177 
0 0 193 
0 0 175 
0 0 179 
0 0 171 
0 0 159 
0 0 151 
0 0 173 
0 0 181 
0 0 171 
0 0 179 
0 0 171 
0 0 189 
0 0 171 
0 0 177 
0 0 157 
0 0 175 
0 0 171 
0 0 177 
0 0 165 
0 0 153 
0 0 157 
0 0 169 
0 0 171 
0 0 171 
0 0 165 
0 0 151 
0 0 173 
0 0 161 
0 0 177 
0 0 165 
0 0 151 
0 0 157 
0 0 163 
0 0 144 
0 0 167 
0 0 166 
0 0 175 
0 0 147 
0 0 163 
0 0 149 
0 0 157 
0 0 159 
0 0 153 
0 0 169 
0 0 149 
0 0 155 
0 0 175 
0 0 140 
0 0 147 
0 0 153 
0 0 140 
0 0 159 
0 0 145 
0 0 144 
0 0 153 
0 0 163 
0 0 157 
0 0 151 
0 0 153 
0 0 155 
0 0 140 
0 0 142 
0 0 142 
0 0 147 
0 0 149 
0 0 150 
0 0 155 
0 0 111 
0 0 151 
0 0 139 
0 0 143 
0 0 140 
0 0 129 
0 0 107 
0 0 120 
0 0 117 
0 0 113 
0 0 130 
0 0 118 
0 0 105 
20 29 105 
44 68 99 
48 71 104 
46 67 99 
45 66 98 
45 66 88 
51 76 99 
48 71 94 
48 69 97 
48 68 102 
50 74 100 
50 73 103 
52 76 108 
50 72 97 
51 76 105 
49 69 89 
47 66 95 
50 72 88 
53 74 103 
50 71 90 
48 65 84 
52 69 92 
51 73 103 
103 31 40 
110 0 0 
121 0 0 
128 0 0 
128 0 0 
124 0 0 
119 0 0 
137 0 0 
131 0 0 
144 0 0 
140 0 0 
151 0 0 
142 0 0 
152 0 0 
156 0 0 
147 0 0 
144 0 0 
164 0 0 
155 0 0 
152 0 0 
148 0 0 
147 0 0 
160 0 0 
162 0 0 
159 0 0 
158 0 0 
155 0 0 
159 0 0 
159 0 0 
158 0 0 
166 0 0 
163 0 0 
161 0 0 
171 0 0 
168 0 0 
174 0 0 
173 0 0 
164 0 0 
164 0 0 
169 0 0 
166 0 0 
172 0 0 
167 0 0 
165 0 0 
170 0 0 
161 0 0 
165 0 0 
172 0 0 
174 0 0 
173 0 0 
179 0 0 
168 0 0 
176 0 0 
180 0 0 
171 0 0 
177 0 0 
177 0 0 
172 0 0 
175 0 0 
186 0 0 
180 0 0 
172 0 0 
171 0 0 
177 0 0 
183 0 0 
179 0 0 
179 0 0 
179 0 0 
179 0 0 
178 0 0 
181 0 0 
175 0 0 
173 0 0 
180 0 0 
179 0 0 
178 0 0 
182 0 0 
175 0 0 
175 0 0 
182 0 0 
178 0 0 
181 0 0 
178 0 0 
184 0 0 
181 0 0 
182 0 0 
176 0 0 
185 0 0 
179 0 0 
184 0 0 
186 0 0 
186 0 0 
185 0 0 
185 0 0 
183 0 0 
182 0 0 
180 0 0 
177 0 0 
184 0 0 
186 0 0 
184 0 0 
181 0 0 
187 0 0 
185 0 0 
187 0 0 
187 0 0 
179 0 0 
182 0 0 
186 0 0 
184 0 0 
182 0 0 
185 0 0 
180 0 0 
187 0 0 
185 0 0 
179 0 0 
186 0 0 
188 0 0 
185 0 0 
183 0 0 
179 0 0 
183 0 0 
184 0 0 
183 0 0 
182 0 0 
187 0 0 
185 0 0 
187 0 0 
175 0 0 
188 0 0 
180 0 0 
182 0 0 
187 0 0 
185 0 0 
189 0 0 
190 0 0 
185 0 0 
186 0 0 
188 0 0 
191 0 0 
192 0 0 
190 0 0 
183 0 0 
189 0 0 
187 0 0 
188 0 0 
188 0 0 
191 0 0 
183 0 0 
189 0 0 
185 0 0 
187 0 0 
188 0 0 
188 0 0 
186 0 0 
189 0 0 
187 0 0 
184 0 0 
183 0 0 
189 0 0 
183 0 0 
193 0 0 
190 0 0 
187 0 0 
187 0 0 
191 0 0 
193 0 0 
188 0 0 
181 0 0 
192 0 0 
190 0 0 
189 0 0 
190 0 0 
188 0 0 
190 0 0 
191 0 0 
191 0 0 
186 0 0 
193 0 0 
188 0 0 
188 0 0 
186 0 0 
181 0 0 
190 0 0 
181 0 0 
186 0 0 
188 0 0 
192 0 0 
191 0 0 
0 0 188 
0 0 179 
0 0 188 
0 0 191 
0 0 169 
0 0 167 
0 0 182 
0 0 169 
0 0 179 
0 0 161 
0 0 169 
0 0 184 
0 0 181 
0 0 179 
0 0 165 
0 0 189 
0 0 182 
0 0 181 
0 0 193 
0 0 179 
0 0 177 
0 0 179 
0 0 177 
0 0 171 
0 0 181 
0 0 175 
0 0 177 
0 0 184 
0 0 159 
0 0 177 
0 0 177 
0 0 165 
0 0 173 
0 0 175 
0 0 182 
0 0 179 
0 0 189 
0 0 175 
0 0 177 
0 0 179 
0 0 186 
0 0 179 
0 0 191 
0 0 196 
0 0 181 
0 0 189 
0 0 179 
0 0 191 
0 0 186 
0 0 177 
0 0 169 
0 0 193 
0 0 179 
0 0 175 
0 0 181 
0 0 167 
0 0 186 
0 0 193 
0 0 182 
0 0 175 
0 0 182 
0 0 167 
0 0 199 
0 0 173 
0 0 181 
0 0 175 
0 0 177 
0 0 184 
0 0 169 
0 0 163 
0 0 167 
0 0 167 
0 0 181 
0 0 171 
0 0 171 
0 0 169 
0 0 165 
0 0 173 
0 0 181 
0 0 188 
0 0 171 
0 0 191 
0 0 167 
0 0 177 
0 0 181 
0 0 177 
0 0 175 
0 0 167 
0 0 157 
0 0 189 
0 0 169 
0 0 191 
0 0 169 
0 0 153 
0 0 177 
0 0 171 
0 0 182 
0 0 182 
0 0 184 
0 0 184 
0 0 169 
0 0 171 
0 0 179 
0 0 157 
0 0 179 
0 0 171 
0 0 159 
0 0 167 
0 0 161 
0 0 173 
0 0 167 
0 0 169 
0 0 188 
0 0 155 
0 0 157 
0 0 175 
0 0 167 
0 0 175 
0 0 173 
0 0 163 
0 0 153 
0 0 163 
0 0 177 
0 0 184 
0 0 159 
0 0 175 
0 0 175 
0 0 157 
0 0 165 
0 0 169 
0 0 163 
0 0 157 
0 0 159 
0 0 167 
0 0 161 
0 0 159 
0 0 173 
0 0 181 
0 0 163 
0 0 177 
0 0 157 
0 0 179 
0 0 169 
0 0 165 
0 0 142 
0 0 167 
0 0 144 
0 0 167 
0 0 159 
0 0 161 
0 0 161 
0 0 149 
0 0 157 
0 0 159 
0 0 159 
0 0 163 
0 0 151 
0 0 157 
0 0 179 
0 0 144 
0 0 130 
0 0 155 
0 0 141 
0 0 157 
0 0 154 
0 0 142 
0 0 151 
0 0 139 
0 0 117 
0 0 133 
0 0 137 
0 0 141 
0 0 131 
0 0 155 
0 0 153 
0 0 137 
0 0 143 
0 0 128 
0 0 154 
0 0 128 
0 0 129 
0 0 135 
0 0 128 
0 0 108 
0 0 110 
0 0 117 
0 0 129 
0 0 122 
21 33 94 
46 69 92 
44 66 81 
44 64 90 
45 63 84 
50 75 94 
46 68 95 
49 71 110 
50 74 103 
50 72 92 
50 74 102 
46 69 88 
50 73 105 
52 74 108 
53 78 110 
51 71 95 
47 70 94 
49 69 90 
48 73 84 
51 71 97 
51 73 86 
48 67 88 
49 67 72 
88 38 54 
113 0 0 
131 0 0 
127 0 0 
132 0 0 
138 0 0 
125 0 0 
135 0 0 
131 0 0 
135 0 0 
149 0 0 
144 0 0 
154 0 0 
134 0 0 
143 0 0 
151 0 0 
154 0 0 
154 0 0 
153 0 0 
154 0 0 
161 0 0 
149 0 0 
164 0 0 
167 0 0 
168 0 0 
155 0 0 
154 0 0 
160 0 0 
164 0 0 
170 0 0 
152 0 0 
157 0 0 
168 0 0 
164 0 0 
165 0 0 
166 0 0 
163 0 0 
168 0 0 
172 0 0 
163 0 0 
164 0 0 
174 0 0 
175 0 0 
168 0 0 
166 0 0 
164 0 0 
170 0 0 
158 0 0 
168 0 0 
180 0 0 
168 0 0 
170 0 0 
170 0 0 
173 0 0 
172 0 0 
172 0 0 
175 0 0 
178 0 0 
184 0 0 
174 0 0 
174 0 0 
163 0 0 
174 0 0 
184 0 0 
182 0 0 
184 0 0 
173 0 0 
180 0 0 
177 0 0 
182 0 0 
184 0 0 
180 0 0 
175 0 0 
181 0 0 
177 0 0 
176 0 0 
179 0 0 
177 0 0 
169 0 0 
179 0 0 
179 0 0 
179 0 0 
185 0 0 
185 0 0 
176 0 0 
178 0 0 
181 0 0 
184 0 0 
176 0 0 
176 0 0 
185 0 0 
183 0 0 
177 0 0 
176 0 0 
183 0 0 
185 0 0 
185 0 0 
184 0 0 
181 0 0 
179 0 0 
183 0 0 
184 0 0 
176 0 0 
181 0 0 
185 0 0 
182 0 0 
183 0 0 
178 0 0 
182 0 0 
187 0 0 
186 0 0 
186 0 0 
184 0 0 
188 0 0 
186 0 0 
187 0 0 
190 0 0 
185 0 0 
185 0 0 
188 0 0 
187 0 0 
189 0 0 
183 0 0 
187 0 0 
186 0 0 
187 0 0 
188 0 0 
187 0 0 
189 0 0 
180 0 0 
186 0 0 
185 0 0 
186 0 0 
189 0 0 
188 0 0 
182 0 0 
192 0 0 
186 0 0 
193 0 0 
186 0 0 
192 0 0 
188 0 0 
187 0 0 
184 0 0 
189 0 0 
186 0 0 
186 0 0 
186 0 0 
188 0 0 
185 0 0 
188 0 0 
188 0 0 
184 0 0 
190 0 0 
190 0 0 
187 0 0 
189 0 0 
187 0 0 
194 0 0 
187 0 0 
192 0 0 
188 0 0 
189 0 0 
187 0 0 
186 0 0 
191 0 0 
187 0 0 
186 0 0 
184 0 0 
190 0 0 
193 0 0 
191 0 0 
189 0 0 
189 0 0 
186 0 0 
188 0 0 
184 0 0 
187 0 0 
190 0 0 
186 0 0 
188 0 0 
183 0 0 
189 0 0 
188 0 0 
186 0 0 
189 0 0 
189 0 0 
194 0 0 
190 0 0 
0 0 188 
0 0 184 
0 0 177 
0 0 179 
0 0 159 
0 0 175 
0 0 193 
0 0 199 
0 0 193 
0 0 179 
0 0 173 
0 0 193 
0 0 188 
0 0 189 
0 0 173 
0 0 181 
0 0 186 
0 0 181 
0 0 177 
0 0 188 
0 0 167 
0 0 161 
0 0 196 
0 0 186 
0 0 169 
0 0 184 
0 0 182 
0 0 191 
0 0 181 
0 0 173 
0 0 179 
0 0 182 
0 0 167 
0 0 199 
0 0 184 
0 0 179 
0 0 184 
0 0 193 
0 0 182 
0 0 198 
0 0 175 
0 0 196 
0 0 179 
0 0 165 
0 0 186 
0 0 163 
0 0 188 
0 0 171 
0 0 182 
0 0 196 
0 0 184 
0 0 171 
0 0 189 
0 0 177 
0 0 194 
0 0 177 
0 0 181 
0 0 179 
0 0 163 
0 0 175 
0 0 181 
0 0 167 
0 0 179 
0 0 184 
0 0 186 
0 0 173 
0 0 173 
0 0 177 
0 0 184 
0 0 171 
0 0 173 
0 0 186 
0 0 173 
0 0 161 
0 0 179 
0 0 184 
0 0 163 
0 0 182 
0 0 171 
0 0 173 
0 0 181 
0 0 175 
0 0 159 
0 0 196 
0 0 177 
0 0 184 
0 0 171 
0 0 184 
0 0 169 
0 0 177 
0 0 177 
0 0 175 
0 0 177 
0 0 167 
0 0 175 
0 0 186 
0 0 165 
0 0 163 
0 0 184 
0 0 175 
0 0 163 
0 0 149 
0 0 175 
0 0 184 
0 0 169 
0 0 182 
0 0 189 
0 0 184 
0 0 186 
0 0 175 
0 0 163 
0 0 153 
0 0 157 
0 0 167 
0 0 173 
0 0 186 
0 0 169 
0 0 171 
0 0 171 
0 0 169 
0 0 163 
0 0 165 
0 0 142 
0 0 167 
0 0 147 
0 0 167 
0 0 171 
0 0 159 
0 0 147 
0 0 157 
0 0 155 
0 0 169 
0 0 167 
0 0 161 
0 0 144 
0 0 179 
0 0 175 
0 0 171 
0 0 163 
0 0 157 
0 0 169 
0 0 169 
0 0 157 
0 0 171 
0 0 163 
0 0 159 
0 0 155 
0 0 155 
0 0 161 
0 0 175 
0 0 155 
0 0 179 
0 0 159 
0 0 167 
0 0 161 
0 0 159 
0 0 149 
0 0 153 
0 0 144 
0 0 161 
0 0 147 
0 0 151 
0 0 147 
0 0 149 
0 0 148 
0 0 157 
0 0 140 
0 0 130 
0 0 130 
0 0 148 
0 0 153 
0 0 139 
0 0 136 
0 0 137 
0 0 133 
0 0 149 
0 0 126 
0 0 130 
0 0 118 
0 0 143 
0 0 140 
0 0 107 
0 0 105 
0 0 124 
0 0 117 
0 0 124 
0 0 85 
0 0 105 
27 38 95 
43 64 86 
43 62 98 
47 68 100 
47 67 90 
47 71 92 
46 68 91 
46 66 84 
45 66 89 
52 78 107 
51 74 100 
51 76 105 
50 71 90 
47 66 84 
50 72 98 
51 73 96 
49 72 99 
48 68 99 
49 69 99 
50 71 92 
52 70 100 
48 67 90 
49 68 92 
90 44 47 
118 0 0 
121 0 0 
138 0 0 
129 0 0 
123 0 0 
134 0 0 
140 0 0 
143 0 0 
150 0 0 
147 0 0 
150 0 0 
137 0 0 
153 0 0 
152 0 0 
160 0 0 
150 0 0 
144 0 0 
152 0 0 
149 0 0 
154 0 0 
154 0 0 
147 0 0 
161 0 0 
154 0 0 
167 0 0 
163 0 0 
155 0 0 
169 0 0 
163 0 0 
161 0 0 
152 0 0 
164 0 0 
159 0 0 
170 0 0 
166 0 0 
164 0 0 
169 0 0 
169 0 0 
174 0 0 
167 0 0 
176 0 0 
164 0 0 
174 0 0 
170 0 0 
166 0 0 
174 0 0 
170 0 0 
172 0 0 
178 0 0 
175 0 0 
172 0 0 
173 0 0 
177 0 0 
174 0 0 
173 0 0 
174 0 0 
181 0 0 
176 0 0 
178 0 0 
179 0 0 
172 0 0 
186 0 0 
183 0 0 
177 0 0 
174 0 0 
169 0 0 
178 0 0 
178 0 0 
175 0 0 
177 0 0 
173 0 0 
179 0 0 
179 0 0 
181 0 0 
178 0 0 
179 0 0 
185 0 0 
174 0 0 
184 0 0 
179 0 0 
175 0 0 
182 0 0 
178 0 0 
180 0 0 
184 0 0 
179 0 0 
185 0 0 
179 0 0 
183 0 0 
183 0 0 
179 0 0 
183 0 0 
182 0 0 
176 0 0 
183 0 0 
181 0 0 
181 0 0 
182 0 0 
186 0 0 
183 0 0 
183 0 0 
182 0 0 
180 0 0 
184 0 0 
183 0 0 
183 0 0 
182 0 0 
182 0 0 
188 0 0 
182 0 0 
183 0 0 
180 0 0 
186 0 0 
183 0 0 
182 0 0 
185 0 0 
187 0 0 
186 0 0 
188 0 0 
187 0 0 
184 0 0 
187 0 0 
187 0 0 
182 0 0 
185 0 0 
182 0 0 
188 0 0 
187 0 0 
182 0 0 
185 0 0 
188 0 0 
186 0 0 
185 0 0 
185 0 0 
189 0 0 
193 0 0 
184 0 0 
192 0 0 
183 0 0 
181 0 0 
187 0 0 
186 0 0 
189 0 0 
196 0 0 
184 0 0 
188 0 0 
180 0 0 
185 0 0 
190 0 0 
189 0 0 
189 0 0 
184 0 0 
188 0 0 
186 0 0 
189 0 0 
187 0 0 
187 0 0 
191 0 0 
190 0 0 
188 0 0 
191 0 0 
189 0 0 
189 0 0 
188 0 0 
187 0 0 
193 0 0 
188 0 0 
183 0 0 
191 0 0 
188 0 0 
189 0 0 
192 0 0 
186 0 0 
183 0 0 
188 0 0 
189 0 0 
193 0 0 
191 0 0 
191 0 0 
193 0 0 
189 0 0 
194 0 0 
190 0 0 
188 0 0 
190 0 0 
184 0 0 
190 0 0 
193 0 0 
0 0 186 
0 0 181 
0 0 184 
0 0 181 
0 0 177 
0 0 188 
0 0 157 
0 0 169 
0 0 173 
0 0 165 
0 0 167 
0 0 173 
0 0 179 
0 0 184 
0 0 186 
0 0 167 
0 0 184 
0 0 186 
0 0 184 
0 0 191 
0 0 182 
0 0 179 
0 0 169 
0 0 181 
0 0 173 
0 0 181 
0 0 171 
0 0 181 
0 0 193 
0 0 179 
0 0 191 
0 0 181 
0 0 184 
0 0 177 
0 0 159 
0 0 189 
0 0 163 
0 0 173 
0 0 171 
0 0 169 
0 0 186 
0 0 171 
0 0 199 
0 0 179 
0 0 177 
0 0 193 
0 0 189 
0 0 179 
0 0 173 
0 0 181 
0 0 193 
0 0 184 
0 0 177 
0 0 171 
0 0 182 
0 0 175 
0 0 167 
0 0 179 
0 0 184 
0 0 179 
0 0 186 
0 0 173 
0 0 165 
0 0 181 
0 0 161 
0 0 167 
0 0 175 
0 0 189 
0 0 177 
0 0 182 
0 0 173 
0 0 186 
0 0 173 
0 0 181 
0 0 173 
0 0 165 
0 0 171 
0 0 167 
0 0 169 
0 0 175 
0 0 175 
0 0 181 
0 0 161 
0 0 181 
0 0 171 
0 0 163 
0 0 188 
0 0 173 
0 0 159 
0 0 167 
0 0 182 
0 0 184 
0 0 175 
0 0 173 
0 0 173 
0 0 181 
0 0 171 
0 0 186 
0 0 167 
0 0 147 
0 0 193 
0 0 165 
0 0 173 
0 0 177 
0 0 167 
0 0 163 
0 0 173 
0 0 165 
0 0 157 
0 0 182 
0 0 169 
0 0 153 
0 0 189 
0 0 169 
0 0 167 
0 0 157 
0 0 179 
0 0 182 
0 0 181 
0 0 165 
0 0 128 
0 0 171 
0 0 149 
0 0 151 
0 0 173 
0 0 169 
0 0 169 
0 0 171 
0 0 165 
0 0 147 
0 0 161 
0 0 179 
0 0 157 
0 0 177 
0 0 173 
0 0 167 
0 0 155 
0 0 144 
0 0 161 
0 0 161 
0 0 161 
0 0 155 
0 0 144 
0 0 155 
0 0 163 
0 0 151 
0 0 175 
0 0 165 
0 0 151 
0 0 159 
0 0 177 
0 0 169 
0 0 155 
0 0 157 
0 0 149 
0 0 167 
0 0 154 
0 0 147 
0 0 151 
0 0 140 
0 0 142 
0 0 130 
0 0 155 
0 0 147 
0 0 136 
0 0 145 
0 0 137 
0 0 135 
0 0 151 
0 0 145 
0 0 130 
0 0 135 
0 0 129 
0 0 137 
0 0 130 
0 0 117 
0 0 120 
0 0 115 
0 0 130 
0 0 111 
0 0 129 
0 0 121 
0 0 110 
0 0 120 
0 0 125 
0 0 107 
0 0 112 
0 0 94 
34 51 91 
45 64 86 
43 63 103 
45 66 87 
46 67 83 
49 72 92 
44 65 85 
46 70 90 
46 66 86 
48 70 90 
48 70 100 
53 77 102 
50 74 90 
52 76 99 
49 70 92 
50 72 95 
50 68 83 
49 70 102 
45 63 80 
46 63 86 
49 68 80 
47 62 76 
49 64 81 
70 49 65 
126 0 0 
129 0 0 
125 0 0 
127 0 0 
128 0 0 
130 0 0 
149 0 0 
127 0 0 
146 0 0 
134 0 0 
138 0 0 
144 0 0 
154 0 0 
131 0 0 
140 0 0 
154 0 0 
146 0 0 
149 0 0 
155 0 0 
145 0 0 
155 0 0 
155 0 0 
159 0 0 
162 0 0 
160 0 0 
169 0 0 
143 0 0 
158 0 0 
149 0 0 
160 0 0 
160 0 0 
159 0 0 
162 0 0 
162 0 0 
167 0 0 
144 0 0 
174 0 0 
168 0 0 
170 0 0 
166 0 0 
163 0 0 
164 0 0 
166 0 0 
161 0 0 
171 0 0 
163 0 0 
174 0 0 
170 0 0 
172 0 0 
171 0 0 
171 0 0 
161 0 0 
169 0 0 
173 0 0 
170 0 0 
174 0 0 
173 0 0 
177 0 0 
181 0 0 
173 0 0 
177 0 0 
177 0 0 
173 0 0 
171 0 0 
175 0 0 
179 0 0 
174 0 0 
185 0 0 
175 0 0 
179 0 0 
181 0 0 
175 0 0 
184 0 0 
176 0 0 
184 0 0 
179 0 0 
175 0 0 
178 0 0 
181 0 0 
184 0 0 
176 0 0 
186 0 0 
183 0 0 
189 0 0 
184 0 0 
179 0 0 
186 0 0 
179 0 0 
179 0 0 
185 0 0 
185 0 0 
183 0 0 
182 0 0 
176 0 0 
182 0 0 
183 0 0 
181 0 0 
185 0 0 
183 0 0 
180 0 0 
180 0 0 
182 0 0 
184 0 0 
185 0 0 
184 0 0 
182 0 0 
184 0 0 
187 0 0 
183 0 0 
190 0 0 
183 0 0 
181 0 0 
182 0 0 
192 0 0 
187 0 0 
184 0 0 
186 0 0 
186 0 0 
190 0 0 
187 0 0 
191 0 0 
180 0 0 
188 0 0 
179 0 0 
183 0 0 
188 0 0 
182 0 0 
183 0 0 
184 0 0 
194 0 0 
193 0 0 
189 0 0 
181 0 0 
189 0 0 
186 0 0 
181 0 0 
184 0 0 
188 0 0 
189 0 0 
191 0 0 
194 0 0 
188 0 0 
187 0 0 
182 0 0 
191 0 0 
186 0 0 
189 0 0 
186 0 0 
190 0 0 
186 0 0 
187 0 0 
190 0 0 
184 0 0 
179 0 0 
187 0 0 
185 0 0 
185 0 0 
188 0 0 
189 0 0 
190 0 0 
184 0 0 
185 0 0 
187 0 0 
189 0 0 
194 0 0 
188 0 0 
185 0 0 
188 0 0 
195 0 0 
186 0 0 
189 0 0 
188 0 0 
190 0 0 
190 0 0 
189 0 0 
189 0 0 
191 0 0 
186 0 0 
190 0 0 
186 0 0 
188 0 0 
190 0 0 
185 0 0 
186 0 0 
187 0 0 
194 0 0 
187 0 0 
185 0 0 
0 0 194 
0 0 182 
0 0 177 
0 0 194 
0 0 173 
0 0 186 
0 0 177 
0 0 189 
0 0 181 
0 0 165 
0 0 169 
0 0 173 
0 0 181 
0 0 177 
0 0 179 
0 0 184 
0 0 184 
0 0 188 
0 0 171 
0 0 179 
0 0 173 
0 0 181 
0 0 198 
0 0 167 
0 0 182 
0 0 181 
0 0 188 
0 0 182 
0 0 169 
0 0 182 
0 0 182 
0 0 177 
0 0 173 
0 0 196 
0 0 191 
0 0 177 
0 0 165 
0 0 182 
0 0 169 
0 0 193 
0 0 179 
0 0 188 
0 0 167 
0 0 184 
0 0 175 
0 0 184 
0 0 165 
0 0 173 
0 0 184 
0 0 177 
0 0 181 
0 0 177 
0 0 179 
0 0 182 
0 0 191 
0 0 181 
0 0 177 
0 0 167 
0 0 163 
0 0 171 
0 0 193 
0 0 186 
0 0 181 
0 0 177 
0 0 194 
0 0 175 
0 0 196 
0 0 171 
0 0 179 
0 0 163 
0 0 171 
0 0 177 
0 0 175 
0 0 175 
0 0 175 
0 0 167 
0 0 182 
0 0 165 
0 0 149 
0 0 175 
0 0 169 
0 0 182 
0 0 163 
0 0 153 
0 0 161 
0 0 177 
0 0 188 
0 0 161 
0 0 188 
0 0 179 
0 0 167 
0 0 173 
0 0 179 
0 0 157 
0 0 165 
0 0 175 
0 0 165 
0 0 173 
0 0 177 
0 0 167 
0 0 182 
0 0 171 
0 0 161 
0 0 169 
0 0 147 
0 0 151 
0 0 184 
0 0 163 
0 0 147 
0 0 173 
0 0 155 
0 0 151 
0 0 167 
0 0 161 
0 0 179 
0 0 161 
0 0 175 
0 0 184 
0 0 171 
0 0 159 
0 0 169 
0 0 163 
0 0 191 
0 0 163 
0 0 165 
0 0 169 
0 0 184 
0 0 173 
0 0 157 
0 0 157 
0 0 151 
0 0 159 
0 0 163 
0 0 165 
0 0 155 
0 0 165 
0 0 163 
0 0 171 
0 0 163 
0 0 161 
0 0 155 
0 0 175 
0 0 153 
0 0 159 
0 0 153 
0 0 167 
0 0 142 
0 0 173 
0 0 159 
0 0 151 
0 0 147 
0 0 148 
0 0 147 
0 0 144 
0 0 163 
0 0 157 
0 0 157 
0 0 163 
0 0 147 
0 0 144 
0 0 159 
0 0 161 
0 0 163 
0 0 140 
0 0 130 
0 0 137 
0 0 149 
0 0 144 
0 0 139 
0 0 131 
0 0 144 
0 0 140 
0 0 117 
0 0 133 
0 0 145 
0 0 139 
0 0 121 
0 0 125 
0 0 137 
0 0 131 
0 0 128 
0 0 124 
0 0 120 
0 0 133 
0 0 122 
0 0 126 
0 0 105 
0 0 117 
38 55 88 
45 65 94 
48 71 95 
46 68 95 
43 64 78 
45 66 88 
48 69 101 
48 68 92 
50 73 95 
49 74 102 
48 68 86 
46 69 92 
48 70 100 
48 68 82 
49 70 86 
48 68 88 
52 76 103 
50 75 92 
46 66 74 
45 62 70 
49 68 74 
45 61 84 
47 65 84 
69 49 62 
128 0 0 
120 0 0 
128 0 0 
119 0 0 
125 0 0 
116 0 0 
129 0 0 
129 0 0 
138 0 0 
148 0 0 
150 0 0 
145 0 0 
147 0 0 
154 0 0 
156 0 0 
152 0 0 
160 0 0 
151 0 0 
156 0 0 
150 0 0 
142 0 0 
157 0 0 
161 0 0 
163 0 0 
165 0 0 
153 0 0 
173 0 0 
159 0 0 
156 0 0 
148 0 0 
164 0 0 
164 0 0 
160 0 0 
159 0 0 
167 0 0 
169 0 0 
173 0 0 
160 0 0 
176 0 0 
161 0 0 
175 0 0 
175 0 0 
177 0 0 
177 0 0 
175 0 0 
175 0 0 
170 0 0 
166 0 0 
172 0 0 
172 0 0 
165 0 0 
173 0 0 
179 0 0 
174 0 0 
175 0 0 
177 0 0 
175 0 0 
178 0 0 
170 0 0 
181 0 0 
174 0 0 
179 0 0 
187 0 0 
179 0 0 
176 0 0 
175 0 0 
177 0 0 
182 0 0 
174 0 0 
175 0 0 
185 0 0 
174 0 0 
178 0 0 
181 0 0 
179 0 0 
176 0 0 
180 0 0 
181 0 0 
180 0 0 
183 0 0 
181 0 0 
185 0 0 
181 0 0 
180 0 0 
185 0 0 
178 0 0 
182 0 0 
187 0 0 
176 0 0 
185 0 0 
184 0 0 
182 0 0 
184 0 0 
175 0 0 
178 0 0 
183 0 0 
184 0 0 
178 0 0 
181 0 0 
183 0 0 
184 0 0 
176 0 0 
184 0 0 
181 0 0 
183 0 0 
184 0 0 
183 0 0 
182 0 0 
185 0 0 
181 0 0 
189 0 0 
177 0 0 
188 0 0 
186 0 0 
185 0 0 
185 0 0 
185 0 0 
181 0 0 
178 0 0 
191 0 0 
188 0 0 
179 0 0 
190 0 0 
187 0 0 
187 0 0 
183 0 0 
183 0 0 
188 0 0 
178 0 0 
188 0 0 
181 0 0 
184 0 0 
183 0 0 
189 0 0 
184 0 0 
187 0 0 
183 0 0 
187 0 0 
186 0 0 
192 0 0 
183 0 0 
183 0 0 
189 0 0 
190 0 0 
185 0 0 
189 0 0 
182 0 0 
190 0 0 
191 0 0 
184 0 0 
187 0 0 
189 0 0 
185 0 0 
187 0 0 
183 0 0 
187 0 0 
184 0 0 
189 0 0 
187 0 0 
190 0 0 
188 0 0 
191 0 0 
182 0 0 
191 0 0 
188 0 0 
191 0 0 
190 0 0 
186 0 0 
184 0 0 
185 0 0 
187 0 0 
187 0 0 
188 0 0 
192 0 0 
191 0 0 
189 0 0 
192 0 0 
186 0 0 
192 0 0 
187 0 0 
186 0 0 
188 0 0 
191 0 0 
190 0 0 
188 0 0 
188 0 0 
193 0 0 
191 0 0 
0 0 188 
0 0 181 
0 0 188 
0 0 186 
0 0 182 
0 0 177 
0 0 175 
0 0 182 
0 0 175 
0 0 165 
0 0 169 
0 0 194 
0 0 181 
0 0 184 
0 0 182 
0 0 173 
0 0 179 
0 0 177 
0 0 165 
0 0 188 
0 0 191 
0 0 171 
0 0 169 
0 0 169 
0 0 165 
0 0 191 
0 0 181 
0 0 186 
0 0 179 
0 0 182 
0 0 175 
0 0 189 
0 0 177 
0 0 175 
0 0 171 
0 0 181 
0 0 191 
0 0 186 
0 0 184 
0 0 186 
0 0 181 
0 0 181 
0 0 173 
0 0 184 
0 0 191 
0 0 159 
0 0 181 
0 0 182 
0 0 188 
0 0 173 
0 0 173 
0 0 189 
0 0 175 
0 0 188 
0 0 175 
0 0 196 
0 0 175 
0 0 186 
0 0 177 
0 0 188 
0 0 181 
0 0 184 
0 0 186 
0 0 182 
0 0 182 
0 0 184 
0 0 182 
0 0 179 
0 0 177 
0 0 184 
0 0 188 
0 0 171 
0 0 169 
0 0 163 
0 0 184 
0 0 163 
0 0 167 
0 0 169 
0 0 181 
0 0 177 
0 0 181 
0 0 165 
0 0 165 
0 0 167 
0 0 163 
0 0 184 
0 0 179 
0 0 173 
0 0 173 
0 0 173 
0 0 182 
0 0 175 
0 0 175 
0 0 191 
0 0 177 
0 0 165 
0 0 173 
0 0 167 
0 0 181 
0 0 184 
0 0 159 
0 0 165 
0 0 165 
0 0 159 
0 0 182 
0 0 159 
0 0 159 
0 0 175 
0 0 163 
0 0 177 
0 0 177 
0 0 173 
0 0 153 
0 0 173 
0 0 153 
0 0 169 
0 0 167 
0 0 165 
0 0 147 
0 0 151 
0 0 153 
0 0 161 
0 0 153 
0 0 165 
0 0 159 
0 0 165 
0 0 163 
0 0 165 
0 0 153 
0 0 155 
0 0 144 
0 0 169 
0 0 165 
0 0 142 
0 0 157 
0 0 157 
0 0 142 
0 0 163 
0 0 144 
0 0 175 
0 0 149 
0 0 157 
0 0 159 
0 0 147 
0 0 142 
0 0 161 
0 0 169 
0 0 163 
0 0 161 
0 0 147 
0 0 147 
0 0 159 
0 0 181 
0 0 161 
0 0 157 
0 0 161 
0 0 142 
0 0 155 
0 0 143 
0 0 172 
0 0 154 
0 0 157 
0 0 159 
0 0 133 
0 0 155 
0 0 149 
0 0 144 
0 0 130 
0 0 135 
0 0 149 
0 0 145 
0 0 136 
0 0 114 
0 0 136 
0 0 129 
0 0 131 
0 0 134 
0 0 121 
0 0 128 
0 0 125 
0 0 128 
0 0 128 
0 0 124 
0 0 115 
0 0 94 
0 0 111 
0 0 103 
0 0 114 
40 58 99 
44 69 100 
43 64 88 
44 67 87 
47 67 72 
50 76 103 
45 67 86 
49 68 90 
50 73 104 
48 70 92 
46 72 84 
49 72 90 
49 70 84 
46 66 86 
50 72 102 
47 66 85 
50 70 90 
47 65 82 
47 65 82 
50 70 86 
45 59 80 
47 64 82 
49 69 86 
63 50 67 
125 0 0 
112 0 0 
135 0 0 
135 0 0 
123 0 0 
127 0 0 
126 0 0 
138 0 0 
137 0 0 
123 0 0 
139 0 0 
138 0 0 
143 0 0 
140 0 0 
153 0 0 
150 0 0 
152 0 0 
145 0 0 
153 0 0 
157 0 0 
146 0 0 
151 0 0 
155 0 0 
164 0 0 
159 0 0 
148 0 0 
155 0 0 
157 0 0 
157 0 0 
158 0 0 
159 0 0 
156 0 0 
160 0 0 
165 0 0 
169 0 0 
157 0 0 
169 0 0 
168 0 0 
174 0 0 
161 0 0 
163 0 0 
173 0 0 
167 0 0 
171 0 0 
167 0 0 
173 0 0 
170 0 0 
167 0 0 
168 0 0 
175 0 0 
173 0 0 
169 0 0 
175 0 0 
168 0 0 
180 0 0 
170 0 0 
173 0 0 
177 0 0 
180 0 0 
178 0 0 
171 0 0 
178 0 0 
184 0 0 
176 0 0 
172 0 0 
176 0 0 
172 0 0 
178 0 0 
179 0 0 
176 0 0 
175 0 0 
177 0 0 
178 0 0 
180 0 0 
179 0 0 
175 0 0 
178 0 0 
173 0 0 
169 0 0 
188 0 0 
184 0 0 
182 0 0 
177 0 0 
176 0 0 
185 0 0 
178 0 0 
180 0 0 
183 0 0 
183 0 0 
187 0 0 
179 0 0 
182 0 0 
182 0 0 
180 0 0 
183 0 0 
178 0 0 
186 0 0 
186 0 0 
179 0 0 
184 0 0 
182 0 0 
181 0 0 
189 0 0 
184 0 0 
184 0 0 
187 0 0 
189 0 0 
178 0 0 
181 0 0 
188 0 0 
185 0 0 
186 0 0 
178 0 0 
189 0 0 
184 0 0 
178 0 0 
181 0 0 
183 0 0 
180 0 0 
185 0 0 
183 0 0 
186 0 0 
189 0 0 
180 0 0 
189 0 0 
189 0 0 
188 0 0 
183 0 0 
183 0 0 
179 0 0 
185 0 0 
188 0 0 
184 0 0 
186 0 0 
188 0 0 
185 0 0 
190 0 0 
187 0 0 
191 0 0 
183 0 0 
183 0 0 
183 0 0 
188 0 0 
190 0 0 
190 0 0 
186 0 0 
184 0 0 
188 0 0 
190 0 0 
192 0 0 
185 0 0 
189 0 0 
190 0 0 
188 0 0 
182 0 0 
190 0 0 
191 0 0 
188 0 0 
185 0 0 
186 0 0 
182 0 0 
193 0 0 
184 0 0 
187 0 0 
189 0 0 
185 0 0 
187 0 0 
190 0 0 
188 0 0 
187 0 0 
186 0 0 
188 0 0 
181 0 0 
185 0 0 
184 0 0 
187 0 0 
192 0 0 
189 0 0 
187 0 0 
186 0 0 
184 0 0 
183 0 0 
188 0 0 
186 0 0 
190 0 0 
194 0 0 
187 0 0 
193 0 0 
0 0 184 
0 0 173 
0 0 173 
0 0 184 
0 0 173 
0 0 184 
0 0 169 
0 0 157 
0 0 171 
0 0 184 
0 0 186 
0 0 177 
0 0 175 
0 0 161 
0 0 179 
0 0 177 
0 0 179 
0 0 182 
0 0 169 
0 0 196 
0 0 186 
0 0 191 
0 0 165 
0 0 181 
0 0 179 
0 0 161 
0 0 188 
0 0 186 
0 0 155 
0 0 167 
0 0 169 
0 0 181 
0 0 193 
0 0 175 
0 0 179 
0 0 198 
0 0 177 
0 0 175 
0 0 169 
0 0 167 
0 0 182 
0 0 161 
0 0 175 
0 0 167 
0 0 169 
0 0 188 
0 0 181 
0 0 175 
0 0 175 
0 0 188 
0 0 167 
0 0 173 
0 0 179 
0 0 157 
0 0 173 
0 0 186 
0 0 175 
0 0 182 
0 0 189 
0 0 151 
0 0 189 
0 0 165 
0 0 184 
0 0 175 
0 0 186 
0 0 163 
0 0 163 
0 0 169 
0 0 182 
0 0 157 
0 0 184 
0 0 171 
0 0 173 
0 0 184 
0 0 184 
0 0 161 
0 0 177 
0 0 173 
0 0 177 
0 0 181 
0 0 153 
0 0 161 
0 0 189 
0 0 179 
0 0 167 
0 0 175 
0 0 177 
0 0 159 
0 0 177 
0 0 173 
0 0 188 
0 0 182 
0 0 173 
0 0 173 
0 0 188 
0 0 161 
0 0 155 
0 0 182 
0 0 167 
0 0 163 
0 0 167 
0 0 163 
0 0 153 
0 0 177 
0 0 173 
0 0 177 
0 0 175 
0 0 171 
0 0 171 
0 0 167 
0 0 177 
0 0 167 
0 0 179 
0 0 171 
0 0 167 
0 0 181 
0 0 175 
0 0 175 
0 0 147 
0 0 173 
0 0 163 
0 0 159 
0 0 167 
0 0 161 
0 0 167 
0 0 147 
0 0 165 
0 0 165 
0 0 161 
0 0 171 
0 0 167 
0 0 175 
0 0 153 
0 0 167 
0 0 157 
0 0 142 
0 0 155 
0 0 155 
0 0 167 
0 0 159 
0 0 169 
0 0 169 
0 0 155 
0 0 155 
0 0 179 
0 0 149 
0 0 153 
0 0 149 
0 0 142 
0 0 159 
0 0 153 
0 0 163 
0 0 155 
0 0 159 
0 0 159 
0 0 153 
0 0 153 
0 0 144 
0 0 157 
0 0 147 
0 0 148 
0 0 140 
0 0 161 
0 0 141 
0 0 149 
0 0 137 
0 0 154 
0 0 141 
0 0 131 
0 0 140 
0 0 145 
0 0 137 
0 0 141 
0 0 120 
0 0 140 
0 0 134 
0 0 114 
0 0 135 
0 0 125 
0 0 103 
0 0 105 
0 0 114 
0 0 129 
0 0 125 
0 0 92 
0 0 106 
0 0 103 
0 0 118 
44 66 79 
43 66 89 
42 61 80 
43 64 84 
46 71 99 
51 76 107 
47 69 92 
45 64 88 
48 71 90 
46 66 88 
46 69 82 
47 69 84 
48 71 100 
47 70 86 
50 72 88 
45 64 80 
46 65 80 
52 72 99 
47 65 82 
51 70 86 
45 65 90 
47 64 90 
46 63 78 
59 65 92 
112 0 0 
116 0 0 
121 0 0 
117 0 0 
128 0 0 
134 0 0 
141 0 0 
130 0 0 
135 0 0 
141 0 0 
135 0 0 
134 0 0 
145 0 0 
140 0 0 
148 0 0 
149 0 0 
157 0 0 
155 0 0 
149 0 0 
170 0 0 
160 0 0 
154 0 0 
151 0 0 
154 0 0 
161 0 0 
163 0 0 
167 0 0 
157 0 0 
165 0 0 
164 0 0 
161 0 0 
160 0 0 
157 0 0 
156 0 0 
168 0 0 
160 0 0 
156 0 0 
174 0 0 
167 0 0 
170 0 0 
169 0 0 
173 0 0 
168 0 0 
163 0 0 
172 0 0 
170 0 0 
164 0 0 
164 0 0 
169 0 0 
162 0 0 
179 0 0 
162 0 0 
173 0 0 
173 0 0 
172 0 0 
175 0 0 
173 0 0 
167 0 0 
174 0 0 
173 0 0 
173 0 0 
176 0 0 
171 0 0 
170 0 0 
169 0 0 
174 0 0 
176 0 0 
178 0 0 
181 0 0 
179 0 0 
177 0 0 
178 0 0 
179 0 0 
181 0 0 
178 0 0 
179 0 0 
182 0 0 
175 0 0 
177 0 0 
184 0 0 
183 0 0 
183 0 0 
179 0 0 
182 0 0 
179 0 0 
179 0 0 
183 0 0 
179 0 0 
173 0 0 
181 0 0 
176 0 0 
183 0 0 
179 0 0 
177 0 0 
181 0 0 
171 0 0 
188 0 0 
176 0 0 
186 0 0 
185 0 0 
178 0 0 
177 0 0 
183 0 0 
186 0 0 
190 0 0 
179 0 0 
184 0 0 
185 0 0 
184 0 0 
184 0 0 
183 0 0 
180 0 0 
188 0 0 
186 0 0 
182 0 0 
188 0 0 
181 0 0 
183 0 0 
186 0 0 
183 0 0 
188 0 0 
183 0 0 
189 0 0 
185 0 0 
184 0 0 
186 0 0 
185 0 0 
191 0 0 
189 0 0 
182 0 0 
185 0 0 
185 0 0 
182 0 0 
188 0 0 
186 0 0 
180 0 0 
186 0 0 
192 0 0 
185 0 0 
178 0 0 
186 0 0 
191 0 0 
188 0 0 
188 0 0 
187 0 0 
190 0 0 
187 0 0 
185 0 0 
187 0 0 
192 0 0 
182 0 0 
179 0 0 
186 0 0 
188 0 0 
188 0 0 
189 0 0 
192 0 0 
182 0 0 
187 0 0 
183 0 0 
189 0 0 
187 0 0 
186 0 0 
185 0 0 
188 0 0 
188 0 0 
190 0 0 
185 0 0 
190 0 0 
187 0 0 
187 0 0 
188 0 0 
184 0 0 
196 0 0 
189 0 0 
183 0 0 
189 0 0 
191 0 0 
190 0 0 
187 0 0 
191 0 0 
184 0 0 
191 0 0 
184 0 0 
186 0 0 
190 0 0 
190 0 0 
188 0 0 
0 0 181 
0 0 171 
0 0 173 
0 0 189 
0 0 179 
0 0 173 
0 0 171 
0 0 181 
0 0 175 
0 0 165 
0 0 179 
0 0 188 
0 0 169 
0 0 153 
0 0 169 
0 0 184 
0 0 182 
0 0 175 
0 0 163 
0 0 204 
0 0 182 
0 0 181 
0 0 175 
0 0 175 
0 0 184 
0 0 186 
0 0 182 
0 0 167 
0 0 184 
0 0 165 
0 0 184 
0 0 159 
0 0 175 
0 0 191 
0 0 169 
0 0 173 
0 0 173 
0 0 175 
0 0 175 
0 0 182 
0 0 193 
0 0 177 
0 0 182 
0 0 159 
0 0 173 
0 0 171 
0 0 175 
0 0 163 
0 0 177 
0 0 171 
0 0 181 
0 0 169 
0 0 194 
0 0 179 
0 0 167 
0 0 161 
0 0 167 
0 0 194 
0 0 181 
0 0 191 
0 0 179 
0 0 167 
0 0 171 
0 0 182 
0 0 181 
0 0 167 
0 0 201 
0 0 182 
0 0 184 
0 0 167 
0 0 177 
0 0 157 
0 0 175 
0 0 163 
0 0 171 
0 0 184 
0 0 184 
0 0 142 
0 0 173 
0 0 189 
0 0 163 
0 0 175 
0 0 191 
0 0 167 
0 0 167 
0 0 189 
0 0 163 
0 0 171 
0 0 159 
0 0 179 
0 0 182 
0 0 165 
0 0 153 
0 0 189 
0 0 186 
0 0 188 
0 0 155 
0 0 169 
0 0 177 
0 0 167 
0 0 171 
0 0 167 
0 0 159 
0 0 181 
0 0 177 
0 0 163 
0 0 171 
0 0 181 
0 0 157 
0 0 165 
0 0 161 
0 0 155 
0 0 161 
0 0 179 
0 0 161 
0 0 173 
0 0 173 
0 0 155 
0 0 151 
0 0 177 
0 0 167 
0 0 171 
0 0 155 
0 0 159 
0 0 151 
0 0 161 
0 0 167 
0 0 167 
0 0 179 
0 0 161 
0 0 161 
0 0 163 
0 0 161 
0 0 169 
0 0 171 
0 0 157 
0 0 167 
0 0 159 
0 0 144 
0 0 165 
0 0 159 
0 0 157 
0 0 161 
0 0 147 
0 0 151 
0 0 153 
0 0 155 
0 0 147 
0 0 165 
0 0 165 
0 0 181 
0 0 167 
0 0 144 
0 0 159 
0 0 153 
0 0 140 
0 0 137 
0 0 151 
0 0 144 
0 0 147 
0 0 102 
0 0 147 
0 0 140 
0 0 130 
0 0 165 
0 0 124 
0 0 141 
0 0 130 
0 0 148 
0 0 135 
0 0 128 
0 0 147 
0 0 122 
0 0 135 
0 0 110 
0 0 117 
0 0 122 
0 0 125 
0 0 128 
0 0 137 
0 0 108 
0 0 125 
0 0 107 
0 0 95 
0 0 115 
0 0 120 
0 0 107 
8 12 87 
41 60 85 
43 68 90 
44 64 72 
44 64 94 
48 73 94 
45 68 90 
46 65 86 
49 71 96 
51 73 101 
47 68 80 
50 71 98 
49 71 94 
47 67 75 
50 72 95 
48 70 92 
48 70 95 
47 70 88 
46 66 75 
42 61 68 
49 64 82 
46 63 76 
44 63 76 
47 67 74 
44 63 74 
108 9 0 
122 0 0 
120 0 0 
119 0 0 
123 0 0 
120 0 0 
127 0 0 
139 0 0 
135 0 0 
139 0 0 
142 0 0 
147 0 0 
139 0 0 
129 0 0 
139 0 0 
145 0 0 
147 0 0 
149 0 0 
151 0 0 
154 0 0 
150 0 0 
149 0 0 
159 0 0 
159 0 0 
155 0 0 
164 0 0 
159 0 0 
166 0 0 
156 0 0 
154 0 0 
159 0 0 
159 0 0 
164 0 0 
158 0 0 
169 0 0 
167 0 0 
158 0 0 
161 0 0 
161 0 0 
160 0 0 
165 0 0 
172 0 0 
170 0 0 
175 0 0 
176 0 0 
164 0 0 
174 0 0 
169 0 0 
167 0 0 
168 0 0 
177 0 0 
172 0 0 
175 0 0 
168 0 0 
179 0 0 
173 0 0 
177 0 0 
173 0 0 
175 0 0 
181 0 0 
175 0 0 
176 0 0 
172 0 0 
177 0 0 
175 0 0 
173 0 0 
169 0 0 
178 0 0 
173 0 0 
165 0 0 
174 0 0 
178 0 0 
182 0 0 
175 0 0 
181 0 0 
177 0 0 
175 0 0 
174 0 0 
182 0 0 
181 0 0 
182 0 0 
177 0 0 
177 0 0 
173 0 0 
176 0 0 
180 0 0 
182 0 0 
182 0 0 
182 0 0 
188 0 0 
180 0 0 
178 0 0 
186 0 0 
187 0 0 
181 0 0 
181 0 0 
184 0 0 
180 0 0 
173 0 0 
182 0 0 
168 0 0 
183 0 0 
190 0 0 
180 0 0 
185 0 0 
177 0 0 
180 0 0 
183 0 0 
183 0 0 
183 0 0 
192 0 0 
181 0 0 
186 0 0 
185 0 0 
185 0 0 
184 0 0 
181 0 0 
182 0 0 
180 0 0 
185 0 0 
184 0 0 
185 0 0 
182 0 0 
186 0 0 
185 0 0 
186 0 0 
182 0 0 
189 0 0 
184 0 0 
181 0 0 
190 0 0 
185 0 0 
186 0 0 
189 0 0 
183 0 0 
182 0 0 
182 0 0 
189 0 0 
185 0 0 
184 0 0 
184 0 0 
186 0 0 
183 0 0 
186 0 0 
183 0 0 
183 0 0 
185 0 0 
185 0 0 
184 0 0 
189 0 0 
190 0 0 
193 0 0 
187 0 0 
192 0 0 
190 0 0 
185 0 0 
185 0 0 
187 0 0 
186 0 0 
183 0 0 
193 0 0 
191 0 0 
189 0 0 
186 0 0 
190 0 0 
189 0 0 
192 0 0 
188 0 0 
190 0 0 
187 0 0 
189 0 0 
184 0 0 
190 0 0 
192 0 0 
193 0 0 
184 0 0 
190 0 0 
182 0 0 
189 0 0 
184 0 0 
191 0 0 
188 0 0 
189 0 0 
183 0 0 
191 0 0 
183 0 0 
188 0 0 
184 0 0 
0 0 186 
0 0 182 
0 0 193 
0 0 181 
0 0 179 
0 0 173 
0 0 177 
0 0 184 
0 0 189 
0 0 181 
0 0 184 
0 0 186 
0 0 173 
0 0 184 
0 0 173 
0 0 167 
0 0 181 
0 0 181 
0 0 161 
0 0 167 
0 0 157 
0 0 169 
0 0 171 
0 0 182 
0 0 184 
0 0 181 
0 0 161 
0 0 201 
0 0 181 
0 0 161 
0 0 173 
0 0 184 
0 0 179 
0 0 189 
0 0 184 
0 0 165 
0 0 179 
0 0 171 
0 0 167 
0 0 142 
0 0 163 
0 0 165 
0 0 169 
0 0 165 
0 0 175 
0 0 179 
0 0 165 
0 0 167 
0 0 171 
0 0 163 
0 0 167 
0 0 161 
0 0 179 
0 0 179 
0 0 177 
0 0 173 
0 0 177 
0 0 161 
0 0 177 
0 0 165 
0 0 171 
0 0 167 
0 0 177 
0 0 169 
0 0 179 
0 0 163 
0 0 163 
0 0 179 
0 0 175 
0 0 184 
0 0 181 
0 0 171 
0 0 165 
0 0 175 
0 0 179 
0 0 186 
0 0 177 
0 0 157 
0 0 163 
0 0 155 
0 0 179 
0 0 161 
0 0 184 
0 0 169 
0 0 165 
0 0 167 
0 0 171 
0 0 147 
0 0 171 
0 0 157 
0 0 177 
0 0 169 
0 0 165 
0 0 161 
0 0 163 
0 0 179 
0 0 181 
0 0 171 
0 0 165 
0 0 165 
0 0 165 
0 0 177 
0 0 171 
0 0 165 
0 0 177 
0 0 169 
0 0 165 
0 0 163 
0 0 173 
0 0 169 
0 0 157 
0 0 163 
0 0 173 
0 0 177 
0 0 167 
0 0 167 
0 0 137 
0 0 155 
0 0 147 
0 0 188 
0 0 175 
0 0 163 
0 0 184 
0 0 157 
0 0 157 
0 0 161 
0 0 144 
0 0 161 
0 0 171 
0 0 175 
0 0 161 
0 0 165 
0 0 153 
0 0 142 
0 0 125 
0 0 161 
0 0 157 
0 0 153 
0 0 169 
0 0 149 
0 0 157 
0 0 155 
0 0 161 
0 0 144 
0 0 144 
0 0 171 
0 0 166 
0 0 151 
0 0 136 
0 0 128 
0 0 140 
0 0 161 
0 0 125 
0 0 147 
0 0 140 
0 0 142 
0 0 144 
0 0 153 
0 0 135 
0 0 161 
0 0 148 
0 0 149 
0 0 135 
0 0 141 
0 0 140 
0 0 129 
0 0 130 
0 0 140 
0 0 133 
0 0 158 
0 0 136 
0 0 153 
0 0 120 
0 0 136 
0 0 120 
0 0 129 
0 0 113 
0 0 155 
0 0 118 
0 0 110 
0 0 117 
0 0 99 
0 0 102 
0 0 105 
0 0 114 
0 0 111 
0 0 102 
16 24 84 
41 61 80 
42 65 84 
47 71 82 
44 65 94 
46 66 84 
43 64 89 
50 73 96 
44 67 87 
46 67 97 
47 65 88 
46 64 76 
43 66 67 
50 69 82 
48 68 90 
50 72 97 
45 65 67 
46 69 80 
47 66 80 
49 66 88 
43 61 84 
48 65 88 
44 61 76 
46 64 90 
45 53 57 
103 25 18 
121 0 0 
127 0 0 
120 0 0 
113 0 0 
132 0 0 
130 0 0 
144 0 0 
140 0 0 
140 0 0 
145 0 0 
131 0 0 
142 0 0 
141 0 0 
147 0 0 
140 0 0 
152 0 0 
150 0 0 
146 0 0 
159 0 0 
148 0 0 
148 0 0 
154 0 0 
147 0 0 
164 0 0 
151 0 0 
165 0 0 
159 0 0 
168 0 0 
170 0 0 
156 0 0 
153 0 0 
168 0 0 
165 0 0 
169 0 0 
162 0 0 
161 0 0 
164 0 0 
169 0 0 
176 0 0 
168 0 0 
163 0 0 
167 0 0 
168 0 0 
162 0 0 
162 0 0 
167 0 0 
168 0 0 
179 0 0 
185 0 0 
173 0 0 
172 0 0 
176 0 0 
177 0 0 
179 0 0 
166 0 0 
174 0 0 
173 0 0 
176 0 0 
172 0 0 
163 0 0 
176 0 0 
180 0 0 
178 0 0 
174 0 0 
171 0 0 
178 0 0 
177 0 0 
178 0 0 
176 0 0 
179 0 0 
174 0 0 
172 0 0 
180 0 0 
178 0 0 
183 0 0 
177 0 0 
179 0 0 
178 0 0 
181 0 0 
181 0 0 
175 0 0 
179 0 0 
183 0 0 
182 0 0 
177 0 0 
180 0 0 
177 0 0 
175 0 0 
175 0 0 
180 0 0 
180 0 0 
185 0 0 
187 0 0 
183 0 0 
181 0 0 
178 0 0 
179 0 0 
181 0 0 
180 0 0 
183 0 0 
183 0 0 
185 0 0 
181 0 0 
178 0 0 
193 0 0 
184 0 0 
188 0 0 
175 0 0 
190 0 0 
183 0 0 
184 0 0 
182 0 0 
178 0 0 
177 0 0 
189 0 0 
183 0 0 
186 0 0 
181 0 0 
179 0 0 
183 0 0 
189 0 0 
186 0 0 
187 0 0 
184 0 0 
189 0 0 
180 0 0 
190 0 0 
189 0 0 
185 0 0 
186 0 0 
181 0 0 
182 0 0 
190 0 0 
184 0 0 
183 0 0 
185 0 0 
185 0 0 
193 0 0 
186 0 0 
185 0 0 
190 0 0 
185 0 0 
186 0 0 
183 0 0 
186 0 0 
188 0 0 
187 0 0 
188 0 0 
192 0 0 
190 0 0 
186 0 0 
184 0 0 
188 0 0 
191 0 0 
185 0 0 
185 0 0 
183 0 0 
187 0 0 
186 0 0 
189 0 0 
182 0 0 
190 0 0 
187 0 0 
187 0 0 
190 0 0 
188 0 0 
183 0 0 
183 0 0 
188 0 0 
185 0 0 
182 0 0 
182 0 0 
191 0 0 
185 0 0 
186 0 0 
188 0 0 
186 0 0 
184 0 0 
190 0 0 
188 0 0 
190 0 0 
193 0 0 
185 0 0 
185 0 0 
190 0 0 
187 0 0 
189 0 0 
0 0 181 
0 0 186 
0 0 181 
0 0 179 
0 0 188 
0 0 186 
0 0 184 
0 0 165 
0 0 177 
0 0 179 
0 0 179 
0 0 181 
0 0 182 
0 0 182 
0 0 169 
0 0 181 
0 0 163 
0 0 179 
0 0 171 
0 0 189 
0 0 163 
0 0 165 
0 0 175 
0 0 177 
0 0 191 
0 0 177 
0 0 179 
0 0 175 
0 0 149 
0 0 171 
0 0 165 
0 0 189 
0 0 167 
0 0 179 
0 0 179 
0 0 189 
0 0 171 
0 0 169 
0 0 186 
0 0 184 
0 0 167 
0 0 181 
0 0 186 
0 0 181 
0 0 161 
0 0 169 
0 0 189 
0 0 181 
0 0 184 
0 0 181 
0 0 171 
0 0 155 
0 0 201 
0 0 173 
0 0 186 
0 0 182 
0 0 193 
0 0 173 
0 0 179 
0 0 167 
0 0 184 
0 0 181 
0 0 173 
0 0 167 
0 0 173 
0 0 171 
0 0 167 
0 0 161 
0 0 151 
0 0 157 
0 0 181 
0 0 179 
0 0 167 
0 0 165 
0 0 169 
0 0 181 
0 0 167 
0 0 177 
0 0 161 
0 0 173 
0 0 155 
0 0 177 
0 0 149 
0 0 159 
0 0 171 
0 0 179 
0 0 167 
0 0 169 
0 0 167 
0 0 181 
0 0 161 
0 0 163 
0 0 161 
0 0 175 
0 0 171 
0 0 171 
0 0 144 
0 0 165 
0 0 177 
0 0 173 
0 0 161 
0 0 155 
0 0 188 
0 0 161 
0 0 179 
0 0 171 
0 0 161 
0 0 163 
0 0 157 
0 0 155 
0 0 167 
0 0 165 
0 0 171 
0 0 163 
0 0 163 
0 0 167 
0 0 159 
0 0 155 
0 0 165 
0 0 165 
0 0 157 
0 0 173 
0 0 167 
0 0 169 
0 0 182 
0 0 151 
0 0 157 
0 0 169 
0 0 167 
0 0 177 
0 0 151 
0 0 142 
0 0 140 
0 0 144 
0 0 161 
0 0 161 
0 0 155 
0 0 157 
0 0 157 
0 0 147 
0 0 155 
0 0 125 
0 0 155 
0 0 142 
0 0 165 
0 0 130 
0 0 151 
0 0 153 
0 0 147 
0 0 155 
0 0 153 
0 0 161 
0 0 151 
0 0 147 
0 0 157 
0 0 137 
0 0 157 
0 0 149 
0 0 161 
0 0 155 
0 0 133 
0 0 153 
0 0 144 
0 0 142 
0 0 124 
0 0 128 
0 0 144 
0 0 149 
0 0 137 
0 0 114 
0 0 102 
0 0 121 
0 0 128 
0 0 111 
0 0 128 
0 0 120 
0 0 133 
0 0 120 
0 0 125 
0 0 121 
0 0 142 
0 0 111 
0 0 103 
0 0 82 
0 0 92 
0 0 110 
0 0 113 
20 29 103 
41 63 83 
45 66 92 
45 66 88 
45 67 81 
47 70 99 
44 66 90 
48 72 96 
43 64 76 
46 67 88 
48 69 86 
46 69 94 
49 71 90 
47 67 72 
46 64 88 
47 65 90 
49 72 102 
47 65 82 
47 68 86 
45 63 82 
47 70 88 
46 61 90 
48 67 80 
44 60 78 
44 52 62 
100 33 31 
115 0 0 
113 0 0 
129 0 0 
127 0 0 
127 0 0 
133 0 0 
122 0 0 
146 0 0 
139 0 0 
142 0 0 
133 0 0 
153 0 0 
146 0 0 
143 0 0 
152 0 0 
151 0 0 
153 0 0 
148 0 0 
148 0 0 
151 0 0 
152 0 0 
159 0 0 
146 0 0 
160 0 0 
155 0 0 
148 0 0 
151 0 0 
160 0 0 
168 0 0 
167 0 0 
157 0 0 
159 0 0 
169 0 0 
156 0 0 
157 0 0 
169 0 0 
154 0 0 
165 0 0 
169 0 0 
173 0 0 
172 0 0 
160 0 0 
172 0 0 
170 0 0 
165 0 0 
174 0 0 
167 0 0 
168 0 0 
177 0 0 
174 0 0 
172 0 0 
176 0 0 
168 0 0 
167 0 0 
169 0 0 
171 0 0 
177 0 0 
178 0 0 
180 0 0 
172 0 0 
178 0 0 
182 0 0 
172 0 0 
176 0 0 
176 0 0 
179 0 0 
178 0 0 
180 0 0 
176 0 0 
176 0 0 
175 0 0 
179 0 0 
175 0 0 
182 0 0 
179 0 0 
177 0 0 
172 0 0 
179 0 0 
178 0 0 
180 0 0 
176 0 0 
181 0 0 
182 0 0 
173 0 0 
179 0 0 
186 0 0 
174 0 0 
187 0 0 
180 0 0 
179 0 0 
178 0 0 
180 0 0 
185 0 0 
183 0 0 
183 0 0 
181 0 0 
186 0 0 
183 0 0 
184 0 0 
177 0 0 
185 0 0 
179 0 0 
183 0 0 
181 0 0 
182 0 0 
185 0 0 
184 0 0 
181 0 0 
182 0 0 
175 0 0 
184 0 0 
187 0 0 
181 0 0 
179 0 0 
188 0 0 
183 0 0 
187 0 0 
183 0 0 
187 0 0 
185 0 0 
184 0 0 
185 0 0 
182 0 0 
184 0 0 
186 0 0 
176 0 0 
187 0 0 
189 0 0 
183 0 0 
188 0 0 
180 0 0 
188 0 0 
186 0 0 
187 0 0 
187 0 0 
190 0 0 
183 0 0 
187 0 0 
190 0 0 
188 0 0 
189 0 0 
188 0 0 
184 0 0 
183 0 0 
192 0 0 
184 0 0 
184 0 0 
189 0 0 
189 0 0 
192 0 0 
188 0 0 
190 0 0 
185 0 0 
185 0 0 
191 0 0 
190 0 0 
188 0 0 
189 0 0 
187 0 0 
185 0 0 
191 0 0 
184 0 0 
182 0 0 
187 0 0 
187 0 0 
188 0 0 
189 0 0 
185 0 0 
188 0 0 
184 0 0 
192 0 0 
194 0 0 
185 0 0 
187 0 0 
190 0 0 
188 0 0 
187 0 0 
188 0 0 
183 0 0 
190 0 0 
186 0 0 
187 0 0 
185 0 0 
191 0 0 
186 0 0 
193 0 0 
185 0 0 
0 0 186 
0 0 171 
0 0 186 
0 0 171 
0 0 179 
0 0 181 
0 0 159 
0 0 181 
0 0 184 
0 0 155 
0 0 189 
0 0 181 
0 0 175 
0 0 184 
0 0 179 
0 0 181 
0 0 175 
0 0 177 
0 0 182 
0 0 177 
0 0 167 
0 0 171 
0 0 184 
0 0 182 
0 0 151 
0 0 184 
0 0 177 
0 0 171 
0 0 177 
0 0 171 
0 0 184 
0 0 179 
0 0 177 
0 0 186 
0 0 188 
0 0 169 
0 0 163 
0 0 188 
0 0 191 
0 0 157 
0 0 169 
0 0 175 
0 0 175 
0 0 182 
0 0 182 
0 0 184 
0 0 181 
0 0 184 
0 0 165 
0 0 169 
0 0 184 
0 0 171 
0 0 171 
0 0 167 
0 0 173 
0 0 179 
0 0 181 
0 0 157 
0 0 173 
0 0 175 
0 0 175 
0 0 173 
0 0 182 
0 0 181 
0 0 165 
0 0 175 
0 0 165 
0 0 179 
0 0 165 
0 0 175 
0 0 173 
0 0 155 
0 0 169 
0 0 173 
0 0 177 
0 0 182 
0 0 153 
0 0 184 
0 0 175 
0 0 173 
0 0 175 
0 0 163 
0 0 173 
0 0 161 
0 0 165 
0 0 169 
0 0 165 
0 0 179 
0 0 179 
0 0 151 
0 0 165 
0 0 157 
0 0 165 
0 0 163 
0 0 167 
0 0 181 
0 0 147 
0 0 173 
0 0 151 
0 0 167 
0 0 157 
0 0 175 
0 0 177 
0 0 175 
0 0 171 
0 0 173 
0 0 188 
0 0 167 
0 0 149 
0 0 175 
0 0 167 
0 0 153 
0 0 171 
0 0 175 
0 0 151 
0 0 167 
0 0 163 
0 0 167 
0 0 177 
0 0 182 
0 0 153 
0 0 175 
0 0 175 
0 0 171 
0 0 153 
0 0 147 
0 0 167 
0 0 133 
0 0 182 
0 0 163 
0 0 179 
0 0 169 
0 0 159 
0 0 179 
0 0 163 
0 0 153 
0 0 161 
0 0 159 
0 0 149 
0 0 155 
0 0 137 
0 0 155 
0 0 157 
0 0 140 
0 0 147 
0 0 159 
0 0 141 
0 0 137 
0 0 147 
0 0 153 
0 0 142 
0 0 133 
0 0 147 
0 0 169 
0 0 147 
0 0 147 
0 0 149 
0 0 147 
0 0 140 
0 0 161 
0 0 130 
0 0 137 
0 0 137 
0 0 142 
0 0 157 
0 0 120 
0 0 144 
0 0 142 
0 0 134 
0 0 140 
0 0 133 
0 0 135 
0 0 131 
0 0 129 
0 0 125 
0 0 131 
0 0 128 
0 0 113 
0 0 111 
0 0 126 
0 0 140 
0 0 121 
0 0 90 
0 0 137 
0 0 95 
0 0 102 
0 0 84 
20 31 102 
44 67 80 
40 59 79 
43 64 83 
42 63 75 
45 66 85 
45 67 95 
48 69 78 
45 67 88 
46 67 94 
48 72 100 
46 66 88 
45 67 78 
51 73 99 
47 68 80 
48 68 84 
44 63 80 
48 65 72 
51 73 100 
47 66 72 
47 64 71 
47 68 78 
47 66 84 
49 67 82 
44 58 76 
81 37 44 
111 0 0 
118 0 0 
131 0 0 
131 0 0 
131 0 0 
136 0 0 
137 0 0 
133 0 0 
148 0 0 
142 0 0 
144 0 0 
131 0 0 
142 0 0 
146 0 0 
148 0 0 
152 0 0 
154 0 0 
139 0 0 
151 0 0 
142 0 0 
154 0 0 
158 0 0 
151 0 0 
161 0 0 
163 0 0 
158 0 0 
160 0 0 
155 0 0 
157 0 0 
154 0 0 
162 0 0 
162 0 0 
168 0 0 
173 0 0 
158 0 0 
167 0 0 
168 0 0 
171 0 0 
161 0 0 
174 0 0 
163 0 0 
166 0 0 
169 0 0 
178 0 0 
165 0 0 
176 0 0 
168 0 0 
174 0 0 
165 0 0 
169 0 0 
170 0 0 
171 0 0 
176 0 0 
172 0 0 
169 0 0 
178 0 0 
175 0 0 
175 0 0 
172 0 0 
180 0 0 
170 0 0 
175 0 0 
170 0 0 
174 0 0 
170 0 0 
178 0 0 
177 0 0 
173 0 0 
172 0 0 
181 0 0 
184 0 0 
177 0 0 
179 0 0 
176 0 0 
180 0 0 
184 0 0 
182 0 0 
174 0 0 
180 0 0 
184 0 0 
179 0 0 
183 0 0 
179 0 0 
179 0 0 
179 0 0 
185 0 0 
176 0 0 
186 0 0 
183 0 0 
178 0 0 
181 0 0 
186 0 0 
186 0 0 
181 0 0 
186 0 0 
176 0 0 
184 0 0 
184 0 0 
178 0 0 
177 0 0 
183 0 0 
179 0 0 
181 0 0 
189 0 0 
170 0 0 
180 0 0 
181 0 0 
182 0 0 
189 0 0 
186 0 0 
185 0 0 
182 0 0 
183 0 0 
184 0 0 
182 0 0 
185 0 0 
184 0 0 
188 0 0 
189 0 0 
188 0 0 
182 0 0 
182 0 0 
182 0 0 
187 0 0 
191 0 0 
182 0 0 
185 0 0 
187 0 0 
184 0 0 
187 0 0 
184 0 0 
186 0 0 
185 0 0 
185 0 0 
187 0 0 
180 0 0 
189 0 0 
184 0 0 
187 0 0 
188 0 0 
180 0 0 
189 0 0 
188 0 0 
184 0 0 
186 0 0 
184 0 0 
188 0 0 
185 0 0 
188 0 0 
183 0 0 
180 0 0 
183 0 0 
185 0 0 
186 0 0 
191 0 0 
189 0 0 
188 0 0 
191 0 0 
189 0 0 
189 0 0 
187 0 0 
182 0 0 
180 0 0 
192 0 0 
180 0 0 
188 0 0 
183 0 0 
194 0 0 
189 0 0 
192 0 0 
190 0 0 
185 0 0 
186 0 0 
185 0 0 
186 0 0 
187 0 0 
186 0 0 
188 0 0 
184 0 0 
193 0 0 
189 0 0 
188 0 0 
193 0 0 
188 0 0 
191 0 0 
186 0 0 
190 0 0 
0 0 186 
0 0 184 
0 0 173 
0 0 173 
0 0 167 
0 0 177 
0 0 169 
0 0 177 
0 0 177 
0 0 184 
0 0 194 
0 0 167 
0 0 144 
0 0 186 
0 0 161 
0 0 179 
0 0 184 
0 0 175 
0 0 163 
0 0 169 
0 0 179 
0 0 194 
0 0 169 
0 0 181 
0 0 182 
0 0 155 
0 0 188 
0 0 181 
0 0 175 
0 0 155 
0 0 159 
0 0 177 
0 0 189 
0 0 163 
0 0 175 
0 0 167 
0 0 188 
0 0 181 
0 0 179 
0 0 184 
0 0 167 
0 0 177 
0 0 175 
0 0 181 
0 0 179 
0 0 173 
0 0 161 
0 0 177 
0 0 163 
0 0 184 
0 0 169 
0 0 165 
0 0 169 
0 0 169 
0 0 165 
0 0 177 
0 0 182 
0 0 182 
0 0 191 
0 0 175 
0 0 181 
0 0 149 
0 0 153 
0 0 184 
0 0 169 
0 0 188 
0 0 155 
0 0 153 
0 0 163 
0 0 171 
0 0 175 
0 0 167 
0 0 181 
0 0 175 
0 0 169 
0 0 167 
0 0 163 
0 0 184 
0 0 186 
0 0 161 
0 0 159 
0 0 167 
0 0 167 
0 0 165 
0 0 173 
0 0 163 
0 0 173 
0 0 177 
0 0 173 
0 0 167 
0 0 175 
0 0 173 
0 0 161 
0 0 171 
0 0 167 
0 0 142 
0 0 173 
0 0 157 
0 0 175 
0 0 181 
0 0 155 
0 0 169 
0 0 167 
0 0 169 
0 0 161 
0 0 169 
0 0 193 
0 0 167 
0 0 173 
0 0 184 
0 0 153 
0 0 157 
0 0 173 
0 0 173 
0 0 171 
0 0 167 
0 0 165 
0 0 151 
0 0 171 
0 0 149 
0 0 161 
0 0 151 
0 0 157 
0 0 161 
0 0 153 
0 0 151 
0 0 179 
0 0 153 
0 0 163 
0 0 161 
0 0 144 
0 0 173 
0 0 159 
0 0 159 
0 0 161 
0 0 155 
0 0 149 
0 0 161 
0 0 167 
0 0 147 
0 0 169 
0 0 155 
0 0 149 
0 0 165 
0 0 144 
0 0 163 
0 0 161 
0 0 135 
0 0 142 
0 0 135 
0 0 144 
0 0 157 
0 0 125 
0 0 155 
0 0 167 
0 0 135 
0 0 149 
0 0 149 
0 0 140 
0 0 136 
0 0 144 
0 0 136 
0 0 151 
0 0 117 
0 0 125 
0 0 140 
0 0 124 
0 0 117 
0 0 128 
0 0 122 
0 0 136 
0 0 135 
0 0 131 
0 0 117 
0 0 133 
0 0 129 
0 0 124 
0 0 117 
0 0 110 
0 0 102 
0 0 99 
0 0 99 
0 0 136 
0 0 102 
0 0 100 
0 0 92 
0 0 95 
27 40 73 
43 64 102 
37 57 71 
46 68 84 
42 64 80 
47 69 84 
42 60 76 
45 65 76 
47 67 102 
46 67 80 
46 64 84 
45 68 90 
45 67 88 
44 63 78 
48 67 90 
45 64 70 
43 62 80 
47 67 82 
48 66 88 
45 62 76 
46 65 78 
44 57 80 
42 60 80 
44 58 65 
45 58 72 
80 40 44 
110 0 0 
111 0 0 
116 0 0 
127 0 0 
128 0 0 
115 0 0 
122 0 0 
142 0 0 
135 0 0 
145 0 0 
149 0 0 
137 0 0 
143 0 0 
140 0 0 
150 0 0 
157 0 0 
160 0 0 
157 0 0 
151 0 0 
150 0 0 
150 0 0 
151 0 0 
163 0 0 
155 0 0 
156 0 0 
145 0 0 
166 0 0 
152 0 0 
161 0 0 
162 0 0 
166 0 0 
163 0 0 
166 0 0 
165 0 0 
161 0 0 
163 0 0 
169 0 0 
158 0 0 
169 0 0 
173 0 0 
164 0 0 
165 0 0 
171 0 0 
168 0 0 
167 0 0 
163 0 0 
175 0 0 
171 0 0 
166 0 0 
165 0 0 
170 0 0 
171 0 0 
180 0 0 
177 0 0 
161 0 0 
173 0 0 
175 0 0 
177 0 0 
175 0 0 
175 0 0 
177 0 0 
178 0 0 
178 0 0 
173 0 0 
183 0 0 
176 0 0 
171 0 0 
183 0 0 
180 0 0 
178 0 0 
176 0 0 
178 0 0 
173 0 0 
179 0 0 
173 0 0 
174 0 0 
174 0 0 
180 0 0 
183 0 0 
187 0 0 
186 0 0 
179 0 0 
183 0 0 
183 0 0 
185 0 0 
185 0 0 
180 0 0 
183 0 0 
181 0 0 
180 0 0 
177 0 0 
179 0 0 
186 0 0 
185 0 0 
180 0 0 
186 0 0 
177 0 0 
185 0 0 
183 0 0 
182 0 0 
183 0 0 
183 0 0 
179 0 0 
183 0 0 
182 0 0 
189 0 0 
186 0 0 
189 0 0 
183 0 0 
181 0 0 
181 0 0 
179 0 0 
183 0 0 
178 0 0 
187 0 0 
185 0 0 
184 0 0 
183 0 0 
182 0 0 
187 0 0 
182 0 0 
180 0 0 
181 0 0 
189 0 0 
186 0 0 
183 0 0 
184 0 0 
187 0 0 
189 0 0 
189 0 0 
184 0 0 
185 0 0 
189 0 0 
182 0 0 
193 0 0 
185 0 0 
186 0 0 
186 0 0 
186 0 0 
187 0 0 
192 0 0 
186 0 0 
184 0 0 
180 0 0 
186 0 0 
187 0 0 
185 0 0 
189 0 0 
188 0 0 
185 0 0 
179 0 0 
183 0 0 
188 0 0 
184 0 0 
184 0 0 
188 0 0 
187 0 0 
185 0 0 
187 0 0 
188 0 0 
183 0 0 
189 0 0 
184 0 0 
185 0 0 
189 0 0 
184 0 0 
192 0 0 
187 0 0 
188 0 0 
193 0 0 
193 0 0 
189 0 0 
185 0 0 
189 0 0 
189 0 0 
196 0 0 
192 0 0 
185 0 0 
180 0 0 
186 0 0 
188 0 0 
191 0 0 
187 0 0 
186 0 0 
185 0 0 
190 0 0 
190 0 0 
0 0 181 
0 0 159 
0 0 188 
0 0 165 
0 0 181 
0 0 182 
0 0 157 
0 0 173 
0 0 179 
0 0 165 
0 0 177 
0 0 188 
0 0 151 
0 0 184 
0 0 181 
0 0 177 
0 0 181 
0 0 163 
0 0 163 
0 0 165 
0 0 182 
0 0 193 
0 0 184 
0 0 163 
0 0 167 
0 0 165 
0 0 169 
0 0 189 
0 0 175 
0 0 179 
0 0 191 
0 0 182 
0 0 175 
0 0 182 
0 0 169 
0 0 173 
0 0 169 
0 0 165 
0 0 157 
0 0 171 
0 0 196 
0 0 182 
0 0 157 
0 0 193 
0 0 175 
0 0 177 
0 0 181 
0 0 179 
0 0 169 
0 0 175 
0 0 165 
0 0 169 
0 0 173 
0 0 167 
0 0 171 
0 0 177 
0 0 175 
0 0 182 
0 0 175 
0 0 159 
0 0 189 
0 0 179 
0 0 182 
0 0 175 
0 0 182 
0 0 181 
0 0 169 
0 0 186 
0 0 177 
0 0 163 
0 0 184 
0 0 173 
0 0 177 
0 0 177 
0 0 167 
0 0 151 
0 0 159 
0 0 173 
0 0 169 
0 0 189 
0 0 212 
0 0 157 
0 0 161 
0 0 161 
0 0 177 
0 0 165 
0 0 182 
0 0 169 
0 0 159 
0 0 161 
0 0 153 
0 0 165 
0 0 157 
0 0 171 
0 0 169 
0 0 181 
0 0 161 
0 0 173 
0 0 159 
0 0 159 
0 0 175 
0 0 163 
0 0 175 
0 0 175 
0 0 167 
0 0 149 
0 0 159 
0 0 171 
0 0 173 
0 0 181 
0 0 165 
0 0 182 
0 0 157 
0 0 165 
0 0 167 
0 0 194 
0 0 153 
0 0 173 
0 0 177 
0 0 155 
0 0 165 
0 0 179 
0 0 159 
0 0 167 
0 0 153 
0 0 151 
0 0 142 
0 0 153 
0 0 155 
0 0 144 
0 0 159 
0 0 153 
0 0 128 
0 0 155 
0 0 163 
0 0 159 
0 0 149 
0 0 153 
0 0 161 
0 0 165 
0 0 159 
0 0 149 
0 0 153 
0 0 147 
0 0 151 
0 0 159 
0 0 147 
0 0 149 
0 0 153 
0 0 159 
0 0 139 
0 0 135 
0 0 155 
0 0 151 
0 0 151 
0 0 153 
0 0 133 
0 0 147 
0 0 137 
0 0 161 
0 0 130 
0 0 137 
0 0 144 
0 0 129 
0 0 131 
0 0 140 
0 0 128 
0 0 151 
0 0 144 
0 0 122 
0 0 102 
0 0 114 
0 0 118 
0 0 124 
0 0 128 
0 0 136 
0 0 111 
0 0 122 
0 0 107 
0 0 86 
0 0 103 
0 0 118 
0 0 121 
0 0 99 
0 0 94 
0 0 88 
0 0 88 
37 55 78 
40 59 76 
39 59 80 
43 63 78 
43 65 82 
43 66 61 
41 60 72 
44 67 79 
43 62 75 
42 61 80 
43 60 78 
45 64 75 
45 63 82 
48 68 84 
47 69 88 
43 61 80 
46 65 84 
45 64 92 
46 68 84 
46 66 82 
45 58 62 
44 57 67 
45 59 73 
44 59 65 
45 60 67 
59 49 62 
96 0 0 
111 0 0 
116 0 0 
100 0 0 
113 0 0 
122 0 0 
115 0 0 
124 0 0 
137 0 0 
129 0 0 
128 0 0 
139 0 0 
132 0 0 
158 0 0 
140 0 0 
146 0 0 
150 0 0 
150 0 0 
154 0 0 
157 0 0 
163 0 0 
155 0 0 
159 0 0 
153 0 0 
160 0 0 
163 0 0 
152 0 0 
160 0 0 
165 0 0 
153 0 0 
159 0 0 
168 0 0 
154 0 0 
171 0 0 
164 0 0 
157 0 0 
163 0 0 
168 0 0 
168 0 0 
167 0 0 
163 0 0 
169 0 0 
171 0 0 
169 0 0 
164 0 0 
166 0 0 
170 0 0 
172 0 0 
172 0 0 
183 0 0 
164 0 0 
170 0 0 
169 0 0 
177 0 0 
164 0 0 
172 0 0 
169 0 0 
171 0 0 
174 0 0 
176 0 0 
167 0 0 
170 0 0 
173 0 0 
178 0 0 
181 0 0 
170 0 0 
177 0 0 
175 0 0 
178 0 0 
184 0 0 
184 0 0 
175 0 0 
182 0 0 
178 0 0 
175 0 0 
177 0 0 
180 0 0 
185 0 0 
175 0 0 
175 0 0 
181 0 0 
183 0 0 
177 0 0 
177 0 0 
176 0 0 
175 0 0 
183 0 0 
181 0 0 
189 0 0 
177 0 0 
181 0 0 
179 0 0 
175 0 0 
180 0 0 
181 0 0 
183 0 0 
181 0 0 
178 0 0 
183 0 0 
191 0 0 
184 0 0 
188 0 0 
177 0 0 
178 0 0 
183 0 0 
190 0 0 
183 0 0 
180 0 0 
181 0 0 
180 0 0 
185 0 0 
181 0 0 
186 0 0 
185 0 0 
186 0 0 
185 0 0 
183 0 0 
191 0 0 
185 0 0 
181 0 0 
186 0 0 
186 0 0 
179 0 0 
188 0 0 
184 0 0 
185 0 0 
180 0 0 
189 0 0 
183 0 0 
188 0 0 
187 0 0 
185 0 0 
184 0 0 
188 0 0 
184 0 0 
185 0 0 
185 0 0 
192 0 0 
185 0 0 
184 0 0 
183 0 0 
186 0 0 
179 0 0 
189 0 0 
190 0 0 
186 0 0 
191 0 0 
184 0 0 
189 0 0 
182 0 0 
178 0 0 
187 0 0 
181 0 0 
188 0 0 
187 0 0 
183 0 0 
186 0 0 
191 0 0 
187 0 0 
185 0 0 
190 0 0 
186 0 0 
191 0 0 
186 0 0 
188 0 0 
187 0 0 
189 0 0 
194 0 0 
185 0 0 
190 0 0 
185 0 0 
188 0 0 
189 0 0 
189 0 0 
185 0 0 
185 0 0 
190 0 0 
193 0 0 
188 0 0 
186 0 0 
182 0 0 
188 0 0 
186 0 0 
189 0 0 
189 0 0 
186 0 0 
184 0 0 
0 0 171 
0 0 155 
0 0 179 
0 0 167 
0 0 173 
0 0 177 
0 0 184 
0 0 186 
0 0 165 
0 0 171 
0 0 199 
0 0 163 
0 0 177 
0 0 175 
0 0 173 
0 0 182 
0 0 182 
0 0 182 
0 0 177 
0 0 175 
0 0 173 
0 0 182 
0 0 173 
0 0 175 
0 0 171 
0 0 186 
0 0 171 
0 0 179 
0 0 184 
0 0 181 
0 0 179 
0 0 177 
0 0 177 
0 0 173 
0 0 188 
0 0 184 
0 0 186 
0 0 182 
0 0 175 
0 0 169 
0 0 173 
0 0 165 
0 0 175 
0 0 177 
0 0 189 
0 0 163 
0 0 179 
0 0 173 
0 0 186 
0 0 175 
0 0 161 
0 0 153 
0 0 179 
0 0 171 
0 0 179 
0 0 161 
0 0 173 
0 0 171 
0 0 189 
0 0 163 
0 0 175 
0 0 181 
0 0 189 
0 0 177 
0 0 173 
0 0 173 
0 0 159 
0 0 182 
0 0 184 
0 0 188 
0 0 171 
0 0 193 
0 0 155 
0 0 173 
0 0 165 
0 0 144 
0 0 169 
0 0 173 
0 0 165 
0 0 188 
0 0 179 
0 0 165 
0 0 167 
0 0 159 
0 0 157 
0 0 151 
0 0 169 
0 0 167 
0 0 159 
0 0 181 
0 0 169 
0 0 173 
0 0 177 
0 0 169 
0 0 171 
0 0 169 
0 0 157 
0 0 171 
0 0 171 
0 0 177 
0 0 161 
0 0 167 
0 0 173 
0 0 159 
0 0 161 
0 0 165 
0 0 173 
0 0 169 
0 0 165 
0 0 161 
0 0 169 
0 0 171 
0 0 171 
0 0 165 
0 0 169 
0 0 161 
0 0 167 
0 0 161 
0 0 153 
0 0 163 
0 0 175 
0 0 161 
0 0 161 
0 0 155 
0 0 171 
0 0 161 
0 0 171 
0 0 177 
0 0 169 
0 0 165 
0 0 182 
0 0 159 
0 0 140 
0 0 142 
0 0 153 
0 0 144 
0 0 151 
0 0 142 
0 0 177 
0 0 144 
0 0 159 
0 0 165 
0 0 157 
0 0 140 
0 0 165 
0 0 140 
0 0 157 
0 0 179 
0 0 155 
0 0 149 
0 0 144 
0 0 159 
0 0 151 
0 0 157 
0 0 161 
0 0 142 
0 0 128 
0 0 153 
0 0 157 
0 0 133 
0 0 148 
0 0 149 
0 0 143 
0 0 143 
0 0 125 
0 0 120 
0 0 144 
0 0 120 
0 0 128 
0 0 142 
0 0 141 
0 0 120 
0 0 139 
0 0 125 
0 0 115 
0 0 122 
0 0 110 
0 0 107 
0 0 95 
0 0 110 
0 0 118 
0 0 120 
0 0 90 
0 0 129 
0 0 95 
0 0 84 
0 0 88 
37 56 61 
44 66 78 
40 59 77 
43 59 77 
42 60 79 
41 61 64 
43 60 74 
42 61 83 
43 62 67 
47 69 82 
42 61 72 
41 58 51 
44 61 80 
47 66 82 
44 63 78 
49 68 83 
43 60 74 
46 69 82 
45 63 72 
47 67 76 
45 61 62 
46 61 65 
46 59 67 
44 59 70 
42 54 62 
51 55 54 
107 0 0 
113 0 0 
121 0 0 
112 0 0 
110 0 0 
126 0 0 
131 0 0 
127 0 0 
124 0 0 
130 0 0 
135 0 0 
137 0 0 
145 0 0 
149 0 0 
137 0 0 
143 0 0 
151 0 0 
159 0 0 
153 0 0 
147 0 0 
153 0 0 
147 0 0 
152 0 0 
150 0 0 
152 0 0 
165 0 0 
165 0 0 
158 0 0 
161 0 0 
161 0 0 
158 0 0 
158 0 0 
168 0 0 
161 0 0 
163 0 0 
162 0 0 
170 0 0 
163 0 0 
172 0 0 
171 0 0 
162 0 0 
169 0 0 
169 0 0 
170 0 0 
164 0 0 
171 0 0 
161 0 0 
177 0 0 
174 0 0 
170 0 0 
171 0 0 
170 0 0 
174 0 0 
163 0 0 
178 0 0 
172 0 0 
168 0 0 
178 0 0 
167 0 0 
176 0 0 
172 0 0 
177 0 0 
172 0 0 
177 0 0 
185 0 0 
171 0 0 
177 0 0 
178 0 0 
179 0 0 
174 0 0 
177 0 0 
180 0 0 
185 0 0 
180 0 0 
184 0 0 
178 0 0 
181 0 0 
176 0 0 
178 0 0 
181 0 0 
181 0 0 
182 0 0 
173 0 0 
170 0 0 
179 0 0 
177 0 0 
187 0 0 
189 0 0 
182 0 0 
183 0 0 
184 0 0 
186 0 0 
181 0 0 
183 0 0 
182 0 0 
179 0 0 
185 0 0 
183 0 0 
185 0 0 
182 0 0 
179 0 0 
182 0 0 
184 0 0 
185 0 0 
187 0 0 
177 0 0 
185 0 0 
184 0 0 
171 0 0 
184 0 0 
178 0 0 
191 0 0 
180 0 0 
184 0 0 
179 0 0 
180 0 0 
182 0 0 
184 0 0 
177 0 0 
183 0 0 
186 0 0 
187 0 0 
182 0 0 
181 0 0 
185 0 0 
184 0 0 
177 0 0 
186 0 0 
186 0 0 
190 0 0 
188 0 0 
186 0 0 
188 0 0 
188 0 0 
185 0 0 
185 0 0 
181 0 0 
190 0 0 
187 0 0 
179 0 0 
191 0 0 
185 0 0 
187 0 0 
187 0 0 
185 0 0 
183 0 0 
181 0 0 
192 0 0 
186 0 0 
186 0 0 
184 0 0 
182 0 0 
189 0 0 
185 0 0 
188 0 0 
185 0 0 
185 0 0 
188 0 0 
192 0 0 
186 0 0 
187 0 0 
187 0 0 
182 0 0 
189 0 0 
185 0 0 
185 0 0 
187 0 0 
191 0 0 
185 0 0 
190 0 0 
190 0 0 
185 0 0 
190 0 0 
189 0 0 
189 0 0 
189 0 0 
189 0 0 
191 0 0 
187 0 0 
188 0 0 
186 0 0 
183 0 0 
184 0 0 
185 0 0 
190 0 0 
187 0 0 
191 0 0 
0 0 194 
0 0 184 
0 0 169 
0 0 163 
0 0 181 
0 0 179 
0 0 175 
0 0 167 
0 0 186 
0 0 179 
0 0 173 
0 0 167 
0 0 161 
0 0 175 
0 0 173 
0 0 186 
0 0 179 
0 0 182 
0 0 179 
0 0 182 
0 0 177 
0 0 179 
0 0 171 
0 0 161 
0 0 179 
0 0 159 
0 0 177 
0 0 173 
0 0 186 
0 0 169 
0 0 179 
0 0 161 
0 0 165 
0 0 163 
0 0 161 
0 0 179 
0 0 179 
0 0 181 
0 0 169 
0 0 179 
0 0 179 
0 0 188 
0 0 184 
0 0 167 
0 0 184 
0 0 155 
0 0 165 
0 0 188 
0 0 169 
0 0 184 
0 0 167 
0 0 177 
0 0 155 
0 0 175 
0 0 177 
0 0 173 
0 0 173 
0 0 177 
0 0 159 
0 0 161 
0 0 165 
0 0 163 
0 0 159 
0 0 171 
0 0 175 
0 0 167 
0 0 171 
0 0 153 
0 0 189 
0 0 161 
0 0 181 
0 0 163 
0 0 175 
0 0 171 
0 0 169 
0 0 181 
0 0 175 
0 0 177 
0 0 173 
0 0 173 
0 0 169 
0 0 165 
0 0 175 
0 0 161 
0 0 151 
0 0 186 
0 0 165 
0 0 175 
0 0 157 
0 0 159 
0 0 159 
0 0 153 
0 0 167 
0 0 167 
0 0 163 
0 0 179 
0 0 167 
0 0 173 
0 0 161 
0 0 167 
0 0 171 
0 0 165 
0 0 157 
0 0 173 
0 0 163 
0 0 171 
0 0 159 
0 0 173 
0 0 159 
0 0 169 
0 0 153 
0 0 171 
0 0 167 
0 0 151 
0 0 173 
0 0 163 
0 0 169 
0 0 161 
0 0 165 
0 0 169 
0 0 169 
0 0 163 
0 0 159 
0 0 149 
0 0 161 
0 0 147 
0 0 157 
0 0 161 
0 0 144 
0 0 165 
0 0 155 
0 0 159 
0 0 149 
0 0 173 
0 0 157 
0 0 144 
0 0 153 
0 0 149 
0 0 171 
0 0 157 
0 0 142 
0 0 144 
0 0 169 
0 0 157 
0 0 140 
0 0 125 
0 0 151 
0 0 147 
0 0 137 
0 0 149 
0 0 144 
0 0 147 
0 0 165 
0 0 153 
0 0 149 
0 0 147 
0 0 140 
0 0 133 
0 0 120 
0 0 130 
0 0 152 
0 0 135 
0 0 133 
0 0 133 
0 0 155 
0 0 141 
0 0 135 
0 0 142 
0 0 133 
0 0 144 
0 0 117 
0 0 133 
0 0 117 
0 0 125 
0 0 131 
0 0 118 
0 0 110 
0 0 103 
0 0 120 
0 0 113 
0 0 95 
0 0 118 
0 0 99 
0 0 84 
0 0 92 
0 0 76 
11 12 72 
38 54 73 
41 61 81 
38 55 62 
40 57 74 
40 58 68 
44 64 82 
44 62 79 
45 68 82 
42 62 79 
43 62 72 
44 65 74 
48 70 82 
47 65 82 
41 59 76 
43 64 67 
48 67 90 
48 66 88 
41 58 72 
44 62 74 
46 63 74 
46 65 82 
44 64 80 
48 65 76 
50 67 92 
41 53 65 
42 55 72 
103 16 18 
106 0 0 
123 0 0 
125 0 0 
113 0 0 
120 0 0 
131 0 0 
131 0 0 
133 0 0 
134 0 0 
130 0 0 
131 0 0 
150 0 0 
143 0 0 
154 0 0 
154 0 0 
153 0 0 
147 0 0 
152 0 0 
151 0 0 
155 0 0 
152 0 0 
157 0 0 
153 0 0 
149 0 0 
149 0 0 
164 0 0 
160 0 0 
165 0 0 
163 0 0 
156 0 0 
164 0 0 
169 0 0 
166 0 0 
165 0 0 
171 0 0 
162 0 0 
176 0 0 
154 0 0 
154 0 0 
169 0 0 
167 0 0 
164 0 0 
167 0 0 
171 0 0 
171 0 0 
172 0 0 
167 0 0 
162 0 0 
164 0 0 
171 0 0 
171 0 0 
164 0 0 
177 0 0 
173 0 0 
177 0 0 
169 0 0 
177 0 0 
173 0 0 
174 0 0 
177 0 0 
175 0 0 
175 0 0 
175 0 0 
172 0 0 
182 0 0 
178 0 0 
174 0 0 
180 0 0 
169 0 0 
171 0 0 
177 0 0 
172 0 0 
167 0 0 
177 0 0 
175 0 0 
182 0 0 
179 0 0 
179 0 0 
181 0 0 
173 0 0 
181 0 0 
179 0 0 
184 0 0 
180 0 0 
179 0 0 
179 0 0 
181 0 0 
181 0 0 
181 0 0 
177 0 0 
177 0 0 
175 0 0 
175 0 0 
183 0 0 
186 0 0 
189 0 0 
179 0 0 
181 0 0 
184 0 0 
187 0 0 
182 0 0 
185 0 0 
183 0 0 
189 0 0 
189 0 0 
181 0 0 
182 0 0 
184 0 0 
185 0 0 
183 0 0 
175 0 0 
178 0 0 
184 0 0 
188 0 0 
183 0 0 
181 0 0 
183 0 0 
184 0 0 
179 0 0 
184 0 0 
187 0 0 
184 0 0 
179 0 0 
186 0 0 
188 0 0 
179 0 0 
184 0 0 
186 0 0 
184 0 0 
180 0 0 
185 0 0 
191 0 0 
182 0 0 
186 0 0 
183 0 0 
188 0 0 
183 0 0 
178 0 0 
184 0 0 
185 0 0 
186 0 0 
186 0 0 
188 0 0 
187 0 0 
188 0 0 
187 0 0 
186 0 0 
190 0 0 
189 0 0 
193 0 0 
188 0 0 
185 0 0 
185 0 0 
187 0 0 
189 0 0 
181 0 0 
188 0 0 
187 0 0 
186 0 0 
184 0 0 
190 0 0 
189 0 0 
186 0 0 
183 0 0 
190 0 0 
192 0 0 
190 0 0 
191 0 0 
186 0 0 
188 0 0 
187 0 0 
188 0 0 
189 0 0 
187 0 0 
181 0 0 
186 0 0 
186 0 0 
192 0 0 
189 0 0 
188 0 0 
188 0 0 
189 0 0 
184 0 0 
189 0 0 
189 0 0 
187 0 0 
0 0 179 
0 0 181 
0 0 181 
0 0 169 
0 0 165 
0 0 177 
0 0 167 
0 0 165 
0 0 179 
0 0 175 
0 0 169 
0 0 157 
0 0 179 
0 0 179 
0 0 171 
0 0 184 
0 0 184 
0 0 171 
0 0 153 
0 0 171 
0 0 179 
0 0 184 
0 0 163 
0 0 167 
0 0 155 
0 0 167 
0 0 173 
0 0 184 
0 0 175 
0 0 171 
0 0 163 
0 0 177 
0 0 169 
0 0 173 
0 0 181 
0 0 181 
0 0 159 
0 0 182 
0 0 181 
0 0 189 
0 0 155 
0 0 181 
0 0 194 
0 0 181 
0 0 179 
0 0 161 
0 0 169 
0 0 163 
0 0 179 
0 0 181 
0 0 173 
0 0 173 
0 0 177 
0 0 177 
0 0 171 
0 0 193 
0 0 159 
0 0 177 
0 0 159 
0 0 179 
0 0 151 
0 0 171 
0 0 167 
0 0 151 
0 0 157 
0 0 173 
0 0 171 
0 0 175 
0 0 181 
0 0 167 
0 0 182 
0 0 171 
0 0 169 
0 0 153 
0 0 181 
0 0 165 
0 0 161 
0 0 153 
0 0 175 
0 0 188 
0 0 181 
0 0 165 
0 0 169 
0 0 169 
0 0 175 
0 0 182 
0 0 165 
0 0 153 
0 0 171 
0 0 184 
0 0 171 
0 0 163 
0 0 169 
0 0 149 
0 0 159 
0 0 182 
0 0 171 
0 0 157 
0 0 157 
0 0 167 
0 0 163 
0 0 161 
0 0 173 
0 0 157 
0 0 175 
0 0 167 
0 0 159 
0 0 165 
0 0 165 
0 0 167 
0 0 171 
0 0 169 
0 0 167 
0 0 173 
0 0 171 
0 0 171 
0 0 161 
0 0 157 
0 0 149 
0 0 161 
0 0 163 
0 0 144 
0 0 144 
0 0 125 
0 0 153 
0 0 159 
0 0 175 
0 0 163 
0 0 142 
0 0 169 
0 0 151 
0 0 147 
0 0 171 
0 0 140 
0 0 161 
0 0 142 
0 0 140 
0 0 157 
0 0 153 
0 0 159 
0 0 149 
0 0 140 
0 0 163 
0 0 149 
0 0 159 
0 0 144 
0 0 147 
0 0 147 
0 0 161 
0 0 147 
0 0 144 
0 0 144 
0 0 135 
0 0 144 
0 0 135 
0 0 147 
0 0 161 
0 0 133 
0 0 137 
0 0 147 
0 0 139 
0 0 140 
0 0 142 
0 0 153 
0 0 140 
0 0 125 
0 0 147 
0 0 130 
0 0 130 
0 0 122 
0 0 133 
0 0 120 
0 0 114 
0 0 124 
0 0 113 
0 0 114 
0 0 110 
0 0 128 
0 0 100 
0 0 88 
0 0 118 
0 0 97 
0 0 113 
0 0 94 
0 0 100 
0 0 85 
21 31 79 
38 54 72 
33 47 68 
38 57 75 
40 61 76 
39 57 70 
42 61 74 
45 67 83 
42 61 76 
38 54 61 
43 63 89 
44 62 86 
43 59 76 
39 61 70 
43 57 62 
46 68 86 
43 63 75 
44 65 78 
43 64 84 
45 64 74 
45 60 70 
44 62 76 
40 56 74 
44 57 74 
41 53 60 
44 58 60 
39 54 62 
107 30 36 
98 0 0 
117 0 0 
109 0 0 
132 0 0 
118 0 0 
136 0 0 
116 0 0 
120 0 0 
138 0 0 
133 0 0 
132 0 0 
147 0 0 
134 0 0 
131 0 0 
137 0 0 
138 0 0 
152 0 0 
148 0 0 
142 0 0 
151 0 0 
150 0 0 
154 0 0 
147 0 0 
159 0 0 
156 0 0 
159 0 0 
166 0 0 
163 0 0 
162 0 0 
162 0 0 
154 0 0 
156 0 0 
153 0 0 
162 0 0 
157 0 0 
158 0 0 
168 0 0 
167 0 0 
160 0 0 
169 0 0 
176 0 0 
178 0 0 
170 0 0 
163 0 0 
168 0 0 
167 0 0 
179 0 0 
166 0 0 
173 0 0 
170 0 0 
168 0 0 
177 0 0 
175 0 0 
177 0 0 
178 0 0 
175 0 0 
177 0 0 
175 0 0 
171 0 0 
171 0 0 
174 0 0 
171 0 0 
177 0 0 
167 0 0 
167 0 0 
176 0 0 
180 0 0 
180 0 0 
177 0 0 
181 0 0 
176 0 0 
177 0 0 
183 0 0 
175 0 0 
177 0 0 
165 0 0 
175 0 0 
175 0 0 
178 0 0 
177 0 0 
181 0 0 
177 0 0 
180 0 0 
181 0 0 
171 0 0 
181 0 0 
179 0 0 
177 0 0 
179 0 0 
184 0 0 
178 0 0 
185 0 0 
181 0 0 
191 0 0 
184 0 0 
177 0 0 
179 0 0 
179 0 0 
183 0 0 
184 0 0 
186 0 0 
177 0 0 
187 0 0 
181 0 0 
183 0 0 
185 0 0 
189 0 0 
187 0 0 
184 0 0 
181 0 0 
184 0 0 
185 0 0 
187 0 0 
185 0 0 
182 0 0 
190 0 0 
183 0 0 
183 0 0 
183 0 0 
178 0 0 
183 0 0 
182 0 0 
185 0 0 
188 0 0 
181 0 0 
188 0 0 
186 0 0 
179 0 0 
182 0 0 
182 0 0 
185 0 0 
184 0 0 
184 0 0 
185 0 0 
189 0 0 
186 0 0 
187 0 0 
188 0 0 
186 0 0 
188 0 0 
184 0 0 
190 0 0 
187 0 0 
186 0 0 
185 0 0 
187 0 0 
185 0 0 
186 0 0 
185 0 0 
188 0 0 
187 0 0 
186 0 0 
189 0 0 
188 0 0 
184 0 0 
187 0 0 
187 0 0 
188 0 0 
185 0 0 
188 0 0 
190 0 0 
182 0 0 
188 0 0 
185 0 0 
191 0 0 
189 0 0 
185 0 0 
189 0 0 
187 0 0 
185 0 0 
182 0 0 
188 0 0 
191 0 0 
189 0 0 
187 0 0 
182 0 0 
192 0 0 
191 0 0 
189 0 0 
186 0 0 
183 0 0 
186 0 0 
191 0 0 
187 0 0 
187 0 0 
190 0 0 
0 0 175 
0 0 188 
0 0 175 
0 0 165 
0 0 186 
0 0 169 
0 0 181 
0 0 171 
0 0 177 
0 0 175 
0 0 165 
0 0 155 
0 0 171 
0 0 167 
0 0 188 
0 0 177 
0 0 173 
0 0 193 
0 0 159 
0 0 179 
0 0 177 
0 0 186 
0 0 161 
0 0 177 
0 0 186 
0 0 165 
0 0 169 
0 0 179 
0 0 179 
0 0 179 
0 0 173 
0 0 182 
0 0 159 
0 0 155 
0 0 179 
0 0 165 
0 0 159 
0 0 159 
0 0 169 
0 0 182 
0 0 167 
0 0 167 
0 0 163 
0 0 194 
0 0 151 
0 0 169 
0 0 165 
0 0 175 
0 0 171 
0 0 184 
0 0 179 
0 0 165 
0 0 171 
0 0 179 
0 0 163 
0 0 181 
0 0 173 
0 0 142 
0 0 179 
0 0 165 
0 0 179 
0 0 171 
0 0 188 
0 0 181 
0 0 171 
0 0 175 
0 0 169 
0 0 157 
0 0 188 
0 0 159 
0 0 161 
0 0 175 
0 0 159 
0 0 159 
0 0 179 
0 0 181 
0 0 181 
0 0 173 
0 0 179 
0 0 163 
0 0 181 
0 0 159 
0 0 175 
0 0 159 
0 0 169 
0 0 171 
0 0 165 
0 0 175 
0 0 171 
0 0 161 
0 0 142 
0 0 186 
0 0 161 
0 0 157 
0 0 182 
0 0 161 
0 0 165 
0 0 157 
0 0 177 
0 0 161 
0 0 169 
0 0 186 
0 0 161 
0 0 165 
0 0 159 
0 0 177 
0 0 171 
0 0 147 
0 0 144 
0 0 171 
0 0 175 
0 0 173 
0 0 165 
0 0 137 
0 0 159 
0 0 171 
0 0 163 
0 0 182 
0 0 157 
0 0 151 
0 0 157 
0 0 161 
0 0 161 
0 0 163 
0 0 151 
0 0 147 
0 0 171 
0 0 163 
0 0 137 
0 0 175 
0 0 144 
0 0 144 
0 0 149 
0 0 137 
0 0 161 
0 0 144 
0 0 159 
0 0 142 
0 0 144 
0 0 153 
0 0 159 
0 0 137 
0 0 149 
0 0 155 
0 0 144 
0 0 147 
0 0 142 
0 0 175 
0 0 135 
0 0 151 
0 0 142 
0 0 157 
0 0 154 
0 0 157 
0 0 155 
0 0 147 
0 0 133 
0 0 137 
0 0 144 
0 0 142 
0 0 134 
0 0 144 
0 0 137 
0 0 133 
0 0 148 
0 0 159 
0 0 134 
0 0 122 
0 0 121 
0 0 125 
0 0 113 
0 0 114 
0 0 125 
0 0 117 
0 0 122 
0 0 114 
0 0 99 
0 0 118 
0 0 110 
0 0 115 
0 0 90 
0 0 105 
0 0 92 
0 0 95 
0 0 102 
0 0 84 
23 36 65 
37 55 60 
38 56 73 
40 60 74 
39 54 65 
42 61 78 
39 57 73 
43 62 78 
41 58 74 
43 66 74 
42 57 74 
40 57 67 
41 61 74 
47 70 90 
45 67 80 
48 69 82 
38 55 71 
47 68 88 
43 61 70 
42 59 70 
45 64 84 
42 57 67 
38 51 65 
44 62 67 
43 57 72 
47 60 57 
41 54 47 
88 33 40 
96 0 0 
106 0 0 
118 0 0 
110 0 0 
127 0 0 
128 0 0 
116 0 0 
141 0 0 
136 0 0 
143 0 0 
121 0 0 
141 0 0 
133 0 0 
144 0 0 
146 0 0 
140 0 0 
143 0 0 
159 0 0 
154 0 0 
155 0 0 
151 0 0 
159 0 0 
149 0 0 
149 0 0 
153 0 0 
148 0 0 
151 0 0 
158 0 0 
170 0 0 
158 0 0 
166 0 0 
157 0 0 
164 0 0 
164 0 0 
155 0 0 
164 0 0 
164 0 0 
166 0 0 
169 0 0 
178 0 0 
171 0 0 
173 0 0 
165 0 0 
167 0 0 
167 0 0 
167 0 0 
162 0 0 
168 0 0 
175 0 0 
162 0 0 
169 0 0 
172 0 0 
175 0 0 
169 0 0 
177 0 0 
177 0 0 
172 0 0 
180 0 0 
166 0 0 
180 0 0 
168 0 0 
181 0 0 
175 0 0 
175 0 0 
168 0 0 
172 0 0 
180 0 0 
174 0 0 
180 0 0 
178 0 0 
180 0 0 
174 0 0 
180 0 0 
179 0 0 
178 0 0 
176 0 0 
176 0 0 
175 0 0 
181 0 0 
181 0 0 
180 0 0 
186 0 0 
176 0 0 
181 0 0 
174 0 0 
188 0 0 
175 0 0 
183 0 0 
181 0 0 
184 0 0 
178 0 0 
184 0 0 
180 0 0 
182 0 0 
178 0 0 
185 0 0 
180 0 0 
178 0 0 
184 0 0 
186 0 0 
183 0 0 
185 0 0 
184 0 0 
187 0 0 
187 0 0 
186 0 0 
173 0 0 
184 0 0 
184 0 0 
186 0 0 
181 0 0 
174 0 0 
181 0 0 
184 0 0 
188 0 0 
186 0 0 
190 0 0 
186 0 0 
191 0 0 
184 0 0 
188 0 0 
180 0 0 
181 0 0 
183 0 0 
187 0 0 
186 0 0 
183 0 0 
185 0 0 
185 0 0 
187 0 0 
183 0 0 
188 0 0 
186 0 0 
183 0 0 
182 0 0 
188 0 0 
185 0 0 
184 0 0 
184 0 0 
188 0 0 
190 0 0 
183 0 0 
186 0 0 
187 0 0 
186 0 0 
182 0 0 
185 0 0 
185 0 0 
189 0 0 
184 0 0 
190 0 0 
190 0 0 
190 0 0 
183 0 0 
188 0 0 
183 0 0 
188 0 0 
189 0 0 
193 0 0 
186 0 0 
191 0 0 
184 0 0 
185 0 0 
187 0 0 
185 0 0 
186 0 0 
183 0 0 
189 0 0 
185 0 0 
188 0 0 
187 0 0 
189 0 0 
184 0 0 
190 0 0 
188 0 0 
181 0 0 
190 0 0 
190 0 0 
185 0 0 
188 0 0 
191 0 0 
189 0 0 
184 0 0 
183 0 0 
183 0 0 
189 0 0 
0 0 165 
0 0 177 
0 0 181 
0 0 177 
0 0 177 
0 0 171 
0 0 175 
0 0 186 
0 0 163 
0 0 177 
0 0 169 
0 0 179 
0 0 167 
0 0 165 
0 0 179 
0 0 175 
0 0 171 
0 0 177 
0 0 169 
0 0 179 
0 0 177 
0 0 189 
0 0 188 
0 0 155 
0 0 155 
0 0 177 
0 0 169 
0 0 165 
0 0 188 
0 0 181 
0 0 189 
0 0 167 
0 0 161 
0 0 181 
0 0 161 
0 0 167 
0 0 165 
0 0 177 
0 0 151 
0 0 173 
0 0 151 
0 0 169 
0 0 184 
0 0 181 
0 0 169 
0 0 193 
0 0 179 
0 0 173 
0 0 171 
0 0 169 
0 0 175 
0 0 159 
0 0 167 
0 0 173 
0 0 179 
0 0 169 
0 0 167 
0 0 163 
0 0 186 
0 0 153 
0 0 177 
0 0 149 
0 0 175 
0 0 182 
0 0 167 
0 0 167 
0 0 165 
0 0 181 
0 0 179 
0 0 155 
0 0 171 
0 0 171 
0 0 165 
0 0 173 
0 0 159 
0 0 153 
0 0 175 
0 0 171 
0 0 173 
0 0 177 
0 0 155 
0 0 165 
0 0 159 
0 0 177 
0 0 169 
0 0 163 
0 0 169 
0 0 157 
0 0 165 
0 0 167 
0 0 167 
0 0 169 
0 0 165 
0 0 182 
0 0 171 
0 0 157 
0 0 165 
0 0 163 
0 0 165 
0 0 155 
0 0 151 
0 0 149 
0 0 151 
0 0 165 
0 0 163 
0 0 171 
0 0 142 
0 0 175 
0 0 165 
0 0 163 
0 0 165 
0 0 175 
0 0 151 
0 0 149 
0 0 155 
0 0 161 
0 0 163 
0 0 159 
0 0 153 
0 0 144 
0 0 153 
0 0 163 
0 0 163 
0 0 167 
0 0 171 
0 0 157 
0 0 149 
0 0 171 
0 0 165 
0 0 151 
0 0 149 
0 0 171 
0 0 155 
0 0 151 
0 0 155 
0 0 163 
0 0 149 
0 0 161 
0 0 157 
0 0 137 
0 0 169 
0 0 142 
0 0 137 
0 0 140 
0 0 147 
0 0 155 
0 0 133 
0 0 137 
0 0 147 
0 0 149 
0 0 149 
0 0 137 
0 0 159 
0 0 165 
0 0 128 
0 0 166 
0 0 143 
0 0 128 
0 0 135 
0 0 142 
0 0 144 
0 0 137 
0 0 122 
0 0 155 
0 0 133 
0 0 140 
0 0 135 
0 0 137 
0 0 143 
0 0 139 
0 0 133 
0 0 121 
0 0 114 
0 0 133 
0 0 114 
0 0 105 
0 0 120 
0 0 111 
0 0 114 
0 0 120 
0 0 90 
0 0 114 
0 0 90 
0 0 82 
0 0 90 
0 0 100 
30 44 62 
37 53 62 
37 57 63 
40 57 74 
41 61 78 
42 59 74 
40 56 51 
39 58 68 
41 60 74 
46 66 82 
37 55 67 
45 67 90 
43 63 72 
43 65 74 
42 60 70 
43 61 78 
43 60 74 
45 63 84 
42 63 68 
41 56 57 
45 61 74 
47 61 76 
38 50 47 
42 59 72 
41 55 71 
42 56 65 
39 50 47 
60 47 57 
102 0 0 
121 0 0 
120 0 0 
125 0 0 
124 0 0 
119 0 0 
121 0 0 
125 0 0 
122 0 0 
141 0 0 
140 0 0 
123 0 0 
133 0 0 
147 0 0 
138 0 0 
148 0 0 
147 0 0 
148 0 0 
151 0 0 
159 0 0 
146 0 0 
150 0 0 
142 0 0 
156 0 0 
153 0 0 
139 0 0 
162 0 0 
155 0 0 
150 0 0 
159 0 0 
157 0 0 
157 0 0 
158 0 0 
159 0 0 
162 0 0 
164 0 0 
170 0 0 
163 0 0 
168 0 0 
167 0 0 
166 0 0 
156 0 0 
170 0 0 
162 0 0 
171 0 0 
175 0 0 
167 0 0 
165 0 0 
165 0 0 
173 0 0 
174 0 0 
173 0 0 
159 0 0 
173 0 0 
172 0 0 
170 0 0 
167 0 0 
182 0 0 
179 0 0 
178 0 0 
176 0 0 
179 0 0 
180 0 0 
177 0 0 
170 0 0 
174 0 0 
171 0 0 
175 0 0 
180 0 0 
175 0 0 
176 0 0 
178 0 0 
178 0 0 
184 0 0 
176 0 0 
179 0 0 
181 0 0 
178 0 0 
182 0 0 
180 0 0 
174 0 0 
181 0 0 
172 0 0 
179 0 0 
184 0 0 
182 0 0 
185 0 0 
177 0 0 
183 0 0 
183 0 0 
185 0 0 
176 0 0 
181 0 0 
175 0 0 
185 0 0 
182 0 0 
184 0 0 
185 0 0 
174 0 0 
180 0 0 
178 0 0 
179 0 0 
184 0 0 
181 0 0 
188 0 0 
183 0 0 
183 0 0 
180 0 0 
182 0 0 
182 0 0 
185 0 0 
187 0 0 
184 0 0 
186 0 0 
185 0 0 
176 0 0 
188 0 0 
188 0 0 
190 0 0 
180 0 0 
181 0 0 
184 0 0 
186 0 0 
188 0 0 
184 0 0 
184 0 0 
186 0 0 
183 0 0 
185 0 0 
181 0 0 
187 0 0 
186 0 0 
184 0 0 
184 0 0 
184 0 0 
187 0 0 
184 0 0 
191 0 0 
188 0 0 
184 0 0 
185 0 0 
185 0 0 
183 0 0 
181 0 0 
184 0 0 
189 0 0 
185 0 0 
192 0 0 
183 0 0 
188 0 0 
187 0 0 
188 0 0 
183 0 0 
181 0 0 
181 0 0 
184 0 0 
186 0 0 
182 0 0 
190 0 0 
184 0 0 
182 0 0 
185 0 0 
188 0 0 
185 0 0 
184 0 0 
184 0 0 
185 0 0 
189 0 0 
185 0 0 
189 0 0 
187 0 0 
191 0 0 
183 0 0 
188 0 0 
181 0 0 
191 0 0 
188 0 0 
186 0 0 
188 0 0 
183 0 0 
190 0 0 
188 0 0 
189 0 0 
188 0 0 
188 0 0 
187 0 0 
0 0 159 
0 0 165 
0 0 171 
0 0 188 
0 0 189 
0 0 167 
0 0 169 
0 0 177 
0 0 181 
0 0 167 
0 0 165 
0 0 191 
0 0 167 
0 0 181 
0 0 179 
0 0 189 
0 0 182 
0 0 173 
0 0 171 
0 0 169 
0 0 161 
0 0 177 
0 0 194 
0 0 167 
0 0 177 
0 0 182 
0 0 182 
0 0 179 
0 0 179 
0 0 155 
0 0 171 
0 0 159 
0 0 191 
0 0 169 
0 0 191 
0 0 171 
0 0 147 
0 0 171 
0 0 165 
0 0 167 
0 0 193 
0 0 161 
0 0 165 
0 0 163 
0 0 171 
0 0 159 
0 0 188 
0 0 157 
0 0 163 
0 0 182 
0 0 191 
0 0 161 
0 0 171 
0 0 175 
0 0 181 
0 0 173 
0 0 184 
0 0 182 
0 0 179 
0 0 177 
0 0 161 
0 0 163 
0 0 175 
0 0 165 
0 0 169 
0 0 184 
0 0 153 
0 0 169 
0 0 171 
0 0 157 
0 0 173 
0 0 169 
0 0 167 
0 0 175 
0 0 157 
0 0 173 
0 0 167 
0 0 169 
0 0 173 
0 0 161 
0 0 163 
0 0 181 
0 0 169 
0 0 153 
0 0 171 
0 0 167 
0 0 179 
0 0 167 
0 0 165 
0 0 161 
0 0 169 
0 0 163 
0 0 163 
0 0 155 
0 0 169 
0 0 163 
0 0 149 
0 0 163 
0 0 182 
0 0 169 
0 0 163 
0 0 151 
0 0 169 
0 0 165 
0 0 161 
0 0 177 
0 0 165 
0 0 177 
0 0 147 
0 0 155 
0 0 169 
0 0 179 
0 0 165 
0 0 163 
0 0 167 
0 0 171 
0 0 163 
0 0 144 
0 0 171 
0 0 147 
0 0 149 
0 0 147 
0 0 159 
0 0 147 
0 0 157 
0 0 144 
0 0 169 
0 0 142 
0 0 169 
0 0 144 
0 0 147 
0 0 142 
0 0 165 
0 0 149 
0 0 151 
0 0 173 
0 0 153 
0 0 159 
0 0 157 
0 0 151 
0 0 155 
0 0 151 
0 0 140 
0 0 135 
0 0 145 
0 0 147 
0 0 137 
0 0 125 
0 0 135 
0 0 140 
0 0 121 
0 0 147 
0 0 144 
0 0 144 
0 0 149 
0 0 135 
0 0 155 
0 0 145 
0 0 141 
0 0 147 
0 0 135 
0 0 142 
0 0 142 
0 0 118 
0 0 137 
0 0 114 
0 0 137 
0 0 108 
0 0 130 
0 0 113 
0 0 122 
0 0 120 
0 0 115 
0 0 117 
0 0 125 
0 0 124 
0 0 100 
0 0 115 
0 0 88 
0 0 118 
0 0 94 
0 0 86 
0 0 88 
0 0 78 
0 0 95 
5 9 76 
33 50 68 
36 54 75 
36 55 74 
38 58 66 
38 55 63 
33 44 47 
42 63 70 
42 58 76 
41 61 82 
43 62 67 
39 59 72 
39 58 62 
43 60 57 
42 61 72 
45 64 65 
42 60 67 
47 68 80 
42 60 60 
40 57 60 
39 53 51 
39 55 60 
40 51 47 
39 53 62 
39 55 57 
42 54 57 
38 52 60 
44 60 72 
41 49 54 
103 0 0 
106 0 0 
105 0 0 
129 0 0 
115 0 0 
135 0 0 
121 0 0 
125 0 0 
132 0 0 
127 0 0 
145 0 0 
149 0 0 
145 0 0 
146 0 0 
136 0 0 
148 0 0 
150 0 0 
149 0 0 
148 0 0 
151 0 0 
150 0 0 
150 0 0 
152 0 0 
161 0 0 
149 0 0 
158 0 0 
158 0 0 
159 0 0 
149 0 0 
165 0 0 
157 0 0 
167 0 0 
162 0 0 
164 0 0 
155 0 0 
167 0 0 
166 0 0 
166 0 0 
166 0 0 
164 0 0 
164 0 0 
158 0 0 
172 0 0 
165 0 0 
161 0 0 
176 0 0 
162 0 0 
170 0 0 
173 0 0 
169 0 0 
180 0 0 
171 0 0 
168 0 0 
178 0 0 
175 0 0 
176 0 0 
175 0 0 
166 0 0 
171 0 0 
186 0 0 
183 0 0 
173 0 0 
177 0 0 
180 0 0 
178 0 0 
176 0 0 
179 0 0 
177 0 0 
179 0 0 
177 0 0 
167 0 0 
181 0 0 
180 0 0 
183 0 0 
176 0 0 
179 0 0 
181 0 0 
175 0 0 
178 0 0 
176 0 0 
183 0 0 
173 0 0 
182 0 0 
190 0 0 
183 0 0 
183 0 0 
180 0 0 
177 0 0 
175 0 0 
182 0 0 
177 0 0 
183 0 0 
176 0 0 
176 0 0 
181 0 0 
173 0 0 
179 0 0 
180 0 0 
182 0 0 
178 0 0 
182 0 0 
179 0 0 
183 0 0 
178 0 0 
180 0 0 
181 0 0 
177 0 0 
177 0 0 
179 0 0 
190 0 0 
180 0 0 
183 0 0 
183 0 0 
183 0 0 
181 0 0 
180 0 0 
187 0 0 
184 0 0 
180 0 0 
186 0 0 
186 0 0 
182 0 0 
185 0 0 
182 0 0 
182 0 0 
185 0 0 
183 0 0 
183 0 0 
191 0 0 
186 0 0 
182 0 0 
184 0 0 
179 0 0 
177 0 0 
189 0 0 
186 0 0 
186 0 0 
180 0 0 
188 0 0 
186 0 0 
185 0 0 
183 0 0 
190 0 0 
183 0 0 
183 0 0 
187 0 0 
184 0 0 
189 0 0 
184 0 0 
181 0 0 
185 0 0 
185 0 0 
190 0 0 
188 0 0 
187 0 0 
186 0 0 
187 0 0 
188 0 0 
186 0 0 
182 0 0 
187 0 0 
187 0 0 
189 0 0 
190 0 0 
187 0 0 
189 0 0 
190 0 0 
185 0 0 
188 0 0 
180 0 0 
187 0 0 
189 0 0 
191 0 0 
186 0 0 
193 0 0 
182 0 0 
187 0 0 
186 0 0 
188 0 0 
183 0 0 
191 0 0 
189 0 0 
184 0 0 
188 0 0 
184 0 0 
187 0 0 
0 0 163 
0 0 167 
0 0 167 
0 0 181 
0 0 161 
0 0 182 
0 0 171 
0 0 163 
0 0 191 
0 0 177 
0 0 151 
0 0 171 
0 0 181 
0 0 169 
0 0 182 
0 0 188 
0 0 171 
0 0 181 
0 0 167 
0 0 161 
0 0 175 
0 0 182 
0 0 173 
0 0 169 
0 0 175 
0 0 165 
0 0 182 
0 0 167 
0 0 175 
0 0 167 
0 0 165 
0 0 157 
0 0 177 
0 0 175 
0 0 163 
0 0 189 
0 0 155 
0 0 175 
0 0 188 
0 0 161 
0 0 167 
0 0 149 
0 0 147 
0 0 171 
0 0 167 
0 0 169 
0 0 186 
0 0 193 
0 0 169 
0 0 179 
0 0 173 
0 0 181 
0 0 163 
0 0 167 
0 0 182 
0 0 171 
0 0 181 
0 0 179 
0 0 173 
0 0 175 
0 0 171 
0 0 181 
0 0 157 
0 0 147 
0 0 165 
0 0 163 
0 0 161 
0 0 179 
0 0 161 
0 0 159 
0 0 165 
0 0 169 
0 0 177 
0 0 157 
0 0 177 
0 0 191 
0 0 159 
0 0 184 
0 0 163 
0 0 186 
0 0 171 
0 0 184 
0 0 173 
0 0 161 
0 0 175 
0 0 179 
0 0 169 
0 0 165 
0 0 169 
0 0 157 
0 0 175 
0 0 161 
0 0 161 
0 0 161 
0 0 167 
0 0 173 
0 0 175 
0 0 171 
0 0 151 
0 0 155 
0 0 161 
0 0 157 
0 0 173 
0 0 184 
0 0 159 
0 0 169 
0 0 157 
0 0 167 
0 0 151 
0 0 159 
0 0 157 
0 0 169 
0 0 167 
0 0 153 
0 0 165 
0 0 169 
0 0 153 
0 0 149 
0 0 142 
0 0 144 
0 0 155 
0 0 149 
0 0 175 
0 0 173 
0 0 167 
0 0 161 
0 0 153 
0 0 161 
0 0 147 
0 0 149 
0 0 153 
0 0 149 
0 0 147 
0 0 157 
0 0 149 
0 0 140 
0 0 122 
0 0 133 
0 0 149 
0 0 151 
0 0 157 
0 0 147 
0 0 135 
0 0 159 
0 0 161 
0 0 142 
0 0 149 
0 0 140 
0 0 142 
0 0 163 
0 0 140 
0 0 135 
0 0 144 
0 0 142 
0 0 153 
0 0 137 
0 0 135 
0 0 120 
0 0 142 
0 0 134 
0 0 144 
0 0 128 
0 0 122 
0 0 134 
0 0 126 
0 0 140 
0 0 124 
0 0 125 
0 0 136 
0 0 139 
0 0 95 
0 0 114 
0 0 108 
0 0 125 
0 0 122 
0 0 134 
0 0 105 
0 0 118 
0 0 107 
0 0 80 
0 0 90 
0 0 97 
0 0 76 
0 0 88 
0 0 74 
15 20 77 
29 42 40 
35 51 54 
34 51 51 
34 51 66 
33 49 47 
42 60 67 
41 60 70 
42 60 72 
39 57 77 
40 60 86 
37 53 47 
40 59 65 
40 59 73 
40 54 68 
41 59 67 
40 58 70 
44 60 67 
42 58 51 
38 51 60 
41 56 62 
37 53 51 
40 52 65 
44 56 74 
40 52 72 
37 52 47 
38 48 51 
40 52 54 
37 47 51 
95 28 31 
91 0 0 
114 0 0 
115 0 0 
114 0 0 
117 0 0 
117 0 0 
129 0 0 
135 0 0 
132 0 0 
127 0 0 
130 0 0 
132 0 0 
139 0 0 
134 0 0 
139 0 0 
137 0 0 
156 0 0 
149 0 0 
136 0 0 
151 0 0 
141 0 0 
151 0 0 
159 0 0 
159 0 0 
157 0 0 
158 0 0 
158 0 0 
155 0 0 
158 0 0 
157 0 0 
159 0 0 
166 0 0 
163 0 0 
164 0 0 
172 0 0 
162 0 0 
165 0 0 
173 0 0 
170 0 0 
162 0 0 
164 0 0 
172 0 0 
168 0 0 
161 0 0 
169 0 0 
164 0 0 
166 0 0 
170 0 0 
171 0 0 
171 0 0 
173 0 0 
171 0 0 
180 0 0 
180 0 0 
170 0 0 
175 0 0 
173 0 0 
172 0 0 
179 0 0 
177 0 0 
173 0 0 
178 0 0 
178 0 0 
178 0 0 
173 0 0 
171 0 0 
180 0 0 
179 0 0 
176 0 0 
181 0 0 
178 0 0 
185 0 0 
181 0 0 
172 0 0 
182 0 0 
183 0 0 
181 0 0 
184 0 0 
184 0 0 
176 0 0 
176 0 0 
180 0 0 
181 0 0 
177 0 0 
180 0 0 
176 0 0 
183 0 0 
184 0 0 
184 0 0 
178 0 0 
179 0 0 
173 0 0 
178 0 0 
177 0 0 
184 0 0 
179 0 0 
183 0 0 
187 0 0 
184 0 0 
185 0 0 
186 0 0 
183 0 0 
183 0 0 
181 0 0 
179 0 0 
187 0 0 
180 0 0 
182 0 0 
181 0 0 
178 0 0 
183 0 0 
179 0 0 
187 0 0 
181 0 0 
178 0 0 
185 0 0 
186 0 0 
184 0 0 
186 0 0 
188 0 0 
179 0 0 
181 0 0 
188 0 0 
184 0 0 
183 0 0 
186 0 0 
187 0 0 
180 0 0 
187 0 0 
184 0 0 
182 0 0 
184 0 0 
184 0 0 
190 0 0 
193 0 0 
186 0 0 
181 0 0 
187 0 0 
186 0 0 
187 0 0 
189 0 0 
179 0 0 
187 0 0 
186 0 0 
190 0 0 
182 0 0 
183 0 0 
188 0 0 
182 0 0 
189 0 0 
178 0 0 
184 0 0 
181 0 0 
180 0 0 
185 0 0 
181 0 0 
187 0 0 
179 0 0 
186 0 0 
189 0 0 
188 0 0 
184 0 0 
189 0 0 
187 0 0 
183 0 0 
190 0 0 
188 0 0 
186 0 0 
190 0 0 
186 0 0 
187 0 0 
187 0 0 
184 0 0 
189 0 0 
187 0 0 
183 0 0 
187 0 0 
190 0 0 
189 0 0 
190 0 0 
191 0 0 
189 0 0 
193 0 0 
186 0 0 
188 0 0 
0 0 179 
0 0 161 
0 0 182 
0 0 167 
0 0 181 
0 0 181 
0 0 175 
0 0 182 
0 0 175 
0 0 161 
0 0 177 
0 0 179 
0 0 177 
0 0 175 
0 0 184 
0 0 163 
0 0 177 
0 0 161 
0 0 182 
0 0 171 
0 0 173 
0 0 167 
0 0 181 
0 0 179 
0 0 184 
0 0 175 
0 0 161 
0 0 165 
0 0 157 
0 0 163 
0 0 153 
0 0 169 
0 0 175 
0 0 191 
0 0 144 
0 0 179 
0 0 173 
0 0 171 
0 0 191 
0 0 165 
0 0 165 
0 0 173 
0 0 188 
0 0 171 
0 0 171 
0 0 171 
0 0 173 
0 0 175 
0 0 175 
0 0 163 
0 0 173 
0 0 157 
0 0 147 
0 0 182 
0 0 165 
0 0 169 
0 0 177 
0 0 175 
0 0 181 
0 0 165 
0 0 169 
0 0 157 
0 0 161 
0 0 175 
0 0 167 
0 0 181 
0 0 173 
0 0 171 
0 0 179 
0 0 171 
0 0 157 
0 0 167 
0 0 179 
0 0 165 
0 0 155 
0 0 169 
0 0 165 
0 0 171 
0 0 153 
0 0 167 
0 0 165 
0 0 182 
0 0 153 
0 0 161 
0 0 165 
0 0 175 
0 0 169 
0 0 182 
0 0 147 
0 0 157 
0 0 155 
0 0 163 
0 0 151 
0 0 157 
0 0 181 
0 0 165 
0 0 159 
0 0 171 
0 0 173 
0 0 159 
0 0 171 
0 0 159 
0 0 163 
0 0 167 
0 0 155 
0 0 155 
0 0 163 
0 0 177 
0 0 161 
0 0 151 
0 0 159 
0 0 155 
0 0 163 
0 0 167 
0 0 142 
0 0 171 
0 0 159 
0 0 159 
0 0 165 
0 0 169 
0 0 153 
0 0 167 
0 0 155 
0 0 157 
0 0 157 
0 0 142 
0 0 135 
0 0 144 
0 0 155 
0 0 161 
0 0 173 
0 0 165 
0 0 144 
0 0 151 
0 0 155 
0 0 167 
0 0 147 
0 0 157 
0 0 157 
0 0 149 
0 0 147 
0 0 135 
0 0 130 
0 0 157 
0 0 153 
0 0 155 
0 0 140 
0 0 137 
0 0 133 
0 0 130 
0 0 140 
0 0 149 
0 0 150 
0 0 157 
0 0 154 
0 0 135 
0 0 130 
0 0 140 
0 0 147 
0 0 117 
0 0 140 
0 0 120 
0 0 122 
0 0 108 
0 0 122 
0 0 120 
0 0 142 
0 0 124 
0 0 108 
0 0 125 
0 0 107 
0 0 111 
0 0 125 
0 0 111 
0 0 124 
0 0 99 
0 0 105 
0 0 92 
0 0 95 
0 0 118 
0 0 86 
0 0 86 
0 0 86 
0 0 72 
0 0 72 
22 29 57 
33 51 60 
28 42 54 
30 44 52 
37 53 71 
33 45 60 
35 54 54 
40 56 72 
34 48 54 
39 57 67 
38 56 70 
40 59 76 
40 59 54 
36 49 60 
40 56 62 
39 58 54 
41 59 67 
41 55 74 
38 53 62 
40 59 67 
39 53 62 
38 52 67 
40 58 67 
40 51 60 
37 47 57 
37 48 49 
38 46 51 
39 52 60 
39 52 57 
60 39 36 
104 0 0 
105 0 0 
116 0 0 
117 0 0 
127 0 0 
126 0 0 
133 0 0 
132 0 0 
125 0 0 
141 0 0 
137 0 0 
138 0 0 
148 0 0 
140 0 0 
158 0 0 
136 0 0 
154 0 0 
140 0 0 
157 0 0 
144 0 0 
151 0 0 
158 0 0 
161 0 0 
151 0 0 
151 0 0 
155 0 0 
157 0 0 
152 0 0 
154 0 0 
155 0 0 
160 0 0 
171 0 0 
161 0 0 
166 0 0 
166 0 0 
173 0 0 
168 0 0 
160 0 0 
166 0 0 
169 0 0 
168 0 0 
165 0 0 
169 0 0 
162 0 0 
163 0 0 
165 0 0 
166 0 0 
170 0 0 
171 0 0 
169 0 0 
169 0 0 
171 0 0 
171 0 0 
172 0 0 
177 0 0 
165 0 0 
165 0 0 
176 0 0 
177 0 0 
176 0 0 
172 0 0 
173 0 0 
179 0 0 
171 0 0 
178 0 0 
177 0 0 
180 0 0 
172 0 0 
179 0 0 
181 0 0 
175 0 0 
176 0 0 
175 0 0 
173 0 0 
171 0 0 
175 0 0 
178 0 0 
183 0 0 
182 0 0 
179 0 0 
176 0 0 
181 0 0 
182 0 0 
174 0 0 
179 0 0 
180 0 0 
180 0 0 
182 0 0 
179 0 0 
181 0 0 
180 0 0 
179 0 0 
179 0 0 
175 0 0 
182 0 0 
181 0 0 
176 0 0 
181 0 0 
180 0 0 
188 0 0 
184 0 0 
183 0 0 
181 0 0 
182 0 0 
188 0 0 
176 0 0 
190 0 0 
183 0 0 
186 0 0 
186 0 0 
187 0 0 
184 0 0 
182 0 0 
177 0 0 
189 0 0 
184 0 0 
188 0 0 
179 0 0 
182 0 0 
182 0 0 
183 0 0 
180 0 0 
189 0 0 
187 0 0 
184 0 0 
183 0 0 
183 0 0 
181 0 0 
182 0 0 
189 0 0 
190 0 0 
189 0 0 
189 0 0 
185 0 0 
185 0 0 
184 0 0 
187 0 0 
181 0 0 
180 0 0 
189 0 0 
187 0 0 
185 0 0 
188 0 0 
185 0 0 
181 0 0 
182 0 0 
180 0 0 
190 0 0 
189 0 0 
189 0 0 
185 0 0 
181 0 0 
184 0 0 
188 0 0 
195 0 0 
187 0 0 
186 0 0 
181 0 0 
188 0 0 
187 0 0 
185 0 0 
184 0 0 
183 0 0 
190 0 0 
184 0 0 
191 0 0 
189 0 0 
189 0 0 
193 0 0 
190 0 0 
183 0 0 
184 0 0 
189 0 0 
183 0 0 
186 0 0 
185 0 0 
186 0 0 
187 0 0 
189 0 0 
191 0 0 
183 0 0 
185 0 0 
190 0 0 
189 0 0 
191 0 0 
0 0 165 
0 0 184 
0 0 165 
0 0 179 
0 0 171 
0 0 167 
0 0 189 
0 0 177 
0 0 167 
0 0 163 
0 0 179 
0 0 169 
0 0 163 
0 0 167 
0 0 163 
0 0 161 
0 0 179 
0 0 184 
0 0 173 
0 0 175 
0 0 184 
0 0 169 
0 0 171 
0 0 173 
0 0 175 
0 0 173 
0 0 181 
0 0 167 
0 0 157 
0 0 151 
0 0 184 
0 0 184 
0 0 182 
0 0 155 
0 0 161 
0 0 188 
0 0 182 
0 0 171 
0 0 173 
0 0 175 
0 0 173 
0 0 179 
0 0 181 
0 0 144 
0 0 175 
0 0 169 
0 0 153 
0 0 165 
0 0 169 
0 0 171 
0 0 151 
0 0 169 
0 0 171 
0 0 153 
0 0 177 
0 0 165 
0 0 171 
0 0 179 
0 0 167 
0 0 177 
0 0 179 
0 0 175 
0 0 169 
0 0 177 
0 0 151 
0 0 189 
0 0 151 
0 0 161 
0 0 167 
0 0 186 
0 0 169 
0 0 184 
0 0 155 
0 0 163 
0 0 159 
0 0 173 
0 0 167 
0 0 173 
0 0 155 
0 0 173 
0 0 163 
0 0 169 
0 0 186 
0 0 167 
0 0 155 
0 0 157 
0 0 182 
0 0 142 
0 0 155 
0 0 175 
0 0 163 
0 0 173 
0 0 144 
0 0 169 
0 0 163 
0 0 153 
0 0 135 
0 0 169 
0 0 165 
0 0 163 
0 0 142 
0 0 149 
0 0 161 
0 0 140 
0 0 175 
0 0 175 
0 0 167 
0 0 165 
0 0 163 
0 0 157 
0 0 140 
0 0 161 
0 0 142 
0 0 140 
0 0 159 
0 0 147 
0 0 161 
0 0 173 
0 0 161 
0 0 149 
0 0 149 
0 0 159 
0 0 157 
0 0 159 
0 0 165 
0 0 167 
0 0 151 
0 0 155 
0 0 161 
0 0 142 
0 0 147 
0 0 147 
0 0 151 
0 0 157 
0 0 149 
0 0 151 
0 0 163 
0 0 171 
0 0 149 
0 0 147 
0 0 159 
0 0 135 
0 0 156 
0 0 161 
0 0 144 
0 0 135 
0 0 122 
0 0 140 
0 0 147 
0 0 151 
0 0 144 
0 0 153 
0 0 149 
0 0 133 
0 0 117 
0 0 142 
0 0 157 
0 0 129 
0 0 136 
0 0 142 
0 0 134 
0 0 134 
0 0 133 
0 0 137 
0 0 137 
0 0 140 
0 0 105 
0 0 134 
0 0 129 
0 0 125 
0 0 133 
0 0 107 
0 0 122 
0 0 131 
0 0 110 
0 0 117 
0 0 100 
0 0 114 
0 0 129 
0 0 111 
0 0 107 
0 0 60 
0 0 92 
0 0 88 
12 12 52 
27 38 51 
29 44 47 
29 44 46 
31 48 49 
33 44 36 
36 53 67 
36 55 74 
34 50 57 
35 53 60 
36 51 67 
35 50 47 
36 50 62 
40 58 57 
38 52 65 
39 58 67 
41 57 62 
40 56 62 
37 52 55 
38 50 60 
39 53 62 
33 46 31 
35 46 42 
36 51 60 
36 48 44 
36 50 65 
37 47 44 
38 45 60 
36 48 54 
32 40 44 
36 47 51 
86 20 25 
111 0 0 
102 0 0 
121 0 0 
125 0 0 
135 0 0 
130 0 0 
131 0 0 
137 0 0 
129 0 0 
135 0 0 
131 0 0 
145 0 0 
139 0 0 
133 0 0 
146 0 0 
145 0 0 
148 0 0 
149 0 0 
155 0 0 
150 0 0 
153 0 0 
144 0 0 
156 0 0 
152 0 0 
160 0 0 
162 0 0 
160 0 0 
147 0 0 
158 0 0 
160 0 0 
165 0 0 
161 0 0 
152 0 0 
168 0 0 
169 0 0 
161 0 0 
162 0 0 
162 0 0 
159 0 0 
168 0 0 
166 0 0 
167 0 0 
167 0 0 
164 0 0 
166 0 0 
167 0 0 
173 0 0 
171 0 0 
170 0 0 
171 0 0 
172 0 0 
173 0 0 
167 0 0 
172 0 0 
171 0 0 
173 0 0 
168 0 0 
172 0 0 
174 0 0 
176 0 0 
172 0 0 
173 0 0 
171 0 0 
173 0 0 
169 0 0 
173 0 0 
182 0 0 
173 0 0 
179 0 0 
175 0 0 
173 0 0 
175 0 0 
177 0 0 
174 0 0 
176 0 0 
183 0 0 
180 0 0 
177 0 0 
172 0 0 
173 0 0 
181 0 0 
178 0 0 
178 0 0 
174 0 0 
179 0 0 
179 0 0 
182 0 0 
179 0 0 
184 0 0 
173 0 0 
186 0 0 
178 0 0 
177 0 0 
175 0 0 
180 0 0 
182 0 0 
178 0 0 
179 0 0 
178 0 0 
175 0 0 
180 0 0 
181 0 0 
179 0 0 
182 0 0 
184 0 0 
184 0 0 
185 0 0 
183 0 0 
180 0 0 
190 0 0 
180 0 0 
183 0 0 
182 0 0 
183 0 0 
186 0 0 
186 0 0 
179 0 0 
187 0 0 
186 0 0 
187 0 0 
177 0 0 
187 0 0 
180 0 0 
180 0 0 
181 0 0 
184 0 0 
186 0 0 
186 0 0 
184 0 0 
182 0 0 
182 0 0 
186 0 0 
190 0 0 
181 0 0 
182 0 0 
181 0 0 
180 0 0 
190 0 0 
179 0 0 
185 0 0 
185 0 0 
192 0 0 
186 0 0 
181 0 0 
185 0 0 
184 0 0 
188 0 0 
182 0 0 
182 0 0 
187 0 0 
188 0 0 
185 0 0 
189 0 0 
184 0 0 
189 0 0 
187 0 0 
187 0 0 
190 0 0 
182 0 0 
180 0 0 
190 0 0 
184 0 0 
183 0 0 
184 0 0 
185 0 0 
186 0 0 
188 0 0 
190 0 0 
183 0 0 
185 0 0 
189 0 0 
185 0 0 
179 0 0 
188 0 0 
192 0 0 
188 0 0 
190 0 0 
183 0 0 
187 0 0 
189 0 0 
191 0 0 
188 0 0 
182 0 0 
184 0 0 
0 0 179 
0 0 182 
0 0 151 
0 0 161 
0 0 165 
0 0 173 
0 0 163 
0 0 159 
0 0 175 
0 0 151 
0 0 169 
0 0 161 
0 0 182 
0 0 181 
0 0 149 
0 0 167 
0 0 188 
0 0 182 
0 0 161 
0 0 177 
0 0 175 
0 0 189 
0 0 167 
0 0 169 
0 0 169 
0 0 167 
0 0 177 
0 0 167 
0 0 167 
0 0 161 
0 0 169 
0 0 161 
0 0 175 
0 0 161 
0 0 169 
0 0 182 
0 0 155 
0 0 179 
0 0 179 
0 0 175 
0 0 177 
0 0 182 
0 0 149 
0 0 191 
0 0 177 
0 0 175 
0 0 163 
0 0 161 
0 0 184 
0 0 169 
0 0 173 
0 0 167 
0 0 153 
0 0 155 
0 0 173 
0 0 173 
0 0 188 
0 0 177 
0 0 165 
0 0 159 
0 0 181 
0 0 181 
0 0 179 
0 0 157 
0 0 163 
0 0 171 
0 0 179 
0 0 163 
0 0 184 
0 0 182 
0 0 153 
0 0 177 
0 0 181 
0 0 149 
0 0 165 
0 0 163 
0 0 177 
0 0 137 
0 0 157 
0 0 171 
0 0 181 
0 0 157 
0 0 177 
0 0 169 
0 0 140 
0 0 169 
0 0 165 
0 0 159 
0 0 144 
0 0 161 
0 0 175 
0 0 189 
0 0 171 
0 0 149 
0 0 169 
0 0 153 
0 0 165 
0 0 179 
0 0 175 
0 0 161 
0 0 153 
0 0 171 
0 0 144 
0 0 140 
0 0 151 
0 0 151 
0 0 169 
0 0 171 
0 0 159 
0 0 130 
0 0 165 
0 0 182 
0 0 173 
0 0 157 
0 0 157 
0 0 153 
0 0 157 
0 0 159 
0 0 177 
0 0 149 
0 0 165 
0 0 142 
0 0 165 
0 0 153 
0 0 159 
0 0 137 
0 0 147 
0 0 155 
0 0 142 
0 0 159 
0 0 155 
0 0 153 
0 0 140 
0 0 144 
0 0 157 
0 0 133 
0 0 149 
0 0 149 
0 0 149 
0 0 151 
0 0 137 
0 0 137 
0 0 151 
0 0 144 
0 0 149 
0 0 140 
0 0 155 
0 0 159 
0 0 124 
0 0 135 
0 0 153 
0 0 149 
0 0 128 
0 0 144 
0 0 135 
0 0 125 
0 0 114 
0 0 117 
0 0 147 
0 0 120 
0 0 110 
0 0 144 
0 0 108 
0 0 124 
0 0 128 
0 0 133 
0 0 117 
0 0 114 
0 0 111 
0 0 128 
0 0 111 
0 0 110 
0 0 95 
0 0 86 
0 0 107 
0 0 114 
0 0 94 
0 0 110 
0 0 94 
0 0 80 
0 0 78 
0 0 102 
0 0 86 
18 20 61 
20 32 44 
26 38 52 
27 41 57 
23 33 25 
28 40 40 
30 37 51 
33 47 57 
34 50 57 
32 43 42 
35 50 51 
34 49 65 
35 48 51 
37 50 62 
31 46 54 
38 52 70 
33 45 40 
34 51 57 
40 56 76 
34 49 47 
36 54 54 
35 47 62 
35 46 47 
35 49 60 
35 45 54 
32 44 47 
32 43 47 
37 52 47 
32 38 36 
31 40 36 
30 37 40 
27 35 31 
57 22 18 
87 8 0 
105 0 0 
110 0 0 
111 0 0 
130 0 0 
134 0 0 
133 0 0 
127 0 0 
134 0 0 
140 0 0 
134 0 0 
144 0 0 
123 0 0 
147 0 0 
148 0 0 
147 0 0 
154 0 0 
140 0 0 
149 0 0 
159 0 0 
147 0 0 
155 0 0 
155 0 0 
157 0 0 
152 0 0 
160 0 0 
160 0 0 
153 0 0 
158 0 0 
162 0 0 
159 0 0 
151 0 0 
145 0 0 
166 0 0 
165 0 0 
167 0 0 
163 0 0 
167 0 0 
167 0 0 
155 0 0 
169 0 0 
171 0 0 
167 0 0 
174 0 0 
170 0 0 
175 0 0 
171 0 0 
182 0 0 
169 0 0 
168 0 0 
167 0 0 
175 0 0 
166 0 0 
168 0 0 
175 0 0 
178 0 0 
173 0 0 
173 0 0 
173 0 0 
176 0 0 
180 0 0 
175 0 0 
168 0 0 
172 0 0 
183 0 0 
180 0 0 
167 0 0 
176 0 0 
170 0 0 
178 0 0 
175 0 0 
180 0 0 
178 0 0 
177 0 0 
178 0 0 
177 0 0 
185 0 0 
180 0 0 
175 0 0 
185 0 0 
182 0 0 
175 0 0 
173 0 0 
178 0 0 
176 0 0 
178 0 0 
180 0 0 
187 0 0 
179 0 0 
181 0 0 
183 0 0 
179 0 0 
180 0 0 
186 0 0 
182 0 0 
178 0 0 
175 0 0 
179 0 0 
174 0 0 
184 0 0 
179 0 0 
188 0 0 
181 0 0 
188 0 0 
177 0 0 
181 0 0 
185 0 0 
182 0 0 
182 0 0 
184 0 0 
176 0 0 
180 0 0 
185 0 0 
185 0 0 
177 0 0 
176 0 0 
185 0 0 
180 0 0 
176 0 0 
185 0 0 
188 0 0 
183 0 0 
179 0 0 
186 0 0 
173 0 0 
185 0 0 
186 0 0 
181 0 0 
186 0 0 
189 0 0 
184 0 0 
181 0 0 
186 0 0 
191 0 0 
184 0 0 
181 0 0 
188 0 0 
187 0 0 
183 0 0 
181 0 0 
187 0 0 
194 0 0 
186 0 0 
188 0 0 
187 0 0 
188 0 0 
188 0 0 
190 0 0 
185 0 0 
186 0 0 
188 0 0 
186 0 0 
185 0 0 
185 0 0 
188 0 0 
183 0 0 
181 0 0 
186 0 0 
179 0 0 
183 0 0 
188 0 0 
190 0 0 
188 0 0 
187 0 0 
192 0 0 
183 0 0 
183 0 0 
183 0 0 
184 0 0 
185 0 0 
184 0 0 
188 0 0 
191 0 0 
188 0 0 
195 0 0 
184 0 0 
189 0 0 
191 0 0 
190 0 0 
186 0 0 
190 0 0 
185 0 0 
188 0 0 
186 0 0 
0 0 177 
0 0 171 
0 0 181 
0 0 175 
0 0 161 
0 0 179 
0 0 163 
0 0 177 
0 0 173 
0 0 181 
0 0 153 
0 0 159 
0 0 159 
0 0 173 
0 0 153 
0 0 181 
0 0 169 
0 0 155 
0 0 179 
0 0 167 
0 0 155 
0 0 167 
0 0 161 
0 0 175 
0 0 177 
0 0 173 
0 0 181 
0 0 149 
0 0 165 
0 0 165 
0 0 169 
0 0 163 
0 0 188 
0 0 147 
0 0 167 
0 0 159 
0 0 177 
0 0 171 
0 0 175 
0 0 157 
0 0 159 
0 0 171 
0 0 175 
0 0 163 
0 0 181 
0 0 169 
0 0 171 
0 0 175 
0 0 153 
0 0 184 
0 0 181 
0 0 169 
0 0 169 
0 0 165 
0 0 179 
0 0 167 
0 0 165 
0 0 186 
0 0 171 
0 0 159 
0 0 157 
0 0 165 
0 0 177 
0 0 157 
0 0 151 
0 0 173 
0 0 188 
0 0 142 
0 0 159 
0 0 169 
0 0 169 
0 0 169 
0 0 186 
0 0 153 
0 0 169 
0 0 155 
0 0 179 
0 0 161 
0 0 175 
0 0 167 
0 0 151 
0 0 161 
0 0 161 
0 0 159 
0 0 155 
0 0 159 
0 0 149 
0 0 155 
0 0 167 
0 0 159 
0 0 169 
0 0 151 
0 0 155 
0 0 163 
0 0 157 
0 0 169 
0 0 157 
0 0 153 
0 0 151 
0 0 159 
0 0 149 
0 0 155 
0 0 169 
0 0 153 
0 0 165 
0 0 177 
0 0 159 
0 0 137 
0 0 165 
0 0 157 
0 0 161 
0 0 163 
0 0 175 
0 0 157 
0 0 179 
0 0 175 
0 0 151 
0 0 169 
0 0 157 
0 0 167 
0 0 157 
0 0 153 
0 0 155 
0 0 165 
0 0 142 
0 0 155 
0 0 165 
0 0 151 
0 0 157 
0 0 125 
0 0 149 
0 0 147 
0 0 163 
0 0 151 
0 0 135 
0 0 140 
0 0 159 
0 0 161 
0 0 144 
0 0 149 
0 0 144 
0 0 137 
0 0 147 
0 0 163 
0 0 142 
0 0 147 
0 0 149 
0 0 140 
0 0 135 
0 0 155 
0 0 125 
0 0 147 
0 0 144 
0 0 133 
0 0 153 
0 0 128 
0 0 140 
0 0 142 
0 0 115 
0 0 142 
0 0 133 
0 0 133 
0 0 137 
0 0 133 
0 0 142 
0 0 124 
0 0 108 
0 0 113 
0 0 111 
0 0 125 
0 0 113 
0 0 129 
0 0 105 
0 0 105 
0 0 95 
0 0 114 
0 0 105 
0 0 80 
0 0 88 
0 0 88 
0 0 99 
0 0 102 
0 0 54 
28 32 47 
33 35 0 
39 43 0 
24 30 18 
41 52 31 
37 44 22 
30 42 31 
27 37 44 
28 40 44 
29 44 44 
32 45 54 
31 44 57 
33 49 54 
34 51 62 
28 45 51 
31 45 54 
30 42 31 
28 41 44 
35 48 47 
36 53 57 
32 44 51 
30 40 44 
38 52 51 
33 45 44 
34 46 54 
28 34 36 
35 46 54 
31 44 54 
47 50 40 
29 30 18 
29 33 18 
35 29 0 
44 37 0 
62 37 0 
93 0 0 
116 0 0 
119 0 0 
120 0 0 
122 0 0 
114 0 0 
131 0 0 
135 0 0 
135 0 0 
141 0 0 
125 0 0 
139 0 0 
140 0 0 
145 0 0 
150 0 0 
149 0 0 
142 0 0 
145 0 0 
146 0 0 
148 0 0 
146 0 0 
162 0 0 
145 0 0 
170 0 0 
151 0 0 
156 0 0 
170 0 0 
163 0 0 
161 0 0 
154 0 0 
158 0 0 
157 0 0 
165 0 0 
155 0 0 
159 0 0 
173 0 0 
162 0 0 
163 0 0 
164 0 0 
168 0 0 
164 0 0 
162 0 0 
170 0 0 
174 0 0 
165 0 0 
165 0 0 
171 0 0 
169 0 0 
168 0 0 
171 0 0 
170 0 0 
167 0 0 
174 0 0 
173 0 0 
179 0 0 
175 0 0 
171 0 0 
171 0 0 
170 0 0 
178 0 0 
173 0 0 
176 0 0 
178 0 0 
170 0 0 
174 0 0 
176 0 0 
182 0 0 
179 0 0 
174 0 0 
174 0 0 
178 0 0 
175 0 0 
178 0 0 
172 0 0 
183 0 0 
177 0 0 
178 0 0 
179 0 0 
181 0 0 
182 0 0 
171 0 0 
175 0 0 
172 0 0 
179 0 0 
178 0 0 
180 0 0 
184 0 0 
179 0 0 
188 0 0 
183 0 0 
177 0 0 
179 0 0 
177 0 0 
179 0 0 
170 0 0 
175 0 0 
183 0 0 
178 0 0 
176 0 0 
175 0 0 
186 0 0 
185 0 0 
186 0 0 
184 0 0 
180 0 0 
182 0 0 
185 0 0 
179 0 0 
183 0 0 
184 0 0 
178 0 0 
179 0 0 
181 0 0 
188 0 0 
183 0 0 
183 0 0 
182 0 0 
185 0 0 
189 0 0 
182 0 0 
185 0 0 
186 0 0 
185 0 0 
181 0 0 
179 0 0 
177 0 0 
185 0 0 
187 0 0 
184 0 0 
184 0 0 
183 0 0 
183 0 0 
182 0 0 
191 0 0 
180 0 0 
184 0 0 
181 0 0 
186 0 0 
187 0 0 
186 0 0 
185 0 0 
183 0 0 
187 0 0 
177 0 0 
183 0 0 
190 0 0 
187 0 0 
187 0 0 
185 0 0 
178 0 0 
184 0 0 
186 0 0 
186 0 0 
186 0 0 
188 0 0 
187 0 0 
191 0 0 
190 0 0 
187 0 0 
185 0 0 
187 0 0 
181 0 0 
186 0 0 
185 0 0 
189 0 0 
190 0 0 
184 0 0 
176 0 0 
186 0 0 
184 0 0 
186 0 0 
179 0 0 
187 0 0 
184 0 0 
186 0 0 
188 0 0 
187 0 0 
184 0 0 
185 0 0 
187 0 0 
190 0 0 
191 0 0 
187 0 0 
0 0 189 
0 0 182 
0 0 182 
0 0 159 
0 0 167 
0 0 175 
0 0 171 
0 0 169 
0 0 161 
0 0 186 
0 0 181 
0 0 167 
0 0 179 
0 0 169 
0 0 179 
0 0 179 
0 0 161 
0 0 167 
0 0 167 
0 0 175 
0 0 175 
0 0 167 
0 0 167 
0 0 165 
0 0 169 
0 0 147 
0 0 157 
0 0 167 
0 0 177 
0 0 175 
0 0 167 
0 0 149 
0 0 155 
0 0 179 
0 0 175 
0 0 177 
0 0 161 
0 0 149 
0 0 153 
0 0 155 
0 0 175 
0 0 181 
0 0 151 
0 0 165 
0 0 169 
0 0 165 
0 0 179 
0 0 159 
0 0 161 
0 0 177 
0 0 159 
0 0 169 
0 0 171 
0 0 165 
0 0 165 
0 0 161 
0 0 157 
0 0 155 
0 0 177 
0 0 161 
0 0 159 
0 0 161 
0 0 161 
0 0 155 
0 0 157 
0 0 151 
0 0 151 
0 0 175 
0 0 171 
0 0 169 
0 0 161 
0 0 165 
0 0 159 
0 0 169 
0 0 161 
0 0 177 
0 0 161 
0 0 163 
0 0 175 
0 0 135 
0 0 169 
0 0 151 
0 0 159 
0 0 161 
0 0 157 
0 0 169 
0 0 167 
0 0 155 
0 0 167 
0 0 153 
0 0 175 
0 0 175 
0 0 171 
0 0 171 
0 0 157 
0 0 167 
0 0 155 
0 0 163 
0 0 165 
0 0 167 
0 0 167 
0 0 155 
0 0 161 
0 0 144 
0 0 163 
0 0 167 
0 0 149 
0 0 151 
0 0 155 
0 0 175 
0 0 167 
0 0 155 
0 0 153 
0 0 163 
0 0 149 
0 0 153 
0 0 157 
0 0 155 
0 0 137 
0 0 144 
0 0 163 
0 0 157 
0 0 130 
0 0 155 
0 0 151 
0 0 159 
0 0 161 
0 0 155 
0 0 140 
0 0 157 
0 0 157 
0 0 157 
0 0 157 
0 0 135 
0 0 144 
0 0 153 
0 0 153 
0 0 157 
0 0 133 
0 0 140 
0 0 122 
0 0 153 
0 0 140 
0 0 128 
0 0 135 
0 0 147 
0 0 140 
0 0 130 
0 0 147 
0 0 135 
0 0 144 
0 0 140 
0 0 147 
0 0 137 
0 0 128 
0 0 155 
0 0 125 
0 0 122 
0 0 149 
0 0 130 
0 0 128 
0 0 121 
0 0 128 
0 0 142 
0 0 107 
0 0 114 
0 0 130 
0 0 111 
0 0 130 
0 0 102 
0 0 99 
0 0 108 
0 0 84 
0 0 95 
0 0 108 
0 0 105 
0 0 120 
0 0 67 
0 0 97 
0 0 88 
0 0 95 
0 0 72 
19 20 47 
40 43 0 
5 8 0 
23 29 0 
34 38 0 
35 39 0 
28 33 0 
33 38 0 
14 21 18 
34 38 31 
19 31 33 
28 38 31 
24 36 36 
25 40 51 
25 38 25 
30 44 40 
30 43 36 
36 47 44 
32 44 57 
32 45 60 
29 43 36 
27 37 31 
29 42 36 
33 38 18 
24 35 36 
28 32 18 
36 43 18 
49 53 18 
47 48 0 
39 38 0 
31 25 0 
49 47 0 
42 39 0 
44 48 0 
43 41 0 
93 20 0 
110 0 0 
103 0 0 
110 0 0 
115 0 0 
125 0 0 
125 0 0 
131 0 0 
129 0 0 
149 0 0 
135 0 0 
138 0 0 
149 0 0 
151 0 0 
142 0 0 
142 0 0 
144 0 0 
144 0 0 
154 0 0 
152 0 0 
155 0 0 
160 0 0 
155 0 0 
157 0 0 
151 0 0 
167 0 0 
140 0 0 
162 0 0 
167 0 0 
149 0 0 
157 0 0 
166 0 0 
156 0 0 
171 0 0 
154 0 0 
160 0 0 
166 0 0 
164 0 0 
168 0 0 
171 0 0 
160 0 0 
167 0 0 
173 0 0 
171 0 0 
167 0 0 
169 0 0 
165 0 0 
165 0 0 
171 0 0 
170 0 0 
171 0 0 
169 0 0 
174 0 0 
169 0 0 
168 0 0 
174 0 0 
162 0 0 
178 0 0 
162 0 0 
176 0 0 
171 0 0 
179 0 0 
173 0 0 
172 0 0 
175 0 0 
172 0 0 
178 0 0 
169 0 0 
178 0 0 
178 0 0 
180 0 0 
179 0 0 
177 0 0 
172 0 0 
175 0 0 
181 0 0 
169 0 0 
174 0 0 
176 0 0 
176 0 0 
179 0 0 
181 0 0 
179 0 0 
183 0 0 
181 0 0 
181 0 0 
175 0 0 
177 0 0 
181 0 0 
180 0 0 
186 0 0 
186 0 0 
184 0 0 
180 0 0 
178 0 0 
187 0 0 
185 0 0 
173 0 0 
186 0 0 
183 0 0 
183 0 0 
180 0 0 
180 0 0 
186 0 0 
179 0 0 
187 0 0 
181 0 0 
180 0 0 
182 0 0 
188 0 0 
183 0 0 
188 0 0 
180 0 0 
182 0 0 
179 0 0 
190 0 0 
182 0 0 
177 0 0 
184 0 0 
181 0 0 
182 0 0 
184 0 0 
184 0 0 
181 0 0 
182 0 0 
182 0 0 
182 0 0 
185 0 0 
185 0 0 
183 0 0 
186 0 0 
185 0 0 
187 0 0 
188 0 0 
190 0 0 
181 0 0 
180 0 0 
186 0 0 
185 0 0 
188 0 0 
189 0 0 
183 0 0 
183 0 0 
184 0 0 
189 0 0 
180 0 0 
183 0 0 
184 0 0 
189 0 0 
189 0 0 
185 0 0 
187 0 0 
188 0 0 
186 0 0 
190 0 0 
186 0 0 
184 0 0 
187 0 0 
190 0 0 
190 0 0 
187 0 0 
182 0 0 
184 0 0 
183 0 0 
187 0 0 
184 0 0 
192 0 0 
186 0 0 
182 0 0 
189 0 0 
185 0 0 
187 0 0 
187 0 0 
188 0 0 
186 0 0 
189 0 0 
188 0 0 
185 0 0 
191 0 0 
185 0 0 
187 0 0 
188 0 0 
190 0 0 
0 0 165 
0 0 175 
0 0 175 
0 0 173 
0 0 173 
0 0 177 
0 0 189 
0 0 173 
0 0 173 
0 0 171 
0 0 161 
0 0 153 
0 0 165 
0 0 175 
0 0 151 
0 0 173 
0 0 181 
0 0 161 
0 0 157 
0 0 163 
0 0 171 
0 0 169 
0 0 159 
0 0 169 
0 0 171 
0 0 171 
0 0 169 
0 0 167 
0 0 167 
0 0 157 
0 0 188 
0 0 165 
0 0 155 
0 0 167 
0 0 163 
0 0 159 
0 0 163 
0 0 161 
0 0 153 
0 0 167 
0 0 155 
0 0 169 
0 0 171 
0 0 151 
0 0 153 
0 0 157 
0 0 165 
0 0 186 
0 0 167 
0 0 163 
0 0 155 
0 0 169 
0 0 151 
0 0 165 
0 0 165 
0 0 137 
0 0 157 
0 0 171 
0 0 167 
0 0 175 
0 0 157 
0 0 153 
0 0 161 
0 0 157 
0 0 144 
0 0 169 
0 0 163 
0 0 161 
0 0 151 
0 0 161 
0 0 184 
0 0 165 
0 0 151 
0 0 155 
0 0 165 
0 0 165 
0 0 157 
0 0 161 
0 0 163 
0 0 191 
0 0 167 
0 0 155 
0 0 169 
0 0 151 
0 0 153 
0 0 165 
0 0 177 
0 0 161 
0 0 161 
0 0 155 
0 0 175 
0 0 155 
0 0 161 
0 0 157 
0 0 161 
0 0 165 
0 0 140 
0 0 169 
0 0 165 
0 0 157 
0 0 153 
0 0 167 
0 0 144 
0 0 182 
0 0 169 
0 0 159 
0 0 153 
0 0 149 
0 0 169 
0 0 155 
0 0 144 
0 0 182 
0 0 161 
0 0 167 
0 0 153 
0 0 175 
0 0 142 
0 0 157 
0 0 155 
0 0 153 
0 0 122 
0 0 147 
0 0 144 
0 0 161 
0 0 128 
0 0 147 
0 0 155 
0 0 147 
0 0 167 
0 0 135 
0 0 149 
0 0 163 
0 0 151 
0 0 157 
0 0 149 
0 0 147 
0 0 153 
0 0 140 
0 0 122 
0 0 165 
0 0 135 
0 0 147 
0 0 117 
0 0 161 
0 0 135 
0 0 142 
0 0 122 
0 0 135 
0 0 147 
0 0 147 
0 0 128 
0 0 128 
0 0 144 
0 0 108 
0 0 128 
0 0 137 
0 0 140 
0 0 137 
0 0 128 
0 0 147 
0 0 128 
0 0 140 
0 0 117 
0 0 130 
0 0 118 
0 0 117 
0 0 134 
0 0 128 
0 0 117 
0 0 113 
0 0 105 
0 0 102 
0 0 94 
0 0 120 
0 0 115 
0 0 94 
0 0 95 
0 0 70 
0 0 62 
0 0 105 
0 0 82 
1 3 74 
20 23 0 
27 30 0 
44 49 0 
38 42 0 
34 39 0 
39 44 0 
38 43 0 
28 33 0 
28 34 0 
37 39 0 
42 44 0 
22 27 0 
18 15 0 
47 53 0 
22 18 0 
42 46 0 
35 37 0 
29 33 12 
37 39 0 
45 48 18 
41 46 0 
55 51 0 
33 36 0 
36 38 0 
37 33 0 
44 39 0 
34 32 0 
15 20 0 
34 37 0 
40 44 0 
48 50 0 
34 37 0 
44 43 0 
43 29 0 
31 34 0 
46 29 0 
102 0 0 
111 0 0 
119 0 0 
118 0 0 
118 0 0 
132 0 0 
125 0 0 
127 0 0 
139 0 0 
136 0 0 
127 0 0 
140 0 0 
141 0 0 
143 0 0 
136 0 0 
153 0 0 
145 0 0 
146 0 0 
154 0 0 
155 0 0 
151 0 0 
153 0 0 
155 0 0 
145 0 0 
157 0 0 
156 0 0 
167 0 0 
167 0 0 
164 0 0 
144 0 0 
160 0 0 
162 0 0 
164 0 0 
157 0 0 
161 0 0 
162 0 0 
168 0 0 
167 0 0 
173 0 0 
161 0 0 
171 0 0 
171 0 0 
172 0 0 
166 0 0 
173 0 0 
169 0 0 
171 0 0 
172 0 0 
159 0 0 
170 0 0 
166 0 0 
168 0 0 
170 0 0 
178 0 0 
169 0 0 
167 0 0 
166 0 0 
177 0 0 
174 0 0 
168 0 0 
165 0 0 
176 0 0 
167 0 0 
177 0 0 
169 0 0 
177 0 0 
178 0 0 
170 0 0 
178 0 0 
175 0 0 
177 0 0 
175 0 0 
173 0 0 
172 0 0 
181 0 0 
178 0 0 
177 0 0 
175 0 0 
177 0 0 
173 0 0 
182 0 0 
179 0 0 
176 0 0 
180 0 0 
181 0 0 
179 0 0 
181 0 0 
184 0 0 
180 0 0 
181 0 0 
177 0 0 
181 0 0 
180 0 0 
177 0 0 
173 0 0 
178 0 0 
181 0 0 
184 0 0 
188 0 0 
185 0 0 
182 0 0 
189 0 0 
177 0 0 
178 0 0 
179 0 0 
186 0 0 
184 0 0 
180 0 0 
181 0 0 
182 0 0 
177 0 0 
183 0 0 
184 0 0 
180 0 0 
185 0 0 
186 0 0 
183 0 0 
185 0 0 
189 0 0 
186 0 0 
182 0 0 
183 0 0 
184 0 0 
180 0 0 
183 0 0 
185 0 0 
176 0 0 
183 0 0 
178 0 0 
185 0 0 
184 0 0 
184 0 0 
182 0 0 
189 0 0 
182 0 0 
177 0 0 
183 0 0 
187 0 0 
184 0 0 
188 0 0 
183 0 0 
183 0 0 
181 0 0 
185 0 0 
180 0 0 
189 0 0 
181 0 0 
186 0 0 
188 0 0 
188 0 0 
187 0 0 
182 0 0 
182 0 0 
188 0 0 
185 0 0 
182 0 0 
188 0 0 
189 0 0 
187 0 0 
191 0 0 
183 0 0 
185 0 0 
183 0 0 
183 0 0 
184 0 0 
186 0 0 
186 0 0 
187 0 0 
185 0 0 
188 0 0 
183 0 0 
184 0 0 
189 0 0 
188 0 0 
182 0 0 
189 0 0 
193 0 0 
191 0 0 
190 0 0 
187 0 0 
188 0 0 
191 0 0 
0 0 163 
0 0 184 
0 0 171 
0 0 179 
0 0 159 
0 0 165 
0 0 165 
0 0 167 
0 0 173 
0 0 167 
0 0 161 
0 0 173 
0 0 182 
0 0 167 
0 0 163 
0 0 161 
0 0 181 
0 0 184 
0 0 173 
0 0 163 
0 0 161 
0 0 179 
0 0 169 
0 0 173 
0 0 184 
0 0 171 
0 0 161 
0 0 163 
0 0 167 
0 0 169 
0 0 175 
0 0 179 
0 0 179 
0 0 177 
0 0 177 
0 0 173 
0 0 179 
0 0 161 
0 0 155 
0 0 151 
0 0 149 
0 0 182 
0 0 165 
0 0 177 
0 0 177 
0 0 157 
0 0 144 
0 0 186 
0 0 171 
0 0 167 
0 0 157 
0 0 161 
0 0 171 
0 0 167 
0 0 149 
0 0 169 
0 0 173 
0 0 159 
0 0 161 
0 0 130 
0 0 161 
0 0 165 
0 0 159 
0 0 169 
0 0 159 
0 0 169 
0 0 177 
0 0 157 
0 0 171 
0 0 173 
0 0 157 
0 0 169 
0 0 149 
0 0 142 
0 0 175 
0 0 169 
0 0 169 
0 0 175 
0 0 149 
0 0 151 
0 0 171 
0 0 147 
0 0 169 
0 0 161 
0 0 163 
0 0 163 
0 0 169 
0 0 173 
0 0 157 
0 0 175 
0 0 151 
0 0 163 
0 0 153 
0 0 155 
0 0 177 
0 0 161 
0 0 155 
0 0 159 
0 0 163 
0 0 167 
0 0 169 
0 0 159 
0 0 142 
0 0 151 
0 0 153 
0 0 161 
0 0 177 
0 0 163 
0 0 175 
0 0 175 
0 0 137 
0 0 163 
0 0 165 
0 0 161 
0 0 149 
0 0 169 
0 0 165 
0 0 140 
0 0 155 
0 0 157 
0 0 151 
0 0 161 
0 0 147 
0 0 153 
0 0 159 
0 0 171 
0 0 157 
0 0 149 
0 0 140 
0 0 163 
0 0 151 
0 0 144 
0 0 149 
0 0 159 
0 0 140 
0 0 153 
0 0 149 
0 0 149 
0 0 151 
0 0 128 
0 0 137 
0 0 149 
0 0 128 
0 0 128 
0 0 159 
0 0 133 
0 0 133 
0 0 140 
0 0 130 
0 0 130 
0 0 140 
0 0 131 
0 0 130 
0 0 142 
0 0 133 
0 0 137 
0 0 125 
0 0 102 
0 0 140 
0 0 133 
0 0 130 
0 0 125 
0 0 92 
0 0 120 
0 0 122 
0 0 102 
0 0 114 
0 0 120 
0 0 92 
0 0 122 
0 0 111 
0 0 120 
0 0 124 
0 0 102 
0 0 86 
0 0 125 
0 0 97 
0 0 86 
0 0 84 
0 0 84 
0 0 60 
19 22 31 
57 61 0 
36 37 0 
34 40 0 
42 46 0 
34 39 0 
37 39 0 
34 39 0 
6 10 0 
31 31 0 
39 45 0 
39 44 0 
50 58 0 
38 40 0 
38 39 0 
42 45 0 
35 40 0 
46 48 0 
47 53 0 
39 43 0 
32 36 0 
33 38 0 
36 40 0 
42 45 0 
35 39 0 
44 45 0 
57 64 0 
46 48 0 
48 50 0 
42 40 0 
48 52 0 
38 40 0 
32 33 0 
34 38 0 
53 47 0 
42 24 0 
48 32 0 
61 30 0 
108 0 0 
108 0 0 
119 0 0 
128 0 0 
119 0 0 
132 0 0 
128 0 0 
134 0 0 
123 0 0 
136 0 0 
147 0 0 
127 0 0 
150 0 0 
149 0 0 
152 0 0 
154 0 0 
147 0 0 
148 0 0 
144 0 0 
152 0 0 
154 0 0 
157 0 0 
145 0 0 
155 0 0 
162 0 0 
160 0 0 
152 0 0 
158 0 0 
161 0 0 
159 0 0 
158 0 0 
151 0 0 
169 0 0 
165 0 0 
169 0 0 
160 0 0 
164 0 0 
174 0 0 
172 0 0 
166 0 0 
170 0 0 
173 0 0 
166 0 0 
161 0 0 
167 0 0 
168 0 0 
163 0 0 
165 0 0 
165 0 0 
165 0 0 
162 0 0 
173 0 0 
173 0 0 
174 0 0 
168 0 0 
180 0 0 
168 0 0 
166 0 0 
174 0 0 
172 0 0 
179 0 0 
176 0 0 
175 0 0 
177 0 0 
174 0 0 
173 0 0 
170 0 0 
173 0 0 
186 0 0 
184 0 0 
175 0 0 
177 0 0 
176 0 0 
176 0 0 
177 0 0 
176 0 0 
177 0 0 
176 0 0 
177 0 0 
177 0 0 
179 0 0 
172 0 0 
183 0 0 
182 0 0 
180 0 0 
181 0 0 
182 0 0 
180 0 0 
178 0 0 
177 0 0 
178 0 0 
188 0 0 
182 0 0 
184 0 0 
177 0 0 
174 0 0 
183 0 0 
182 0 0 
185 0 0 
180 0 0 
185 0 0 
182 0 0 
179 0 0 
181 0 0 
183 0 0 
179 0 0 
179 0 0 
182 0 0 
183 0 0 
185 0 0 
184 0 0 
179 0 0 
182 0 0 
185 0 0 
181 0 0 
184 0 0 
184 0 0 
189 0 0 
180 0 0 
183 0 0 
180 0 0 
183 0 0 
187 0 0 
176 0 0 
188 0 0 
183 0 0 
184 0 0 
183 0 0 
179 0 0 
183 0 0 
187 0 0 
185 0 0 
182 0 0 
179 0 0 
181 0 0 
185 0 0 
188 0 0 
180 0 0 
184 0 0 
179 0 0 
185 0 0 
186 0 0 
179 0 0 
180 0 0 
181 0 0 
186 0 0 
183 0 0 
188 0 0 
185 0 0 
177 0 0 
187 0 0 
184 0 0 
184 0 0 
178 0 0 
184 0 0 
186 0 0 
185 0 0 
187 0 0 
192 0 0 
191 0 0 
185 0 0 
189 0 0 
188 0 0 
186 0 0 
186 0 0 
184 0 0 
184 0 0 
191 0 0 
186 0 0 
187 0 0 
186 0 0 
188 0 0 
186 0 0 
184 0 0 
186 0 0 
183 0 0 
184 0 0 
183 0 0 
189 0 0 
187 0 0 
190 0 0 
0 0 175 
0 0 184 
0 0 165 
0 0 169 
0 0 171 
0 0 179 
0 0 175 
0 0 186 
0 0 153 
0 0 155 
0 0 155 
0 0 182 
0 0 181 
0 0 177 
0 0 155 
0 0 177 
0 0 177 
0 0 169 
0 0 169 
0 0 163 
0 0 179 
0 0 157 
0 0 151 
0 0 182 
0 0 144 
0 0 173 
0 0 149 
0 0 177 
0 0 175 
0 0 165 
0 0 175 
0 0 171 
0 0 171 
0 0 165 
0 0 173 
0 0 171 
0 0 155 
0 0 149 
0 0 175 
0 0 173 
0 0 173 
0 0 167 
0 0 173 
0 0 151 
0 0 171 
0 0 159 
0 0 167 
0 0 179 
0 0 167 
0 0 165 
0 0 181 
0 0 165 
0 0 177 
0 0 173 
0 0 155 
0 0 153 
0 0 163 
0 0 169 
0 0 153 
0 0 169 
0 0 181 
0 0 184 
0 0 181 
0 0 181 
0 0 157 
0 0 161 
0 0 157 
0 0 173 
0 0 157 
0 0 163 
0 0 169 
0 0 155 
0 0 161 
0 0 165 
0 0 147 
0 0 163 
0 0 147 
0 0 175 
0 0 151 
0 0 177 
0 0 159 
0 0 173 
0 0 157 
0 0 165 
0 0 153 
0 0 149 
0 0 153 
0 0 167 
0 0 171 
0 0 153 
0 0 155 
0 0 165 
0 0 171 
0 0 159 
0 0 155 
0 0 149 
0 0 163 
0 0 163 
0 0 163 
0 0 157 
0 0 175 
0 0 153 
0 0 151 
0 0 163 
0 0 167 
0 0 167 
0 0 155 
0 0 155 
0 0 163 
0 0 161 
0 0 153 
0 0 144 
0 0 159 
0 0 142 
0 0 144 
0 0 163 
0 0 159 
0 0 179 
0 0 155 
0 0 147 
0 0 159 
0 0 159 
0 0 161 
0 0 142 
0 0 167 
0 0 135 
0 0 155 
0 0 149 
0 0 142 
0 0 155 
0 0 135 
0 0 137 
0 0 144 
0 0 155 
0 0 169 
0 0 142 
0 0 144 
0 0 153 
0 0 161 
0 0 137 
0 0 137 
0 0 159 
0 0 149 
0 0 125 
0 0 147 
0 0 144 
0 0 135 
0 0 114 
0 0 140 
0 0 122 
0 0 137 
0 0 143 
0 0 133 
0 0 120 
0 0 135 
0 0 142 
0 0 135 
0 0 122 
0 0 147 
0 0 128 
0 0 122 
0 0 114 
0 0 130 
0 0 130 
0 0 122 
0 0 114 
0 0 111 
0 0 130 
0 0 76 
0 0 99 
0 0 99 
0 0 111 
0 0 113 
0 0 105 
0 0 100 
0 0 84 
0 0 97 
0 0 88 
0 0 62 
0 0 76 
26 28 51 
21 25 0 
51 51 0 
51 57 0 
46 51 0 
48 52 0 
34 36 0 
35 41 0 
39 45 0 
38 44 0 
39 45 0 
45 51 0 
49 55 0 
39 42 0 
42 47 0 
39 46 0 
51 51 0 
40 44 0 
44 49 0 
45 53 0 
45 49 0 
39 46 0 
50 51 0 
35 38 0 
55 60 0 
46 43 0 
57 60 0 
54 50 0 
43 40 0 
37 39 0 
51 49 0 
52 46 0 
52 39 0 
54 55 0 
44 36 0 
41 42 0 
55 42 0 
62 52 0 
50 29 0 
75 20 0 
118 0 0 
117 0 0 
111 0 0 
113 0 0 
118 0 0 
116 0 0 
139 0 0 
136 0 0 
136 0 0 
135 0 0 
128 0 0 
136 0 0 
136 0 0 
137 0 0 
152 0 0 
156 0 0 
146 0 0 
155 0 0 
153 0 0 
150 0 0 
151 0 0 
155 0 0 
156 0 0 
161 0 0 
165 0 0 
155 0 0 
163 0 0 
167 0 0 
159 0 0 
155 0 0 
164 0 0 
157 0 0 
164 0 0 
160 0 0 
165 0 0 
167 0 0 
159 0 0 
175 0 0 
175 0 0 
164 0 0 
169 0 0 
156 0 0 
167 0 0 
172 0 0 
161 0 0 
169 0 0 
164 0 0 
170 0 0 
175 0 0 
164 0 0 
164 0 0 
166 0 0 
173 0 0 
169 0 0 
167 0 0 
177 0 0 
171 0 0 
179 0 0 
165 0 0 
171 0 0 
175 0 0 
170 0 0 
172 0 0 
170 0 0 
176 0 0 
168 0 0 
178 0 0 
172 0 0 
176 0 0 
174 0 0 
178 0 0 
181 0 0 
181 0 0 
173 0 0 
178 0 0 
182 0 0 
173 0 0 
178 0 0 
181 0 0 
183 0 0 
181 0 0 
181 0 0 
182 0 0 
184 0 0 
181 0 0 
183 0 0 
179 0 0 
177 0 0 
181 0 0 
183 0 0 
178 0 0 
182 0 0 
178 0 0 
174 0 0 
178 0 0 
184 0 0 
179 0 0 
176 0 0 
175 0 0 
176 0 0 
180 0 0 
190 0 0 
183 0 0 
178 0 0 
183 0 0 
185 0 0 
180 0 0 
185 0 0 
184 0 0 
186 0 0 
183 0 0 
184 0 0 
183 0 0 
186 0 0 
188 0 0 
183 0 0 
183 0 0 
184 0 0 
186 0 0 
186 0 0 
181 0 0 
183 0 0 
181 0 0 
181 0 0 
191 0 0 
182 0 0 
185 0 0 
177 0 0 
183 0 0 
187 0 0 
183 0 0 
184 0 0 
186 0 0 
181 0 0 
186 0 0 
186 0 0 
186 0 0 
184 0 0 
186 0 0 
179 0 0 
187 0 0 
190 0 0 
178 0 0 
189 0 0 
181 0 0 
182 0 0 
191 0 0 
185 0 0 
183 0 0 
184 0 0 
186 0 0 
186 0 0 
191 0 0 
188 0 0 
187 0 0 
189 0 0 
183 0 0 
185 0 0 
189 0 0 
189 0 0 
185 0 0 
182 0 0 
178 0 0 
188 0 0 
185 0 0 
188 0 0 
188 0 0 
186 0 0 
186 0 0 
179 0 0 
183 0 0 
187 0 0 
188 0 0 
188 0 0 
187 0 0 
188 0 0 
186 0 0 
194 0 0 
186 0 0 
187 0 0 
0 0 181 
0 0 191 
0 0 173 
0 0 167 
0 0 177 
0 0 169 
0 0 167 
0 0 179 
0 0 175 
0 0 179 
0 0 173 
0 0 181 
0 0 165 
0 0 177 
0 0 181 
0 0 175 
0 0 153 
0 0 165 
0 0 188 
0 0 175 
0 0 177 
0 0 177 
0 0 165 
0 0 165 
0 0 167 
0 0 175 
0 0 173 
0 0 173 
0 0 155 
0 0 177 
0 0 153 
0 0 159 
0 0 173 
0 0 179 
0 0 175 
0 0 142 
0 0 169 
0 0 165 
0 0 181 
0 0 167 
0 0 182 
0 0 173 
0 0 173 
0 0 163 
0 0 149 
0 0 179 
0 0 161 
0 0 153 
0 0 157 
0 0 177 
0 0 165 
0 0 171 
0 0 159 
0 0 171 
0 0 161 
0 0 151 
0 0 159 
0 0 157 
0 0 171 
0 0 155 
0 0 167 
0 0 173 
0 0 177 
0 0 155 
0 0 165 
0 0 181 
0 0 182 
0 0 175 
0 0 155 
0 0 142 
0 0 169 
0 0 163 
0 0 171 
0 0 159 
0 0 151 
0 0 163 
0 0 153 
0 0 171 
0 0 159 
0 0 167 
0 0 165 
0 0 175 
0 0 149 
0 0 153 
0 0 161 
0 0 165 
0 0 165 
0 0 186 
0 0 157 
0 0 184 
0 0 184 
0 0 153 
0 0 161 
0 0 167 
0 0 173 
0 0 153 
0 0 151 
0 0 177 
0 0 157 
0 0 149 
0 0 153 
0 0 159 
0 0 161 
0 0 171 
0 0 175 
0 0 149 
0 0 147 
0 0 153 
0 0 144 
0 0 163 
0 0 167 
0 0 151 
0 0 155 
0 0 135 
0 0 165 
0 0 165 
0 0 147 
0 0 147 
0 0 155 
0 0 130 
0 0 153 
0 0 147 
0 0 159 
0 0 157 
0 0 147 
0 0 151 
0 0 135 
0 0 140 
0 0 142 
0 0 147 
0 0 135 
0 0 163 
0 0 128 
0 0 151 
0 0 157 
0 0 140 
0 0 135 
0 0 151 
0 0 163 
0 0 135 
0 0 128 
0 0 142 
0 0 153 
0 0 137 
0 0 144 
0 0 122 
0 0 135 
0 0 147 
0 0 122 
0 0 149 
0 0 144 
0 0 151 
0 0 147 
0 0 130 
0 0 122 
0 0 128 
0 0 137 
0 0 125 
0 0 120 
0 0 130 
0 0 117 
0 0 130 
0 0 125 
0 0 117 
0 0 111 
0 0 113 
0 0 108 
0 0 126 
0 0 114 
0 0 111 
0 0 88 
0 0 113 
0 0 88 
0 0 99 
0 0 74 
0 0 84 
0 0 102 
0 0 88 
0 0 97 
18 20 60 
43 44 0 
39 45 0 
60 59 0 
37 42 0 
56 59 0 
27 32 0 
47 48 0 
32 38 0 
32 38 0 
51 51 0 
48 54 0 
53 57 0 
44 51 0 
35 39 0 
43 48 0 
46 54 0 
53 53 0 
58 63 0 
45 53 0 
60 66 0 
40 38 0 
48 55 0 
61 63 0 
56 52 0 
43 47 0 
48 50 0 
33 41 0 
41 39 0 
57 62 0 
45 50 0 
36 41 0 
57 53 0 
36 32 0 
54 57 0 
64 56 0 
43 44 0 
49 43 0 
56 52 0 
49 48 0 
57 38 0 
93 29 0 
110 0 0 
122 0 0 
132 0 0 
117 0 0 
133 0 0 
122 0 0 
113 0 0 
125 0 0 
136 0 0 
148 0 0 
148 0 0 
144 0 0 
149 0 0 
148 0 0 
155 0 0 
145 0 0 
160 0 0 
146 0 0 
157 0 0 
149 0 0 
154 0 0 
152 0 0 
152 0 0 
154 0 0 
168 0 0 
168 0 0 
150 0 0 
169 0 0 
163 0 0 
170 0 0 
159 0 0 
162 0 0 
161 0 0 
171 0 0 
170 0 0 
165 0 0 
169 0 0 
164 0 0 
171 0 0 
167 0 0 
169 0 0 
158 0 0 
170 0 0 
164 0 0 
171 0 0 
168 0 0 
159 0 0 
165 0 0 
171 0 0 
168 0 0 
164 0 0 
165 0 0 
168 0 0 
175 0 0 
169 0 0 
170 0 0 
167 0 0 
176 0 0 
167 0 0 
170 0 0 
168 0 0 
179 0 0 
172 0 0 
178 0 0 
173 0 0 
180 0 0 
179 0 0 
175 0 0 
178 0 0 
176 0 0 
177 0 0 
169 0 0 
177 0 0 
178 0 0 
178 0 0 
176 0 0 
171 0 0 
175 0 0 
175 0 0 
177 0 0 
179 0 0 
181 0 0 
178 0 0 
186 0 0 
175 0 0 
176 0 0 
175 0 0 
175 0 0 
182 0 0 
176 0 0 
179 0 0 
175 0 0 
180 0 0 
182 0 0 
183 0 0 
180 0 0 
176 0 0 
180 0 0 
181 0 0 
182 0 0 
181 0 0 
179 0 0 
181 0 0 
179 0 0 
169 0 0 
181 0 0 
183 0 0 
180 0 0 
181 0 0 
189 0 0 
184 0 0 
180 0 0 
189 0 0 
185 0 0 
180 0 0 
181 0 0 
176 0 0 
186 0 0 
186 0 0 
186 0 0 
183 0 0 
180 0 0 
179 0 0 
178 0 0 
181 0 0 
181 0 0 
184 0 0 
187 0 0 
188 0 0 
186 0 0 
183 0 0 
185 0 0 
185 0 0 
183 0 0 
186 0 0 
184 0 0 
182 0 0 
186 0 0 
181 0 0 
182 0 0 
183 0 0 
186 0 0 
186 0 0 
182 0 0 
185 0 0 
185 0 0 
182 0 0 
192 0 0 
183 0 0 
182 0 0 
181 0 0 
184 0 0 
186 0 0 
184 0 0 
182 0 0 
186 0 0 
185 0 0 
182 0 0 
187 0 0 
186 0 0 
187 0 0 
186 0 0 
190 0 0 
179 0 0 
189 0 0 
185 0 0 
187 0 0 
188 0 0 
191 0 0 
184 0 0 
186 0 0 
186 0 0 
186 0 0 
181 0 0 
189 0 0 
187 0 0 
190 0 0 
184 0 0 
189 0 0 
0 0 165 
0 0 169 
0 0 169 
0 0 155 
0 0 163 
0 0 153 
0 0 182 
0 0 165 
0 0 165 
0 0 157 
0 0 142 
0 0 171 
0 0 182 
0 0 157 
0 0 173 
0 0 181 
0 0 153 
0 0 159 
0 0 184 
0 0 167 
0 0 157 
0 0 151 
0 0 173 
0 0 151 
0 0 161 
0 0 161 
0 0 163 
0 0 179 
0 0 157 
0 0 157 
0 0 169 
0 0 163 
0 0 189 
0 0 169 
0 0 179 
0 0 151 
0 0 177 
0 0 165 
0 0 169 
0 0 161 
0 0 153 
0 0 159 
0 0 173 
0 0 167 
0 0 161 
0 0 147 
0 0 165 
0 0 161 
0 0 151 
0 0 186 
0 0 163 
0 0 161 
0 0 161 
0 0 173 
0 0 153 
0 0 159 
0 0 155 
0 0 155 
0 0 149 
0 0 153 
0 0 165 
0 0 163 
0 0 165 
0 0 163 
0 0 153 
0 0 171 
0 0 147 
0 0 161 
0 0 171 
0 0 171 
0 0 175 
0 0 173 
0 0 167 
0 0 163 
0 0 184 
0 0 153 
0 0 163 
0 0 157 
0 0 171 
0 0 144 
0 0 169 
0 0 179 
0 0 161 
0 0 169 
0 0 140 
0 0 167 
0 0 171 
0 0 171 
0 0 153 
0 0 147 
0 0 157 
0 0 165 
0 0 157 
0 0 173 
0 0 169 
0 0 151 
0 0 149 
0 0 169 
0 0 140 
0 0 151 
0 0 157 
0 0 155 
0 0 142 
0 0 181 
0 0 179 
0 0 165 
0 0 159 
0 0 151 
0 0 155 
0 0 173 
0 0 142 
0 0 142 
0 0 159 
0 0 135 
0 0 169 
0 0 173 
0 0 151 
0 0 161 
0 0 147 
0 0 161 
0 0 144 
0 0 157 
0 0 140 
0 0 125 
0 0 130 
0 0 157 
0 0 155 
0 0 157 
0 0 149 
0 0 137 
0 0 137 
0 0 163 
0 0 155 
0 0 155 
0 0 147 
0 0 140 
0 0 135 
0 0 130 
0 0 137 
0 0 149 
0 0 142 
0 0 147 
0 0 130 
0 0 130 
0 0 157 
0 0 151 
0 0 114 
0 0 133 
0 0 149 
0 0 128 
0 0 120 
0 0 128 
0 0 130 
0 0 130 
0 0 125 
0 0 128 
0 0 122 
0 0 145 
0 0 120 
0 0 117 
0 0 128 
0 0 135 
0 0 135 
0 0 111 
0 0 120 
0 0 114 
0 0 114 
0 0 115 
0 0 105 
0 0 125 
0 0 72 
0 0 88 
0 0 82 
0 0 111 
0 0 82 
0 0 78 
0 0 88 
0 0 86 
5 8 57 
38 43 0 
49 50 0 
52 56 0 
57 56 0 
34 40 0 
49 53 0 
53 62 0 
48 55 0 
49 52 0 
43 51 0 
41 45 0 
58 58 0 
54 61 0 
34 40 0 
56 62 0 
48 51 0 
60 69 0 
46 47 0 
54 61 0 
40 42 0 
42 42 0 
52 57 0 
47 50 0 
56 60 0 
42 51 0 
61 70 0 
61 67 0 
59 60 0 
49 50 0 
44 48 0 
43 41 0 
51 51 0 
58 51 0 
50 44 0 
49 36 0 
60 56 0 
52 33 0 
57 44 0 
61 53 0 
67 44 0 
48 35 0 
50 37 0 
106 0 0 
114 0 0 
121 0 0 
120 0 0 
117 0 0 
132 0 0 
128 0 0 
141 0 0 
143 0 0 
126 0 0 
147 0 0 
147 0 0 
149 0 0 
148 0 0 
145 0 0 
147 0 0 
145 0 0 
137 0 0 
157 0 0 
151 0 0 
156 0 0 
160 0 0 
148 0 0 
157 0 0 
156 0 0 
159 0 0 
166 0 0 
164 0 0 
158 0 0 
158 0 0 
161 0 0 
157 0 0 
151 0 0 
160 0 0 
170 0 0 
167 0 0 
172 0 0 
163 0 0 
172 0 0 
167 0 0 
170 0 0 
167 0 0 
158 0 0 
167 0 0 
176 0 0 
174 0 0 
173 0 0 
173 0 0 
172 0 0 
172 0 0 
168 0 0 
173 0 0 
168 0 0 
172 0 0 
173 0 0 
174 0 0 
170 0 0 
173 0 0 
175 0 0 
168 0 0 
180 0 0 
173 0 0 
177 0 0 
176 0 0 
173 0 0 
176 0 0 
169 0 0 
176 0 0 
183 0 0 
164 0 0 
175 0 0 
177 0 0 
172 0 0 
177 0 0 
176 0 0 
177 0 0 
183 0 0 
179 0 0 
179 0 0 
177 0 0 
179 0 0 
175 0 0 
175 0 0 
181 0 0 
182 0 0 
174 0 0 
180 0 0 
179 0 0 
181 0 0 
177 0 0 
183 0 0 
176 0 0 
185 0 0 
176 0 0 
182 0 0 
179 0 0 
185 0 0 
176 0 0 
177 0 0 
178 0 0 
175 0 0 
182 0 0 
178 0 0 
187 0 0 
178 0 0 
179 0 0 
184 0 0 
177 0 0 
183 0 0 
182 0 0 
179 0 0 
178 0 0 
189 0 0 
182 0 0 
179 0 0 
182 0 0 
182 0 0 
184 0 0 
185 0 0 
185 0 0 
183 0 0 
184 0 0 
184 0 0 
178 0 0 
186 0 0 
183 0 0 
189 0 0 
184 0 0 
182 0 0 
187 0 0 
187 0 0 
180 0 0 
191 0 0 
188 0 0 
181 0 0 
187 0 0 
185 0 0 
184 0 0 
178 0 0 
186 0 0 
187 0 0 
187 0 0 
181 0 0 
184 0 0 
184 0 0 
183 0 0 
187 0 0 
186 0 0 
192 0 0 
187 0 0 
183 0 0 
189 0 0 
190 0 0 
183 0 0 
184 0 0 
188 0 0 
181 0 0 
187 0 0 
184 0 0 
187 0 0 
186 0 0 
184 0 0 
182 0 0 
185 0 0 
185 0 0 
188 0 0 
191 0 0 
186 0 0 
186 0 0 
189 0 0 
182 0 0 
186 0 0 
192 0 0 
182 0 0 
193 0 0 
183 0 0 
188 0 0 
187 0 0 
190 0 0 
0 0 171 
0 0 157 
0 0 167 
0 0 188 
0 0 169 
0 0 169 
0 0 163 
0 0 181 
0 0 171 
0 0 177 
0 0 191 
0 0 144 
0 0 175 
0 0 163 
0 0 167 
0 0 181 
0 0 182 
0 0 165 
0 0 161 
0 0 165 
0 0 171 
0 0 163 
0 0 159 
0 0 181 
0 0 157 
0 0 167 
0 0 179 
0 0 165 
0 0 175 
0 0 167 
0 0 171 
0 0 169 
0 0 165 
0 0 169 
0 0 181 
0 0 163 
0 0 179 
0 0 137 
0 0 171 
0 0 177 
0 0 169 
0 0 167 
0 0 177 
0 0 171 
0 0 157 
0 0 163 
0 0 151 
0 0 153 
0 0 159 
0 0 169 
0 0 179 
0 0 153 
0 0 144 
0 0 161 
0 0 169 
0 0 159 
0 0 171 
0 0 153 
0 0 144 
0 0 171 
0 0 188 
0 0 159 
0 0 169 
0 0 157 
0 0 155 
0 0 182 
0 0 165 
0 0 171 
0 0 171 
0 0 159 
0 0 163 
0 0 167 
0 0 147 
0 0 165 
0 0 137 
0 0 167 
0 0 159 
0 0 175 
0 0 157 
0 0 157 
0 0 182 
0 0 182 
0 0 157 
0 0 161 
0 0 149 
0 0 153 
0 0 155 
0 0 147 
0 0 149 
0 0 159 
0 0 165 
0 0 167 
0 0 159 
0 0 140 
0 0 147 
0 0 144 
0 0 153 
0 0 155 
0 0 163 
0 0 163 
0 0 149 
0 0 155 
0 0 167 
0 0 149 
0 0 147 
0 0 155 
0 0 147 
0 0 159 
0 0 153 
0 0 155 
0 0 153 
0 0 142 
0 0 157 
0 0 149 
0 0 161 
0 0 151 
0 0 163 
0 0 167 
0 0 144 
0 0 144 
0 0 157 
0 0 155 
0 0 149 
0 0 135 
0 0 153 
0 0 140 
0 0 153 
0 0 147 
0 0 130 
0 0 122 
0 0 140 
0 0 149 
0 0 120 
0 0 147 
0 0 153 
0 0 133 
0 0 137 
0 0 149 
0 0 128 
0 0 153 
0 0 151 
0 0 144 
0 0 137 
0 0 128 
0 0 135 
0 0 135 
0 0 140 
0 0 142 
0 0 133 
0 0 125 
0 0 155 
0 0 137 
0 0 135 
0 0 135 
0 0 124 
0 0 122 
0 0 141 
0 0 125 
0 0 108 
0 0 111 
0 0 95 
0 0 117 
0 0 122 
0 0 122 
0 0 120 
0 0 129 
0 0 95 
0 0 111 
0 0 102 
0 0 113 
0 0 114 
0 0 97 
0 0 92 
0 0 82 
0 0 95 
0 0 80 
0 0 92 
0 0 62 
41 43 0 
46 51 0 
41 38 0 
51 55 0 
46 45 0 
56 53 0 
49 49 0 
59 64 0 
54 62 0 
59 69 0 
40 39 0 
59 60 0 
54 63 0 
57 65 0 
72 79 0 
47 51 0 
56 61 0 
44 47 0 
58 62 0 
57 56 0 
61 69 0 
63 74 0 
55 64 0 
66 68 0 
66 68 0 
66 77 0 
64 72 0 
56 57 0 
70 76 0 
64 66 0 
60 58 0 
60 66 0 
56 52 0 
64 55 0 
76 68 0 
50 39 0 
55 45 0 
61 43 0 
64 49 0 
54 48 0 
54 34 0 
71 64 0 
62 47 0 
79 31 0 
112 0 0 
119 0 0 
111 0 0 
128 0 0 
129 0 0 
131 0 0 
129 0 0 
131 0 0 
141 0 0 
140 0 0 
150 0 0 
154 0 0 
140 0 0 
151 0 0 
136 0 0 
141 0 0 
147 0 0 
154 0 0 
157 0 0 
157 0 0 
153 0 0 
154 0 0 
157 0 0 
155 0 0 
165 0 0 
156 0 0 
161 0 0 
151 0 0 
151 0 0 
154 0 0 
159 0 0 
163 0 0 
174 0 0 
160 0 0 
167 0 0 
161 0 0 
166 0 0 
169 0 0 
168 0 0 
163 0 0 
162 0 0 
167 0 0 
167 0 0 
166 0 0 
175 0 0 
168 0 0 
174 0 0 
170 0 0 
163 0 0 
170 0 0 
173 0 0 
169 0 0 
169 0 0 
175 0 0 
177 0 0 
178 0 0 
168 0 0 
177 0 0 
179 0 0 
168 0 0 
172 0 0 
172 0 0 
180 0 0 
173 0 0 
175 0 0 
183 0 0 
177 0 0 
173 0 0 
169 0 0 
179 0 0 
176 0 0 
179 0 0 
179 0 0 
169 0 0 
177 0 0 
182 0 0 
175 0 0 
175 0 0 
179 0 0 
181 0 0 
176 0 0 
178 0 0 
176 0 0 
176 0 0 
174 0 0 
180 0 0 
183 0 0 
182 0 0 
179 0 0 
178 0 0 
183 0 0 
176 0 0 
184 0 0 
181 0 0 
183 0 0 
180 0 0 
176 0 0 
178 0 0 
179 0 0 
182 0 0 
183 0 0 
176 0 0 
184 0 0 
180 0 0 
175 0 0 
181 0 0 
180 0 0 
176 0 0 
180 0 0 
185 0 0 
182 0 0 
187 0 0 
179 0 0 
179 0 0 
187 0 0 
179 0 0 
183 0 0 
184 0 0 
183 0 0 
182 0 0 
182 0 0 
182 0 0 
179 0 0 
187 0 0 
183 0 0 
179 0 0 
179 0 0 
184 0 0 
184 0 0 
179 0 0 
187 0 0 
183 0 0 
182 0 0 
184 0 0 
183 0 0 
188 0 0 
185 0 0 
182 0 0 
183 0 0 
182 0 0 
181 0 0 
183 0 0 
184 0 0 
186 0 0 
187 0 0 
188 0 0 
192 0 0 
183 0 0 
185 0 0 
188 0 0 
189 0 0 
184 0 0 
183 0 0 
187 0 0 
179 0 0 
185 0 0 
185 0 0 
181 0 0 
184 0 0 
185 0 0 
188 0 0 
187 0 0 
181 0 0 
189 0 0 
182 0 0 
185 0 0 
185 0 0 
183 0 0 
187 0 0 
186 0 0 
179 0 0 
186 0 0 
185 0 0 
187 0 0 
187 0 0 
184 0 0 
190 0 0 
187 0 0 
0 0 155 
0 0 163 
0 0 169 
0 0 173 
0 0 179 
0 0 167 
0 0 165 
0 0 167 
0 0 173 
0 0 149 
0 0 167 
0 0 171 
0 0 189 
0 0 155 
0 0 189 
0 0 159 
0 0 175 
0 0 165 
0 0 171 
0 0 167 
0 0 153 
0 0 163 
0 0 175 
0 0 169 
0 0 165 
0 0 167 
0 0 159 
0 0 177 
0 0 155 
0 0 165 
0 0 173 
0 0 167 
0 0 179 
0 0 135 
0 0 173 
0 0 182 
0 0 157 
0 0 169 
0 0 182 
0 0 169 
0 0 147 
0 0 171 
0 0 155 
0 0 165 
0 0 167 
0 0 167 
0 0 161 
0 0 157 
0 0 159 
0 0 175 
0 0 171 
0 0 173 
0 0 173 
0 0 159 
0 0 165 
0 0 151 
0 0 173 
0 0 165 
0 0 157 
0 0 157 
0 0 159 
0 0 161 
0 0 173 
0 0 161 
0 0 144 
0 0 161 
0 0 182 
0 0 165 
0 0 169 
0 0 153 
0 0 153 
0 0 151 
0 0 169 
0 0 151 
0 0 163 
0 0 175 
0 0 159 
0 0 167 
0 0 167 
0 0 147 
0 0 169 
0 0 151 
0 0 182 
0 0 147 
0 0 179 
0 0 155 
0 0 161 
0 0 147 
0 0 135 
0 0 171 
0 0 147 
0 0 161 
0 0 133 
0 0 153 
0 0 153 
0 0 159 
0 0 142 
0 0 140 
0 0 144 
0 0 163 
0 0 144 
0 0 151 
0 0 147 
0 0 142 
0 0 151 
0 0 161 
0 0 155 
0 0 151 
0 0 142 
0 0 163 
0 0 155 
0 0 153 
0 0 159 
0 0 144 
0 0 133 
0 0 153 
0 0 163 
0 0 155 
0 0 149 
0 0 140 
0 0 159 
0 0 140 
0 0 155 
0 0 153 
0 0 133 
0 0 142 
0 0 155 
0 0 130 
0 0 157 
0 0 159 
0 0 142 
0 0 133 
0 0 147 
0 0 147 
0 0 135 
0 0 125 
0 0 151 
0 0 120 
0 0 130 
0 0 140 
0 0 142 
0 0 149 
0 0 140 
0 0 149 
0 0 130 
0 0 140 
0 0 125 
0 0 122 
0 0 151 
0 0 140 
0 0 135 
0 0 133 
0 0 122 
0 0 135 
0 0 114 
0 0 128 
0 0 120 
0 0 111 
0 0 130 
0 0 114 
0 0 122 
0 0 128 
0 0 122 
0 0 92 
0 0 122 
0 0 102 
0 0 117 
0 0 78 
0 0 113 
0 0 84 
0 0 113 
0 0 99 
0 0 99 
0 0 80 
0 0 88 
0 0 92 
0 0 74 
40 42 18 
57 64 0 
45 43 0 
52 44 0 
57 62 0 
55 50 0 
55 61 0 
54 62 0 
59 61 0 
73 83 0 
55 62 0 
54 57 0 
66 57 0 
57 62 0 
50 50 0 
49 53 0 
53 59 0 
47 50 0 
83 92 0 
62 68 0 
59 59 0 
58 51 0 
59 65 0 
68 64 0 
65 68 0 
67 74 0 
69 64 0 
52 57 0 
81 86 0 
55 58 0 
64 65 0 
68 69 0 
78 82 0 
70 71 0 
63 62 0 
68 64 0 
51 45 0 
54 38 0 
58 40 0 
79 55 0 
79 68 0 
60 31 0 
59 44 0 
73 48 0 
69 30 0 
81 36 0 
92 0 0 
129 0 0 
116 0 0 
129 0 0 
126 0 0 
126 0 0 
144 0 0 
138 0 0 
131 0 0 
141 0 0 
143 0 0 
141 0 0 
150 0 0 
143 0 0 
147 0 0 
149 0 0 
151 0 0 
154 0 0 
152 0 0 
152 0 0 
158 0 0 
152 0 0 
161 0 0 
161 0 0 
151 0 0 
153 0 0 
153 0 0 
160 0 0 
148 0 0 
172 0 0 
169 0 0 
159 0 0 
149 0 0 
169 0 0 
166 0 0 
167 0 0 
160 0 0 
168 0 0 
170 0 0 
162 0 0 
172 0 0 
164 0 0 
165 0 0 
160 0 0 
171 0 0 
164 0 0 
163 0 0 
172 0 0 
169 0 0 
169 0 0 
168 0 0 
163 0 0 
171 0 0 
177 0 0 
168 0 0 
170 0 0 
172 0 0 
171 0 0 
171 0 0 
178 0 0 
169 0 0 
175 0 0 
177 0 0 
174 0 0 
176 0 0 
176 0 0 
176 0 0 
170 0 0 
174 0 0 
165 0 0 
176 0 0 
183 0 0 
180 0 0 
179 0 0 
173 0 0 
177 0 0 
177 0 0 
181 0 0 
183 0 0 
175 0 0 
182 0 0 
177 0 0 
176 0 0 
182 0 0 
173 0 0 
184 0 0 
181 0 0 
183 0 0 
179 0 0 
185 0 0 
181 0 0 
185 0 0 
179 0 0 
172 0 0 
178 0 0 
184 0 0 
182 0 0 
186 0 0 
176 0 0 
185 0 0 
175 0 0 
181 0 0 
175 0 0 
187 0 0 
180 0 0 
183 0 0 
186 0 0 
183 0 0 
187 0 0 
177 0 0 
182 0 0 
180 0 0 
184 0 0 
185 0 0 
179 0 0 
182 0 0 
184 0 0 
185 0 0 
188 0 0 
184 0 0 
185 0 0 
189 0 0 
182 0 0 
184 0 0 
186 0 0 
180 0 0 
184 0 0 
187 0 0 
180 0 0 
187 0 0 
189 0 0 
185 0 0 
188 0 0 
188 0 0 
184 0 0 
187 0 0 
185 0 0 
188 0 0 
187 0 0 
182 0 0 
190 0 0 
183 0 0 
184 0 0 
184 0 0 
183 0 0 
187 0 0 
181 0 0 
182 0 0 
188 0 0 
184 0 0 
188 0 0 
187 0 0 
187 0 0 
186 0 0 
187 0 0 
190 0 0 
189 0 0 
187 0 0 
189 0 0 
187 0 0 
182 0 0 
186 0 0 
188 0 0 
190 0 0 
185 0 0 
184 0 0 
186 0 0 
183 0 0 
187 0 0 
188 0 0 
184 0 0 
187 0 0 
185 0 0 
183 0 0 
187 0 0 
185 0 0 
186 0 0 
0 0 159 
0 0 147 
0 0 179 
0 0 159 
0 0 157 
0 0 177 
0 0 161 
0 0 163 
0 0 163 
0 0 153 
0 0 181 
0 0 181 
0 0 184 
0 0 157 
0 0 171 
0 0 165 
0 0 163 
0 0 171 
0 0 159 
0 0 163 
0 0 167 
0 0 179 
0 0 161 
0 0 153 
0 0 155 
0 0 151 
0 0 153 
0 0 161 
0 0 169 
0 0 175 
0 0 179 
0 0 169 
0 0 161 
0 0 181 
0 0 163 
0 0 165 
0 0 159 
0 0 161 
0 0 173 
0 0 161 
0 0 171 
0 0 173 
0 0 175 
0 0 179 
0 0 177 
0 0 165 
0 0 135 
0 0 159 
0 0 135 
0 0 169 
0 0 163 
0 0 167 
0 0 157 
0 0 165 
0 0 163 
0 0 167 
0 0 165 
0 0 165 
0 0 171 
0 0 153 
0 0 161 
0 0 167 
0 0 173 
0 0 165 
0 0 147 
0 0 163 
0 0 169 
0 0 173 
0 0 175 
0 0 153 
0 0 163 
0 0 163 
0 0 163 
0 0 165 
0 0 147 
0 0 165 
0 0 149 
0 0 165 
0 0 161 
0 0 155 
0 0 149 
0 0 147 
0 0 153 
0 0 157 
0 0 157 
0 0 171 
0 0 173 
0 0 161 
0 0 153 
0 0 157 
0 0 165 
0 0 155 
0 0 153 
0 0 157 
0 0 155 
0 0 169 
0 0 149 
0 0 167 
0 0 161 
0 0 153 
0 0 163 
0 0 144 
0 0 151 
0 0 157 
0 0 173 
0 0 153 
0 0 157 
0 0 165 
0 0 155 
0 0 153 
0 0 155 
0 0 153 
0 0 161 
0 0 175 
0 0 175 
0 0 142 
0 0 140 
0 0 140 
0 0 142 
0 0 157 
0 0 151 
0 0 142 
0 0 161 
0 0 155 
0 0 151 
0 0 140 
0 0 163 
0 0 108 
0 0 153 
0 0 125 
0 0 140 
0 0 135 
0 0 144 
0 0 149 
0 0 140 
0 0 144 
0 0 135 
0 0 137 
0 0 137 
0 0 122 
0 0 130 
0 0 140 
0 0 128 
0 0 130 
0 0 125 
0 0 128 
0 0 140 
0 0 140 
0 0 151 
0 0 140 
0 0 133 
0 0 137 
0 0 130 
0 0 130 
0 0 128 
0 0 102 
0 0 122 
0 0 137 
0 0 105 
0 0 133 
0 0 122 
0 0 134 
0 0 117 
0 0 108 
0 0 105 
0 0 122 
0 0 92 
0 0 90 
0 0 99 
0 0 90 
0 0 76 
0 0 99 
0 0 78 
0 0 62 
0 0 78 
0 0 80 
25 29 44 
43 41 0 
57 51 0 
44 37 0 
45 47 0 
58 59 0 
50 57 0 
52 55 0 
59 66 0 
60 56 0 
63 64 0 
61 66 0 
54 60 0 
65 75 0 
64 71 0 
62 71 0 
61 69 0 
70 78 0 
68 73 0 
68 72 0 
55 55 0 
54 62 0 
50 48 0 
64 67 0 
57 58 0 
68 73 0 
75 78 0 
76 75 0 
73 73 0 
77 81 0 
67 71 0 
57 54 0 
67 58 0 
66 69 0 
65 67 0 
74 63 0 
53 45 0 
76 64 0 
59 48 0 
74 67 0 
68 65 0 
65 53 0 
57 45 0 
74 43 0 
86 43 0 
69 46 0 
60 37 0 
87 47 0 
102 0 0 
118 0 0 
127 0 0 
123 0 0 
123 0 0 
147 0 0 
130 0 0 
142 0 0 
148 0 0 
144 0 0 
138 0 0 
133 0 0 
149 0 0 
149 0 0 
144 0 0 
160 0 0 
146 0 0 
154 0 0 
150 0 0 
156 0 0 
152 0 0 
145 0 0 
159 0 0 
155 0 0 
159 0 0 
154 0 0 
164 0 0 
152 0 0 
154 0 0 
164 0 0 
159 0 0 
166 0 0 
165 0 0 
170 0 0 
163 0 0 
169 0 0 
168 0 0 
161 0 0 
173 0 0 
154 0 0 
161 0 0 
164 0 0 
174 0 0 
168 0 0 
172 0 0 
170 0 0 
165 0 0 
167 0 0 
166 0 0 
165 0 0 
175 0 0 
166 0 0 
176 0 0 
175 0 0 
168 0 0 
175 0 0 
179 0 0 
174 0 0 
174 0 0 
177 0 0 
176 0 0 
170 0 0 
177 0 0 
172 0 0 
177 0 0 
172 0 0 
170 0 0 
171 0 0 
176 0 0 
176 0 0 
178 0 0 
175 0 0 
178 0 0 
177 0 0 
167 0 0 
174 0 0 
177 0 0 
180 0 0 
180 0 0 
179 0 0 
178 0 0 
175 0 0 
173 0 0 
185 0 0 
181 0 0 
173 0 0 
185 0 0 
180 0 0 
184 0 0 
186 0 0 
184 0 0 
180 0 0 
178 0 0 
186 0 0 
182 0 0 
180 0 0 
182 0 0 
177 0 0 
176 0 0 
187 0 0 
179 0 0 
176 0 0 
183 0 0 
184 0 0 
179 0 0 
180 0 0 
178 0 0 
185 0 0 
181 0 0 
186 0 0 
175 0 0 
176 0 0 
179 0 0 
179 0 0 
184 0 0 
179 0 0 
182 0 0 
183 0 0 
182 0 0 
180 0 0 
185 0 0 
179 0 0 
188 0 0 
177 0 0 
186 0 0 
188 0 0 
182 0 0 
183 0 0 
185 0 0 
189 0 0 
186 0 0 
180 0 0 
188 0 0 
179 0 0 
188 0 0 
182 0 0 
183 0 0 
183 0 0 
182 0 0 
182 0 0 
189 0 0 
184 0 0 
183 0 0 
188 0 0 
189 0 0 
187 0 0 
190 0 0 
181 0 0 
183 0 0 
184 0 0 
190 0 0 
189 0 0 
186 0 0 
188 0 0 
182 0 0 
184 0 0 
178 0 0 
189 0 0 
189 0 0 
184 0 0 
185 0 0 
183 0 0 
187 0 0 
188 0 0 
184 0 0 
187 0 0 
188 0 0 
184 0 0 
182 0 0 
184 0 0 
184 0 0 
188 0 0 
185 0 0 
185 0 0 
186 0 0 
183 0 0 
0 0 155 
0 0 165 
0 0 186 
0 0 175 
0 0 169 
0 0 175 
0 0 175 
0 0 159 
0 0 157 
0 0 165 
0 0 163 
0 0 159 
0 0 161 
0 0 157 
0 0 175 
0 0 165 
0 0 169 
0 0 151 
0 0 167 
0 0 163 
0 0 173 
0 0 165 
0 0 163 
0 0 169 
0 0 151 
0 0 163 
0 0 165 
0 0 165 
0 0 186 
0 0 173 
0 0 171 
0 0 177 
0 0 147 
0 0 157 
0 0 169 
0 0 173 
0 0 159 
0 0 175 
0 0 171 
0 0 165 
0 0 179 
0 0 169 
0 0 167 
0 0 165 
0 0 144 
0 0 144 
0 0 137 
0 0 173 
0 0 159 
0 0 167 
0 0 181 
0 0 175 
0 0 155 
0 0 161 
0 0 155 
0 0 165 
0 0 144 
0 0 167 
0 0 159 
0 0 155 
0 0 173 
0 0 167 
0 0 159 
0 0 165 
0 0 157 
0 0 165 
0 0 159 
0 0 155 
0 0 167 
0 0 161 
0 0 161 
0 0 177 
0 0 155 
0 0 175 
0 0 163 
0 0 140 
0 0 157 
0 0 151 
0 0 161 
0 0 144 
0 0 165 
0 0 157 
0 0 155 
0 0 159 
0 0 169 
0 0 161 
0 0 167 
0 0 151 
0 0 161 
0 0 161 
0 0 151 
0 0 161 
0 0 163 
0 0 155 
0 0 159 
0 0 149 
0 0 144 
0 0 155 
0 0 149 
0 0 151 
0 0 151 
0 0 137 
0 0 157 
0 0 169 
0 0 135 
0 0 142 
0 0 167 
0 0 157 
0 0 159 
0 0 167 
0 0 149 
0 0 144 
0 0 151 
0 0 155 
0 0 161 
0 0 147 
0 0 140 
0 0 151 
0 0 142 
0 0 130 
0 0 169 
0 0 128 
0 0 144 
0 0 149 
0 0 149 
0 0 149 
0 0 137 
0 0 155 
0 0 142 
0 0 144 
0 0 128 
0 0 142 
0 0 142 
0 0 137 
0 0 142 
0 0 135 
0 0 144 
0 0 163 
0 0 140 
0 0 114 
0 0 140 
0 0 130 
0 0 128 
0 0 135 
0 0 135 
0 0 128 
0 0 141 
0 0 128 
0 0 122 
0 0 142 
0 0 135 
0 0 133 
0 0 120 
0 0 111 
0 0 102 
0 0 114 
0 0 114 
0 0 102 
0 0 108 
0 0 114 
0 0 120 
0 0 129 
0 0 120 
0 0 140 
0 0 128 
0 0 131 
0 0 108 
0 0 95 
0 0 107 
0 0 92 
0 0 108 
0 0 72 
0 0 80 
0 0 80 
0 0 80 
39 27 36 
56 58 0 
69 71 0 
50 52 0 
34 40 0 
41 38 0 
62 64 0 
49 57 0 
52 54 0 
51 56 0 
67 73 0 
48 54 0 
55 61 0 
56 63 0 
69 74 0 
57 56 0 
62 61 0 
76 79 0 
56 56 0 
58 62 0 
53 54 0 
63 63 0 
76 80 0 
84 86 0 
70 81 0 
61 66 0 
75 80 0 
73 78 0 
64 65 0 
76 76 0 
76 70 0 
70 75 0 
60 66 0 
70 53 0 
63 65 0 
69 62 0 
71 57 0 
78 72 0 
73 67 0 
77 64 0 
68 67 0 
61 42 0 
69 55 0 
74 51 0 
75 57 0 
88 71 0 
76 47 0 
83 47 0 
83 68 0 
78 28 0 
117 0 0 
122 0 0 
119 0 0 
115 0 0 
139 0 0 
134 0 0 
148 0 0 
139 0 0 
139 0 0 
146 0 0 
144 0 0 
145 0 0 
140 0 0 
137 0 0 
141 0 0 
153 0 0 
154 0 0 
148 0 0 
154 0 0 
154 0 0 
153 0 0 
155 0 0 
155 0 0 
154 0 0 
164 0 0 
166 0 0 
161 0 0 
162 0 0 
164 0 0 
152 0 0 
161 0 0 
167 0 0 
165 0 0 
168 0 0 
168 0 0 
172 0 0 
170 0 0 
162 0 0 
165 0 0 
164 0 0 
167 0 0 
166 0 0 
162 0 0 
166 0 0 
164 0 0 
164 0 0 
160 0 0 
173 0 0 
174 0 0 
171 0 0 
177 0 0 
169 0 0 
166 0 0 
165 0 0 
177 0 0 
171 0 0 
174 0 0 
171 0 0 
173 0 0 
176 0 0 
175 0 0 
170 0 0 
161 0 0 
174 0 0 
180 0 0 
167 0 0 
173 0 0 
177 0 0 
180 0 0 
177 0 0 
179 0 0 
183 0 0 
177 0 0 
178 0 0 
168 0 0 
178 0 0 
179 0 0 
178 0 0 
178 0 0 
175 0 0 
181 0 0 
180 0 0 
180 0 0 
169 0 0 
180 0 0 
181 0 0 
173 0 0 
180 0 0 
185 0 0 
175 0 0 
173 0 0 
179 0 0 
184 0 0 
179 0 0 
179 0 0 
178 0 0 
178 0 0 
184 0 0 
182 0 0 
178 0 0 
183 0 0 
173 0 0 
184 0 0 
181 0 0 
181 0 0 
184 0 0 
186 0 0 
182 0 0 
181 0 0 
181 0 0 
181 0 0 
183 0 0 
179 0 0 
182 0 0 
189 0 0 
178 0 0 
185 0 0 
184 0 0 
182 0 0 
183 0 0 
186 0 0 
182 0 0 
184 0 0 
181 0 0 
176 0 0 
183 0 0 
186 0 0 
186 0 0 
184 0 0 
182 0 0 
190 0 0 
183 0 0 
181 0 0 
190 0 0 
186 0 0 
185 0 0 
182 0 0 
183 0 0 
184 0 0 
178 0 0 
184 0 0 
182 0 0 
188 0 0 
189 0 0 
182 0 0 
188 0 0 
184 0 0 
184 0 0 
188 0 0 
184 0 0 
187 0 0 
188 0 0 
183 0 0 
187 0 0 
182 0 0 
182 0 0 
189 0 0 
183 0 0 
188 0 0 
186 0 0 
181 0 0 
185 0 0 
190 0 0 
185 0 0 
189 0 0 
188 0 0 
181 0 0 
182 0 0 
185 0 0 
184 0 0 
185 0 0 
188 0 0 
187 0 0 
187 0 0 
187 0 0 
0 0 173 
0 0 179 
0 0 169 
0 0 159 
0 0 189 
0 0 165 
0 0 153 
0 0 159 
0 0 191 
0 0 175 
0 0 171 
0 0 181 
0 0 167 
0 0 167 
0 0 169 
0 0 157 
0 0 161 
0 0 169 
0 0 177 
0 0 175 
0 0 159 
0 0 155 
0 0 161 
0 0 189 
0 0 149 
0 0 163 
0 0 151 
0 0 173 
0 0 149 
0 0 175 
0 0 167 
0 0 157 
0 0 161 
0 0 135 
0 0 171 
0 0 163 
0 0 169 
0 0 161 
0 0 165 
0 0 165 
0 0 161 
0 0 167 
0 0 157 
0 0 157 
0 0 173 
0 0 151 
0 0 186 
0 0 161 
0 0 165 
0 0 171 
0 0 163 
0 0 167 
0 0 163 
0 0 169 
0 0 165 
0 0 159 
0 0 167 
0 0 167 
0 0 165 
0 0 173 
0 0 165 
0 0 161 
0 0 161 
0 0 159 
0 0 157 
0 0 155 
0 0 165 
0 0 153 
0 0 175 
0 0 173 
0 0 157 
0 0 151 
0 0 167 
0 0 159 
0 0 161 
0 0 157 
0 0 167 
0 0 144 
0 0 175 
0 0 169 
0 0 169 
0 0 157 
0 0 155 
0 0 165 
0 0 159 
0 0 147 
0 0 142 
0 0 157 
0 0 157 
0 0 165 
0 0 157 
0 0 167 
0 0 133 
0 0 147 
0 0 155 
0 0 153 
0 0 153 
0 0 153 
0 0 171 
0 0 153 
0 0 153 
0 0 153 
0 0 130 
0 0 151 
0 0 147 
0 0 167 
0 0 155 
0 0 159 
0 0 153 
0 0 155 
0 0 140 
0 0 161 
0 0 151 
0 0 142 
0 0 149 
0 0 151 
0 0 137 
0 0 151 
0 0 151 
0 0 140 
0 0 153 
0 0 144 
0 0 137 
0 0 155 
0 0 144 
0 0 147 
0 0 149 
0 0 155 
0 0 142 
0 0 140 
0 0 159 
0 0 117 
0 0 125 
0 0 140 
0 0 159 
0 0 151 
0 0 144 
0 0 137 
0 0 135 
0 0 133 
0 0 135 
0 0 137 
0 0 157 
0 0 105 
0 0 117 
0 0 118 
0 0 153 
0 0 139 
0 0 137 
0 0 130 
0 0 105 
0 0 133 
0 0 122 
0 0 102 
0 0 120 
0 0 133 
0 0 120 
0 0 125 
0 0 108 
0 0 108 
0 0 110 
0 0 108 
0 0 124 
0 0 114 
0 0 105 
0 0 111 
0 0 111 
0 0 92 
0 0 107 
0 0 72 
0 0 92 
0 0 105 
0 0 97 
0 0 57 
4 7 51 
33 39 0 
58 64 0 
50 51 0 
44 46 0 
64 71 0 
46 47 0 
46 45 0 
71 68 0 
68 70 0 
60 68 0 
61 68 0 
57 65 0 
57 63 0 
62 65 0 
64 72 0 
78 84 0 
60 68 0 
78 83 0 
73 71 0 
63 63 0 
61 66 0 
56 59 0 
67 69 0 
72 81 0 
78 76 0 
69 66 0 
74 78 0 
62 54 0 
75 69 0 
74 81 0 
73 65 0 
78 75 0 
89 86 0 
82 77 0 
69 70 0 
68 67 0 
76 71 0 
77 70 0 
85 69 0 
67 55 0 
86 74 0 
88 71 0 
78 55 0 
77 57 0 
71 46 0 
81 48 0 
81 62 0 
94 68 0 
81 63 0 
80 43 0 
94 29 0 
117 0 0 
116 0 0 
122 0 0 
139 0 0 
133 0 0 
136 0 0 
134 0 0 
134 0 0 
132 0 0 
140 0 0 
146 0 0 
139 0 0 
152 0 0 
145 0 0 
135 0 0 
152 0 0 
154 0 0 
159 0 0 
144 0 0 
153 0 0 
155 0 0 
158 0 0 
149 0 0 
161 0 0 
156 0 0 
163 0 0 
165 0 0 
154 0 0 
166 0 0 
162 0 0 
165 0 0 
168 0 0 
160 0 0 
158 0 0 
159 0 0 
165 0 0 
169 0 0 
168 0 0 
169 0 0 
169 0 0 
164 0 0 
160 0 0 
174 0 0 
168 0 0 
165 0 0 
175 0 0 
171 0 0 
165 0 0 
174 0 0 
180 0 0 
170 0 0 
171 0 0 
173 0 0 
176 0 0 
166 0 0 
166 0 0 
176 0 0 
177 0 0 
171 0 0 
177 0 0 
174 0 0 
174 0 0 
169 0 0 
175 0 0 
178 0 0 
179 0 0 
181 0 0 
175 0 0 
175 0 0 
177 0 0 
178 0 0 
177 0 0 
187 0 0 
189 0 0 
178 0 0 
164 0 0 
173 0 0 
175 0 0 
179 0 0 
178 0 0 
175 0 0 
175 0 0 
177 0 0 
180 0 0 
182 0 0 
179 0 0 
174 0 0 
182 0 0 
181 0 0 
184 0 0 
179 0 0 
183 0 0 
180 0 0 
182 0 0 
177 0 0 
183 0 0 
184 0 0 
184 0 0 
180 0 0 
184 0 0 
179 0 0 
186 0 0 
184 0 0 
184 0 0 
176 0 0 
180 0 0 
177 0 0 
178 0 0 
183 0 0 
179 0 0 
186 0 0 
179 0 0 
181 0 0 
179 0 0 
184 0 0 
182 0 0 
180 0 0 
186 0 0 
185 0 0 
182 0 0 
179 0 0 
184 0 0 
182 0 0 
191 0 0 
182 0 0 
186 0 0 
182 0 0 
185 0 0 
183 0 0 
181 0 0 
183 0 0 
188 0 0 
185 0 0 
187 0 0 
188 0 0 
184 0 0 
185 0 0 
182 0 0 
192 0 0 
182 0 0 
183 0 0 
191 0 0 
187 0 0 
185 0 0 
182 0 0 
185 0 0 
182 0 0 
192 0 0 
184 0 0 
191 0 0 
185 0 0 
182 0 0 
185 0 0 
180 0 0 
185 0 0 
182 0 0 
184 0 0 
183 0 0 
188 0 0 
182 0 0 
185 0 0 
185 0 0 
184 0 0 
183 0 0 
185 0 0 
184 0 0 
186 0 0 
187 0 0 
185 0 0 
189 0 0 
186 0 0 
187 0 0 
184 0 0 
185 0 0 
0 0 179 
0 0 163 
0 0 155 
0 0 169 
0 0 153 
0 0 149 
0 0 159 
0 0 167 
0 0 179 
0 0 173 
0 0 149 
0 0 179 
0 0 155 
0 0 169 
0 0 163 
0 0 169 
0 0 161 
0 0 157 
0 0 175 
0 0 171 
0 0 177 
0 0 165 
0 0 167 
0 0 167 
0 0 157 
0 0 169 
0 0 157 
0 0 157 
0 0 151 
0 0 151 
0 0 159 
0 0 159 
0 0 173 
0 0 165 
0 0 163 
0 0 165 
0 0 173 
0 0 144 
0 0 167 
0 0 163 
0 0 149 
0 0 163 
0 0 142 
0 0 175 
0 0 161 
0 0 165 
0 0 167 
0 0 153 
0 0 165 
0 0 149 
0 0 173 
0 0 163 
0 0 149 
0 0 173 
0 0 151 
0 0 163 
0 0 159 
0 0 157 
0 0 151 
0 0 157 
0 0 173 
0 0 153 
0 0 155 
0 0 169 
0 0 169 
0 0 151 
0 0 155 
0 0 163 
0 0 159 
0 0 155 
0 0 171 
0 0 161 
0 0 159 
0 0 163 
0 0 151 
0 0 165 
0 0 155 
0 0 153 
0 0 140 
0 0 155 
0 0 171 
0 0 165 
0 0 137 
0 0 157 
0 0 155 
0 0 153 
0 0 155 
0 0 144 
0 0 179 
0 0 147 
0 0 128 
0 0 133 
0 0 155 
0 0 159 
0 0 155 
0 0 144 
0 0 128 
0 0 153 
0 0 153 
0 0 117 
0 0 149 
0 0 151 
0 0 167 
0 0 130 
0 0 159 
0 0 167 
0 0 133 
0 0 142 
0 0 137 
0 0 142 
0 0 151 
0 0 133 
0 0 135 
0 0 147 
0 0 133 
0 0 142 
0 0 135 
0 0 149 
0 0 153 
0 0 140 
0 0 135 
0 0 159 
0 0 151 
0 0 163 
0 0 144 
0 0 140 
0 0 147 
0 0 137 
0 0 130 
0 0 149 
0 0 140 
0 0 133 
0 0 157 
0 0 149 
0 0 142 
0 0 144 
0 0 144 
0 0 140 
0 0 144 
0 0 135 
0 0 128 
0 0 125 
0 0 137 
0 0 125 
0 0 133 
0 0 125 
0 0 128 
0 0 135 
0 0 125 
0 0 122 
0 0 135 
0 0 130 
0 0 117 
0 0 137 
0 0 108 
0 0 117 
0 0 122 
0 0 120 
0 0 95 
0 0 114 
0 0 105 
0 0 124 
0 0 95 
0 0 111 
0 0 95 
0 0 102 
0 0 90 
0 0 88 
0 0 105 
0 0 84 
0 0 67 
0 0 82 
0 0 70 
32 35 57 
49 55 0 
56 54 0 
57 57 0 
49 55 0 
62 68 0 
67 66 0 
69 70 0 
66 72 0 
75 82 0 
55 52 0 
60 61 0 
60 65 0 
79 88 0 
53 53 0 
61 65 0 
73 74 0 
58 57 0 
75 76 0 
61 69 0 
73 74 0 
75 73 0 
55 57 0 
66 68 0 
82 93 0 
68 71 0 
77 76 0 
77 83 0 
70 73 0 
64 63 0 
73 69 0 
79 72 0 
76 73 0 
76 71 0 
74 75 0 
76 77 0 
76 70 0 
68 68 0 
73 66 0 
87 85 0 
83 75 0 
82 59 0 
65 63 0 
83 73 0 
94 75 0 
76 59 0 
90 69 0 
78 59 0 
103 68 0 
79 51 0 
79 65 0 
80 58 0 
81 51 0 
99 20 0 
125 0 0 
122 0 0 
136 0 0 
140 0 0 
133 0 0 
135 0 0 
145 0 0 
142 0 0 
145 0 0 
146 0 0 
138 0 0 
144 0 0 
144 0 0 
140 0 0 
140 0 0 
152 0 0 
154 0 0 
156 0 0 
158 0 0 
147 0 0 
162 0 0 
147 0 0 
150 0 0 
155 0 0 
156 0 0 
164 0 0 
156 0 0 
160 0 0 
162 0 0 
170 0 0 
158 0 0 
152 0 0 
153 0 0 
172 0 0 
163 0 0 
165 0 0 
160 0 0 
165 0 0 
168 0 0 
172 0 0 
165 0 0 
170 0 0 
160 0 0 
166 0 0 
175 0 0 
175 0 0 
168 0 0 
174 0 0 
171 0 0 
167 0 0 
175 0 0 
172 0 0 
180 0 0 
170 0 0 
178 0 0 
165 0 0 
171 0 0 
171 0 0 
178 0 0 
177 0 0 
172 0 0 
178 0 0 
182 0 0 
167 0 0 
175 0 0 
170 0 0 
174 0 0 
184 0 0 
180 0 0 
172 0 0 
179 0 0 
175 0 0 
187 0 0 
179 0 0 
174 0 0 
180 0 0 
186 0 0 
173 0 0 
176 0 0 
179 0 0 
175 0 0 
181 0 0 
177 0 0 
178 0 0 
187 0 0 
173 0 0 
174 0 0 
182 0 0 
180 0 0 
176 0 0 
182 0 0 
175 0 0 
181 0 0 
182 0 0 
179 0 0 
179 0 0 
178 0 0 
180 0 0 
179 0 0 
177 0 0 
179 0 0 
181 0 0 
184 0 0 
181 0 0 
181 0 0 
181 0 0 
175 0 0 
185 0 0 
183 0 0 
187 0 0 
186 0 0 
183 0 0 
182 0 0 
179 0 0 
185 0 0 
181 0 0 
179 0 0 
184 0 0 
185 0 0 
186 0 0 
186 0 0 
182 0 0 
183 0 0 
182 0 0 
186 0 0 
189 0 0 
188 0 0 
182 0 0 
182 0 0 
188 0 0 
183 0 0 
184 0 0 
180 0 0 
180 0 0 
187 0 0 
187 0 0 
183 0 0 
187 0 0 
183 0 0 
184 0 0 
190 0 0 
178 0 0 
185 0 0 
186 0 0 
186 0 0 
187 0 0 
183 0 0 
187 0 0 
186 0 0 
187 0 0 
184 0 0 
185 0 0 
183 0 0 
179 0 0 
181 0 0 
183 0 0 
183 0 0 
184 0 0 
182 0 0 
184 0 0 
185 0 0 
186 0 0 
188 0 0 
188 0 0 
178 0 0 
181 0 0 
186 0 0 
187 0 0 
189 0 0 
188 0 0 
184 0 0 
187 0 0 
182 0 0 
0 0 169 
0 0 167 
0 0 165 
0 0 155 
0 0 151 
0 0 163 
0 0 157 
0 0 147 
0 0 169 
0 0 169 
0 0 171 
0 0 169 
0 0 171 
0 0 169 
0 0 161 
0 0 175 
0 0 159 
0 0 151 
0 0 155 
0 0 165 
0 0 157 
0 0 159 
0 0 151 
0 0 159 
0 0 161 
0 0 153 
0 0 163 
0 0 179 
0 0 169 
0 0 153 
0 0 159 
0 0 167 
0 0 169 
0 0 153 
0 0 159 
0 0 167 
0 0 175 
0 0 155 
0 0 175 
0 0 155 
0 0 161 
0 0 153 
0 0 153 
0 0 157 
0 0 159 
0 0 173 
0 0 171 
0 0 149 
0 0 159 
0 0 165 
0 0 181 
0 0 147 
0 0 163 
0 0 147 
0 0 169 
0 0 153 
0 0 151 
0 0 149 
0 0 155 
0 0 151 
0 0 157 
0 0 151 
0 0 147 
0 0 159 
0 0 167 
0 0 169 
0 0 171 
0 0 171 
0 0 165 
0 0 140 
0 0 128 
0 0 161 
0 0 165 
0 0 155 
0 0 155 
0 0 155 
0 0 165 
0 0 155 
0 0 155 
0 0 147 
0 0 144 
0 0 155 
0 0 144 
0 0 155 
0 0 151 
0 0 167 
0 0 147 
0 0 142 
0 0 169 
0 0 147 
0 0 151 
0 0 149 
0 0 155 
0 0 169 
0 0 128 
0 0 151 
0 0 153 
0 0 142 
0 0 157 
0 0 151 
0 0 147 
0 0 151 
0 0 130 
0 0 151 
0 0 149 
0 0 163 
0 0 159 
0 0 165 
0 0 151 
0 0 165 
0 0 157 
0 0 140 
0 0 155 
0 0 149 
0 0 153 
0 0 120 
0 0 157 
0 0 147 
0 0 149 
0 0 147 
0 0 142 
0 0 171 
0 0 153 
0 0 137 
0 0 151 
0 0 137 
0 0 130 
0 0 140 
0 0 151 
0 0 137 
0 0 128 
0 0 133 
0 0 151 
0 0 135 
0 0 137 
0 0 142 
0 0 111 
0 0 135 
0 0 144 
0 0 133 
0 0 137 
0 0 114 
0 0 130 
0 0 135 
0 0 122 
0 0 125 
0 0 133 
0 0 135 
0 0 142 
0 0 115 
0 0 102 
0 0 117 
0 0 105 
0 0 92 
0 0 125 
0 0 120 
0 0 117 
0 0 99 
0 0 117 
0 0 107 
0 0 128 
0 0 117 
0 0 102 
0 0 102 
0 0 72 
0 0 105 
0 0 105 
0 0 95 
0 0 95 
0 0 80 
0 0 92 
0 0 67 
0 0 57 
46 45 0 
42 47 0 
61 65 0 
75 79 0 
56 58 0 
57 63 0 
58 61 0 
62 67 0 
84 92 0 
70 66 0 
42 39 0 
65 70 0 
64 66 0 
62 70 0 
84 86 0 
74 77 0 
78 81 0 
52 60 0 
76 80 0 
74 79 0 
89 90 0 
80 90 0 
66 68 0 
85 92 0 
78 81 0 
90 97 0 
84 84 0 
80 84 0 
65 64 0 
74 71 0 
74 79 0 
70 70 0 
94 90 0 
76 67 0 
85 89 0 
70 67 0 
64 56 0 
84 84 0 
88 75 0 
81 74 0 
94 78 0 
83 75 0 
85 81 0 
84 66 0 
81 56 0 
95 78 0 
75 64 0 
80 61 0 
87 68 0 
93 66 0 
83 54 0 
96 75 0 
83 46 0 
83 51 0 
113 21 0 
124 0 0 
117 0 0 
124 0 0 
128 0 0 
140 0 0 
134 0 0 
141 0 0 
140 0 0 
140 0 0 
150 0 0 
154 0 0 
140 0 0 
153 0 0 
150 0 0 
158 0 0 
156 0 0 
156 0 0 
147 0 0 
148 0 0 
162 0 0 
152 0 0 
155 0 0 
157 0 0 
156 0 0 
159 0 0 
162 0 0 
159 0 0 
162 0 0 
165 0 0 
155 0 0 
157 0 0 
156 0 0 
161 0 0 
168 0 0 
156 0 0 
164 0 0 
163 0 0 
165 0 0 
171 0 0 
165 0 0 
168 0 0 
166 0 0 
164 0 0 
169 0 0 
166 0 0 
174 0 0 
159 0 0 
173 0 0 
171 0 0 
170 0 0 
171 0 0 
169 0 0 
171 0 0 
176 0 0 
175 0 0 
170 0 0 
176 0 0 
180 0 0 
179 0 0 
174 0 0 
179 0 0 
168 0 0 
178 0 0 
176 0 0 
178 0 0 
174 0 0 
175 0 0 
178 0 0 
169 0 0 
176 0 0 
179 0 0 
177 0 0 
177 0 0 
177 0 0 
180 0 0 
173 0 0 
176 0 0 
174 0 0 
171 0 0 
178 0 0 
179 0 0 
179 0 0 
176 0 0 
176 0 0 
185 0 0 
180 0 0 
179 0 0 
180 0 0 
177 0 0 
182 0 0 
179 0 0 
177 0 0 
188 0 0 
179 0 0 
179 0 0 
180 0 0 
181 0 0 
177 0 0 
183 0 0 
178 0 0 
181 0 0 
182 0 0 
183 0 0 
186 0 0 
179 0 0 
182 0 0 
184 0 0 
181 0 0 
187 0 0 
175 0 0 
184 0 0 
185 0 0 
181 0 0 
181 0 0 
185 0 0 
182 0 0 
181 0 0 
185 0 0 
178 0 0 
189 0 0 
182 0 0 
184 0 0 
185 0 0 
183 0 0 
183 0 0 
190 0 0 
184 0 0 
183 0 0 
181 0 0 
185 0 0 
181 0 0 
186 0 0 
184 0 0 
184 0 0 
184 0 0 
179 0 0 
180 0 0 
185 0 0 
184 0 0 
176 0 0 
185 0 0 
183 0 0 
186 0 0 
185 0 0 
189 0 0 
177 0 0 
185 0 0 
180 0 0 
184 0 0 
185 0 0 
190 0 0 
187 0 0 
189 0 0 
190 0 0 
184 0 0 
182 0 0 
183 0 0 
184 0 0 
192 0 0 
182 0 0 
186 0 0 
184 0 0 
185 0 0 
184 0 0 
187 0 0 
177 0 0 
189 0 0 
187 0 0 
192 0 0 
185 0 0 
183 0 0 
185 0 0 
0 0 165 
0 0 173 
0 0 155 
0 0 167 
0 0 155 
0 0 151 
0 0 181 
0 0 149 
0 0 169 
0 0 175 
0 0 149 
0 0 177 
0 0 167 
0 0 173 
0 0 163 
0 0 169 
0 0 165 
0 0 171 
0 0 157 
0 0 142 
0 0 151 
0 0 175 
0 0 157 
0 0 175 
0 0 177 
0 0 173 
0 0 161 
0 0 165 
0 0 135 
0 0 169 
0 0 169 
0 0 169 
0 0 151 
0 0 186 
0 0 153 
0 0 165 
0 0 142 
0 0 153 
0 0 149 
0 0 167 
0 0 153 
0 0 159 
0 0 167 
0 0 171 
0 0 159 
0 0 177 
0 0 157 
0 0 151 
0 0 165 
0 0 165 
0 0 157 
0 0 159 
0 0 133 
0 0 163 
0 0 171 
0 0 157 
0 0 153 
0 0 157 
0 0 161 
0 0 165 
0 0 144 
0 0 161 
0 0 165 
0 0 151 
0 0 157 
0 0 149 
0 0 163 
0 0 163 
0 0 153 
0 0 153 
0 0 153 
0 0 159 
0 0 142 
0 0 157 
0 0 149 
0 0 149 
0 0 159 
0 0 149 
0 0 144 
0 0 155 
0 0 142 
0 0 135 
0 0 157 
0 0 161 
0 0 171 
0 0 169 
0 0 157 
0 0 144 
0 0 165 
0 0 133 
0 0 161 
0 0 157 
0 0 151 
0 0 159 
0 0 140 
0 0 140 
0 0 153 
0 0 165 
0 0 142 
0 0 147 
0 0 140 
0 0 159 
0 0 157 
0 0 151 
0 0 149 
0 0 149 
0 0 144 
0 0 149 
0 0 155 
0 0 147 
0 0 147 
0 0 149 
0 0 151 
0 0 147 
0 0 125 
0 0 155 
0 0 135 
0 0 153 
0 0 155 
0 0 147 
0 0 128 
0 0 137 
0 0 135 
0 0 151 
0 0 135 
0 0 135 
0 0 157 
0 0 142 
0 0 130 
0 0 161 
0 0 128 
0 0 147 
0 0 137 
0 0 144 
0 0 135 
0 0 130 
0 0 140 
0 0 135 
0 0 128 
0 0 149 
0 0 137 
0 0 149 
0 0 140 
0 0 133 
0 0 133 
0 0 140 
0 0 102 
0 0 133 
0 0 135 
0 0 117 
0 0 130 
0 0 130 
0 0 117 
0 0 133 
0 0 118 
0 0 120 
0 0 111 
0 0 130 
0 0 105 
0 0 122 
0 0 115 
0 0 120 
0 0 121 
0 0 111 
0 0 100 
0 0 95 
0 0 102 
0 0 114 
0 0 84 
0 0 99 
0 0 62 
37 40 51 
42 43 0 
58 54 0 
64 66 0 
50 54 0 
55 46 0 
68 65 0 
63 60 0 
69 64 0 
66 70 0 
77 80 0 
79 84 0 
80 87 0 
73 83 0 
74 78 0 
86 89 0 
81 86 0 
68 73 0 
68 68 0 
76 79 0 
81 87 0 
66 66 0 
71 75 0 
76 73 0 
85 93 0 
82 86 0 
73 67 0 
87 92 0 
85 79 0 
76 69 0 
74 76 0 
65 67 0 
88 82 0 
77 83 0 
99 96 0 
84 90 0 
98 94 0 
85 86 0 
79 69 0 
87 89 0 
78 69 0 
93 92 0 
84 72 0 
90 79 0 
90 70 0 
82 71 0 
75 55 0 
96 76 0 
79 66 0 
78 66 0 
93 56 0 
102 78 0 
95 44 0 
98 70 0 
93 37 0 
80 41 0 
84 50 0 
105 23 0 
122 0 0 
134 0 0 
126 0 0 
134 0 0 
119 0 0 
145 0 0 
131 0 0 
153 0 0 
151 0 0 
141 0 0 
141 0 0 
146 0 0 
150 0 0 
149 0 0 
155 0 0 
150 0 0 
159 0 0 
156 0 0 
159 0 0 
149 0 0 
157 0 0 
156 0 0 
161 0 0 
156 0 0 
159 0 0 
161 0 0 
165 0 0 
169 0 0 
160 0 0 
162 0 0 
171 0 0 
166 0 0 
172 0 0 
156 0 0 
166 0 0 
165 0 0 
165 0 0 
161 0 0 
161 0 0 
168 0 0 
167 0 0 
172 0 0 
171 0 0 
175 0 0 
163 0 0 
173 0 0 
176 0 0 
164 0 0 
175 0 0 
177 0 0 
169 0 0 
162 0 0 
176 0 0 
171 0 0 
172 0 0 
178 0 0 
175 0 0 
177 0 0 
174 0 0 
178 0 0 
175 0 0 
171 0 0 
176 0 0 
180 0 0 
176 0 0 
165 0 0 
174 0 0 
178 0 0 
182 0 0 
175 0 0 
171 0 0 
174 0 0 
181 0 0 
180 0 0 
172 0 0 
184 0 0 
182 0 0 
181 0 0 
169 0 0 
180 0 0 
175 0 0 
178 0 0 
178 0 0 
177 0 0 
179 0 0 
180 0 0 
181 0 0 
175 0 0 
188 0 0 
182 0 0 
175 0 0 
179 0 0 
179 0 0 
181 0 0 
178 0 0 
185 0 0 
178 0 0 
179 0 0 
178 0 0 
180 0 0 
177 0 0 
186 0 0 
174 0 0 
182 0 0 
181 0 0 
177 0 0 
185 0 0 
181 0 0 
178 0 0 
182 0 0 
183 0 0 
184 0 0 
188 0 0 
185 0 0 
185 0 0 
182 0 0 
180 0 0 
184 0 0 
184 0 0 
184 0 0 
185 0 0 
181 0 0 
183 0 0 
179 0 0 
179 0 0 
179 0 0 
178 0 0 
185 0 0 
184 0 0 
177 0 0 
186 0 0 
180 0 0 
189 0 0 
181 0 0 
185 0 0 
186 0 0 
184 0 0 
182 0 0 
182 0 0 
184 0 0 
183 0 0 
183 0 0 
182 0 0 
191 0 0 
185 0 0 
186 0 0 
185 0 0 
186 0 0 
186 0 0 
189 0 0 
184 0 0 
189 0 0 
187 0 0 
180 0 0 
187 0 0 
185 0 0 
183 0 0 
187 0 0 
181 0 0 
187 0 0 
180 0 0 
187 0 0 
191 0 0 
186 0 0 
188 0 0 
190 0 0 
181 0 0 
185 0 0 
185 0 0 
189 0 0 
185 0 0 
0 0 161 
0 0 157 
0 0 181 
0 0 169 
0 0 155 
0 0 153 
0 0 157 
0 0 161 
0 0 159 
0 0 147 
0 0 161 
0 0 165 
0 0 182 
0 0 144 
0 0 155 
0 0 163 
0 0 163 
0 0 149 
0 0 173 
0 0 135 
0 0 157 
0 0 147 
0 0 159 
0 0 169 
0 0 163 
0 0 157 
0 0 151 
0 0 171 
0 0 173 
0 0 157 
0 0 153 
0 0 173 
0 0 151 
0 0 159 
0 0 151 
0 0 140 
0 0 159 
0 0 177 
0 0 153 
0 0 163 
0 0 155 
0 0 144 
0 0 149 
0 0 167 
0 0 142 
0 0 175 
0 0 155 
0 0 151 
0 0 149 
0 0 149 
0 0 155 
0 0 155 
0 0 157 
0 0 173 
0 0 155 
0 0 161 
0 0 151 
0 0 169 
0 0 144 
0 0 149 
0 0 135 
0 0 155 
0 0 169 
0 0 157 
0 0 169 
0 0 155 
0 0 157 
0 0 157 
0 0 179 
0 0 161 
0 0 144 
0 0 163 
0 0 167 
0 0 155 
0 0 161 
0 0 159 
0 0 155 
0 0 147 
0 0 182 
0 0 182 
0 0 161 
0 0 159 
0 0 165 
0 0 149 
0 0 165 
0 0 169 
0 0 155 
0 0 151 
0 0 165 
0 0 157 
0 0 151 
0 0 151 
0 0 147 
0 0 173 
0 0 159 
0 0 137 
0 0 140 
0 0 169 
0 0 161 
0 0 157 
0 0 140 
0 0 147 
0 0 155 
0 0 151 
0 0 137 
0 0 142 
0 0 161 
0 0 149 
0 0 142 
0 0 137 
0 0 137 
0 0 130 
0 0 140 
0 0 140 
0 0 153 
0 0 142 
0 0 108 
0 0 155 
0 0 130 
0 0 144 
0 0 151 
0 0 155 
0 0 140 
0 0 153 
0 0 128 
0 0 111 
0 0 130 
0 0 144 
0 0 120 
0 0 144 
0 0 142 
0 0 128 
0 0 151 
0 0 140 
0 0 142 
0 0 157 
0 0 142 
0 0 117 
0 0 140 
0 0 122 
0 0 142 
0 0 114 
0 0 128 
0 0 111 
0 0 111 
0 0 136 
0 0 133 
0 0 114 
0 0 133 
0 0 137 
0 0 117 
0 0 128 
0 0 122 
0 0 117 
0 0 114 
0 0 102 
0 0 125 
0 0 99 
0 0 125 
0 0 99 
0 0 95 
0 0 125 
0 0 108 
0 0 102 
0 0 80 
0 0 99 
0 0 86 
0 0 111 
0 0 88 
0 0 88 
17 19 62 
32 32 0 
53 53 0 
64 59 0 
64 61 0 
67 68 0 
70 72 0 
64 69 0 
77 78 0 
78 82 0 
62 65 0 
67 66 0 
63 68 0 
73 77 0 
72 76 0 
74 81 0 
80 78 0 
73 78 0 
72 76 0 
84 77 0 
75 75 0 
70 75 0 
58 59 0 
81 89 0 
67 72 0 
85 83 0 
79 80 0 
90 95 0 
90 94 0 
92 90 0 
90 92 0 
88 82 0 
84 85 0 
80 72 0 
74 66 0 
90 87 0 
89 78 0 
90 90 0 
84 83 0 
94 81 0 
72 68 0 
99 92 0 
88 84 0 
96 75 0 
85 70 0 
93 72 0 
99 80 0 
89 72 0 
87 59 0 
80 59 0 
92 63 0 
91 66 0 
86 69 0 
82 48 0 
96 79 0 
106 81 0 
100 62 0 
93 65 0 
87 42 0 
116 0 0 
113 0 0 
123 0 0 
143 0 0 
126 0 0 
131 0 0 
145 0 0 
152 0 0 
144 0 0 
145 0 0 
147 0 0 
149 0 0 
152 0 0 
156 0 0 
156 0 0 
147 0 0 
151 0 0 
154 0 0 
158 0 0 
157 0 0 
151 0 0 
162 0 0 
155 0 0 
153 0 0 
165 0 0 
170 0 0 
160 0 0 
166 0 0 
151 0 0 
166 0 0 
166 0 0 
165 0 0 
154 0 0 
164 0 0 
170 0 0 
169 0 0 
163 0 0 
168 0 0 
168 0 0 
162 0 0 
164 0 0 
161 0 0 
169 0 0 
160 0 0 
171 0 0 
175 0 0 
167 0 0 
168 0 0 
169 0 0 
166 0 0 
165 0 0 
165 0 0 
177 0 0 
174 0 0 
180 0 0 
170 0 0 
176 0 0 
169 0 0 
182 0 0 
172 0 0 
174 0 0 
174 0 0 
180 0 0 
179 0 0 
173 0 0 
169 0 0 
174 0 0 
181 0 0 
182 0 0 
177 0 0 
183 0 0 
180 0 0 
173 0 0 
175 0 0 
183 0 0 
178 0 0 
170 0 0 
174 0 0 
179 0 0 
178 0 0 
177 0 0 
184 0 0 
180 0 0 
183 0 0 
179 0 0 
176 0 0 
178 0 0 
174 0 0 
181 0 0 
179 0 0 
180 0 0 
181 0 0 
175 0 0 
175 0 0 
182 0 0 
184 0 0 
184 0 0 
185 0 0 
179 0 0 
179 0 0 
184 0 0 
181 0 0 
185 0 0 
179 0 0 
183 0 0 
183 0 0 
184 0 0 
183 0 0 
185 0 0 
176 0 0 
189 0 0 
175 0 0 
180 0 0 
182 0 0 
186 0 0 
181 0 0 
181 0 0 
180 0 0 
180 0 0 
182 0 0 
184 0 0 
182 0 0 
186 0 0 
178 0 0 
183 0 0 
180 0 0 
183 0 0 
182 0 0 
183 0 0 
183 0 0 
184 0 0 
190 0 0 
184 0 0 
185 0 0 
183 0 0 
186 0 0 
182 0 0 
186 0 0 
186 0 0 
185 0 0 
184 0 0 
180 0 0 
190 0 0 
185 0 0 
185 0 0 
187 0 0 
183 0 0 
184 0 0 
185 0 0 
189 0 0 
184 0 0 
188 0 0 
186 0 0 
190 0 0 
183 0 0 
187 0 0 
187 0 0 
183 0 0 
184 0 0 
186 0 0 
185 0 0 
185 0 0 
191 0 0 
182 0 0 
188 0 0 
189 0 0 
194 0 0 
184 0 0 
186 0 0 
190 0 0 
184 0 0 
0 0 157 
0 0 163 
0 0 167 
0 0 169 
0 0 181 
0 0 151 
0 0 159 
0 0 137 
0 0 171 
0 0 167 
0 0 173 
0 0 171 
0 0 155 
0 0 173 
0 0 144 
0 0 153 
0 0 161 
0 0 169 
0 0 184 
0 0 169 
0 0 169 
0 0 177 
0 0 179 
0 0 165 
0 0 165 
0 0 144 
0 0 151 
0 0 173 
0 0 159 
0 0 163 
0 0 147 
0 0 157 
0 0 151 
0 0 142 
0 0 157 
0 0 182 
0 0 165 
0 0 133 
0 0 155 
0 0 153 
0 0 153 
0 0 165 
0 0 165 
0 0 155 
0 0 165 
0 0 147 
0 0 153 
0 0 151 
0 0 169 
0 0 169 
0 0 169 
0 0 169 
0 0 157 
0 0 161 
0 0 149 
0 0 153 
0 0 151 
0 0 165 
0 0 140 
0 0 151 
0 0 159 
0 0 169 
0 0 167 
0 0 155 
0 0 159 
0 0 165 
0 0 159 
0 0 144 
0 0 153 
0 0 153 
0 0 165 
0 0 157 
0 0 133 
0 0 159 
0 0 155 
0 0 147 
0 0 163 
0 0 159 
0 0 153 
0 0 175 
0 0 153 
0 0 147 
0 0 149 
0 0 144 
0 0 169 
0 0 151 
0 0 161 
0 0 151 
0 0 159 
0 0 135 
0 0 147 
0 0 144 
0 0 157 
0 0 153 
0 0 155 
0 0 151 
0 0 161 
0 0 151 
0 0 135 
0 0 147 
0 0 149 
0 0 169 
0 0 137 
0 0 117 
0 0 147 
0 0 173 
0 0 144 
0 0 173 
0 0 128 
0 0 159 
0 0 157 
0 0 149 
0 0 149 
0 0 149 
0 0 159 
0 0 108 
0 0 157 
0 0 142 
0 0 149 
0 0 151 
0 0 155 
0 0 144 
0 0 137 
0 0 149 
0 0 122 
0 0 142 
0 0 149 
0 0 144 
0 0 117 
0 0 133 
0 0 135 
0 0 135 
0 0 153 
0 0 140 
0 0 163 
0 0 108 
0 0 128 
0 0 130 
0 0 120 
0 0 128 
0 0 120 
0 0 125 
0 0 136 
0 0 130 
0 0 117 
0 0 114 
0 0 95 
0 0 114 
0 0 111 
0 0 117 
0 0 111 
0 0 117 
0 0 137 
0 0 117 
0 0 120 
0 0 117 
0 0 92 
0 0 117 
0 0 114 
0 0 111 
0 0 108 
0 0 84 
0 0 88 
0 0 108 
0 0 88 
0 0 102 
0 0 82 
0 0 99 
0 0 74 
24 0 62 
42 47 0 
64 67 0 
57 61 0 
56 59 0 
72 76 0 
64 64 0 
57 64 0 
67 74 0 
70 71 0 
75 71 0 
66 69 0 
84 79 0 
84 87 0 
74 81 0 
75 78 0 
79 84 0 
81 84 0 
76 77 0 
85 87 0 
93 95 0 
92 98 0 
80 89 0 
73 76 0 
70 68 0 
90 84 0 
88 89 0 
85 90 0 
73 72 0 
86 89 0 
87 82 0 
77 83 0 
75 82 0 
93 91 0 
86 90 0 
94 94 0 
78 69 0 
92 91 0 
96 99 0 
92 85 0 
93 90 0 
82 80 0 
90 86 0 
86 78 0 
107 104 0 
95 80 0 
94 90 0 
95 89 0 
97 75 0 
99 72 0 
90 69 0 
94 72 0 
94 61 0 
91 57 0 
85 64 0 
108 81 0 
88 61 0 
96 64 0 
90 64 0 
94 61 0 
98 54 0 
107 21 0 
117 0 0 
139 0 0 
132 0 0 
135 0 0 
134 0 0 
141 0 0 
147 0 0 
136 0 0 
137 0 0 
144 0 0 
149 0 0 
150 0 0 
155 0 0 
144 0 0 
151 0 0 
149 0 0 
153 0 0 
160 0 0 
154 0 0 
157 0 0 
158 0 0 
158 0 0 
164 0 0 
166 0 0 
148 0 0 
159 0 0 
171 0 0 
159 0 0 
153 0 0 
160 0 0 
161 0 0 
168 0 0 
159 0 0 
161 0 0 
168 0 0 
170 0 0 
167 0 0 
162 0 0 
175 0 0 
177 0 0 
173 0 0 
171 0 0 
175 0 0 
168 0 0 
168 0 0 
168 0 0 
169 0 0 
177 0 0 
181 0 0 
181 0 0 
174 0 0 
169 0 0 
167 0 0 
172 0 0 
167 0 0 
180 0 0 
170 0 0 
179 0 0 
176 0 0 
170 0 0 
171 0 0 
174 0 0 
174 0 0 
169 0 0 
179 0 0 
168 0 0 
172 0 0 
178 0 0 
183 0 0 
176 0 0 
167 0 0 
170 0 0 
177 0 0 
177 0 0 
180 0 0 
173 0 0 
178 0 0 
181 0 0 
180 0 0 
185 0 0 
178 0 0 
182 0 0 
179 0 0 
178 0 0 
180 0 0 
182 0 0 
179 0 0 
183 0 0 
175 0 0 
184 0 0 
187 0 0 
178 0 0 
179 0 0 
182 0 0 
187 0 0 
178 0 0 
178 0 0 
180 0 0 
182 0 0 
181 0 0 
177 0 0 
182 0 0 
179 0 0 
180 0 0 
182 0 0 
185 0 0 
178 0 0 
184 0 0 
184 0 0 
182 0 0 
179 0 0 
184 0 0 
180 0 0 
182 0 0 
178 0 0 
180 0 0 
184 0 0 
180 0 0 
183 0 0 
183 0 0 
182 0 0 
186 0 0 
187 0 0 
183 0 0 
182 0 0 
180 0 0 
185 0 0 
180 0 0 
191 0 0 
177 0 0 
182 0 0 
187 0 0 
191 0 0 
183 0 0 
177 0 0 
183 0 0 
187 0 0 
184 0 0 
184 0 0 
179 0 0 
182 0 0 
177 0 0 
184 0 0 
185 0 0 
184 0 0 
185 0 0 
186 0 0 
184 0 0 
184 0 0 
185 0 0 
181 0 0 
185 0 0 
189 0 0 
184 0 0 
184 0 0 
189 0 0 
186 0 0 
182 0 0 
182 0 0 
182 0 0 
189 0 0 
190 0 0 
184 0 0 
190 0 0 
189 0 0 
185 0 0 
186 0 0 
186 0 0 
190 0 0 
0 0 149 
0 0 149 
0 0 199 
0 0 155 
0 0 169 
0 0 157 
0 0 167 
0 0 159 
0 0 165 
0 0 163 
0 0 147 
0 0 165 
0 0 163 
0 0 167 
0 0 140 
0 0 167 
0 0 171 
0 0 157 
0 0 157 
0 0 157 
0 0 157 
0 0 149 
0 0 155 
0 0 149 
0 0 153 
0 0 167 
0 0 153 
0 0 165 
0 0 151 
0 0 161 
0 0 157 
0 0 161 
0 0 163 
0 0 153 
0 0 177 
0 0 165 
0 0 169 
0 0 169 
0 0 149 
0 0 171 
0 0 165 
0 0 149 
0 0 157 
0 0 157 
0 0 175 
0 0 161 
0 0 171 
0 0 159 
0 0 151 
0 0 153 
0 0 142 
0 0 159 
0 0 171 
0 0 149 
0 0 151 
0 0 155 
0 0 151 
0 0 144 
0 0 149 
0 0 151 
0 0 157 
0 0 147 
0 0 135 
0 0 149 
0 0 177 
0 0 169 
0 0 151 
0 0 165 
0 0 155 
0 0 173 
0 0 157 
0 0 151 
0 0 163 
0 0 155 
0 0 169 
0 0 165 
0 0 153 
0 0 147 
0 0 149 
0 0 144 
0 0 163 
0 0 159 
0 0 161 
0 0 151 
0 0 171 
0 0 147 
0 0 169 
0 0 149 
0 0 153 
0 0 135 
0 0 167 
0 0 151 
0 0 153 
0 0 144 
0 0 151 
0 0 147 
0 0 165 
0 0 151 
0 0 147 
0 0 142 
0 0 147 
0 0 151 
0 0 147 
0 0 140 
0 0 144 
0 0 163 
0 0 167 
0 0 140 
0 0 153 
0 0 151 
0 0 142 
0 0 163 
0 0 147 
0 0 163 
0 0 144 
0 0 133 
0 0 135 
0 0 137 
0 0 125 
0 0 133 
0 0 125 
0 0 149 
0 0 140 
0 0 140 
0 0 144 
0 0 133 
0 0 144 
0 0 128 
0 0 149 
0 0 144 
0 0 144 
0 0 142 
0 0 122 
0 0 130 
0 0 122 
0 0 122 
0 0 125 
0 0 135 
0 0 137 
0 0 122 
0 0 137 
0 0 144 
0 0 133 
0 0 114 
0 0 128 
0 0 130 
0 0 111 
0 0 144 
0 0 128 
0 0 135 
0 0 117 
0 0 120 
0 0 142 
0 0 128 
0 0 117 
0 0 111 
0 0 111 
0 0 108 
0 0 99 
0 0 130 
0 0 99 
0 0 108 
0 0 111 
0 0 92 
0 0 86 
0 0 92 
0 0 80 
0 0 88 
25 21 62 
58 48 0 
63 61 0 
64 62 0 
63 66 0 
60 57 0 
57 58 0 
59 64 0 
82 83 0 
74 75 0 
78 86 0 
60 64 0 
86 84 0 
86 87 0 
84 89 0 
81 88 0 
72 75 0 
89 97 0 
83 85 0 
81 87 0 
64 68 0 
74 82 0 
79 81 0 
71 72 0 
92 91 0 
76 73 0 
60 61 0 
94 98 0 
87 84 0 
73 72 0 
75 71 0 
74 77 0 
85 91 0 
89 91 0 
82 89 0 
107 107 0 
90 87 0 
94 82 0 
87 91 0 
90 91 0 
85 80 0 
78 75 0 
105 100 0 
86 78 0 
85 79 0 
100 96 0 
90 82 0 
109 78 0 
84 58 0 
80 66 0 
93 66 0 
107 97 0 
88 74 0 
96 81 0 
103 71 0 
101 73 0 
94 71 0 
101 61 0 
100 63 0 
102 73 0 
91 71 0 
101 71 0 
95 52 0 
99 31 0 
115 0 0 
131 0 0 
133 0 0 
128 0 0 
153 0 0 
145 0 0 
144 0 0 
147 0 0 
153 0 0 
152 0 0 
152 0 0 
153 0 0 
157 0 0 
133 0 0 
150 0 0 
153 0 0 
151 0 0 
147 0 0 
159 0 0 
161 0 0 
153 0 0 
169 0 0 
163 0 0 
162 0 0 
158 0 0 
172 0 0 
164 0 0 
158 0 0 
156 0 0 
170 0 0 
165 0 0 
161 0 0 
159 0 0 
165 0 0 
166 0 0 
169 0 0 
159 0 0 
172 0 0 
173 0 0 
161 0 0 
168 0 0 
162 0 0 
171 0 0 
169 0 0 
165 0 0 
178 0 0 
171 0 0 
173 0 0 
171 0 0 
176 0 0 
169 0 0 
171 0 0 
165 0 0 
167 0 0 
173 0 0 
170 0 0 
174 0 0 
172 0 0 
175 0 0 
178 0 0 
180 0 0 
175 0 0 
171 0 0 
168 0 0 
178 0 0 
175 0 0 
180 0 0 
171 0 0 
170 0 0 
177 0 0 
183 0 0 
179 0 0 
171 0 0 
180 0 0 
175 0 0 
176 0 0 
181 0 0 
177 0 0 
180 0 0 
179 0 0 
173 0 0 
175 0 0 
183 0 0 
183 0 0 
181 0 0 
181 0 0 
176 0 0 
177 0 0 
181 0 0 
178 0 0 
182 0 0 
180 0 0 
182 0 0 
182 0 0 
183 0 0 
178 0 0 
181 0 0 
180 0 0 
185 0 0 
177 0 0 
180 0 0 
183 0 0 
186 0 0 
179 0 0 
176 0 0 
177 0 0 
181 0 0 
183 0 0 
187 0 0 
179 0 0 
172 0 0 
187 0 0 
183 0 0 
179 0 0 
186 0 0 
183 0 0 
186 0 0 
186 0 0 
182 0 0 
185 0 0 
182 0 0 
184 0 0 
183 0 0 
187 0 0 
183 0 0 
180 0 0 
185 0 0 
185 0 0 
187 0 0 
185 0 0 
184 0 0 
183 0 0 
189 0 0 
179 0 0 
183 0 0 
184 0 0 
179 0 0 
186 0 0 
188 0 0 
186 0 0 
184 0 0 
180 0 0 
181 0 0 
186 0 0 
187 0 0 
186 0 0 
183 0 0 
187 0 0 
182 0 0 
185 0 0 
187 0 0 
179 0 0 
187 0 0 
184 0 0 
184 0 0 
187 0 0 
188 0 0 
183 0 0 
181 0 0 
183 0 0 
188 0 0 
184 0 0 
186 0 0 
180 0 0 
191 0 0 
184 0 0 
189 0 0 
182 0 0 
0 0 175 
0 0 159 
0 0 181 
0 0 157 
0 0 163 
0 0 169 
0 0 169 
0 0 144 
0 0 147 
0 0 165 
0 0 157 
0 0 169 
0 0 165 
0 0 161 
0 0 163 
0 0 159 
0 0 175 
0 0 155 
0 0 155 
0 0 161 
0 0 151 
0 0 155 
0 0 171 
0 0 159 
0 0 159 
0 0 161 
0 0 177 
0 0 167 
0 0 159 
0 0 142 
0 0 163 
0 0 159 
0 0 167 
0 0 157 
0 0 159 
0 0 159 
0 0 169 
0 0 147 
0 0 169 
0 0 147 
0 0 165 
0 0 151 
0 0 163 
0 0 167 
0 0 165 
0 0 165 
0 0 153 
0 0 161 
0 0 175 
0 0 167 
0 0 165 
0 0 155 
0 0 157 
0 0 159 
0 0 149 
0 0 159 
0 0 177 
0 0 153 
0 0 157 
0 0 173 
0 0 147 
0 0 155 
0 0 171 
0 0 171 
0 0 157 
0 0 165 
0 0 155 
0 0 177 
0 0 153 
0 0 140 
0 0 140 
0 0 144 
0 0 163 
0 0 161 
0 0 171 
0 0 151 
0 0 163 
0 0 163 
0 0 151 
0 0 157 
0 0 169 
0 0 137 
0 0 153 
0 0 155 
0 0 161 
0 0 161 
0 0 153 
0 0 153 
0 0 155 
0 0 157 
0 0 149 
0 0 157 
0 0 137 
0 0 125 
0 0 149 
0 0 149 
0 0 142 
0 0 149 
0 0 153 
0 0 151 
0 0 149 
0 0 159 
0 0 135 
0 0 165 
0 0 133 
0 0 151 
0 0 137 
0 0 144 
0 0 163 
0 0 130 
0 0 149 
0 0 128 
0 0 144 
0 0 140 
0 0 153 
0 0 157 
0 0 153 
0 0 133 
0 0 142 
0 0 157 
0 0 122 
0 0 140 
0 0 140 
0 0 125 
0 0 137 
0 0 147 
0 0 128 
0 0 147 
0 0 151 
0 0 140 
0 0 128 
0 0 142 
0 0 137 
0 0 125 
0 0 135 
0 0 125 
0 0 130 
0 0 117 
0 0 111 
0 0 130 
0 0 117 
0 0 130 
0 0 149 
0 0 137 
0 0 117 
0 0 114 
0 0 125 
0 0 122 
0 0 122 
0 0 108 
0 0 95 
0 0 114 
0 0 120 
0 0 95 
0 0 114 
0 0 102 
0 0 86 
0 0 88 
0 0 114 
0 0 114 
0 0 105 
0 0 120 
0 0 92 
0 0 111 
0 0 100 
0 0 111 
0 0 92 
25 28 57 
58 61 0 
64 64 0 
58 58 0 
69 68 0 
57 52 0 
69 66 0 
65 66 0 
79 83 0 
64 61 0 
64 68 0 
70 77 0 
62 66 0 
66 62 0 
90 96 0 
79 85 0 
82 80 0 
90 97 0 
83 77 0 
74 78 0 
85 91 0 
74 73 0 
87 87 0 
83 91 0 
98 96 0 
88 89 0 
94 104 0 
76 77 0 
91 90 0 
86 96 0 
94 94 0 
88 95 0 
78 82 0 
92 95 0 
92 91 0 
87 86 0 
94 92 0 
96 96 0 
92 88 0 
104 104 0 
83 88 0 
89 79 0 
105 93 0 
96 87 0 
98 92 0 
107 95 0 
91 82 0 
102 99 0 
104 89 0 
93 84 0 
97 80 0 
87 81 0 
98 72 0 
110 82 0 
98 87 0 
101 78 0 
97 71 0 
89 65 0 
113 78 0 
103 71 0 
93 54 0 
101 73 0 
103 65 0 
107 69 0 
97 61 0 
113 40 0 
120 0 0 
132 0 0 
126 0 0 
124 0 0 
123 0 0 
142 0 0 
141 0 0 
144 0 0 
152 0 0 
137 0 0 
162 0 0 
148 0 0 
153 0 0 
161 0 0 
143 0 0 
155 0 0 
156 0 0 
156 0 0 
165 0 0 
149 0 0 
160 0 0 
163 0 0 
154 0 0 
167 0 0 
162 0 0 
160 0 0 
161 0 0 
160 0 0 
166 0 0 
164 0 0 
161 0 0 
163 0 0 
160 0 0 
170 0 0 
169 0 0 
165 0 0 
172 0 0 
160 0 0 
172 0 0 
163 0 0 
167 0 0 
173 0 0 
161 0 0 
168 0 0 
174 0 0 
173 0 0 
174 0 0 
176 0 0 
173 0 0 
174 0 0 
171 0 0 
167 0 0 
175 0 0 
173 0 0 
174 0 0 
175 0 0 
167 0 0 
168 0 0 
168 0 0 
172 0 0 
177 0 0 
177 0 0 
184 0 0 
175 0 0 
177 0 0 
182 0 0 
183 0 0 
179 0 0 
173 0 0 
184 0 0 
176 0 0 
178 0 0 
180 0 0 
179 0 0 
173 0 0 
178 0 0 
179 0 0 
178 0 0 
185 0 0 
175 0 0 
176 0 0 
178 0 0 
175 0 0 
183 0 0 
185 0 0 
179 0 0 
182 0 0 
175 0 0 
179 0 0 
179 0 0 
186 0 0 
182 0 0 
180 0 0 
185 0 0 
180 0 0 
178 0 0 
182 0 0 
181 0 0 
181 0 0 
177 0 0 
180 0 0 
186 0 0 
181 0 0 
184 0 0 
186 0 0 
178 0 0 
178 0 0 
182 0 0 
183 0 0 
181 0 0 
183 0 0 
182 0 0 
190 0 0 
186 0 0 
189 0 0 
187 0 0 
185 0 0 
177 0 0 
184 0 0 
185 0 0 
187 0 0 
183 0 0 
183 0 0 
184 0 0 
184 0 0 
181 0 0 
185 0 0 
187 0 0 
181 0 0 
184 0 0 
186 0 0 
181 0 0 
183 0 0 
186 0 0 
179 0 0 
187 0 0 
184 0 0 
185 0 0 
186 0 0 
184 0 0 
185 0 0 
183 0 0 
181 0 0 
180 0 0 
185 0 0 
181 0 0 
181 0 0 
186 0 0 
187 0 0 
190 0 0 
184 0 0 
180 0 0 
187 0 0 
183 0 0 
189 0 0 
188 0 0 
189 0 0 
179 0 0 
189 0 0 
188 0 0 
181 0 0 
186 0 0 
183 0 0 
183 0 0 
183 0 0 
185 0 0 
180 0 0 
0 0 179 
0 0 163 
0 0 157 
0 0 155 
0 0 159 
0 0 169 
0 0 161 
0 0 177 
0 0 149 
0 0 157 
0 0 153 
0 0 167 
0 0 153 
0 0 169 
0 0 171 
0 0 177 
0 0 153 
0 0 157 
0 0 163 
0 0 157 
0 0 169 
0 0 165 
0 0 157 
0 0 147 
0 0 177 
0 0 149 
0 0 140 
0 0 157 
0 0 133 
0 0 177 
0 0 182 
0 0 155 
0 0 163 
0 0 157 
0 0 149 
0 0 151 
0 0 159 
0 0 165 
0 0 161 
0 0 153 
0 0 165 
0 0 144 
0 0 159 
0 0 159 
0 0 153 
0 0 153 
0 0 173 
0 0 163 
0 0 157 
0 0 155 
0 0 159 
0 0 161 
0 0 155 
0 0 159 
0 0 155 
0 0 161 
0 0 161 
0 0 153 
0 0 169 
0 0 175 
0 0 175 
0 0 144 
0 0 147 
0 0 159 
0 0 133 
0 0 165 
0 0 155 
0 0 142 
0 0 144 
0 0 163 
0 0 157 
0 0 140 
0 0 140 
0 0 137 
0 0 151 
0 0 161 
0 0 161 
0 0 142 
0 0 159 
0 0 169 
0 0 151 
0 0 140 
0 0 155 
0 0 157 
0 0 133 
0 0 155 
0 0 142 
0 0 155 
0 0 153 
0 0 151 
0 0 149 
0 0 153 
0 0 157 
0 0 142 
0 0 147 
0 0 151 
0 0 147 
0 0 149 
0 0 147 
0 0 151 
0 0 147 
0 0 140 
0 0 147 
0 0 144 
0 0 147 
0 0 140 
0 0 153 
0 0 149 
0 0 153 
0 0 159 
0 0 135 
0 0 144 
0 0 151 
0 0 147 
0 0 147 
0 0 151 
0 0 161 
0 0 137 
0 0 144 
0 0 155 
0 0 151 
0 0 142 
0 0 157 
0 0 137 
0 0 133 
0 0 117 
0 0 135 
0 0 137 
0 0 135 
0 0 144 
0 0 137 
0 0 142 
0 0 125 
0 0 114 
0 0 149 
0 0 147 
0 0 137 
0 0 128 
0 0 125 
0 0 125 
0 0 125 
0 0 114 
0 0 140 
0 0 125 
0 0 142 
0 0 122 
0 0 105 
0 0 125 
0 0 111 
0 0 108 
0 0 111 
0 0 99 
0 0 122 
0 0 88 
0 0 88 
0 0 95 
0 0 120 
0 0 90 
0 0 92 
0 0 95 
0 0 97 
0 0 95 
0 0 92 
0 0 88 
0 0 102 
0 0 67 
37 29 36 
49 46 0 
55 53 0 
53 57 0 
77 73 0 
79 81 0 
80 79 0 
84 82 0 
78 83 0 
84 79 0 
79 88 0 
79 85 0 
70 73 0 
82 92 0 
75 80 0 
87 93 0 
82 86 0 
87 86 0 
73 71 0 
88 94 0 
85 81 0 
78 84 0 
94 92 0 
81 78 0 
103 99 0 
75 75 0 
87 93 0 
97 105 0 
92 91 0 
96 95 0 
94 95 0 
95 87 0 
84 89 0 
93 87 0 
91 88 0 
78 79 0 
85 83 0 
96 95 0 
101 99 0 
86 88 0 
93 95 0 
107 99 0 
78 79 0 
95 83 0 
95 89 0 
95 81 0 
90 79 0 
92 90 0 
114 102 0 
102 89 0 
91 83 0 
93 85 0 
94 82 0 
94 80 0 
95 80 0 
97 84 0 
117 92 0 
110 81 0 
102 67 0 
103 74 0 
110 92 0 
104 60 0 
114 87 0 
103 69 0 
101 62 0 
111 65 0 
106 65 0 
120 50 0 
124 0 0 
130 0 0 
124 0 0 
132 0 0 
143 0 0 
150 0 0 
147 0 0 
145 0 0 
152 0 0 
147 0 0 
148 0 0 
151 0 0 
166 0 0 
158 0 0 
153 0 0 
154 0 0 
163 0 0 
157 0 0 
166 0 0 
157 0 0 
157 0 0 
152 0 0 
156 0 0 
156 0 0 
167 0 0 
155 0 0 
159 0 0 
167 0 0 
153 0 0 
168 0 0 
173 0 0 
166 0 0 
158 0 0 
171 0 0 
165 0 0 
164 0 0 
170 0 0 
165 0 0 
157 0 0 
171 0 0 
167 0 0 
177 0 0 
168 0 0 
172 0 0 
166 0 0 
171 0 0 
173 0 0 
175 0 0 
170 0 0 
175 0 0 
171 0 0 
162 0 0 
174 0 0 
173 0 0 
170 0 0 
172 0 0 
180 0 0 
169 0 0 
177 0 0 
180 0 0 
176 0 0 
174 0 0 
178 0 0 
171 0 0 
182 0 0 
176 0 0 
179 0 0 
179 0 0 
179 0 0 
176 0 0 
180 0 0 
168 0 0 
172 0 0 
176 0 0 
172 0 0 
170 0 0 
177 0 0 
184 0 0 
188 0 0 
176 0 0 
180 0 0 
181 0 0 
178 0 0 
170 0 0 
177 0 0 
182 0 0 
180 0 0 
180 0 0 
176 0 0 
187 0 0 
179 0 0 
183 0 0 
173 0 0 
177 0 0 
180 0 0 
181 0 0 
183 0 0 
183 0 0 
172 0 0 
176 0 0 
182 0 0 
182 0 0 
180 0 0 
178 0 0 
182 0 0 
180 0 0 
185 0 0 
184 0 0 
183 0 0 
188 0 0 
182 0 0 
186 0 0 
182 0 0 
180 0 0 
181 0 0 
179 0 0 
180 0 0 
185 0 0 
177 0 0 
186 0 0 
182 0 0 
185 0 0 
184 0 0 
188 0 0 
186 0 0 
189 0 0 
179 0 0 
180 0 0 
178 0 0 
181 0 0 
183 0 0 
179 0 0 
185 0 0 
183 0 0 
184 0 0 
183 0 0 
185 0 0 
180 0 0 
179 0 0 
189 0 0 
181 0 0 
182 0 0 
189 0 0 
183 0 0 
186 0 0 
185 0 0 
185 0 0 
182 0 0 
186 0 0 
188 0 0 
187 0 0 
181 0 0 
183 0 0 
185 0 0 
188 0 0 
182 0 0 
188 0 0 
186 0 0 
182 0 0 
185 0 0 
179 0 0 
184 0 0 
183 0 0 
189 0 0 
184 0 0 
184 0 0 
0 0 163 
0 0 163 
0 0 155 
0 0 144 
0 0 169 
0 0 144 
0 0 147 
0 0 171 
0 0 167 
0 0 151 
0 0 165 
0 0 177 
0 0 169 
0 0 171 
0 0 151 
0 0 149 
0 0 161 
0 0 161 
0 0 167 
0 0 169 
0 0 147 
0 0 171 
0 0 159 
0 0 175 
0 0 153 
0 0 147 
0 0 175 
0 0 144 
0 0 175 
0 0 165 
0 0 159 
0 0 175 
0 0 140 
0 0 163 
0 0 167 
0 0 149 
0 0 157 
0 0 163 
0 0 149 
0 0 159 
0 0 153 
0 0 149 
0 0 153 
0 0 147 
0 0 151 
0 0 171 
0 0 155 
0 0 165 
0 0 153 
0 0 153 
0 0 167 
0 0 155 
0 0 153 
0 0 171 
0 0 157 
0 0 155 
0 0 163 
0 0 159 
0 0 167 
0 0 167 
0 0 151 
0 0 153 
0 0 151 
0 0 149 
0 0 151 
0 0 161 
0 0 157 
0 0 165 
0 0 147 
0 0 144 
0 0 149 
0 0 165 
0 0 151 
0 0 147 
0 0 147 
0 0 165 
0 0 147 
0 0 155 
0 0 163 
0 0 153 
0 0 144 
0 0 157 
0 0 149 
0 0 157 
0 0 147 
0 0 161 
0 0 147 
0 0 125 
0 0 167 
0 0 149 
0 0 147 
0 0 128 
0 0 142 
0 0 151 
0 0 155 
0 0 144 
0 0 149 
0 0 151 
0 0 147 
0 0 147 
0 0 157 
0 0 140 
0 0 149 
0 0 155 
0 0 153 
0 0 147 
0 0 140 
0 0 149 
0 0 144 
0 0 135 
0 0 155 
0 0 135 
0 0 140 
0 0 130 
0 0 140 
0 0 135 
0 0 155 
0 0 128 
0 0 159 
0 0 142 
0 0 147 
0 0 128 
0 0 147 
0 0 120 
0 0 135 
0 0 135 
0 0 140 
0 0 133 
0 0 137 
0 0 147 
0 0 153 
0 0 149 
0 0 147 
0 0 128 
0 0 133 
0 0 117 
0 0 149 
0 0 111 
0 0 142 
0 0 114 
0 0 111 
0 0 117 
0 0 122 
0 0 105 
0 0 133 
0 0 128 
0 0 102 
0 0 108 
0 0 128 
0 0 117 
0 0 120 
0 0 102 
0 0 95 
0 0 128 
0 0 105 
0 0 114 
0 0 111 
0 0 105 
0 0 110 
0 0 114 
0 0 92 
0 0 117 
0 0 82 
0 0 76 
0 0 95 
48 50 44 
72 73 0 
73 78 0 
83 84 0 
73 75 0 
59 51 0 
70 67 0 
89 92 0 
65 64 0 
75 84 0 
77 78 0 
81 85 0 
89 94 0 
81 82 0 
61 65 0 
85 84 0 
84 89 0 
82 78 0 
83 83 0 
78 79 0 
104 108 0 
87 85 0 
85 90 0 
97 107 0 
91 88 0 
95 96 0 
90 96 0 
91 91 0 
81 88 0 
74 80 0 
90 85 0 
102 104 0 
92 94 0 
88 82 0 
95 96 0 
97 101 0 
95 86 0 
94 94 0 
107 102 0 
93 89 0 
88 79 0 
87 83 0 
90 92 0 
92 84 0 
102 93 0 
100 87 0 
97 84 0 
95 82 0 
98 82 0 
114 99 0 
94 78 0 
112 96 0 
102 89 0 
115 95 0 
92 77 0 
119 96 0 
97 85 0 
116 86 0 
112 98 0 
83 62 0 
90 72 0 
107 76 0 
101 79 0 
104 76 0 
116 89 0 
114 75 0 
106 58 0 
102 58 0 
98 57 0 
98 61 0 
127 0 0 
125 0 0 
137 0 0 
133 0 0 
135 0 0 
140 0 0 
133 0 0 
145 0 0 
145 0 0 
151 0 0 
153 0 0 
151 0 0 
159 0 0 
153 0 0 
156 0 0 
160 0 0 
158 0 0 
151 0 0 
162 0 0 
158 0 0 
162 0 0 
158 0 0 
156 0 0 
164 0 0 
156 0 0 
165 0 0 
171 0 0 
158 0 0 
165 0 0 
163 0 0 
170 0 0 
160 0 0 
172 0 0 
168 0 0 
171 0 0 
173 0 0 
172 0 0 
172 0 0 
170 0 0 
173 0 0 
163 0 0 
156 0 0 
166 0 0 
167 0 0 
174 0 0 
169 0 0 
176 0 0 
170 0 0 
174 0 0 
165 0 0 
171 0 0 
174 0 0 
170 0 0 
174 0 0 
172 0 0 
174 0 0 
171 0 0 
167 0 0 
178 0 0 
179 0 0 
172 0 0 
182 0 0 
171 0 0 
172 0 0 
175 0 0 
177 0 0 
181 0 0 
171 0 0 
174 0 0 
182 0 0 
176 0 0 
171 0 0 
176 0 0 
178 0 0 
182 0 0 
181 0 0 
175 0 0 
174 0 0 
178 0 0 
181 0 0 
176 0 0 
176 0 0 
183 0 0 
177 0 0 
180 0 0 
176 0 0 
180 0 0 
182 0 0 
182 0 0 
183 0 0 
177 0 0 
185 0 0 
185 0 0 
179 0 0 
181 0 0 
183 0 0 
177 0 0 
177 0 0 
178 0 0 
181 0 0 
179 0 0 
181 0 0 
180 0 0 
176 0 0 
183 0 0 
181 0 0 
183 0 0 
181 0 0 
182 0 0 
185 0 0 
184 0 0 
182 0 0 
184 0 0 
185 0 0 
186 0 0 
186 0 0 
190 0 0 
186 0 0 
187 0 0 
180 0 0 
189 0 0 
176 0 0 
183 0 0 
182 0 0 
180 0 0 
183 0 0 
185 0 0 
182 0 0 
187 0 0 
189 0 0 
181 0 0 
184 0 0 
183 0 0 
182 0 0 
184 0 0 
180 0 0 
186 0 0 
179 0 0 
185 0 0 
188 0 0 
178 0 0 
180 0 0 
186 0 0 
182 0 0 
185 0 0 
186 0 0 
186 0 0 
188 0 0 
182 0 0 
185 0 0 
185 0 0 
183 0 0 
185 0 0 
184 0 0 
182 0 0 
189 0 0 
184 0 0 
183 0 0 
185 0 0 
186 0 0 
183 0 0 
184 0 0 
186 0 0 
188 0 0 
186 0 0 
0 0 153 
0 0 159 
0 0 179 
0 0 169 
0 0 149 
0 0 151 
0 0 179 
0 0 173 
0 0 163 
0 0 151 
0 0 155 
0 0 165 
0 0 140 
0 0 153 
0 0 153 
0 0 135 
0 0 163 
0 0 153 
0 0 155 
0 0 144 
0 0 155 
0 0 144 
0 0 149 
0 0 159 
0 0 157 
0 0 163 
0 0 155 
0 0 179 
0 0 155 
0 0 151 
0 0 151 
0 0 155 
0 0 163 
0 0 137 
0 0 147 
0 0 157 
0 0 161 
0 0 163 
0 0 153 
0 0 149 
0 0 159 
0 0 163 
0 0 163 
0 0 142 
0 0 175 
0 0 155 
0 0 169 
0 0 173 
0 0 155 
0 0 163 
0 0 165 
0 0 163 
0 0 151 
0 0 149 
0 0 169 
0 0 144 
0 0 149 
0 0 169 
0 0 159 
0 0 142 
0 0 157 
0 0 165 
0 0 159 
0 0 142 
0 0 169 
0 0 153 
0 0 137 
0 0 140 
0 0 151 
0 0 151 
0 0 157 
0 0 149 
0 0 161 
0 0 140 
0 0 142 
0 0 157 
0 0 142 
0 0 144 
0 0 130 
0 0 144 
0 0 161 
0 0 149 
0 0 135 
0 0 163 
0 0 142 
0 0 163 
0 0 135 
0 0 137 
0 0 130 
0 0 144 
0 0 144 
0 0 155 
0 0 144 
0 0 165 
0 0 135 
0 0 163 
0 0 149 
0 0 140 
0 0 153 
0 0 157 
0 0 130 
0 0 133 
0 0 128 
0 0 144 
0 0 151 
0 0 147 
0 0 144 
0 0 142 
0 0 155 
0 0 137 
0 0 114 
0 0 142 
0 0 137 
0 0 140 
0 0 155 
0 0 137 
0 0 137 
0 0 142 
0 0 130 
0 0 140 
0 0 120 
0 0 147 
0 0 114 
0 0 151 
0 0 135 
0 0 125 
0 0 144 
0 0 135 
0 0 125 
0 0 117 
0 0 137 
0 0 130 
0 0 130 
0 0 135 
0 0 114 
0 0 102 
0 0 114 
0 0 114 
0 0 105 
0 0 137 
0 0 95 
0 0 144 
0 0 128 
0 0 102 
0 0 120 
0 0 114 
0 0 133 
0 0 108 
0 0 105 
0 0 117 
0 0 108 
0 0 125 
0 0 117 
0 0 99 
0 0 95 
0 0 105 
0 0 88 
0 0 92 
0 0 94 
0 0 111 
0 0 99 
0 0 78 
0 0 76 
19 21 72 
62 58 44 
64 58 0 
64 71 0 
73 82 0 
72 73 0 
73 71 0 
64 67 0 
69 72 0 
72 75 0 
93 90 0 
82 87 0 
66 67 0 
76 81 0 
87 92 0 
98 104 0 
89 88 0 
77 81 0 
78 84 0 
61 70 0 
86 86 0 
87 81 0 
91 93 0 
95 95 0 
93 91 0 
90 95 0 
85 86 0 
82 79 0 
86 85 0 
89 97 0 
103 110 0 
90 90 0 
100 100 0 
95 92 0 
88 87 0 
99 90 0 
95 99 0 
101 100 0 
88 87 0 
98 92 0 
97 90 0 
106 94 0 
96 97 0 
98 95 0 
96 90 0 
98 95 0 
97 100 0 
110 92 0 
110 103 0 
98 81 0 
94 92 0 
105 99 0 
97 92 0 
96 84 0 
98 91 0 
102 74 0 
91 80 0 
98 82 0 
105 89 0 
118 94 0 
99 79 0 
110 79 0 
109 89 0 
106 74 0 
99 63 0 
106 76 0 
105 65 0 
106 64 0 
109 65 0 
105 58 0 
97 63 0 
104 75 0 
90 46 0 
108 0 0 
129 0 0 
137 0 0 
133 0 0 
139 0 0 
142 0 0 
145 0 0 
148 0 0 
153 0 0 
142 0 0 
150 0 0 
145 0 0 
142 0 0 
150 0 0 
155 0 0 
162 0 0 
159 0 0 
150 0 0 
154 0 0 
162 0 0 
159 0 0 
151 0 0 
159 0 0 
160 0 0 
161 0 0 
154 0 0 
169 0 0 
158 0 0 
162 0 0 
163 0 0 
156 0 0 
167 0 0 
166 0 0 
163 0 0 
161 0 0 
163 0 0 
166 0 0 
163 0 0 
164 0 0 
164 0 0 
166 0 0 
170 0 0 
171 0 0 
172 0 0 
170 0 0 
170 0 0 
168 0 0 
175 0 0 
173 0 0 
173 0 0 
172 0 0 
169 0 0 
171 0 0 
178 0 0 
180 0 0 
182 0 0 
178 0 0 
179 0 0 
182 0 0 
173 0 0 
175 0 0 
173 0 0 
175 0 0 
178 0 0 
174 0 0 
183 0 0 
178 0 0 
178 0 0 
179 0 0 
171 0 0 
174 0 0 
176 0 0 
175 0 0 
178 0 0 
171 0 0 
175 0 0 
171 0 0 
175 0 0 
174 0 0 
183 0 0 
184 0 0 
182 0 0 
184 0 0 
176 0 0 
185 0 0 
182 0 0 
179 0 0 
181 0 0 
181 0 0 
172 0 0 
177 0 0 
178 0 0 
181 0 0 
185 0 0 
187 0 0 
176 0 0 
179 0 0 
176 0 0 
177 0 0 
182 0 0 
182 0 0 
175 0 0 
182 0 0 
184 0 0 
177 0 0 
181 0 0 
183 0 0 
185 0 0 
184 0 0 
180 0 0 
182 0 0 
185 0 0 
184 0 0 
186 0 0 
180 0 0 
181 0 0 
184 0 0 
186 0 0 
188 0 0 
180 0 0 
183 0 0 
178 0 0 
184 0 0 
180 0 0 
185 0 0 
183 0 0 
183 0 0 
184 0 0 
181 0 0 
176 0 0 
184 0 0 
185 0 0 
185 0 0 
187 0 0 
185 0 0 
184 0 0 
184 0 0 
184 0 0 
182 0 0 
182 0 0 
183 0 0 
185 0 0 
184 0 0 
188 0 0 
185 0 0 
187 0 0 
181 0 0 
182 0 0 
182 0 0 
190 0 0 
184 0 0 
181 0 0 
186 0 0 
183 0 0 
181 0 0 
182 0 0 
184 0 0 
185 0 0 
185 0 0 
187 0 0 
186 0 0 
186 0 0 
183 0 0 
179 0 0 
0 0 171 
0 0 159 
0 0 167 
0 0 163 
0 0 173 
0 0 151 
0 0 159 
0 0 177 
0 0 171 
0 0 159 
0 0 151 
0 0 163 
0 0 140 
0 0 169 
0 0 161 
0 0 153 
0 0 171 
0 0 157 
0 0 149 
0 0 167 
0 0 149 
0 0 169 
0 0 155 
0 0 153 
0 0 155 
0 0 135 
0 0 173 
0 0 171 
0 0 157 
0 0 149 
0 0 169 
0 0 153 
0 0 155 
0 0 163 
0 0 155 
0 0 177 
0 0 149 
0 0 117 
0 0 161 
0 0 155 
0 0 165 
0 0 151 
0 0 140 
0 0 159 
0 0 159 
0 0 130 
0 0 165 
0 0 151 
0 0 157 
0 0 142 
0 0 159 
0 0 151 
0 0 144 
0 0 140 
0 0 153 
0 0 142 
0 0 147 
0 0 153 
0 0 144 
0 0 163 
0 0 147 
0 0 155 
0 0 153 
0 0 153 
0 0 130 
0 0 159 
0 0 147 
0 0 142 
0 0 161 
0 0 165 
0 0 153 
0 0 155 
0 0 155 
0 0 142 
0 0 140 
0 0 140 
0 0 144 
0 0 153 
0 0 147 
0 0 142 
0 0 151 
0 0 165 
0 0 147 
0 0 147 
0 0 147 
0 0 151 
0 0 137 
0 0 155 
0 0 135 
0 0 159 
0 0 155 
0 0 151 
0 0 133 
0 0 163 
0 0 161 
0 0 157 
0 0 147 
0 0 137 
0 0 159 
0 0 135 
0 0 133 
0 0 130 
0 0 140 
0 0 169 
0 0 122 
0 0 137 
0 0 144 
0 0 128 
0 0 140 
0 0 147 
0 0 147 
0 0 140 
0 0 130 
0 0 142 
0 0 137 
0 0 125 
0 0 157 
0 0 151 
0 0 151 
0 0 133 
0 0 133 
0 0 135 
0 0 133 
0 0 135 
0 0 135 
0 0 147 
0 0 133 
0 0 128 
0 0 140 
0 0 149 
0 0 140 
0 0 122 
0 0 120 
0 0 140 
0 0 128 
0 0 105 
0 0 125 
0 0 114 
0 0 114 
0 0 130 
0 0 130 
0 0 142 
0 0 108 
0 0 126 
0 0 111 
0 0 111 
0 0 111 
0 0 102 
0 0 117 
0 0 137 
0 0 105 
0 0 114 
0 0 88 
0 0 129 
0 0 105 
0 0 111 
0 0 102 
0 0 80 
0 0 88 
0 0 99 
0 0 72 
0 0 88 
19 0 51 
55 53 0 
68 70 0 
61 68 0 
49 36 0 
77 81 0 
68 65 0 
70 77 0 
67 73 0 
79 76 0 
87 86 0 
72 79 0 
80 83 0 
72 80 0 
69 63 0 
79 82 0 
74 79 0 
77 78 0 
76 81 0 
91 99 0 
87 84 0 
84 88 0 
95 95 0 
84 80 0 
99 103 0 
80 78 0 
93 96 0 
104 105 0 
89 93 0 
97 97 0 
98 97 0 
96 95 0 
104 104 0 
90 83 0 
94 89 0 
106 107 0 
85 77 0 
103 97 0 
100 100 0 
89 85 0 
95 91 0 
97 94 0 
107 95 0 
102 104 0 
90 87 0 
103 97 0 
109 98 0 
99 98 0 
101 94 0 
100 89 0 
104 79 0 
123 115 0 
111 102 0 
112 100 0 
113 90 0 
103 88 0 
107 87 0 
113 96 0 
110 70 0 
98 84 0 
96 77 0 
106 89 0 
100 79 0 
112 79 0 
106 72 0 
112 89 0 
107 84 0 
115 83 0 
112 94 0 
106 70 0 
111 76 0 
116 78 0 
105 50 0 
117 75 0 
103 62 0 
126 21 0 
135 0 0 
137 0 0 
129 0 0 
138 0 0 
139 0 0 
138 0 0 
145 0 0 
135 0 0 
153 0 0 
147 0 0 
149 0 0 
161 0 0 
156 0 0 
155 0 0 
152 0 0 
153 0 0 
152 0 0 
153 0 0 
158 0 0 
143 0 0 
161 0 0 
159 0 0 
164 0 0 
170 0 0 
153 0 0 
168 0 0 
159 0 0 
160 0 0 
164 0 0 
162 0 0 
168 0 0 
165 0 0 
169 0 0 
169 0 0 
164 0 0 
162 0 0 
167 0 0 
171 0 0 
170 0 0 
167 0 0 
173 0 0 
168 0 0 
169 0 0 
174 0 0 
161 0 0 
172 0 0 
167 0 0 
172 0 0 
173 0 0 
174 0 0 
174 0 0 
175 0 0 
174 0 0 
171 0 0 
183 0 0 
167 0 0 
172 0 0 
166 0 0 
180 0 0 
182 0 0 
175 0 0 
171 0 0 
174 0 0 
168 0 0 
164 0 0 
175 0 0 
175 0 0 
176 0 0 
172 0 0 
182 0 0 
179 0 0 
177 0 0 
180 0 0 
180 0 0 
181 0 0 
180 0 0 
177 0 0 
172 0 0 
181 0 0 
174 0 0 
178 0 0 
186 0 0 
181 0 0 
176 0 0 
182 0 0 
182 0 0 
182 0 0 
180 0 0 
186 0 0 
178 0 0 
179 0 0 
180 0 0 
174 0 0 
182 0 0 
182 0 0 
180 0 0 
182 0 0 
177 0 0 
188 0 0 
176 0 0 
174 0 0 
178 0 0 
183 0 0 
185 0 0 
189 0 0 
178 0 0 
183 0 0 
176 0 0 
180 0 0 
181 0 0 
173 0 0 
181 0 0 
176 0 0 
181 0 0 
182 0 0 
179 0 0 
178 0 0 
185 0 0 
182 0 0 
184 0 0 
187 0 0 
183 0 0 
182 0 0 
182 0 0 
186 0 0 
178 0 0 
184 0 0 
180 0 0 
181 0 0 
184 0 0 
188 0 0 
184 0 0 
182 0 0 
184 0 0 
184 0 0 
192 0 0 
182 0 0 
191 0 0 
181 0 0 
182 0 0 
183 0 0 
186 0 0 
185 0 0 
186 0 0 
186 0 0 
188 0 0 
186 0 0 
184 0 0 
182 0 0 
183 0 0 
182 0 0 
184 0 0 
183 0 0 
187 0 0 
184 0 0 
187 0 0 
190 0 0 
182 0 0 
186 0 0 
188 0 0 
189 0 0 
186 0 0 
0 0 161 
0 0 179 
0 0 165 
0 0 144 
0 0 155 
0 0 173 
0 0 157 
0 0 157 
0 0 169 
0 0 155 
0 0 151 
0 0 169 
0 0 137 
0 0 165 
0 0 159 
0 0 151 
0 0 175 
0 0 177 
0 0 159 
0 0 175 
0 0 155 
0 0 175 
0 0 149 
0 0 157 
0 0 142 
0 0 153 
0 0 147 
0 0 155 
0 0 161 
0 0 147 
0 0 159 
0 0 163 
0 0 161 
0 0 151 
0 0 142 
0 0 182 
0 0 147 
0 0 163 
0 0 159 
0 0 171 
0 0 153 
0 0 142 
0 0 163 
0 0 171 
0 0 142 
0 0 155 
0 0 161 
0 0 147 
0 0 130 
0 0 163 
0 0 147 
0 0 161 
0 0 135 
0 0 137 
0 0 149 
0 0 153 
0 0 149 
0 0 161 
0 0 153 
0 0 149 
0 0 165 
0 0 140 
0 0 157 
0 0 159 
0 0 155 
0 0 133 
0 0 161 
0 0 163 
0 0 142 
0 0 137 
0 0 167 
0 0 167 
0 0 142 
0 0 130 
0 0 153 
0 0 130 
0 0 167 
0 0 130 
0 0 144 
0 0 151 
0 0 165 
0 0 149 
0 0 140 
0 0 153 
0 0 153 
0 0 135 
0 0 125 
0 0 157 
0 0 142 
0 0 165 
0 0 133 
0 0 142 
0 0 161 
0 0 153 
0 0 167 
0 0 142 
0 0 144 
0 0 137 
0 0 153 
0 0 155 
0 0 142 
0 0 135 
0 0 137 
0 0 147 
0 0 137 
0 0 140 
0 0 144 
0 0 153 
0 0 153 
0 0 147 
0 0 137 
0 0 153 
0 0 137 
0 0 144 
0 0 159 
0 0 130 
0 0 151 
0 0 133 
0 0 128 
0 0 128 
0 0 125 
0 0 125 
0 0 137 
0 0 144 
0 0 137 
0 0 135 
0 0 137 
0 0 130 
0 0 99 
0 0 111 
0 0 142 
0 0 130 
0 0 125 
0 0 117 
0 0 137 
0 0 137 
0 0 114 
0 0 114 
0 0 117 
0 0 135 
0 0 133 
0 0 122 
0 0 95 
0 0 122 
0 0 111 
0 0 117 
0 0 122 
0 0 88 
0 0 114 
0 0 125 
0 0 105 
0 0 114 
0 0 120 
0 0 105 
0 0 105 
0 0 117 
0 0 99 
0 0 95 
0 0 82 
0 0 67 
0 0 72 
41 45 57 
57 58 0 
82 84 0 
76 61 0 
66 60 0 
85 86 0 
80 81 0 
81 71 0 
72 76 0 
75 85 0 
101 104 0 
77 81 0 
83 88 0 
70 78 0 
87 91 0 
85 86 0 
81 86 0 
83 88 0 
83 85 0 
96 92 0 
94 96 0 
83 90 0 
102 104 0 
88 94 0 
86 89 0 
91 81 0 
98 93 0 
89 91 0 
85 91 0 
96 96 0 
99 104 0 
109 112 0 
92 91 0 
94 100 0 
85 83 0 
84 75 0 
94 92 0 
106 93 0 
92 83 0 
92 99 0 
95 91 0 
106 109 0 
103 107 0 
102 93 0 
112 107 0 
98 102 0 
105 97 0 
106 99 0 
108 108 0 
115 107 0 
107 94 0 
101 84 0 
107 97 0 
115 99 0 
117 103 0 
106 95 0 
108 90 0 
110 104 0 
112 92 0 
111 100 0 
102 83 0 
121 96 0 
112 76 0 
109 77 0 
107 68 0 
117 99 0 
115 88 0 
112 86 0 
115 90 0 
111 84 0 
111 79 0 
113 70 0 
122 88 0 
105 56 0 
120 84 0 
117 78 0 
108 74 0 
112 28 0 
126 0 0 
143 0 0 
140 0 0 
134 0 0 
145 0 0 
138 0 0 
144 0 0 
130 0 0 
151 0 0 
144 0 0 
144 0 0 
156 0 0 
154 0 0 
156 0 0 
149 0 0 
146 0 0 
163 0 0 
153 0 0 
159 0 0 
153 0 0 
163 0 0 
164 0 0 
166 0 0 
162 0 0 
166 0 0 
167 0 0 
171 0 0 
162 0 0 
164 0 0 
167 0 0 
169 0 0 
165 0 0 
166 0 0 
169 0 0 
171 0 0 
168 0 0 
160 0 0 
174 0 0 
166 0 0 
175 0 0 
175 0 0 
181 0 0 
164 0 0 
173 0 0 
171 0 0 
172 0 0 
178 0 0 
170 0 0 
177 0 0 
176 0 0 
169 0 0 
170 0 0 
163 0 0 
173 0 0 
173 0 0 
171 0 0 
171 0 0 
174 0 0 
168 0 0 
180 0 0 
172 0 0 
176 0 0 
168 0 0 
180 0 0 
178 0 0 
172 0 0 
177 0 0 
174 0 0 
178 0 0 
175 0 0 
175 0 0 
176 0 0 
176 0 0 
171 0 0 
176 0 0 
174 0 0 
177 0 0 
180 0 0 
176 0 0 
176 0 0 
184 0 0 
185 0 0 
183 0 0 
173 0 0 
173 0 0 
182 0 0 
177 0 0 
180 0 0 
181 0 0 
180 0 0 
177 0 0 
178 0 0 
183 0 0 
181 0 0 
180 0 0 
181 0 0 
173 0 0 
180 0 0 
179 0 0 
182 0 0 
180 0 0 
186 0 0 
178 0 0 
183 0 0 
185 0 0 
185 0 0 
182 0 0 
180 0 0 
180 0 0 
182 0 0 
185 0 0 
182 0 0 
182 0 0 
184 0 0 
185 0 0 
182 0 0 
186 0 0 
187 0 0 
186 0 0 
183 0 0 
189 0 0 
189 0 0 
181 0 0 
184 0 0 
180 0 0 
182 0 0 
182 0 0 
180 0 0 
181 0 0 
181 0 0 
183 0 0 
177 0 0 
180 0 0 
180 0 0 
185 0 0 
186 0 0 
185 0 0 
182 0 0 
183 0 0 
182 0 0 
187 0 0 
187 0 0 
185 0 0 
182 0 0 
182 0 0 
186 0 0 
183 0 0 
182 0 0 
185 0 0 
184 0 0 
183 0 0 
188 0 0 
184 0 0 
185 0 0 
187 0 0 
184 0 0 
177 0 0 
189 0 0 
186 0 0 
185 0 0 
178 0 0 
0 0 147 
0 0 159 
0 0 155 
0 0 159 
0 0 161 
0 0 161 
0 0 173 
0 0 163 
0 0 153 
0 0 157 
0 0 169 
0 0 161 
0 0 184 
0 0 157 
0 0 144 
0 0 161 
0 0 167 
0 0 165 
0 0 153 
0 0 165 
0 0 155 
0 0 157 
0 0 165 
0 0 155 
0 0 153 
0 0 159 
0 0 163 
0 0 161 
0 0 169 
0 0 147 
0 0 147 
0 0 144 
0 0 144 
0 0 144 
0 0 186 
0 0 135 
0 0 149 
0 0 159 
0 0 159 
0 0 155 
0 0 155 
0 0 165 
0 0 157 
0 0 159 
0 0 153 
0 0 144 
0 0 144 
0 0 128 
0 0 159 
0 0 157 
0 0 169 
0 0 144 
0 0 147 
0 0 155 
0 0 157 
0 0 169 
0 0 149 
0 0 153 
0 0 167 
0 0 163 
0 0 155 
0 0 155 
0 0 144 
0 0 157 
0 0 161 
0 0 155 
0 0 151 
0 0 153 
0 0 153 
0 0 149 
0 0 159 
0 0 122 
0 0 155 
0 0 137 
0 0 153 
0 0 165 
0 0 142 
0 0 157 
0 0 135 
0 0 144 
0 0 155 
0 0 135 
0 0 135 
0 0 137 
0 0 144 
0 0 147 
0 0 157 
0 0 144 
0 0 142 
0 0 159 
0 0 137 
0 0 161 
0 0 151 
0 0 144 
0 0 135 
0 0 153 
0 0 133 
0 0 137 
0 0 133 
0 0 153 
0 0 155 
0 0 130 
0 0 140 
0 0 130 
0 0 153 
0 0 120 
0 0 149 
0 0 151 
0 0 135 
0 0 133 
0 0 125 
0 0 108 
0 0 122 
0 0 142 
0 0 128 
0 0 142 
0 0 142 
0 0 140 
0 0 153 
0 0 149 
0 0 140 
0 0 111 
0 0 128 
0 0 142 
0 0 149 
0 0 142 
0 0 125 
0 0 137 
0 0 135 
0 0 122 
0 0 128 
0 0 117 
0 0 122 
0 0 120 
0 0 137 
0 0 130 
0 0 140 
0 0 133 
0 0 122 
0 0 99 
0 0 114 
0 0 122 
0 0 105 
0 0 108 
0 0 120 
0 0 108 
0 0 114 
0 0 99 
0 0 111 
0 0 92 
0 0 92 
0 0 114 
0 0 105 
0 0 99 
0 0 88 
0 0 102 
0 0 92 
0 0 92 
0 0 95 
19 20 80 
55 54 25 
65 67 0 
52 53 0 
65 62 0 
68 72 0 
78 79 0 
76 77 0 
76 76 0 
81 79 0 
88 89 0 
79 76 0 
86 92 0 
89 85 0 
90 93 0 
74 79 0 
92 95 0 
88 89 0 
79 84 0 
94 91 0 
89 91 0 
84 85 0 
101 109 0 
88 92 0 
86 88 0 
107 112 0 
101 106 0 
97 95 0 
98 94 0 
99 107 0 
97 97 0 
87 87 0 
102 99 0 
89 83 0 
101 101 0 
100 95 0 
98 94 0 
103 94 0 
97 94 0 
93 94 0 
100 101 0 
100 87 0 
116 113 0 
92 84 0 
108 101 0 
101 101 0 
119 111 0 
92 87 0 
113 106 0 
105 93 0 
112 98 0 
107 104 0 
105 95 0 
107 93 0 
104 79 0 
108 90 0 
119 101 0 
116 89 0 
116 94 0 
103 88 0 
101 90 0 
114 87 0 
108 90 0 
113 93 0 
115 89 0 
107 91 0 
107 83 0 
108 84 0 
106 74 0 
112 91 0 
108 92 0 
111 84 0 
112 68 0 
103 87 0 
116 78 0 
114 87 0 
112 66 0 
118 89 0 
114 48 0 
114 67 0 
110 53 0 
109 19 0 
132 0 0 
135 0 0 
144 0 0 
146 0 0 
154 0 0 
144 0 0 
140 0 0 
155 0 0 
153 0 0 
146 0 0 
151 0 0 
158 0 0 
152 0 0 
149 0 0 
158 0 0 
160 0 0 
156 0 0 
156 0 0 
165 0 0 
153 0 0 
161 0 0 
160 0 0 
152 0 0 
169 0 0 
166 0 0 
165 0 0 
164 0 0 
173 0 0 
160 0 0 
165 0 0 
174 0 0 
164 0 0 
167 0 0 
168 0 0 
162 0 0 
167 0 0 
164 0 0 
156 0 0 
166 0 0 
168 0 0 
168 0 0 
172 0 0 
174 0 0 
163 0 0 
168 0 0 
174 0 0 
179 0 0 
169 0 0 
176 0 0 
175 0 0 
173 0 0 
164 0 0 
169 0 0 
173 0 0 
173 0 0 
168 0 0 
171 0 0 
171 0 0 
171 0 0 
166 0 0 
174 0 0 
169 0 0 
171 0 0 
176 0 0 
171 0 0 
181 0 0 
178 0 0 
174 0 0 
175 0 0 
178 0 0 
177 0 0 
177 0 0 
177 0 0 
176 0 0 
176 0 0 
176 0 0 
171 0 0 
181 0 0 
179 0 0 
180 0 0 
172 0 0 
177 0 0 
177 0 0 
185 0 0 
178 0 0 
179 0 0 
177 0 0 
183 0 0 
184 0 0 
177 0 0 
178 0 0 
180 0 0 
174 0 0 
183 0 0 
182 0 0 
182 0 0 
180 0 0 
176 0 0 
179 0 0 
180 0 0 
180 0 0 
184 0 0 
178 0 0 
178 0 0 
182 0 0 
182 0 0 
182 0 0 
185 0 0 
182 0 0 
178 0 0 
180 0 0 
182 0 0 
184 0 0 
185 0 0 
180 0 0 
178 0 0 
180 0 0 
182 0 0 
182 0 0 
183 0 0 
178 0 0 
179 0 0 
182 0 0 
179 0 0 
183 0 0 
186 0 0 
181 0 0 
182 0 0 
183 0 0 
183 0 0 
189 0 0 
186 0 0 
181 0 0 
185 0 0 
183 0 0 
181 0 0 
187 0 0 
185 0 0 
177 0 0 
184 0 0 
186 0 0 
186 0 0 
189 0 0 
182 0 0 
183 0 0 
180 0 0 
183 0 0 
187 0 0 
184 0 0 
184 0 0 
187 0 0 
180 0 0 
187 0 0 
186 0 0 
183 0 0 
177 0 0 
190 0 0 
187 0 0 
181 0 0 
0 0 173 
0 0 163 
0 0 165 
0 0 155 
0 0 157 
0 0 165 
0 0 151 
0 0 173 
0 0 159 
0 0 155 
0 0 151 
0 0 142 
0 0 153 
0 0 157 
0 0 165 
0 0 159 
0 0 153 
0 0 165 
0 0 142 
0 0 153 
0 0 165 
0 0 142 
0 0 169 
0 0 159 
0 0 175 
0 0 140 
0 0 153 
0 0 159 
0 0 149 
0 0 157 
0 0 155 
0 0 144 
0 0 167 
0 0 130 
0 0 147 
0 0 155 
0 0 165 
0 0 147 
0 0 149 
0 0 130 
0 0 161 
0 0 171 
0 0 159 
0 0 161 
0 0 142 
0 0 147 
0 0 177 
0 0 153 
0 0 114 
0 0 159 
0 0 137 
0 0 159 
0 0 163 
0 0 149 
0 0 151 
0 0 147 
0 0 149 
0 0 142 
0 0 151 
0 0 153 
0 0 155 
0 0 159 
0 0 155 
0 0 137 
0 0 147 
0 0 144 
0 0 153 
0 0 125 
0 0 144 
0 0 137 
0 0 147 
0 0 137 
0 0 147 
0 0 169 
0 0 157 
0 0 167 
0 0 149 
0 0 144 
0 0 149 
0 0 137 
0 0 153 
0 0 133 
0 0 147 
0 0 147 
0 0 155 
0 0 157 
0 0 142 
0 0 130 
0 0 155 
0 0 149 
0 0 157 
0 0 153 
0 0 151 
0 0 137 
0 0 147 
0 0 140 
0 0 133 
0 0 140 
0 0 153 
0 0 128 
0 0 135 
0 0 125 
0 0 137 
0 0 133 
0 0 144 
0 0 133 
0 0 128 
0 0 147 
0 0 135 
0 0 128 
0 0 144 
0 0 144 
0 0 153 
0 0 117 
0 0 144 
0 0 105 
0 0 142 
0 0 130 
0 0 130 
0 0 122 
0 0 140 
0 0 125 
0 0 130 
0 0 135 
0 0 128 
0 0 153 
0 0 111 
0 0 117 
0 0 122 
0 0 128 
0 0 117 
0 0 130 
0 0 128 
0 0 120 
0 0 137 
0 0 120 
0 0 135 
0 0 130 
0 0 105 
0 0 111 
0 0 111 
0 0 120 
0 0 120 
0 0 99 
0 0 117 
0 0 125 
0 0 128 
0 0 105 
0 0 120 
0 0 111 
0 0 108 
0 0 105 
0 0 102 
0 0 84 
0 0 92 
0 0 105 
0 0 120 
0 0 76 
17 0 51 
68 71 25 
63 54 0 
73 75 0 
66 65 0 
69 78 0 
79 81 0 
79 80 0 
75 82 0 
73 81 0 
85 91 0 
94 92 0 
75 78 0 
92 101 0 
85 90 0 
88 83 0 
93 93 0 
105 104 0 
90 91 0 
103 104 0 
95 99 0 
94 101 0 
94 98 0 
98 107 0 
103 98 0 
96 96 0 
107 112 0 
84 83 0 
101 99 0 
86 89 0 
102 105 0 
95 95 0 
88 91 0 
100 99 0 
109 109 0 
100 102 0 
103 104 0 
104 106 0 
99 105 0 
103 102 0 
90 87 0 
85 77 0 
110 111 0 
104 106 0 
103 95 0 
108 103 0 
91 84 0 
102 97 0 
119 110 0 
102 93 0 
114 102 0 
98 90 0 
108 96 0 
103 88 0 
114 105 0 
114 105 0 
112 101 0 
108 94 0 
106 95 0 
106 96 0 
115 96 0 
110 97 0 
115 103 0 
111 98 0 
102 76 0 
118 103 0 
116 91 0 
123 106 0 
105 81 0 
111 87 0 
110 81 0 
106 81 0 
119 88 0 
119 90 0 
122 81 0 
109 66 0 
113 87 0 
125 81 0 
112 78 0 
115 82 0 
116 79 0 
113 56 0 
99 55 0 
116 53 0 
135 0 0 
132 0 0 
131 0 0 
136 0 0 
132 0 0 
147 0 0 
149 0 0 
146 0 0 
146 0 0 
152 0 0 
154 0 0 
157 0 0 
151 0 0 
162 0 0 
147 0 0 
148 0 0 
159 0 0 
160 0 0 
158 0 0 
160 0 0 
159 0 0 
160 0 0 
166 0 0 
168 0 0 
166 0 0 
164 0 0 
164 0 0 
153 0 0 
171 0 0 
168 0 0 
165 0 0 
164 0 0 
152 0 0 
169 0 0 
169 0 0 
166 0 0 
167 0 0 
171 0 0 
171 0 0 
172 0 0 
172 0 0 
171 0 0 
166 0 0 
167 0 0 
173 0 0 
170 0 0 
167 0 0 
176 0 0 
176 0 0 
162 0 0 
171 0 0 
176 0 0 
175 0 0 
172 0 0 
170 0 0 
170 0 0 
183 0 0 
177 0 0 
173 0 0 
172 0 0 
177 0 0 
180 0 0 
180 0 0 
181 0 0 
181 0 0 
171 0 0 
175 0 0 
174 0 0 
181 0 0 
182 0 0 
178 0 0 
178 0 0 
173 0 0 
176 0 0 
181 0 0 
175 0 0 
178 0 0 
178 0 0 
181 0 0 
179 0 0 
176 0 0 
184 0 0 
179 0 0 
181 0 0 
176 0 0 
184 0 0 
174 0 0 
178 0 0 
177 0 0 
177 0 0 
181 0 0 
181 0 0 
187 0 0 
177 0 0 
178 0 0 
183 0 0 
179 0 0 
184 0 0 
185 0 0 
178 0 0 
180 0 0 
180 0 0 
178 0 0 
180 0 0 
179 0 0 
179 0 0 
181 0 0 
181 0 0 
182 0 0 
187 0 0 
181 0 0 
181 0 0 
179 0 0 
184 0 0 
178 0 0 
184 0 0 
183 0 0 
188 0 0 
185 0 0 
186 0 0 
184 0 0 
181 0 0 
178 0 0 
187 0 0 
183 0 0 
181 0 0 
188 0 0 
186 0 0 
189 0 0 
186 0 0 
189 0 0 
183 0 0 
180 0 0 
185 0 0 
181 0 0 
183 0 0 
185 0 0 
190 0 0 
187 0 0 
186 0 0 
179 0 0 
183 0 0 
181 0 0 
187 0 0 
183 0 0 
186 0 0 
183 0 0 
185 0 0 
189 0 0 
187 0 0 
180 0 0 
184 0 0 
185 0 0 
183 0 0 
180 0 0 
188 0 0 
187 0 0 
185 0 0 
0 0 147 
0 0 149 
0 0 155 
0 0 133 
0 0 142 
0 0 153 
0 0 171 
0 0 144 
0 0 177 
0 0 163 
0 0 147 
0 0 157 
0 0 169 
0 0 157 
0 0 171 
0 0 179 
0 0 161 
0 0 142 
0 0 163 
0 0 155 
0 0 155 
0 0 147 
0 0 169 
0 0 151 
0 0 167 
0 0 155 
0 0 167 
0 0 159 
0 0 155 
0 0 161 
0 0 153 
0 0 153 
0 0 137 
0 0 161 
0 0 163 
0 0 175 
0 0 155 
0 0 155 
0 0 153 
0 0 159 
0 0 147 
0 0 157 
0 0 161 
0 0 151 
0 0 151 
0 0 149 
0 0 157 
0 0 147 
0 0 159 
0 0 155 
0 0 149 
0 0 161 
0 0 151 
0 0 173 
0 0 173 
0 0 149 
0 0 153 
0 0 155 
0 0 144 
0 0 151 
0 0 161 
0 0 157 
0 0 147 
0 0 153 
0 0 151 
0 0 151 
0 0 155 
0 0 153 
0 0 157 
0 0 159 
0 0 153 
0 0 130 
0 0 161 
0 0 151 
0 0 144 
0 0 153 
0 0 147 
0 0 140 
0 0 147 
0 0 153 
0 0 140 
0 0 153 
0 0 144 
0 0 137 
0 0 142 
0 0 169 
0 0 135 
0 0 147 
0 0 142 
0 0 163 
0 0 140 
0 0 135 
0 0 144 
0 0 137 
0 0 153 
0 0 157 
0 0 135 
0 0 133 
0 0 159 
0 0 130 
0 0 133 
0 0 157 
0 0 147 
0 0 155 
0 0 142 
0 0 140 
0 0 142 
0 0 130 
0 0 135 
0 0 130 
0 0 133 
0 0 153 
0 0 114 
0 0 133 
0 0 128 
0 0 122 
0 0 159 
0 0 144 
0 0 137 
0 0 137 
0 0 128 
0 0 128 
0 0 130 
0 0 122 
0 0 140 
0 0 111 
0 0 135 
0 0 130 
0 0 117 
0 0 140 
0 0 130 
0 0 114 
0 0 108 
0 0 125 
0 0 130 
0 0 144 
0 0 120 
0 0 108 
0 0 122 
0 0 111 
0 0 111 
0 0 111 
0 0 122 
0 0 99 
0 0 135 
0 0 105 
0 0 95 
0 0 99 
0 0 105 
0 0 102 
0 0 108 
0 0 102 
0 0 76 
0 0 105 
0 0 72 
0 0 95 
0 0 76 
57 57 51 
66 57 0 
57 62 0 
73 81 0 
69 62 0 
85 88 0 
80 88 0 
84 88 0 
85 87 0 
95 93 0 
71 68 0 
105 107 0 
90 92 0 
94 87 0 
80 81 0 
98 99 0 
99 108 0 
96 92 0 
102 106 0 
76 86 0 
81 86 0 
80 85 0 
85 89 0 
93 95 0 
98 100 0 
102 108 0 
97 101 0 
88 89 0 
88 89 0 
103 103 0 
93 86 0 
95 102 0 
100 102 0 
88 90 0 
91 90 0 
100 96 0 
104 103 0 
91 89 0 
102 109 0 
110 108 0 
99 99 0 
101 101 0 
101 99 0 
113 116 0 
96 101 0 
107 107 0 
113 110 0 
92 74 0 
105 97 0 
111 99 0 
103 99 0 
114 109 0 
104 88 0 
114 105 0 
117 117 0 
111 94 0 
111 112 0 
107 103 0 
108 96 0 
114 96 0 
100 84 0 
110 96 0 
116 106 0 
108 97 0 
110 93 0 
116 82 0 
126 89 0 
119 103 0 
117 105 0 
117 87 0 
111 90 0 
113 85 0 
110 95 0 
119 89 0 
122 88 0 
115 101 0 
120 98 0 
124 86 0 
123 88 0 
115 78 0 
125 93 0 
113 55 0 
123 80 0 
123 66 0 
97 62 0 
102 53 0 
117 8 0 
131 0 0 
146 0 0 
147 0 0 
147 0 0 
149 0 0 
153 0 0 
150 0 0 
154 0 0 
153 0 0 
158 0 0 
155 0 0 
153 0 0 
155 0 0 
164 0 0 
157 0 0 
151 0 0 
161 0 0 
152 0 0 
161 0 0 
161 0 0 
166 0 0 
161 0 0 
160 0 0 
164 0 0 
166 0 0 
161 0 0 
170 0 0 
166 0 0 
166 0 0 
170 0 0 
159 0 0 
169 0 0 
176 0 0 
169 0 0 
173 0 0 
161 0 0 
167 0 0 
171 0 0 
164 0 0 
171 0 0 
177 0 0 
169 0 0 
171 0 0 
171 0 0 
172 0 0 
172 0 0 
171 0 0 
173 0 0 
168 0 0 
175 0 0 
172 0 0 
169 0 0 
170 0 0 
185 0 0 
177 0 0 
162 0 0 
175 0 0 
172 0 0 
177 0 0 
176 0 0 
179 0 0 
178 0 0 
175 0 0 
177 0 0 
179 0 0 
180 0 0 
184 0 0 
174 0 0 
177 0 0 
179 0 0 
178 0 0 
176 0 0 
181 0 0 
178 0 0 
179 0 0 
177 0 0 
177 0 0 
178 0 0 
177 0 0 
178 0 0 
178 0 0 
177 0 0 
179 0 0 
180 0 0 
182 0 0 
184 0 0 
176 0 0 
178 0 0 
182 0 0 
180 0 0 
178 0 0 
181 0 0 
182 0 0 
181 0 0 
183 0 0 
179 0 0 
184 0 0 
182 0 0 
176 0 0 
185 0 0 
178 0 0 
184 0 0 
183 0 0 
183 0 0 
182 0 0 
181 0 0 
175 0 0 
187 0 0 
182 0 0 
188 0 0 
180 0 0 
182 0 0 
183 0 0 
187 0 0 
183 0 0 
181 0 0 
182 0 0 
183 0 0 
184 0 0 
187 0 0 
184 0 0 
183 0 0 
184 0 0 
185 0 0 
178 0 0 
186 0 0 
184 0 0 
184 0 0 
183 0 0 
181 0 0 
178 0 0 
183 0 0 
183 0 0 
180 0 0 
185 0 0 
187 0 0 
178 0 0 
185 0 0 
182 0 0 
180 0 0 
184 0 0 
185 0 0 
181 0 0 
183 0 0 
184 0 0 
186 0 0 
187 0 0 
181 0 0 
187 0 0 
185 0 0 
177 0 0 
179 0 0 
184 0 0 
181 0 0 
186 0 0 
179 0 0 
0 0 159 
0 0 155 
0 0 161 
0 0 167 
0 0 157 
0 0 157 
0 0 161 
0 0 181 
0 0 147 
0 0 161 
0 0 151 
0 0 142 
0 0 177 
0 0 157 
0 0 159 
0 0 163 
0 0 153 
0 0 155 
0 0 161 
0 0 177 
0 0 167 
0 0 157 
0 0 163 
0 0 159 
0 0 149 
0 0 142 
0 0 167 
0 0 161 
0 0 175 
0 0 155 
0 0 163 
0 0 159 
0 0 149 
0 0 157 
0 0 147 
0 0 165 
0 0 167 
0 0 153 
0 0 153 
0 0 163 
0 0 157 
0 0 140 
0 0 137 
0 0 153 
0 0 169 
0 0 135 
0 0 153 
0 0 153 
0 0 173 
0 0 149 
0 0 142 
0 0 140 
0 0 149 
0 0 155 
0 0 149 
0 0 163 
0 0 155 
0 0 165 
0 0 147 
0 0 159 
0 0 155 
0 0 157 
0 0 144 
0 0 149 
0 0 153 
0 0 153 
0 0 144 
0 0 144 
0 0 149 
0 0 137 
0 0 122 
0 0 133 
0 0 151 
0 0 153 
0 0 149 
0 0 159 
0 0 142 
0 0 135 
0 0 142 
0 0 157 
0 0 137 
0 0 142 
0 0 153 
0 0 151 
0 0 153 
0 0 161 
0 0 149 
0 0 153 
0 0 147 
0 0 130 
0 0 155 
0 0 149 
0 0 105 
0 0 122 
0 0 137 
0 0 147 
0 0 142 
0 0 142 
0 0 149 
0 0 114 
0 0 149 
0 0 140 
0 0 149 
0 0 144 
0 0 144 
0 0 135 
0 0 135 
0 0 125 
0 0 167 
0 0 128 
0 0 144 
0 0 133 
0 0 142 
0 0 142 
0 0 128 
0 0 128 
0 0 128 
0 0 142 
0 0 114 
0 0 153 
0 0 151 
0 0 125 
0 0 120 
0 0 140 
0 0 147 
0 0 120 
0 0 120 
0 0 111 
0 0 128 
0 0 125 
0 0 125 
0 0 105 
0 0 117 
0 0 128 
0 0 80 
0 0 117 
0 0 128 
0 0 99 
0 0 125 
0 0 125 
0 0 99 
0 0 88 
0 0 114 
0 0 125 
0 0 117 
0 0 120 
0 0 137 
0 0 117 
0 0 105 
0 0 108 
0 0 92 
0 0 95 
0 0 95 
0 0 95 
0 0 80 
31 28 67 
75 77 25 
58 59 0 
70 67 0 
83 86 0 
72 76 0 
88 93 0 
86 94 0 
90 88 0 
89 87 0 
83 88 0 
86 81 0 
88 87 0 
91 91 0 
89 93 0 
86 87 0 
92 87 0 
97 101 0 
101 107 0 
85 81 0 
81 83 0 
90 89 0 
98 107 0 
101 102 0 
92 90 0 
107 108 0 
97 96 0 
102 103 0 
73 74 0 
100 106 0 
98 97 0 
106 102 0 
92 97 0 
99 108 0 
89 85 0 
101 103 0 
110 114 0 
99 93 0 
115 118 0 
109 105 0 
112 114 0 
111 104 0 
108 108 0 
111 111 0 
94 91 0 
94 88 0 
110 114 0 
112 108 0 
117 113 0 
96 92 0 
109 109 0 
118 108 0 
122 125 0 
103 89 0 
112 100 0 
110 102 0 
101 85 0 
110 105 0 
117 88 0 
108 91 0 
124 118 0 
116 106 0 
115 104 0 
105 99 0 
107 102 0 
118 97 0 
115 92 0 
113 93 0 
122 100 0 
115 92 0 
123 114 0 
116 89 0 
109 88 0 
132 100 0 
125 102 0 
116 83 0 
115 90 0 
118 82 0 
107 84 0 
116 70 0 
126 83 0 
127 97 0 
122 83 0 
111 75 0 
125 83 0 
129 83 0 
121 81 0 
122 64 0 
108 36 0 
119 21 0 
136 0 0 
143 0 0 
139 0 0 
152 0 0 
150 0 0 
153 0 0 
139 0 0 
154 0 0 
146 0 0 
157 0 0 
154 0 0 
157 0 0 
157 0 0 
153 0 0 
166 0 0 
160 0 0 
167 0 0 
162 0 0 
155 0 0 
157 0 0 
168 0 0 
166 0 0 
163 0 0 
155 0 0 
162 0 0 
165 0 0 
163 0 0 
163 0 0 
170 0 0 
163 0 0 
171 0 0 
168 0 0 
175 0 0 
170 0 0 
174 0 0 
173 0 0 
160 0 0 
164 0 0 
164 0 0 
166 0 0 
165 0 0 
170 0 0 
175 0 0 
170 0 0 
175 0 0 
172 0 0 
173 0 0 
176 0 0 
168 0 0 
173 0 0 
173 0 0 
167 0 0 
173 0 0 
169 0 0 
177 0 0 
170 0 0 
171 0 0 
174 0 0 
180 0 0 
176 0 0 
181 0 0 
182 0 0 
182 0 0 
177 0 0 
178 0 0 
181 0 0 
181 0 0 
173 0 0 
179 0 0 
182 0 0 
181 0 0 
173 0 0 
176 0 0 
181 0 0 
172 0 0 
181 0 0 
174 0 0 
180 0 0 
181 0 0 
174 0 0 
184 0 0 
178 0 0 
177 0 0 
180 0 0 
173 0 0 
179 0 0 
182 0 0 
179 0 0 
185 0 0 
179 0 0 
181 0 0 
176 0 0 
172 0 0 
178 0 0 
182 0 0 
186 0 0 
178 0 0 
185 0 0 
184 0 0 
179 0 0 
188 0 0 
182 0 0 
175 0 0 
178 0 0 
179 0 0 
179 0 0 
179 0 0 
178 0 0 
175 0 0 
182 0 0 
185 0 0 
182 0 0 
180 0 0 
181 0 0 
182 0 0 
176 0 0 
181 0 0 
179 0 0 
180 0 0 
181 0 0 
182 0 0 
186 0 0 
183 0 0 
175 0 0 
182 0 0 
180 0 0 
181 0 0 
180 0 0 
190 0 0 
184 0 0 
185 0 0 
187 0 0 
189 0 0 
180 0 0 
180 0 0 
181 0 0 
185 0 0 
191 0 0 
185 0 0 
184 0 0 
183 0 0 
186 0 0 
181 0 0 
180 0 0 
184 0 0 
185 0 0 
186 0 0 
184 0 0 
190 0 0 
178 0 0 
180 0 0 
190 0 0 
182 0 0 
183 0 0 
182 0 0 
0 0 144 
0 0 171 
0 0 161 
0 0 157 
0 0 155 
0 0 157 
0 0 173 
0 0 163 
0 0 157 
0 0 159 
0 0 159 
0 0 157 
0 0 155 
0 0 161 
0 0 137 
0 0 117 
0 0 153 
0 0 144 
0 0 151 
0 0 169 
0 0 147 
0 0 157 
0 0 165 
0 0 153 
0 0 161 
0 0 135 
0 0 133 
0 0 149 
0 0 153 
0 0 161 
0 0 140 
0 0 157 
0 0 167 
0 0 151 
0 0 161 
0 0 135 
0 0 142 
0 0 149 
0 0 159 
0 0 165 
0 0 189 
0 0 147 
0 0 140 
0 0 142 
0 0 130 
0 0 155 
0 0 153 
0 0 149 
0 0 149 
0 0 151 
0 0 142 
0 0 133 
0 0 147 
0 0 130 
0 0 130 
0 0 153 
0 0 137 
0 0 142 
0 0 144 
0 0 144 
0 0 151 
0 0 142 
0 0 140 
0 0 157 
0 0 125 
0 0 165 
0 0 140 
0 0 153 
0 0 157 
0 0 153 
0 0 149 
0 0 142 
0 0 147 
0 0 155 
0 0 137 
0 0 169 
0 0 153 
0 0 120 
0 0 157 
0 0 133 
0 0 147 
0 0 161 
0 0 142 
0 0 142 
0 0 135 
0 0 151 
0 0 157 
0 0 140 
0 0 142 
0 0 159 
0 0 149 
0 0 149 
0 0 142 
0 0 135 
0 0 135 
0 0 135 
0 0 133 
0 0 151 
0 0 137 
0 0 153 
0 0 157 
0 0 130 
0 0 144 
0 0 130 
0 0 157 
0 0 133 
0 0 144 
0 0 140 
0 0 122 
0 0 120 
0 0 130 
0 0 133 
0 0 128 
0 0 137 
0 0 149 
0 0 111 
0 0 117 
0 0 130 
0 0 117 
0 0 114 
0 0 125 
0 0 111 
0 0 117 
0 0 128 
0 0 128 
0 0 125 
0 0 142 
0 0 128 
0 0 114 
0 0 108 
0 0 128 
0 0 125 
0 0 117 
0 0 99 
0 0 114 
0 0 114 
0 0 111 
0 0 125 
0 0 108 
0 0 111 
0 0 122 
0 0 76 
0 0 92 
0 0 122 
0 0 130 
0 0 92 
0 0 111 
0 0 92 
0 0 95 
0 0 99 
0 0 76 
0 0 76 
0 0 76 
18 20 76 
32 36 62 
63 49 0 
75 70 0 
67 67 0 
88 83 0 
84 80 0 
86 86 0 
83 81 0 
83 90 0 
63 67 0 
86 92 0 
68 76 0 
93 98 0 
77 78 0 
84 85 0 
99 111 0 
81 87 0 
91 92 0 
93 98 0 
94 101 0 
101 104 0 
90 95 0 
90 99 0 
99 98 0 
103 108 0 
102 96 0 
97 107 0 
111 112 0 
97 96 0 
107 112 0 
110 118 0 
103 100 0 
115 117 0 
90 95 0 
104 100 0 
101 108 0 
103 99 0 
109 105 0 
115 115 0 
109 110 0 
95 98 0 
103 93 0 
101 109 0 
100 107 0 
109 109 0 
116 117 0 
116 116 0 
118 117 0 
94 99 0 
122 121 0 
105 98 0 
121 109 0 
112 103 0 
114 103 0 
128 118 0 
108 96 0 
122 111 0 
118 103 0 
111 104 0 
113 109 0 
114 114 0 
106 98 0 
122 113 0 
115 97 0 
110 96 0 
121 112 0 
114 98 0 
110 91 0 
118 118 0 
108 92 0 
120 97 0 
135 115 0 
109 81 0 
115 93 0 
127 105 0 
119 89 0 
121 101 0 
118 86 0 
123 95 0 
115 94 0 
120 89 0 
122 90 0 
112 80 0 
126 80 0 
117 72 0 
125 80 0 
125 64 0 
127 92 0 
122 61 0 
123 73 0 
123 57 0 
124 45 0 
142 0 0 
139 0 0 
142 0 0 
145 0 0 
151 0 0 
150 0 0 
151 0 0 
150 0 0 
153 0 0 
138 0 0 
160 0 0 
148 0 0 
156 0 0 
148 0 0 
162 0 0 
159 0 0 
162 0 0 
159 0 0 
164 0 0 
149 0 0 
164 0 0 
159 0 0 
160 0 0 
163 0 0 
167 0 0 
166 0 0 
165 0 0 
164 0 0 
163 0 0 
155 0 0 
160 0 0 
166 0 0 
165 0 0 
172 0 0 
167 0 0 
168 0 0 
171 0 0 
166 0 0 
173 0 0 
170 0 0 
175 0 0 
165 0 0 
173 0 0 
175 0 0 
174 0 0 
177 0 0 
174 0 0 
169 0 0 
167 0 0 
169 0 0 
180 0 0 
170 0 0 
176 0 0 
180 0 0 
176 0 0 
174 0 0 
176 0 0 
181 0 0 
177 0 0 
170 0 0 
176 0 0 
167 0 0 
177 0 0 
175 0 0 
176 0 0 
176 0 0 
180 0 0 
182 0 0 
171 0 0 
178 0 0 
180 0 0 
180 0 0 
182 0 0 
178 0 0 
174 0 0 
181 0 0 
176 0 0 
177 0 0 
180 0 0 
179 0 0 
181 0 0 
181 0 0 
177 0 0 
180 0 0 
182 0 0 
185 0 0 
184 0 0 
182 0 0 
180 0 0 
180 0 0 
182 0 0 
175 0 0 
182 0 0 
178 0 0 
188 0 0 
180 0 0 
182 0 0 
184 0 0 
173 0 0 
182 0 0 
184 0 0 
181 0 0 
186 0 0 
180 0 0 
182 0 0 
185 0 0 
183 0 0 
179 0 0 
183 0 0 
183 0 0 
184 0 0 
185 0 0 
177 0 0 
176 0 0 
177 0 0 
177 0 0 
184 0 0 
178 0 0 
183 0 0 
183 0 0 
184 0 0 
185 0 0 
179 0 0 
177 0 0 
178 0 0 
181 0 0 
184 0 0 
182 0 0 
180 0 0 
187 0 0 
182 0 0 
186 0 0 
185 0 0 
185 0 0 
187 0 0 
182 0 0 
183 0 0 
183 0 0 
184 0 0 
185 0 0 
186 0 0 
178 0 0 
185 0 0 
185 0 0 
182 0 0 
184 0 0 
185 0 0 
183 0 0 
183 0 0 
182 0 0 
185 0 0 
178 0 0 
186 0 0 
185 0 0 
0 0 142 
0 0 147 
0 0 157 
0 0 153 
0 0 165 
0 0 151 
0 0 137 
0 0 161 
0 0 142 
0 0 144 
0 0 165 
0 0 157 
0 0 147 
0 0 153 
0 0 157 
0 0 161 
0 0 153 
0 0 144 
0 0 161 
0 0 147 
0 0 149 
0 0 130 
0 0 161 
0 0 137 
0 0 171 
0 0 155 
0 0 151 
0 0 149 
0 0 163 
0 0 163 
0 0 155 
0 0 144 
0 0 159 
0 0 142 
0 0 157 
0 0 149 
0 0 171 
0 0 159 
0 0 142 
0 0 147 
0 0 137 
0 0 153 
0 0 165 
0 0 133 
0 0 161 
0 0 147 
0 0 163 
0 0 144 
0 0 149 
0 0 147 
0 0 151 
0 0 157 
0 0 159 
0 0 163 
0 0 137 
0 0 142 
0 0 140 
0 0 128 
0 0 144 
0 0 169 
0 0 133 
0 0 130 
0 0 167 
0 0 135 
0 0 140 
0 0 130 
0 0 151 
0 0 149 
0 0 144 
0 0 151 
0 0 149 
0 0 130 
0 0 151 
0 0 165 
0 0 153 
0 0 147 
0 0 125 
0 0 165 
0 0 147 
0 0 140 
0 0 142 
0 0 140 
0 0 151 
0 0 147 
0 0 133 
0 0 130 
0 0 149 
0 0 140 
0 0 140 
0 0 137 
0 0 133 
0 0 149 
0 0 140 
0 0 149 
0 0 144 
0 0 157 
0 0 125 
0 0 135 
0 0 120 
0 0 140 
0 0 144 
0 0 149 
0 0 144 
0 0 140 
0 0 125 
0 0 133 
0 0 135 
0 0 140 
0 0 140 
0 0 137 
0 0 149 
0 0 149 
0 0 117 
0 0 111 
0 0 122 
0 0 117 
0 0 111 
0 0 133 
0 0 155 
0 0 135 
0 0 133 
0 0 108 
0 0 135 
0 0 133 
0 0 114 
0 0 135 
0 0 125 
0 0 140 
0 0 122 
0 0 120 
0 0 117 
0 0 142 
0 0 133 
0 0 117 
0 0 114 
0 0 122 
0 0 122 
0 0 114 
0 0 99 
0 0 114 
0 0 111 
0 0 114 
0 0 111 
0 0 102 
0 0 111 
0 0 88 
0 0 84 
0 0 88 
0 0 92 
0 0 107 
0 0 92 
0 0 72 
25 20 67 
69 69 0 
77 76 0 
75 66 0 
65 68 0 
79 85 0 
75 75 0 
85 88 0 
84 88 0 
83 77 0 
81 78 0 
71 69 0 
90 96 0 
89 93 0 
95 100 0 
99 92 0 
92 86 0 
87 90 0 
93 100 0 
89 89 0 
89 88 0 
89 96 0 
88 91 0 
91 95 0 
100 102 0 
117 115 0 
97 102 0 
114 117 0 
101 101 0 
109 115 0 
103 104 0 
107 109 0 
110 112 0 
102 100 0 
104 108 0 
104 105 0 
103 101 0 
100 100 0 
111 116 0 
103 101 0 
116 114 0 
115 118 0 
104 98 0 
99 101 0 
98 101 0 
109 98 0 
117 119 0 
103 104 0 
111 99 0 
108 108 0 
111 109 0 
104 89 0 
103 104 0 
110 107 0 
114 109 0 
108 89 0 
113 108 0 
115 107 0 
101 100 0 
119 112 0 
110 101 0 
124 115 0 
130 125 0 
118 103 0 
119 98 0 
119 106 0 
117 108 0 
112 104 0 
124 101 0 
121 114 0 
125 111 0 
118 101 0 
108 88 0 
112 110 0 
126 95 0 
130 100 0 
118 93 0 
111 91 0 
113 76 0 
110 80 0 
127 92 0 
126 94 0 
122 97 0 
118 86 0 
119 89 0 
122 99 0 
120 75 0 
119 77 0 
121 62 0 
123 85 0 
124 86 0 
125 73 0 
125 79 0 
113 76 0 
107 58 0 
113 39 0 
146 0 0 
143 0 0 
141 0 0 
138 0 0 
150 0 0 
155 0 0 
154 0 0 
150 0 0 
145 0 0 
162 0 0 
153 0 0 
152 0 0 
160 0 0 
153 0 0 
158 0 0 
157 0 0 
164 0 0 
164 0 0 
154 0 0 
158 0 0 
163 0 0 
166 0 0 
157 0 0 
159 0 0 
165 0 0 
163 0 0 
171 0 0 
170 0 0 
154 0 0 
170 0 0 
166 0 0 
166 0 0 
168 0 0 
168 0 0 
175 0 0 
165 0 0 
169 0 0 
170 0 0 
169 0 0 
176 0 0 
169 0 0 
166 0 0 
172 0 0 
172 0 0 
170 0 0 
173 0 0 
173 0 0 
173 0 0 
181 0 0 
172 0 0 
177 0 0 
175 0 0 
171 0 0 
171 0 0 
171 0 0 
177 0 0 
180 0 0 
170 0 0 
170 0 0 
176 0 0 
178 0 0 
180 0 0 
172 0 0 
176 0 0 
174 0 0 
176 0 0 
173 0 0 
176 0 0 
179 0 0 
173 0 0 
180 0 0 
177 0 0 
180 0 0 
176 0 0 
174 0 0 
180 0 0 
176 0 0 
174 0 0 
180 0 0 
180 0 0 
182 0 0 
177 0 0 
185 0 0 
176 0 0 
181 0 0 
185 0 0 
179 0 0 
179 0 0 
184 0 0 
183 0 0 
185 0 0 
185 0 0 
183 0 0 
181 0 0 
183 0 0 
180 0 0 
182 0 0 
181 0 0 
181 0 0 
181 0 0 
181 0 0 
184 0 0 
184 0 0 
178 0 0 
185 0 0 
181 0 0 
181 0 0 
184 0 0 
183 0 0 
181 0 0 
179 0 0 
180 0 0 
181 0 0 
181 0 0 
184 0 0 
182 0 0 
190 0 0 
182 0 0 
181 0 0 
183 0 0 
179 0 0 
178 0 0 
181 0 0 
177 0 0 
179 0 0 
178 0 0 
180 0 0 
180 0 0 
189 0 0 
182 0 0 
186 0 0 
181 0 0 
187 0 0 
182 0 0 
180 0 0 
181 0 0 
188 0 0 
180 0 0 
183 0 0 
181 0 0 
184 0 0 
182 0 0 
185 0 0 
180 0 0 
180 0 0 
182 0 0 
181 0 0 
185 0 0 
182 0 0 
186 0 0 
185 0 0 
182 0 0 
0 0 147 
0 0 165 
0 0 163 
0 0 163 
0 0 159 
0 0 163 
0 0 161 
0 0 157 
0 0 144 
0 0 157 
0 0 155 
0 0 153 
0 0 149 
0 0 128 
0 0 155 
0 0 157 
0 0 144 
0 0 155 
0 0 151 
0 0 128 
0 0 137 
0 0 151 
0 0 142 
0 0 147 
0 0 151 
0 0 133 
0 0 147 
0 0 147 
0 0 169 
0 0 125 
0 0 165 
0 0 153 
0 0 163 
0 0 137 
0 0 153 
0 0 147 
0 0 142 
0 0 133 
0 0 137 
0 0 137 
0 0 147 
0 0 147 
0 0 153 
0 0 155 
0 0 155 
0 0 142 
0 0 159 
0 0 155 
0 0 149 
0 0 167 
0 0 175 
0 0 155 
0 0 147 
0 0 151 
0 0 137 
0 0 151 
0 0 153 
0 0 157 
0 0 161 
0 0 137 
0 0 153 
0 0 155 
0 0 153 
0 0 149 
0 0 147 
0 0 163 
0 0 155 
0 0 147 
0 0 159 
0 0 153 
0 0 163 
0 0 151 
0 0 157 
0 0 151 
0 0 144 
0 0 135 
0 0 137 
0 0 144 
0 0 149 
0 0 151 
0 0 147 
0 0 140 
0 0 128 
0 0 128 
0 0 128 
0 0 153 
0 0 149 
0 0 142 
0 0 130 
0 0 151 
0 0 149 
0 0 125 
0 0 135 
0 0 153 
0 0 128 
0 0 122 
0 0 128 
0 0 161 
0 0 144 
0 0 130 
0 0 128 
0 0 133 
0 0 159 
0 0 114 
0 0 120 
0 0 122 
0 0 128 
0 0 108 
0 0 144 
0 0 128 
0 0 125 
0 0 144 
0 0 120 
0 0 111 
0 0 130 
0 0 140 
0 0 142 
0 0 137 
0 0 122 
0 0 137 
0 0 133 
0 0 125 
0 0 144 
0 0 140 
0 0 140 
0 0 114 
0 0 128 
0 0 125 
0 0 117 
0 0 114 
0 0 114 
0 0 117 
0 0 105 
0 0 108 
0 0 125 
0 0 102 
0 0 111 
0 0 105 
0 0 125 
0 0 122 
0 0 92 
0 0 92 
0 0 99 
0 0 102 
0 0 95 
0 0 72 
0 0 80 
0 0 80 
0 0 76 
0 0 92 
6 0 88 
58 57 57 
64 63 0 
62 54 0 
54 50 0 
65 69 0 
81 80 0 
66 71 0 
85 76 0 
88 90 0 
88 88 0 
93 97 0 
81 83 0 
91 90 0 
92 100 0 
93 101 0 
87 82 0 
87 93 0 
104 114 0 
94 91 0 
84 84 0 
86 84 0 
104 110 0 
106 109 0 
89 96 0 
102 106 0 
107 109 0 
96 107 0 
104 108 0 
92 94 0 
93 89 0 
92 89 0 
105 103 0 
79 87 0 
107 112 0 
96 97 0 
119 123 0 
104 106 0 
112 112 0 
95 97 0 
92 96 0 
116 117 0 
111 116 0 
101 99 0 
103 102 0 
111 106 0 
110 114 0 
113 111 0 
114 115 0 
109 103 0 
122 123 0 
111 103 0 
131 133 0 
109 99 0 
118 110 0 
108 96 0 
124 121 0 
105 100 0 
111 96 0 
118 103 0 
118 112 0 
116 102 0 
120 111 0 
125 116 0 
117 105 0 
121 105 0 
113 104 0 
124 105 0 
125 117 0 
117 100 0 
126 111 0 
107 92 0 
112 86 0 
115 90 0 
120 109 0 
115 90 0 
129 107 0 
122 108 0 
115 93 0 
115 89 0 
131 106 0 
138 102 0 
119 100 0 
118 85 0 
120 101 0 
129 97 0 
125 92 0 
129 103 0 
123 82 0 
122 91 0 
122 90 0 
120 87 0 
117 76 0 
122 90 0 
125 80 0 
119 68 0 
116 64 0 
129 90 0 
125 60 0 
136 0 0 
144 0 0 
144 0 0 
143 0 0 
142 0 0 
149 0 0 
153 0 0 
150 0 0 
152 0 0 
163 0 0 
157 0 0 
161 0 0 
159 0 0 
155 0 0 
158 0 0 
164 0 0 
154 0 0 
163 0 0 
164 0 0 
168 0 0 
157 0 0 
162 0 0 
152 0 0 
171 0 0 
167 0 0 
157 0 0 
174 0 0 
165 0 0 
167 0 0 
163 0 0 
169 0 0 
168 0 0 
168 0 0 
168 0 0 
172 0 0 
169 0 0 
170 0 0 
161 0 0 
170 0 0 
164 0 0 
171 0 0 
167 0 0 
169 0 0 
172 0 0 
171 0 0 
174 0 0 
174 0 0 
175 0 0 
176 0 0 
177 0 0 
175 0 0 
178 0 0 
176 0 0 
183 0 0 
170 0 0 
178 0 0 
175 0 0 
175 0 0 
175 0 0 
180 0 0 
173 0 0 
177 0 0 
181 0 0 
180 0 0 
173 0 0 
180 0 0 
180 0 0 
177 0 0 
178 0 0 
178 0 0 
176 0 0 
177 0 0 
178 0 0 
171 0 0 
177 0 0 
182 0 0 
173 0 0 
176 0 0 
176 0 0 
176 0 0 
180 0 0 
177 0 0 
183 0 0 
183 0 0 
177 0 0 
178 0 0 
181 0 0 
181 0 0 
180 0 0 
179 0 0 
179 0 0 
179 0 0 
178 0 0 
180 0 0 
180 0 0 
184 0 0 
180 0 0 
180 0 0 
186 0 0 
185 0 0 
183 0 0 
176 0 0 
182 0 0 
177 0 0 
181 0 0 
183 0 0 
179 0 0 
183 0 0 
180 0 0 
184 0 0 
186 0 0 
182 0 0 
181 0 0 
179 0 0 
176 0 0 
181 0 0 
179 0 0 
181 0 0 
184 0 0 
179 0 0 
180 0 0 
186 0 0 
184 0 0 
187 0 0 
185 0 0 
180 0 0 
181 0 0 
180 0 0 
186 0 0 
177 0 0 
182 0 0 
178 0 0 
183 0 0 
186 0 0 
182 0 0 
188 0 0 
183 0 0 
183 0 0 
187 0 0 
184 0 0 
189 0 0 
185 0 0 
181 0 0 
176 0 0 
186 0 0 
187 0 0 
182 0 0 
183 0 0 
181 0 0 
180 0 0 
183 0 0 
0 0 165 
0 0 144 
0 0 171 
0 0 159 
0 0 147 
0 0 155 
0 0 151 
0 0 159 
0 0 155 
0 0 144 
0 0 153 
0 0 137 
0 0 159 
0 0 165 
0 0 153 
0 0 155 
0 0 161 
0 0 151 
0 0 161 
0 0 149 
0 0 144 
0 0 165 
0 0 159 
0 0 147 
0 0 149 
0 0 157 
0 0 151 
0 0 142 
0 0 147 
0 0 140 
0 0 149 
0 0 144 
0 0 147 
0 0 144 
0 0 163 
0 0 157 
0 0 157 
0 0 171 
0 0 161 
0 0 144 
0 0 137 
0 0 151 
0 0 153 
0 0 140 
0 0 171 
0 0 157 
0 0 144 
0 0 157 
0 0 155 
0 0 153 
0 0 142 
0 0 140 
0 0 153 
0 0 147 
0 0 153 
0 0 159 
0 0 155 
0 0 153 
0 0 165 
0 0 142 
0 0 140 
0 0 144 
0 0 153 
0 0 137 
0 0 140 
0 0 137 
0 0 159 
0 0 144 
0 0 122 
0 0 140 
0 0 157 
0 0 147 
0 0 137 
0 0 133 
0 0 137 
0 0 155 
0 0 125 
0 0 163 
0 0 142 
0 0 157 
0 0 144 
0 0 144 
0 0 128 
0 0 135 
0 0 155 
0 0 144 
0 0 157 
0 0 114 
0 0 130 
0 0 155 
0 0 140 
0 0 142 
0 0 130 
0 0 169 
0 0 149 
0 0 133 
0 0 137 
0 0 155 
0 0 133 
0 0 133 
0 0 149 
0 0 149 
0 0 147 
0 0 140 
0 0 133 
0 0 125 
0 0 125 
0 0 122 
0 0 122 
0 0 111 
0 0 130 
0 0 120 
0 0 128 
0 0 111 
0 0 144 
0 0 130 
0 0 117 
0 0 130 
0 0 120 
0 0 128 
0 0 120 
0 0 120 
0 0 120 
0 0 99 
0 0 105 
0 0 149 
0 0 125 
0 0 125 
0 0 120 
0 0 111 
0 0 122 
0 0 120 
0 0 102 
0 0 102 
0 0 117 
0 0 114 
0 0 102 
0 0 92 
0 0 105 
0 0 130 
0 0 80 
0 0 122 
0 0 88 
0 0 72 
0 0 76 
0 0 72 
0 0 92 
0 0 88 
0 0 84 
57 63 57 
62 57 0 
49 52 0 
81 83 0 
69 70 0 
76 78 0 
85 85 0 
83 88 0 
75 73 0 
88 86 0 
72 73 0 
82 79 0 
72 78 0 
102 108 0 
91 91 0 
94 101 0 
89 97 0 
91 98 0 
102 100 0 
96 98 0 
93 96 0 
82 88 0 
87 91 0 
98 101 0 
105 113 0 
95 98 0 
102 106 0 
96 104 0 
100 101 0 
98 107 0 
91 96 0 
108 110 0 
96 96 0 
95 102 0 
106 115 0 
103 113 0 
97 107 0 
106 110 0 
112 122 0 
113 113 0 
113 116 0 
104 100 0 
103 108 0 
115 119 0 
108 115 0 
112 106 0 
110 113 0 
113 119 0 
113 110 0 
105 106 0 
111 108 0 
127 131 0 
109 105 0 
128 130 0 
105 98 0 
125 118 0 
122 118 0 
113 108 0 
115 111 0 
117 107 0 
118 110 0 
114 115 0 
123 115 0 
117 108 0 
121 108 0 
113 102 0 
108 106 0 
115 96 0 
121 106 0 
123 118 0 
117 83 0 
128 106 0 
115 101 0 
114 99 0 
127 115 0 
107 98 0 
128 101 0 
108 97 0 
122 106 0 
118 98 0 
129 102 0 
113 86 0 
128 105 0 
125 102 0 
120 91 0 
122 82 0 
136 121 0 
138 111 0 
125 91 0 
121 99 0 
122 88 0 
115 68 0 
127 72 0 
124 82 0 
129 85 0 
126 82 0 
127 90 0 
120 79 0 
128 93 0 
123 75 0 
120 70 0 
127 28 0 
137 0 0 
137 0 0 
140 0 0 
144 0 0 
145 0 0 
159 0 0 
150 0 0 
152 0 0 
154 0 0 
153 0 0 
159 0 0 
160 0 0 
163 0 0 
155 0 0 
163 0 0 
157 0 0 
153 0 0 
164 0 0 
167 0 0 
161 0 0 
170 0 0 
161 0 0 
168 0 0 
163 0 0 
165 0 0 
164 0 0 
168 0 0 
172 0 0 
168 0 0 
170 0 0 
167 0 0 
167 0 0 
165 0 0 
174 0 0 
167 0 0 
169 0 0 
170 0 0 
174 0 0 
171 0 0 
172 0 0 
177 0 0 
173 0 0 
172 0 0 
167 0 0 
168 0 0 
173 0 0 
174 0 0 
170 0 0 
181 0 0 
179 0 0 
175 0 0 
174 0 0 
172 0 0 
177 0 0 
172 0 0 
167 0 0 
173 0 0 
173 0 0 
175 0 0 
167 0 0 
172 0 0 
181 0 0 
177 0 0 
178 0 0 
177 0 0 
172 0 0 
176 0 0 
162 0 0 
185 0 0 
181 0 0 
178 0 0 
175 0 0 
178 0 0 
173 0 0 
178 0 0 
178 0 0 
172 0 0 
178 0 0 
180 0 0 
184 0 0 
168 0 0 
182 0 0 
186 0 0 
174 0 0 
182 0 0 
182 0 0 
176 0 0 
183 0 0 
182 0 0 
179 0 0 
185 0 0 
183 0 0 
182 0 0 
185 0 0 
182 0 0 
179 0 0 
181 0 0 
177 0 0 
180 0 0 
185 0 0 
181 0 0 
181 0 0 
190 0 0 
177 0 0 
183 0 0 
183 0 0 
186 0 0 
176 0 0 
185 0 0 
179 0 0 
183 0 0 
185 0 0 
182 0 0 
185 0 0 
184 0 0 
181 0 0 
180 0 0 
186 0 0 
181 0 0 
190 0 0 
177 0 0 
181 0 0 
186 0 0 
188 0 0 
184 0 0 
185 0 0 
177 0 0 
185 0 0 
182 0 0 
181 0 0 
185 0 0 
178 0 0 
185 0 0 
185 0 0 
182 0 0 
186 0 0 
185 0 0 
183 0 0 
182 0 0 
183 0 0 
175 0 0 
189 0 0 
185 0 0 
187 0 0 
187 0 0 
185 0 0 
187 0 0 
186 0 0 
182 0 0 
0 0 147 
0 0 147 
0 0 155 
0 0 161 
0 0 171 
0 0 151 
0 0 149 
0 0 153 
0 0 155 
0 0 163 
0 0 142 
0 0 157 
0 0 142 
0 0 155 
0 0 155 
0 0 159 
0 0 137 
0 0 149 
0 0 173 
0 0 163 
0 0 153 
0 0 151 
0 0 140 
0 0 142 
0 0 151 
0 0 153 
0 0 135 
0 0 155 
0 0 147 
0 0 151 
0 0 140 
0 0 155 
0 0 137 
0 0 157 
0 0 165 
0 0 140 
0 0 153 
0 0 149 
0 0 128 
0 0 151 
0 0 149 
0 0 161 
0 0 140 
0 0 165 
0 0 125 
0 0 159 
0 0 142 
0 0 159 
0 0 137 
0 0 147 
0 0 149 
0 0 147 
0 0 163 
0 0 128 
0 0 133 
0 0 151 
0 0 161 
0 0 142 
0 0 151 
0 0 128 
0 0 130 
0 0 157 
0 0 137 
0 0 147 
0 0 151 
0 0 151 
0 0 137 
0 0 137 
0 0 151 
0 0 135 
0 0 133 
0 0 147 
0 0 117 
0 0 144 
0 0 133 
0 0 144 
0 0 147 
0 0 144 
0 0 147 
0 0 142 
0 0 130 
0 0 147 
0 0 135 
0 0 144 
0 0 140 
0 0 142 
0 0 137 
0 0 147 
0 0 142 
0 0 165 
0 0 135 
0 0 122 
0 0 142 
0 0 147 
0 0 144 
0 0 144 
0 0 144 
0 0 140 
0 0 144 
0 0 135 
0 0 128 
0 0 142 
0 0 130 
0 0 122 
0 0 142 
0 0 135 
0 0 147 
0 0 108 
0 0 133 
0 0 133 
0 0 137 
0 0 135 
0 0 135 
0 0 133 
0 0 128 
0 0 120 
0 0 142 
0 0 114 
0 0 111 
0 0 114 
0 0 117 
0 0 125 
0 0 105 
0 0 114 
0 0 117 
0 0 120 
0 0 120 
0 0 135 
0 0 111 
0 0 114 
0 0 122 
0 0 111 
0 0 102 
0 0 102 
0 0 120 
0 0 95 
0 0 99 
0 0 88 
0 0 108 
0 0 102 
0 0 99 
0 0 108 
0 0 105 
0 0 92 
0 0 92 
0 0 99 
0 0 94 
32 35 76 
48 54 36 
68 71 0 
88 81 0 
73 76 0 
77 78 0 
75 81 0 
70 76 0 
93 97 0 
88 85 0 
101 105 0 
82 80 0 
88 92 0 
99 106 0 
89 97 0 
89 86 0 
84 85 0 
101 105 0 
87 95 0 
103 102 0 
98 95 0 
107 106 0 
97 104 0 
101 108 0 
101 106 0 
100 98 0 
100 108 0 
105 113 0 
82 85 0 
101 108 0 
91 96 0 
117 112 0 
105 113 0 
110 114 0 
89 97 0 
111 117 0 
109 116 0 
96 101 0 
112 111 0 
98 101 0 
113 109 0 
113 118 0 
106 114 0 
109 108 0 
108 108 0 
111 111 0 
123 120 0 
114 114 0 
101 101 0 
122 118 0 
122 123 0 
125 123 0 
115 106 0 
113 117 0 
115 118 0 
115 107 0 
95 87 0 
111 106 0 
111 108 0 
121 125 0 
132 135 0 
123 114 0 
117 119 0 
122 115 0 
110 100 0 
116 117 0 
113 107 0 
113 95 0 
132 128 0 
114 105 0 
110 90 0 
116 110 0 
122 116 0 
122 110 0 
112 93 0 
123 111 0 
124 117 0 
122 93 0 
120 95 0 
120 100 0 
133 118 0 
121 92 0 
129 105 0 
126 107 0 
121 98 0 
120 100 0 
134 111 0 
122 98 0 
119 87 0 
127 99 0 
126 104 0 
124 104 0 
122 77 0 
124 104 0 
121 76 0 
135 98 0 
132 90 0 
132 90 0 
137 82 0 
121 85 0 
133 85 0 
126 80 0 
119 73 0 
124 57 0 
113 49 0 
129 20 0 
144 0 0 
153 0 0 
147 0 0 
146 0 0 
153 0 0 
148 0 0 
160 0 0 
158 0 0 
154 0 0 
152 0 0 
161 0 0 
162 0 0 
166 0 0 
167 0 0 
150 0 0 
164 0 0 
164 0 0 
164 0 0 
164 0 0 
166 0 0 
155 0 0 
159 0 0 
162 0 0 
164 0 0 
172 0 0 
172 0 0 
158 0 0 
157 0 0 
164 0 0 
172 0 0 
167 0 0 
172 0 0 
170 0 0 
163 0 0 
167 0 0 
168 0 0 
171 0 0 
169 0 0 
165 0 0 
166 0 0 
176 0 0 
176 0 0 
170 0 0 
172 0 0 
178 0 0 
176 0 0 
173 0 0 
180 0 0 
174 0 0 
177 0 0 
174 0 0 
182 0 0 
181 0 0 
176 0 0 
177 0 0 
174 0 0 
175 0 0 
174 0 0 
178 0 0 
175 0 0 
179 0 0 
177 0 0 
170 0 0 
172 0 0 
177 0 0 
174 0 0 
173 0 0 
175 0 0 
176 0 0 
177 0 0 
176 0 0 
172 0 0 
173 0 0 
182 0 0 
179 0 0 
174 0 0 
176 0 0 
184 0 0 
175 0 0 
183 0 0 
179 0 0 
179 0 0 
187 0 0 
177 0 0 
184 0 0 
179 0 0 
176 0 0 
179 0 0 
178 0 0 
185 0 0 
178 0 0 
181 0 0 
182 0 0 
181 0 0 
186 0 0 
186 0 0 
179 0 0 
176 0 0 
181 0 0 
182 0 0 
178 0 0 
184 0 0 
183 0 0 
179 0 0 
183 0 0 
180 0 0 
184 0 0 
177 0 0 
180 0 0 
179 0 0 
189 0 0 
184 0 0 
182 0 0 
182 0 0 
185 0 0 
181 0 0 
180 0 0 
177 0 0 
186 0 0 
189 0 0 
182 0 0 
179 0 0 
186 0 0 
180 0 0 
179 0 0 
183 0 0 
184 0 0 
184 0 0 
186 0 0 
185 0 0 
185 0 0 
181 0 0 
183 0 0 
188 0 0 
184 0 0 
186 0 0 
182 0 0 
184 0 0 
188 0 0 
179 0 0 
177 0 0 
185 0 0 
180 0 0 
179 0 0 
185 0 0 
188 0 0 
184 0 0 
0 0 147 
0 0 155 
0 0 163 
0 0 157 
0 0 153 
0 0 128 
0 0 157 
0 0 153 
0 0 140 
0 0 155 
0 0 155 
0 0 135 
0 0 161 
0 0 161 
0 0 130 
0 0 169 
0 0 171 
0 0 140 
0 0 142 
0 0 144 
0 0 135 
0 0 165 
0 0 181 
0 0 165 
0 0 157 
0 0 159 
0 0 151 
0 0 157 
0 0 144 
0 0 159 
0 0 140 
0 0 142 
0 0 153 
0 0 140 
0 0 147 
0 0 140 
0 0 163 
0 0 157 
0 0 137 
0 0 128 
0 0 147 
0 0 165 
0 0 165 
0 0 133 
0 0 153 
0 0 142 
0 0 147 
0 0 149 
0 0 153 
0 0 142 
0 0 165 
0 0 137 
0 0 147 
0 0 140 
0 0 140 
0 0 140 
0 0 144 
0 0 149 
0 0 142 
0 0 151 
0 0 135 
0 0 133 
0 0 149 
0 0 151 
0 0 153 
0 0 169 
0 0 135 
0 0 149 
0 0 159 
0 0 130 
0 0 142 
0 0 149 
0 0 153 
0 0 144 
0 0 161 
0 0 137 
0 0 128 
0 0 147 
0 0 144 
0 0 140 
0 0 142 
0 0 140 
0 0 144 
0 0 135 
0 0 144 
0 0 140 
0 0 130 
0 0 130 
0 0 133 
0 0 149 
0 0 125 
0 0 140 
0 0 153 
0 0 133 
0 0 114 
0 0 128 
0 0 128 
0 0 122 
0 0 155 
0 0 140 
0 0 120 
0 0 135 
0 0 149 
0 0 142 
0 0 125 
0 0 130 
0 0 147 
0 0 137 
0 0 144 
0 0 133 
0 0 120 
0 0 140 
0 0 125 
0 0 135 
0 0 130 
0 0 135 
0 0 149 
0 0 133 
0 0 92 
0 0 125 
0 0 135 
0 0 105 
0 0 105 
0 0 114 
0 0 111 
0 0 108 
0 0 120 
0 0 80 
0 0 122 
0 0 111 
0 0 130 
0 0 133 
0 0 128 
0 0 102 
0 0 128 
0 0 99 
0 0 108 
0 0 99 
0 0 108 
0 0 62 
0 0 99 
0 0 114 
0 0 95 
0 0 105 
0 0 84 
26 28 95 
47 44 51 
70 71 0 
75 77 0 
74 67 0 
80 83 0 
93 90 0 
82 81 0 
85 90 0 
87 91 0 
83 76 0 
87 90 0 
91 99 0 
85 89 0 
75 77 0 
105 114 0 
94 91 0 
90 91 0 
94 94 0 
105 109 0 
86 86 0 
87 92 0 
95 100 0 
97 96 0 
94 94 0 
96 104 0 
109 116 0 
95 99 0 
101 107 0 
114 119 0 
111 111 0 
94 102 0 
110 111 0 
93 94 0 
111 115 0 
107 114 0 
100 100 0 
101 105 0 
113 112 0 
116 123 0 
100 105 0 
98 99 0 
113 118 0 
113 114 0 
110 111 0 
122 129 0 
116 113 0 
122 118 0 
111 114 0 
99 95 0 
107 101 0 
126 128 0 
119 121 0 
117 115 0 
115 113 0 
110 109 0 
114 114 0 
120 121 0 
98 92 0 
120 118 0 
130 127 0 
121 115 0 
110 93 0 
117 103 0 
115 111 0 
118 112 0 
130 130 0 
120 116 0 
107 99 0 
117 90 0 
119 93 0 
121 124 0 
123 104 0 
128 117 0 
118 110 0 
121 109 0 
134 112 0 
117 108 0 
121 102 0 
124 112 0 
115 105 0 
131 118 0 
131 107 0 
130 107 0 
122 93 0 
126 94 0 
131 112 0 
125 92 0 
123 90 0 
134 115 0 
121 93 0 
135 113 0 
127 102 0 
116 80 0 
126 97 0 
125 87 0 
120 81 0 
134 96 0 
138 93 0 
134 90 0 
124 93 0 
127 77 0 
131 79 0 
128 80 0 
123 75 0 
128 80 0 
131 67 0 
128 75 0 
122 50 0 
140 40 0 
150 0 0 
146 0 0 
156 0 0 
153 0 0 
146 0 0 
159 0 0 
154 0 0 
158 0 0 
162 0 0 
154 0 0 
160 0 0 
166 0 0 
167 0 0 
161 0 0 
157 0 0 
156 0 0 
160 0 0 
164 0 0 
161 0 0 
166 0 0 
163 0 0 
166 0 0 
166 0 0 
171 0 0 
167 0 0 
170 0 0 
158 0 0 
166 0 0 
168 0 0 
167 0 0 
170 0 0 
174 0 0 
166 0 0 
170 0 0 
170 0 0 
169 0 0 
170 0 0 
168 0 0 
172 0 0 
172 0 0 
171 0 0 
176 0 0 
172 0 0 
171 0 0 
164 0 0 
170 0 0 
175 0 0 
176 0 0 
176 0 0 
171 0 0 
173 0 0 
175 0 0 
177 0 0 
175 0 0 
166 0 0 
173 0 0 
168 0 0 
174 0 0 
174 0 0 
177 0 0 
169 0 0 
178 0 0 
174 0 0 
173 0 0 
180 0 0 
183 0 0 
169 0 0 
176 0 0 
176 0 0 
176 0 0 
174 0 0 
183 0 0 
176 0 0 
179 0 0 
179 0 0 
176 0 0 
177 0 0 
178 0 0 
176 0 0 
175 0 0 
182 0 0 
174 0 0 
176 0 0 
178 0 0 
178 0 0 
180 0 0 
179 0 0 
179 0 0 
180 0 0 
180 0 0 
188 0 0 
177 0 0 
179 0 0 
179 0 0 
178 0 0 
181 0 0 
180 0 0 
180 0 0 
180 0 0 
183 0 0 
181 0 0 
180 0 0 
183 0 0 
180 0 0 
181 0 0 
187 0 0 
189 0 0 
182 0 0 
180 0 0 
185 0 0 
180 0 0 
182 0 0 
181 0 0 
182 0 0 
186 0 0 
179 0 0 
186 0 0 
181 0 0 
183 0 0 
183 0 0 
184 0 0 
183 0 0 
185 0 0 
184 0 0 
185 0 0 
184 0 0 
182 0 0 
186 0 0 
185 0 0 
188 0 0 
182 0 0 
185 0 0 
182 0 0 
184 0 0 
184 0 0 
182 0 0 
186 0 0 
181 0 0 
180 0 0 
185 0 0 
185 0 0 
187 0 0 
185 0 0 
183 0 0 
184 0 0 
0 0 155 
0 0 144 
0 0 142 
0 0 159 
0 0 153 
0 0 140 
0 0 153 
0 0 171 
0 0 157 
0 0 177 
0 0 144 
0 0 157 
0 0 147 
0 0 159 
0 0 153 
0 0 181 
0 0 137 
0 0 153 
0 0 149 
0 0 149 
0 0 140 
0 0 157 
0 0 140 
0 0 133 
0 0 165 
0 0 153 
0 0 155 
0 0 151 
0 0 161 
0 0 137 
0 0 147 
0 0 161 
0 0 153 
0 0 153 
0 0 153 
0 0 140 
0 0 157 
0 0 153 
0 0 149 
0 0 144 
0 0 161 
0 0 151 
0 0 135 
0 0 149 
0 0 155 
0 0 147 
0 0 142 
0 0 165 
0 0 147 
0 0 153 
0 0 157 
0 0 155 
0 0 161 
0 0 140 
0 0 157 
0 0 155 
0 0 161 
0 0 165 
0 0 153 
0 0 117 
0 0 151 
0 0 149 
0 0 151 
0 0 153 
0 0 157 
0 0 149 
0 0 144 
0 0 153 
0 0 142 
0 0 144 
0 0 130 
0 0 165 
0 0 151 
0 0 140 
0 0 144 
0 0 147 
0 0 137 
0 0 151 
0 0 140 
0 0 122 
0 0 140 
0 0 140 
0 0 135 
0 0 122 
0 0 128 
0 0 142 
0 0 122 
0 0 133 
0 0 130 
0 0 130 
0 0 142 
0 0 151 
0 0 144 
0 0 144 
0 0 133 
0 0 140 
0 0 122 
0 0 120 
0 0 142 
0 0 125 
0 0 120 
0 0 153 
0 0 117 
0 0 135 
0 0 149 
0 0 130 
0 0 130 
0 0 130 
0 0 111 
0 0 122 
0 0 147 
0 0 120 
0 0 108 
0 0 137 
0 0 147 
0 0 111 
0 0 130 
0 0 125 
0 0 122 
0 0 125 
0 0 117 
0 0 135 
0 0 122 
0 0 128 
0 0 114 
0 0 105 
0 0 114 
0 0 117 
0 0 133 
0 0 88 
0 0 117 
0 0 105 
0 0 108 
0 0 102 
0 0 105 
0 0 117 
0 0 105 
0 0 105 
0 0 80 
0 0 102 
0 0 102 
0 0 102 
0 0 76 
0 0 80 
60 57 0 
75 74 0 
77 78 0 
70 72 0 
63 67 0 
91 100 0 
75 76 0 
78 76 0 
77 80 0 
91 90 0 
93 97 0 
87 87 0 
100 109 0 
93 97 0 
89 98 0 
85 89 0 
106 111 0 
86 96 0 
101 111 0 
101 96 0 
91 85 0 
114 111 0 
92 99 0 
106 110 0 
114 120 0 
103 106 0 
90 92 0 
116 116 0 
100 103 0 
101 105 0 
108 117 0 
106 113 0 
97 100 0 
120 124 0 
103 109 0 
111 111 0 
106 108 0 
116 114 0 
116 111 0 
114 117 0 
118 117 0 
107 106 0 
116 118 0 
102 89 0 
113 115 0 
115 115 0 
111 112 0 
109 105 0 
112 112 0 
129 123 0 
119 127 0 
111 110 0 
120 120 0 
115 122 0 
113 106 0 
102 96 0 
117 125 0 
121 115 0 
116 120 0 
117 116 0 
112 106 0 
121 116 0 
119 117 0 
121 104 0 
123 115 0 
124 113 0 
109 107 0 
125 118 0 
104 94 0 
119 117 0 
120 118 0 
119 105 0 
109 99 0 
121 119 0 
127 110 0 
115 95 0 
124 105 0 
125 110 0 
120 109 0 
117 113 0 
123 103 0 
122 96 0 
132 111 0 
126 90 0 
133 119 0 
129 101 0 
115 98 0 
121 105 0 
124 102 0 
132 116 0 
120 89 0 
126 100 0 
123 96 0 
121 85 0 
133 104 0 
127 101 0 
139 108 0 
129 99 0 
126 101 0 
126 106 0 
135 99 0 
133 101 0 
131 99 0 
138 89 0 
134 88 0 
124 84 0 
141 90 0 
121 75 0 
131 70 0 
125 75 0 
132 78 0 
119 49 0 
142 19 0 
131 0 0 
147 0 0 
152 0 0 
150 0 0 
159 0 0 
149 0 0 
147 0 0 
155 0 0 
159 0 0 
153 0 0 
158 0 0 
166 0 0 
161 0 0 
166 0 0 
159 0 0 
162 0 0 
159 0 0 
155 0 0 
159 0 0 
170 0 0 
167 0 0 
160 0 0 
162 0 0 
175 0 0 
170 0 0 
161 0 0 
172 0 0 
163 0 0 
169 0 0 
169 0 0 
170 0 0 
170 0 0 
164 0 0 
169 0 0 
165 0 0 
171 0 0 
172 0 0 
176 0 0 
175 0 0 
175 0 0 
167 0 0 
174 0 0 
176 0 0 
175 0 0 
174 0 0 
170 0 0 
170 0 0 
177 0 0 
176 0 0 
180 0 0 
173 0 0 
169 0 0 
179 0 0 
175 0 0 
181 0 0 
177 0 0 
180 0 0 
177 0 0 
171 0 0 
176 0 0 
179 0 0 
173 0 0 
181 0 0 
183 0 0 
175 0 0 
183 0 0 
178 0 0 
186 0 0 
180 0 0 
181 0 0 
175 0 0 
179 0 0 
175 0 0 
185 0 0 
172 0 0 
180 0 0 
182 0 0 
184 0 0 
176 0 0 
182 0 0 
180 0 0 
180 0 0 
184 0 0 
178 0 0 
181 0 0 
184 0 0 
179 0 0 
181 0 0 
181 0 0 
181 0 0 
181 0 0 
184 0 0 
175 0 0 
175 0 0 
178 0 0 
180 0 0 
178 0 0 
182 0 0 
184 0 0 
177 0 0 
179 0 0 
186 0 0 
184 0 0 
182 0 0 
182 0 0 
179 0 0 
183 0 0 
176 0 0 
180 0 0 
178 0 0 
179 0 0 
182 0 0 
180 0 0 
179 0 0 
186 0 0 
185 0 0 
191 0 0 
186 0 0 
185 0 0 
183 0 0 
179 0 0 
181 0 0 
189 0 0 
184 0 0 
189 0 0 
184 0 0 
187 0 0 
184 0 0 
182 0 0 
185 0 0 
182 0 0 
189 0 0 
183 0 0 
184 0 0 
185 0 0 
185 0 0 
183 0 0 
183 0 0 
183 0 0 
183 0 0 
183 0 0 
182 0 0 
185 0 0 
0 0 159 
0 0 153 
0 0 137 
0 0 147 
0 0 165 
0 0 157 
0 0 171 
0 0 155 
0 0 149 
0 0 147 
0 0 142 
0 0 157 
0 0 159 
0 0 159 
0 0 133 
0 0 157 
0 0 163 
0 0 151 
0 0 159 
0 0 157 
0 0 142 
0 0 147 
0 0 151 
0 0 151 
0 0 151 
0 0 144 
0 0 144 
0 0 161 
0 0 120 
0 0 133 
0 0 149 
0 0 147 
0 0 149 
0 0 155 
0 0 144 
0 0 137 
0 0 165 
0 0 130 
0 0 157 
0 0 149 
0 0 144 
0 0 151 
0 0 167 
0 0 153 
0 0 140 
0 0 128 
0 0 153 
0 0 144 
0 0 142 
0 0 133 
0 0 151 
0 0 135 
0 0 153 
0 0 144 
0 0 140 
0 0 165 
0 0 135 
0 0 144 
0 0 128 
0 0 149 
0 0 140 
0 0 140 
0 0 147 
0 0 142 
0 0 130 
0 0 159 
0 0 137 
0 0 142 
0 0 137 
0 0 133 
0 0 133 
0 0 149 
0 0 133 
0 0 151 
0 0 130 
0 0 155 
0 0 133 
0 0 130 
0 0 135 
0 0 155 
0 0 161 
0 0 140 
0 0 149 
0 0 133 
0 0 117 
0 0 149 
0 0 130 
0 0 155 
0 0 144 
0 0 133 
0 0 122 
0 0 135 
0 0 120 
0 0 147 
0 0 135 
0 0 130 
0 0 125 
0 0 111 
0 0 133 
0 0 108 
0 0 151 
0 0 140 
0 0 117 
0 0 122 
0 0 122 
0 0 135 
0 0 137 
0 0 125 
0 0 117 
0 0 137 
0 0 111 
0 0 133 
0 0 117 
0 0 117 
0 0 108 
0 0 153 
0 0 117 
0 0 122 
0 0 137 
0 0 122 
0 0 122 
0 0 114 
0 0 111 
0 0 114 
0 0 111 
0 0 125 
0 0 108 
0 0 117 
0 0 125 
0 0 114 
0 0 125 
0 0 102 
0 0 99 
0 0 92 
0 0 102 
0 0 105 
0 0 95 
0 0 99 
0 0 120 
0 0 84 
0 0 95 
0 0 88 
47 50 67 
62 64 0 
59 63 0 
73 77 0 
78 78 0 
81 86 0 
84 85 0 
92 89 0 
74 73 0 
105 112 0 
94 96 0 
99 98 0 
90 87 0 
92 98 0 
97 99 0 
88 87 0 
93 93 0 
92 90 0 
78 82 0 
122 133 0 
110 113 0 
87 96 0 
93 94 0 
99 104 0 
114 114 0 
106 102 0 
81 83 0 
106 107 0 
108 116 0 
108 119 0 
96 98 0 
109 117 0 
119 122 0 
117 122 0 
109 106 0 
119 123 0 
114 118 0 
104 112 0 
117 120 0 
106 110 0 
106 110 0 
110 120 0 
119 125 0 
122 121 0 
112 110 0 
107 105 0 
108 109 0 
103 96 0 
117 118 0 
116 107 0 
112 112 0 
119 125 0 
121 121 0 
105 92 0 
111 116 0 
113 105 0 
114 114 0 
119 115 0 
116 117 0 
123 118 0 
115 112 0 
112 110 0 
133 134 0 
124 126 0 
123 118 0 
119 111 0 
118 109 0 
126 114 0 
113 104 0 
130 133 0 
121 109 0 
111 109 0 
117 103 0 
131 114 0 
126 117 0 
126 118 0 
123 114 0 
117 113 0 
130 109 0 
120 111 0 
129 113 0 
128 117 0 
129 120 0 
117 97 0 
127 114 0 
129 127 0 
118 97 0 
128 117 0 
129 108 0 
132 108 0 
126 102 0 
129 104 0 
123 95 0 
134 101 0 
124 92 0 
123 95 0 
127 88 0 
126 104 0 
131 85 0 
137 103 0 
135 100 0 
131 97 0 
133 72 0 
140 97 0 
133 100 0 
137 102 0 
136 93 0 
139 89 0 
132 92 0 
126 79 0 
139 92 0 
124 77 0 
130 69 0 
127 64 0 
130 81 0 
131 49 0 
140 0 0 
151 0 0 
150 0 0 
150 0 0 
155 0 0 
152 0 0 
157 0 0 
154 0 0 
157 0 0 
156 0 0 
163 0 0 
163 0 0 
160 0 0 
159 0 0 
157 0 0 
153 0 0 
163 0 0 
169 0 0 
164 0 0 
167 0 0 
172 0 0 
169 0 0 
163 0 0 
169 0 0 
166 0 0 
163 0 0 
161 0 0 
171 0 0 
164 0 0 
168 0 0 
168 0 0 
165 0 0 
170 0 0 
168 0 0 
168 0 0 
174 0 0 
169 0 0 
169 0 0 
168 0 0 
173 0 0 
172 0 0 
167 0 0 
174 0 0 
175 0 0 
170 0 0 
175 0 0 
172 0 0 
172 0 0 
176 0 0 
169 0 0 
166 0 0 
172 0 0 
178 0 0 
181 0 0 
178 0 0 
173 0 0 
179 0 0 
172 0 0 
173 0 0 
174 0 0 
182 0 0 
179 0 0 
178 0 0 
175 0 0 
179 0 0 
175 0 0 
176 0 0 
180 0 0 
176 0 0 
177 0 0 
181 0 0 
178 0 0 
177 0 0 
177 0 0 
179 0 0 
178 0 0 
179 0 0 
181 0 0 
180 0 0 
177 0 0 
177 0 0 
183 0 0 
179 0 0 
175 0 0 
175 0 0 
175 0 0 
179 0 0 
180 0 0 
183 0 0 
180 0 0 
176 0 0 
180 0 0 
183 0 0 
182 0 0 
174 0 0 
184 0 0 
183 0 0 
179 0 0 
181 0 0 
184 0 0 
177 0 0 
181 0 0 
184 0 0 
180 0 0 
179 0 0 
179 0 0 
184 0 0 
181 0 0 
181 0 0 
183 0 0 
181 0 0 
174 0 0 
187 0 0 
181 0 0 
181 0 0 
183 0 0 
183 0 0 
183 0 0 
187 0 0 
182 0 0 
184 0 0 
182 0 0 
175 0 0 
183 0 0 
185 0 0 
190 0 0 
179 0 0 
183 0 0 
181 0 0 
182 0 0 
184 0 0 
182 0 0 
184 0 0 
181 0 0 
184 0 0 
185 0 0 
182 0 0 
187 0 0 
182 0 0 
191 0 0 
184 0 0 
185 0 0 
0 0 155 
0 0 153 
0 0 137 
0 0 147 
0 0 125 
0 0 133 
0 0 144 
0 0 155 
0 0 144 
0 0 147 
0 0 159 
0 0 137 
0 0 163 
0 0 153 
0 0 137 
0 0 153 
0 0 159 
0 0 163 
0 0 159 
0 0 155 
0 0 147 
0 0 142 
0 0 159 
0 0 147 
0 0 161 
0 0 153 
0 0 142 
0 0 151 
0 0 147 
0 0 147 
0 0 151 
0 0 165 
0 0 151 
0 0 144 
0 0 153 
0 0 149 
0 0 153 
0 0 125 
0 0 137 
0 0 153 
0 0 147 
0 0 151 
0 0 135 
0 0 137 
0 0 155 
0 0 157 
0 0 142 
0 0 149 
0 0 153 
0 0 120 
0 0 175 
0 0 140 
0 0 144 
0 0 153 
0 0 159 
0 0 135 
0 0 137 
0 0 133 
0 0 125 
0 0 140 
0 0 151 
0 0 133 
0 0 125 
0 0 151 
0 0 144 
0 0 142 
0 0 157 
0 0 135 
0 0 149 
0 0 153 
0 0 140 
0 0 135 
0 0 142 
0 0 149 
0 0 153 
0 0 135 
0 0 153 
0 0 128 
0 0 135 
0 0 140 
0 0 144 
0 0 133 
0 0 133 
0 0 130 
0 0 125 
0 0 135 
0 0 147 
0 0 133 
0 0 114 
0 0 133 
0 0 133 
0 0 125 
0 0 128 
0 0 128 
0 0 144 
0 0 122 
0 0 137 
0 0 108 
0 0 133 
0 0 137 
0 0 133 
0 0 117 
0 0 122 
0 0 125 
0 0 135 
0 0 128 
0 0 130 
0 0 120 
0 0 130 
0 0 120 
0 0 140 
0 0 130 
0 0 130 
0 0 122 
0 0 120 
0 0 122 
0 0 111 
0 0 102 
0 0 114 
0 0 122 
0 0 125 
0 0 120 
0 0 120 
0 0 108 
0 0 125 
0 0 135 
0 0 122 
0 0 125 
0 0 140 
0 0 102 
0 0 122 
0 0 111 
0 0 108 
0 0 105 
0 0 95 
0 0 102 
0 0 76 
0 0 80 
0 0 105 
23 20 67 
43 45 67 
74 73 25 
86 85 0 
95 94 0 
88 85 0 
91 96 0 
89 90 0 
91 92 0 
72 78 0 
85 92 0 
94 93 0 
84 93 0 
85 92 0 
89 90 0 
96 101 0 
106 106 0 
97 99 0 
94 102 0 
109 115 0 
97 102 0 
105 111 0 
106 112 0 
102 106 0 
88 93 0 
82 86 0 
105 109 0 
91 95 0 
103 99 0 
108 111 0 
100 103 0 
105 111 0 
103 104 0 
97 105 0 
98 102 0 
107 103 0 
122 129 0 
100 108 0 
97 97 0 
105 102 0 
117 118 0 
117 119 0 
114 120 0 
120 120 0 
109 110 0 
119 120 0 
103 102 0 
117 121 0 
101 104 0 
111 113 0 
105 97 0 
107 107 0 
107 113 0 
114 111 0 
120 123 0 
104 113 0 
112 109 0 
113 114 0 
120 119 0 
106 104 0 
129 124 0 
113 115 0 
120 109 0 
125 121 0 
116 110 0 
126 130 0 
119 113 0 
122 126 0 
118 109 0 
117 121 0 
121 115 0 
127 117 0 
128 122 0 
122 112 0 
127 130 0 
116 101 0 
134 131 0 
122 112 0 
129 128 0 
117 105 0 
120 108 0 
120 114 0 
137 128 0 
131 114 0 
121 112 0 
121 104 0 
127 110 0 
127 95 0 
128 117 0 
121 107 0 
133 116 0 
132 102 0 
127 100 0 
135 103 0 
131 104 0 
129 106 0 
136 101 0 
136 103 0 
135 104 0 
130 95 0 
138 110 0 
133 105 0 
118 95 0 
126 97 0 
131 89 0 
137 103 0 
136 96 0 
130 85 0 
139 90 0 
131 78 0 
136 85 0 
137 98 0 
130 93 0 
131 87 0 
129 80 0 
137 97 0 
134 88 0 
136 83 0 
130 72 0 
125 81 0 
116 0 0 
144 0 0 
150 0 0 
159 0 0 
150 0 0 
157 0 0 
152 0 0 
164 0 0 
153 0 0 
153 0 0 
152 0 0 
160 0 0 
157 0 0 
162 0 0 
158 0 0 
162 0 0 
164 0 0 
161 0 0 
164 0 0 
164 0 0 
165 0 0 
171 0 0 
172 0 0 
165 0 0 
163 0 0 
174 0 0 
167 0 0 
173 0 0 
168 0 0 
169 0 0 
169 0 0 
173 0 0 
171 0 0 
176 0 0 
171 0 0 
170 0 0 
172 0 0 
167 0 0 
174 0 0 
172 0 0 
170 0 0 
175 0 0 
174 0 0 
180 0 0 
168 0 0 
179 0 0 
174 0 0 
170 0 0 
177 0 0 
174 0 0 
172 0 0 
173 0 0 
173 0 0 
177 0 0 
178 0 0 
181 0 0 
172 0 0 
180 0 0 
179 0 0 
175 0 0 
171 0 0 
180 0 0 
177 0 0 
174 0 0 
176 0 0 
182 0 0 
179 0 0 
175 0 0 
177 0 0 
178 0 0 
177 0 0 
177 0 0 
175 0 0 
175 0 0 
179 0 0 
178 0 0 
177 0 0 
183 0 0 
173 0 0 
170 0 0 
175 0 0 
175 0 0 
178 0 0 
176 0 0 
176 0 0 
179 0 0 
187 0 0 
182 0 0 
184 0 0 
188 0 0 
183 0 0 
182 0 0 
181 0 0 
178 0 0 
185 0 0 
180 0 0 
181 0 0 
178 0 0 
180 0 0 
179 0 0 
181 0 0 
180 0 0 
181 0 0 
182 0 0 
187 0 0 
180 0 0 
177 0 0 
179 0 0 
180 0 0 
174 0 0 
183 0 0 
182 0 0 
183 0 0 
183 0 0 
183 0 0 
186 0 0 
184 0 0 
185 0 0 
186 0 0 
183 0 0 
186 0 0 
181 0 0 
183 0 0 
177 0 0 
179 0 0 
187 0 0 
190 0 0 
179 0 0 
186 0 0 
181 0 0 
181 0 0 
183 0 0 
185 0 0 
180 0 0 
183 0 0 
187 0 0 
183 0 0 
182 0 0 
184 0 0 
186 0 0 
184 0 0 
0 0 137 
0 0 151 
0 0 151 
0 0 149 
0 0 151 
0 0 161 
0 0 147 
0 0 142 
0 0 142 
0 0 144 
0 0 142 
0 0 137 
0 0 137 
0 0 159 
0 0 142 
0 0 155 
0 0 155 
0 0 167 
0 0 144 
0 0 149 
0 0 149 
0 0 147 
0 0 142 
0 0 144 
0 0 153 
0 0 157 
0 0 153 
0 0 153 
0 0 149 
0 0 155 
0 0 144 
0 0 157 
0 0 155 
0 0 151 
0 0 153 
0 0 144 
0 0 161 
0 0 133 
0 0 155 
0 0 155 
0 0 163 
0 0 155 
0 0 147 
0 0 149 
0 0 147 
0 0 144 
0 0 125 
0 0 140 
0 0 125 
0 0 149 
0 0 133 
0 0 144 
0 0 144 
0 0 144 
0 0 153 
0 0 140 
0 0 144 
0 0 149 
0 0 144 
0 0 142 
0 0 144 
0 0 135 
0 0 142 
0 0 147 
0 0 133 
0 0 147 
0 0 137 
0 0 117 
0 0 128 
0 0 130 
0 0 159 
0 0 130 
0 0 120 
0 0 147 
0 0 149 
0 0 125 
0 0 137 
0 0 155 
0 0 128 
0 0 137 
0 0 130 
0 0 153 
0 0 130 
0 0 128 
0 0 125 
0 0 137 
0 0 135 
0 0 142 
0 0 140 
0 0 130 
0 0 137 
0 0 133 
0 0 133 
0 0 125 
0 0 140 
0 0 135 
0 0 125 
0 0 128 
0 0 140 
0 0 135 
0 0 117 
0 0 111 
0 0 135 
0 0 120 
0 0 135 
0 0 137 
0 0 135 
0 0 125 
0 0 122 
0 0 122 
0 0 130 
0 0 130 
0 0 140 
0 0 120 
0 0 122 
0 0 130 
0 0 99 
0 0 125 
0 0 133 
0 0 125 
0 0 108 
0 0 128 
0 0 114 
0 0 111 
0 0 122 
0 0 99 
0 0 122 
0 0 102 
0 0 120 
0 0 102 
0 0 95 
0 0 120 
0 0 99 
0 0 95 
0 0 95 
0 0 88 
0 0 92 
0 0 92 
51 53 36 
64 67 25 
72 77 0 
80 83 0 
70 75 0 
74 71 0 
84 85 0 
90 94 0 
77 81 0 
94 92 0 
87 87 0 
90 91 0 
93 94 0 
107 113 0 
100 104 0 
98 101 0 
106 115 0 
89 90 0 
105 106 0 
95 96 0 
97 105 0 
95 102 0 
113 115 0 
96 100 0 
119 128 0 
103 108 0 
96 101 0 
107 109 0 
93 102 0 
112 112 0 
118 126 0 
102 100 0 
114 112 0 
101 109 0 
115 116 0 
96 101 0 
98 103 0 
108 105 0 
112 118 0 
112 113 0 
115 119 0 
101 110 0 
106 110 0 
120 125 0 
109 107 0 
103 101 0 
111 107 0 
115 119 0 
111 103 0 
113 113 0 
118 123 0 
125 128 0 
103 101 0 
108 109 0 
118 120 0 
107 102 0 
118 117 0 
117 123 0 
123 122 0 
121 121 0 
113 107 0 
118 117 0 
126 113 0 
115 122 0 
111 107 0 
125 128 0 
117 114 0 
117 108 0 
118 123 0 
123 120 0 
128 114 0 
119 115 0 
113 111 0 
134 124 0 
122 111 0 
121 110 0 
119 105 0 
136 116 0 
124 117 0 
133 126 0 
115 100 0 
129 127 0 
127 118 0 
131 119 0 
130 110 0 
122 97 0 
113 110 0 
124 108 0 
133 126 0 
128 122 0 
131 111 0 
133 120 0 
133 113 0 
131 106 0 
129 102 0 
138 122 0 
133 115 0 
130 98 0 
129 106 0 
131 94 0 
151 124 0 
129 96 0 
134 107 0 
126 96 0 
140 102 0 
132 102 0 
142 100 0 
135 100 0 
133 98 0 
123 81 0 
123 95 0 
123 75 0 
133 94 0 
136 87 0 
128 83 0 
146 86 0 
128 77 0 
135 92 0 
132 72 0 
138 94 0 
128 80 0 
124 69 0 
112 53 0 
129 53 0 
141 20 0 
142 0 0 
157 0 0 
150 0 0 
146 0 0 
160 0 0 
158 0 0 
152 0 0 
157 0 0 
164 0 0 
172 0 0 
162 0 0 
157 0 0 
167 0 0 
161 0 0 
164 0 0 
161 0 0 
164 0 0 
168 0 0 
168 0 0 
165 0 0 
172 0 0 
162 0 0 
166 0 0 
169 0 0 
169 0 0 
176 0 0 
169 0 0 
177 0 0 
174 0 0 
171 0 0 
164 0 0 
171 0 0 
171 0 0 
171 0 0 
178 0 0 
172 0 0 
175 0 0 
166 0 0 
178 0 0 
176 0 0 
180 0 0 
174 0 0 
172 0 0 
174 0 0 
165 0 0 
174 0 0 
184 0 0 
168 0 0 
173 0 0 
173 0 0 
171 0 0 
180 0 0 
169 0 0 
171 0 0 
176 0 0 
177 0 0 
180 0 0 
175 0 0 
173 0 0 
171 0 0 
179 0 0 
170 0 0 
175 0 0 
178 0 0 
172 0 0 
174 0 0 
175 0 0 
183 0 0 
177 0 0 
178 0 0 
181 0 0 
178 0 0 
179 0 0 
185 0 0 
173 0 0 
181 0 0 
181 0 0 
175 0 0 
179 0 0 
178 0 0 
175 0 0 
180 0 0 
181 0 0 
178 0 0 
182 0 0 
176 0 0 
181 0 0 
180 0 0 
181 0 0 
176 0 0 
181 0 0 
177 0 0 
182 0 0 
176 0 0 
182 0 0 
179 0 0 
180 0 0 
180 0 0 
180 0 0 
183 0 0 
177 0 0 
183 0 0 
178 0 0 
179 0 0 
178 0 0 
182 0 0 
179 0 0 
185 0 0 
180 0 0 
178 0 0 
183 0 0 
182 0 0 
179 0 0 
183 0 0 
181 0 0 
181 0 0 
176 0 0 
180 0 0 
183 0 0 
181 0 0 
181 0 0 
182 0 0 
181 0 0 
180 0 0 
178 0 0 
182 0 0 
184 0 0 
178 0 0 
183 0 0 
182 0 0 
184 0 0 
189 0 0 
181 0 0 
187 0 0 
188 0 0 
181 0 0 
181 0 0 
0 0 151 
0 0 155 
0 0 159 
0 0 135 
0 0 163 
0 0 137 
0 0 153 
0 0 135 
0 0 159 
0 0 159 
0 0 147 
0 0 133 
0 0 142 
0 0 130 
0 0 130 
0 0 177 
0 0 163 
0 0 133 
0 0 149 
0 0 140 
0 0 120 
0 0 149 
0 0 155 
0 0 147 
0 0 159 
0 0 151 
0 0 142 
0 0 144 
0 0 147 
0 0 165 
0 0 140 
0 0 155 
0 0 130 
0 0 147 
0 0 144 
0 0 151 
0 0 159 
0 0 135 
0 0 151 
0 0 125 
0 0 142 
0 0 137 
0 0 155 
0 0 144 
0 0 151 
0 0 153 
0 0 149 
0 0 149 
0 0 149 
0 0 149 
0 0 153 
0 0 140 
0 0 128 
0 0 135 
0 0 142 
0 0 137 
0 0 151 
0 0 133 
0 0 130 
0 0 155 
0 0 155 
0 0 133 
0 0 133 
0 0 142 
0 0 151 
0 0 125 
0 0 140 
0 0 159 
0 0 125 
0 0 142 
0 0 128 
0 0 161 
0 0 135 
0 0 144 
0 0 137 
0 0 155 
0 0 122 
0 0 125 
0 0 137 
0 0 130 
0 0 108 
0 0 122 
0 0 120 
0 0 128 
0 0 144 
0 0 125 
0 0 125 
0 0 120 
0 0 111 
0 0 133 
0 0 133 
0 0 133 
0 0 122 
0 0 117 
0 0 120 
0 0 142 
0 0 122 
0 0 130 
0 0 133 
0 0 128 
0 0 130 
0 0 135 
0 0 122 
0 0 125 
0 0 130 
0 0 102 
0 0 108 
0 0 125 
0 0 128 
0 0 120 
0 0 111 
0 0 122 
0 0 128 
0 0 122 
0 0 137 
0 0 114 
0 0 102 
0 0 108 
0 0 120 
0 0 122 
0 0 120 
0 0 111 
0 0 130 
0 0 117 
0 0 120 
0 0 125 
0 0 120 
0 0 111 
0 0 99 
0 0 111 
0 0 99 
0 0 76 
0 0 88 
0 0 92 
0 0 102 
0 0 99 
51 53 84 
87 92 25 
83 83 0 
76 75 0 
74 82 0 
89 92 0 
67 63 0 
85 77 0 
87 91 0 
95 106 0 
68 74 0 
93 103 0 
101 106 0 
97 101 0 
85 81 0 
97 107 0 
102 110 0 
86 95 0 
97 99 0 
104 110 0 
95 91 0 
94 92 0 
89 96 0 
100 98 0 
104 106 0 
100 109 0 
107 114 0 
102 108 0 
109 109 0 
104 99 0 
113 121 0 
113 119 0 
103 102 0 
118 129 0 
118 125 0 
105 110 0 
106 112 0 
125 128 0 
97 105 0 
104 108 0 
111 121 0 
114 117 0 
103 106 0 
110 113 0 
109 106 0 
123 130 0 
106 110 0 
113 110 0 
123 126 0 
119 116 0 
117 118 0 
109 112 0 
124 126 0 
112 116 0 
109 117 0 
120 123 0 
99 103 0 
118 122 0 
121 121 0 
125 126 0 
126 129 0 
117 111 0 
117 112 0 
110 113 0 
125 120 0 
120 121 0 
127 127 0 
115 118 0 
119 111 0 
129 123 0 
122 115 0 
132 122 0 
116 112 0 
121 114 0 
115 115 0 
107 108 0 
122 109 0 
124 112 0 
124 120 0 
138 123 0 
126 121 0 
119 104 0 
119 107 0 
128 118 0 
133 118 0 
130 111 0 
129 119 0 
135 114 0 
131 115 0 
130 115 0 
134 123 0 
127 105 0 
137 110 0 
128 99 0 
124 113 0 
131 112 0 
136 119 0 
132 93 0 
131 104 0 
139 106 0 
123 110 0 
131 108 0 
137 114 0 
139 105 0 
126 98 0 
127 100 0 
130 101 0 
133 102 0 
127 96 0 
129 104 0 
130 83 0 
145 121 0 
134 107 0 
138 100 0 
140 106 0 
137 70 0 
134 103 0 
138 104 0 
135 81 0 
146 92 0 
135 85 0 
134 75 0 
129 77 0 
134 77 0 
126 67 0 
141 64 0 
116 72 0 
128 57 0 
133 0 0 
159 0 0 
158 0 0 
151 0 0 
155 0 0 
155 0 0 
161 0 0 
161 0 0 
161 0 0 
158 0 0 
162 0 0 
161 0 0 
167 0 0 
164 0 0 
157 0 0 
167 0 0 
161 0 0 
171 0 0 
170 0 0 
162 0 0 
165 0 0 
167 0 0 
165 0 0 
166 0 0 
169 0 0 
164 0 0 
168 0 0 
169 0 0 
177 0 0 
166 0 0 
175 0 0 
172 0 0 
175 0 0 
174 0 0 
170 0 0 
173 0 0 
176 0 0 
170 0 0 
172 0 0 
174 0 0 
171 0 0 
175 0 0 
177 0 0 
172 0 0 
176 0 0 
172 0 0 
176 0 0 
173 0 0 
174 0 0 
180 0 0 
175 0 0 
171 0 0 
174 0 0 
180 0 0 
175 0 0 
172 0 0 
171 0 0 
172 0 0 
179 0 0 
175 0 0 
175 0 0 
173 0 0 
178 0 0 
177 0 0 
178 0 0 
178 0 0 
175 0 0 
176 0 0 
176 0 0 
177 0 0 
178 0 0 
180 0 0 
177 0 0 
179 0 0 
179 0 0 
178 0 0 
179 0 0 
181 0 0 
177 0 0 
178 0 0 
173 0 0 
180 0 0 
177 0 0 
180 0 0 
181 0 0 
181 0 0 
180 0 0 
175 0 0 
179 0 0 
181 0 0 
173 0 0 
182 0 0 
179 0 0 
178 0 0 
173 0 0 
174 0 0 
180 0 0 
180 0 0 
181 0 0 
180 0 0 
179 0 0 
178 0 0 
186 0 0 
186 0 0 
178 0 0 
179 0 0 
182 0 0 
177 0 0 
184 0 0 
182 0 0 
183 0 0 
186 0 0 
186 0 0 
186 0 0 
186 0 0 
181 0 0 
183 0 0 
181 0 0 
186 0 0 
184 0 0 
183 0 0 
185 0 0 
181 0 0 
182 0 0 
183 0 0 
184 0 0 
181 0 0 
182 0 0 
183 0 0 
185 0 0 
184 0 0 
181 0 0 
182 0 0 
179 0 0 
187 0 0 
187 0 0 
0 0 159 
0 0 153 
0 0 147 
0 0 159 
0 0 147 
0 0 159 
0 0 165 
0 0 149 
0 0 144 
0 0 142 
0 0 137 
0 0 130 
0 0 142 
0 0 151 
0 0 135 
0 0 140 
0 0 142 
0 0 155 
0 0 159 
0 0 135 
0 0 144 
0 0 142 
0 0 140 
0 0 149 
0 0 133 
0 0 155 
0 0 165 
0 0 142 
0 0 147 
0 0 149 
0 0 142 
0 0 151 
0 0 140 
0 0 149 
0 0 128 
0 0 144 
0 0 135 
0 0 144 
0 0 155 
0 0 135 
0 0 135 
0 0 133 
0 0 147 
0 0 144 
0 0 133 
0 0 140 
0 0 137 
0 0 135 
0 0 142 
0 0 135 
0 0 147 
0 0 147 
0 0 149 
0 0 144 
0 0 157 
0 0 122 
0 0 137 
0 0 117 
0 0 153 
0 0 135 
0 0 151 
0 0 135 
0 0 140 
0 0 142 
0 0 159 
0 0 161 
0 0 128 
0 0 130 
0 0 147 
0 0 135 
0 0 135 
0 0 111 
0 0 147 
0 0 117 
0 0 128 
0 0 137 
0 0 125 
0 0 99 
0 0 120 
0 0 140 
0 0 151 
0 0 144 
0 0 128 
0 0 144 
0 0 142 
0 0 137 
0 0 125 
0 0 137 
0 0 130 
0 0 147 
0 0 137 
0 0 133 
0 0 128 
0 0 133 
0 0 130 
0 0 130 
0 0 137 
0 0 130 
0 0 125 
0 0 122 
0 0 140 
0 0 128 
0 0 130 
0 0 117 
0 0 128 
0 0 133 
0 0 117 
0 0 108 
0 0 122 
0 0 122 
0 0 133 
0 0 117 
0 0 125 
0 0 120 
0 0 117 
0 0 130 
0 0 120 
0 0 117 
0 0 99 
0 0 111 
0 0 114 
0 0 99 
0 0 108 
0 0 108 
0 0 111 
0 0 120 
0 0 102 
0 0 108 
0 0 122 
0 0 114 
0 0 92 
0 0 92 
0 0 84 
17 20 72 
49 49 67 
68 72 0 
71 70 0 
79 83 0 
84 83 0 
67 70 0 
86 92 0 
84 85 0 
90 95 0 
103 113 0 
92 96 0 
87 87 0 
82 88 0 
78 74 0 
83 84 0 
89 91 0 
88 95 0 
106 107 0 
103 110 0 
98 94 0 
102 106 0 
102 105 0 
104 115 0 
109 117 0 
108 112 0 
105 109 0 
101 109 0 
95 101 0 
103 105 0 
102 112 0 
101 103 0 
116 118 0 
111 111 0 
100 107 0 
113 119 0 
118 123 0 
119 124 0 
103 105 0 
107 115 0 
102 108 0 
117 120 0 
111 118 0 
118 123 0 
120 126 0 
106 110 0 
124 130 0 
113 112 0 
103 107 0 
121 128 0 
120 125 0 
121 127 0 
120 119 0 
120 123 0 
124 129 0 
114 123 0 
128 131 0 
122 122 0 
119 119 0 
115 127 0 
123 131 0 
125 121 0 
112 113 0 
106 88 0 
125 127 0 
116 110 0 
109 106 0 
116 108 0 
109 96 0 
121 120 0 
120 126 0 
124 128 0 
128 119 0 
125 127 0 
128 120 0 
120 118 0 
122 115 0 
129 119 0 
122 112 0 
120 107 0 
131 126 0 
140 134 0 
130 118 0 
113 109 0 
123 115 0 
134 117 0 
126 120 0 
132 134 0 
136 123 0 
125 108 0 
123 111 0 
124 110 0 
128 118 0 
127 112 0 
128 120 0 
136 113 0 
121 107 0 
132 117 0 
126 102 0 
125 104 0 
133 121 0 
132 99 0 
128 105 0 
128 103 0 
138 114 0 
129 94 0 
141 115 0 
147 118 0 
138 107 0 
128 92 0 
138 105 0 
128 95 0 
137 105 0 
137 110 0 
141 118 0 
140 100 0 
143 109 0 
133 93 0 
142 112 0 
137 93 0 
123 83 0 
147 112 0 
138 101 0 
131 98 0 
139 87 0 
133 78 0 
131 69 0 
137 96 0 
134 64 0 
136 80 0 
139 72 0 
121 57 0 
122 44 0 
152 0 0 
146 0 0 
147 0 0 
157 0 0 
158 0 0 
150 0 0 
163 0 0 
169 0 0 
159 0 0 
165 0 0 
165 0 0 
171 0 0 
167 0 0 
163 0 0 
167 0 0 
169 0 0 
162 0 0 
169 0 0 
168 0 0 
165 0 0 
172 0 0 
165 0 0 
171 0 0 
169 0 0 
169 0 0 
173 0 0 
180 0 0 
174 0 0 
175 0 0 
167 0 0 
170 0 0 
167 0 0 
168 0 0 
172 0 0 
170 0 0 
177 0 0 
169 0 0 
168 0 0 
171 0 0 
179 0 0 
175 0 0 
176 0 0 
179 0 0 
179 0 0 
172 0 0 
168 0 0 
173 0 0 
177 0 0 
176 0 0 
173 0 0 
177 0 0 
178 0 0 
179 0 0 
170 0 0 
172 0 0 
168 0 0 
172 0 0 
171 0 0 
172 0 0 
176 0 0 
178 0 0 
176 0 0 
185 0 0 
172 0 0 
179 0 0 
172 0 0 
176 0 0 
175 0 0 
179 0 0 
174 0 0 
177 0 0 
176 0 0 
178 0 0 
172 0 0 
179 0 0 
177 0 0 
178 0 0 
182 0 0 
181 0 0 
182 0 0 
180 0 0 
176 0 0 
178 0 0 
178 0 0 
178 0 0 
179 0 0 
174 0 0 
176 0 0 
180 0 0 
183 0 0 
179 0 0 
180 0 0 
177 0 0 
177 0 0 
181 0 0 
182 0 0 
180 0 0 
187 0 0 
180 0 0 
182 0 0 
173 0 0 
180 0 0 
178 0 0 
183 0 0 
176 0 0 
176 0 0 
183 0 0 
180 0 0 
180 0 0 
176 0 0 
178 0 0 
182 0 0 
185 0 0 
187 0 0 
180 0 0 
175 0 0 
188 0 0 
178 0 0 
181 0 0 
183 0 0 
179 0 0 
184 0 0 
180 0 0 
179 0 0 
188 0 0 
188 0 0 
182 0 0 
180 0 0 
177 0 0 
181 0 0 
181 0 0 
182 0 0 
181 0 0 
178 0 0 
0 0 130 
0 0 144 
0 0 144 
0 0 128 
0 0 149 
0 0 135 
0 0 144 
0 0 140 
0 0 130 
0 0 133 
0 0 151 
0 0 153 
0 0 151 
0 0 135 
0 0 155 
0 0 155 
0 0 155 
0 0 142 
0 0 151 
0 0 151 
0 0 155 
0 0 147 
0 0 153 
0 0 135 
0 0 149 
0 0 165 
0 0 149 
0 0 159 
0 0 135 
0 0 161 
0 0 151 
0 0 117 
0 0 142 
0 0 151 
0 0 155 
0 0 135 
0 0 151 
0 0 142 
0 0 175 
0 0 151 
0 0 151 
0 0 140 
0 0 157 
0 0 128 
0 0 149 
0 0 135 
0 0 153 
0 0 142 
0 0 128 
0 0 137 
0 0 142 
0 0 140 
0 0 151 
0 0 147 
0 0 149 
0 0 130 
0 0 151 
0 0 133 
0 0 153 
0 0 137 
0 0 155 
0 0 135 
0 0 133 
0 0 125 
0 0 144 
0 0 153 
0 0 137 
0 0 147 
0 0 140 
0 0 135 
0 0 133 
0 0 147 
0 0 122 
0 0 142 
0 0 133 
0 0 128 
0 0 120 
0 0 128 
0 0 149 
0 0 111 
0 0 128 
0 0 130 
0 0 125 
0 0 140 
0 0 117 
0 0 142 
0 0 137 
0 0 125 
0 0 125 
0 0 130 
0 0 122 
0 0 140 
0 0 128 
0 0 130 
0 0 151 
0 0 133 
0 0 137 
0 0 102 
0 0 114 
0 0 117 
0 0 128 
0 0 122 
0 0 105 
0 0 125 
0 0 135 
0 0 125 
0 0 135 
0 0 99 
0 0 114 
0 0 122 
0 0 105 
0 0 120 
0 0 111 
0 0 120 
0 0 114 
0 0 122 
0 0 102 
0 0 125 
0 0 122 
0 0 102 
0 0 114 
0 0 99 
0 0 120 
0 0 108 
0 0 105 
0 0 99 
0 0 88 
0 0 111 
0 0 111 
0 0 76 
0 0 92 
0 0 99 
55 53 72 
69 70 25 
75 78 0 
63 67 0 
86 92 0 
78 76 0 
93 98 0 
71 67 0 
86 90 0 
90 85 0 
92 97 0 
100 98 0 
83 86 0 
82 86 0 
94 101 0 
95 99 0 
80 86 0 
102 104 0 
92 93 0 
99 102 0 
105 104 0 
107 105 0 
94 95 0 
103 110 0 
104 110 0 
114 120 0 
93 96 0 
106 112 0 
102 108 0 
104 105 0 
108 115 0 
112 120 0 
100 97 0 
97 104 0 
113 116 0 
99 108 0 
92 100 0 
98 102 0 
118 119 0 
112 108 0 
94 100 0 
98 97 0 
109 116 0 
117 123 0 
116 114 0 
102 112 0 
108 115 0 
113 107 0 
120 127 0 
126 133 0 
109 117 0 
125 133 0 
121 122 0 
114 117 0 
117 119 0 
113 120 0 
118 121 0 
124 122 0 
118 123 0 
119 123 0 
123 124 0 
121 119 0 
123 120 0 
124 119 0 
116 114 0 
116 107 0 
124 128 0 
114 115 0 
120 117 0 
115 109 0 
115 117 0 
121 123 0 
130 128 0 
131 128 0 
121 118 0 
119 112 0 
124 118 0 
131 128 0 
118 117 0 
128 125 0 
123 115 0 
135 127 0 
128 119 0 
116 102 0 
122 105 0 
126 104 0 
141 133 0 
143 132 0 
130 106 0 
128 109 0 
121 105 0 
135 126 0 
136 124 0 
130 112 0 
127 111 0 
134 130 0 
122 106 0 
137 125 0 
129 112 0 
137 115 0 
133 119 0 
141 120 0 
141 121 0 
135 99 0 
143 125 0 
134 106 0 
140 105 0 
132 116 0 
145 123 0 
138 104 0 
145 109 0 
136 119 0 
140 100 0 
133 106 0 
136 107 0 
135 90 0 
135 94 0 
133 107 0 
142 115 0 
145 108 0 
145 108 0 
138 92 0 
140 96 0 
138 70 0 
134 72 0 
133 89 0 
128 70 0 
142 98 0 
144 103 0 
134 82 0 
145 78 0 
137 90 0 
147 83 0 
136 82 0 
130 81 0 
130 53 0 
147 20 0 
151 0 0 
147 0 0 
164 0 0 
157 0 0 
156 0 0 
159 0 0 
165 0 0 
162 0 0 
159 0 0 
164 0 0 
162 0 0 
164 0 0 
157 0 0 
159 0 0 
161 0 0 
166 0 0 
166 0 0 
163 0 0 
170 0 0 
167 0 0 
164 0 0 
163 0 0 
170 0 0 
167 0 0 
157 0 0 
179 0 0 
172 0 0 
169 0 0 
172 0 0 
169 0 0 
168 0 0 
166 0 0 
167 0 0 
174 0 0 
167 0 0 
175 0 0 
175 0 0 
173 0 0 
165 0 0 
167 0 0 
173 0 0 
164 0 0 
174 0 0 
176 0 0 
179 0 0 
173 0 0 
178 0 0 
175 0 0 
180 0 0 
180 0 0 
176 0 0 
174 0 0 
176 0 0 
177 0 0 
177 0 0 
180 0 0 
178 0 0 
175 0 0 
179 0 0 
174 0 0 
177 0 0 
175 0 0 
178 0 0 
177 0 0 
178 0 0 
176 0 0 
178 0 0 
176 0 0 
184 0 0 
178 0 0 
179 0 0 
181 0 0 
179 0 0 
171 0 0 
180 0 0 
178 0 0 
179 0 0 
183 0 0 
179 0 0 
181 0 0 
179 0 0 
180 0 0 
180 0 0 
182 0 0 
180 0 0 
185 0 0 
180 0 0 
183 0 0 
177 0 0 
178 0 0 
183 0 0 
181 0 0 
180 0 0 
189 0 0 
185 0 0 
176 0 0 
181 0 0 
182 0 0 
182 0 0 
181 0 0 
182 0 0 
182 0 0 
175 0 0 
181 0 0 
183 0 0 
181 0 0 
183 0 0 
180 0 0 
181 0 0 
184 0 0 
183 0 0 
175 0 0 
182 0 0 
182 0 0 
186 0 0 
181 0 0 
180 0 0 
179 0 0 
178 0 0 
186 0 0 
180 0 0 
182 0 0 
182 0 0 
184 0 0 
183 0 0 
180 0 0 
182 0 0 
187 0 0 
182 0 0 
180 0 0 
186 0 0 
0 0 147 
0 0 135 
0 0 149 
0 0 153 
0 0 155 
0 0 151 
0 0 144 
0 0 144 
0 0 157 
0 0 147 
0 0 142 
0 0 151 
0 0 151 
0 0 130 
0 0 142 
0 0 144 
0 0 137 
0 0 149 
0 0 144 
0 0 149 
0 0 147 
0 0 157 
0 0 153 
0 0 137 
0 0 153 
0 0 137 
0 0 137 
0 0 153 
0 0 153 
0 0 144 
0 0 133 
0 0 147 
0 0 142 
0 0 135 
0 0 153 
0 0 130 
0 0 144 
0 0 159 
0 0 137 
0 0 144 
0 0 144 
0 0 161 
0 0 140 
0 0 140 
0 0 161 
0 0 147 
0 0 157 
0 0 140 
0 0 140 
0 0 147 
0 0 125 
0 0 130 
0 0 147 
0 0 114 
0 0 142 
0 0 159 
0 0 140 
0 0 151 
0 0 111 
0 0 149 
0 0 140 
0 0 140 
0 0 137 
0 0 137 
0 0 130 
0 0 120 
0 0 137 
0 0 142 
0 0 137 
0 0 144 
0 0 144 
0 0 133 
0 0 142 
0 0 122 
0 0 137 
0 0 125 
0 0 128 
0 0 142 
0 0 125 
0 0 120 
0 0 149 
0 0 128 
0 0 142 
0 0 120 
0 0 125 
0 0 111 
0 0 140 
0 0 142 
0 0 130 
0 0 155 
0 0 128 
0 0 135 
0 0 117 
0 0 120 
0 0 122 
0 0 142 
0 0 133 
0 0 117 
0 0 130 
0 0 114 
0 0 111 
0 0 130 
0 0 105 
0 0 117 
0 0 120 
0 0 130 
0 0 140 
0 0 137 
0 0 111 
0 0 80 
0 0 111 
0 0 125 
0 0 122 
0 0 108 
0 0 122 
0 0 114 
0 0 117 
0 0 84 
0 0 99 
0 0 108 
0 0 130 
0 0 102 
0 0 80 
0 0 111 
0 0 108 
0 0 84 
0 0 84 
0 0 92 
0 0 111 
36 40 76 
45 40 67 
81 86 0 
76 80 0 
87 77 0 
78 82 0 
79 87 0 
97 97 0 
82 85 0 
102 112 0 
95 92 0 
93 102 0 
91 94 0 
94 98 0 
96 95 0 
91 96 0 
93 97 0 
94 95 0 
96 98 0 
96 100 0 
103 110 0 
91 94 0 
101 103 0 
107 108 0 
108 111 0 
100 106 0 
99 103 0 
102 111 0 
113 116 0 
104 112 0 
112 116 0 
97 98 0 
112 119 0 
115 119 0 
103 106 0 
116 126 0 
103 108 0 
120 121 0 
117 122 0 
108 109 0 
100 102 0 
115 120 0 
106 101 0 
99 108 0 
108 117 0 
95 94 0 
96 98 0 
111 118 0 
91 94 0 
125 118 0 
114 120 0 
114 119 0 
102 99 0 
123 122 0 
106 105 0 
111 107 0 
118 127 0 
122 125 0 
124 131 0 
103 103 0 
114 111 0 
120 117 0 
127 131 0 
113 112 0 
109 111 0 
125 118 0 
114 118 0 
119 117 0 
122 121 0 
125 121 0 
124 113 0 
116 126 0 
116 109 0 
126 124 0 
126 127 0 
116 114 0 
121 115 0 
122 120 0 
128 124 0 
128 119 0 
126 120 0 
126 117 0 
128 122 0 
134 130 0 
117 113 0 
128 122 0 
126 125 0 
122 112 0 
125 104 0 
118 114 0 
130 122 0 
131 113 0 
132 116 0 
127 119 0 
138 121 0 
126 107 0 
133 121 0 
129 106 0 
138 124 0 
139 132 0 
132 112 0 
137 124 0 
131 112 0 
140 133 0 
133 114 0 
139 116 0 
132 123 0 
132 103 0 
143 108 0 
136 100 0 
136 110 0 
133 114 0 
131 105 0 
142 117 0 
137 108 0 
138 103 0 
141 109 0 
139 114 0 
139 107 0 
129 99 0 
130 100 0 
133 107 0 
143 96 0 
141 105 0 
141 109 0 
137 95 0 
134 103 0 
140 102 0 
140 89 0 
130 98 0 
134 100 0 
145 90 0 
139 95 0 
135 79 0 
143 78 0 
130 80 0 
141 82 0 
142 85 0 
132 76 0 
139 88 0 
131 64 0 
127 40 0 
147 0 0 
155 0 0 
156 0 0 
161 0 0 
166 0 0 
165 0 0 
157 0 0 
166 0 0 
160 0 0 
167 0 0 
152 0 0 
156 0 0 
168 0 0 
170 0 0 
161 0 0 
169 0 0 
165 0 0 
170 0 0 
162 0 0 
167 0 0 
161 0 0 
169 0 0 
175 0 0 
163 0 0 
176 0 0 
170 0 0 
174 0 0 
167 0 0 
168 0 0 
174 0 0 
171 0 0 
170 0 0 
175 0 0 
180 0 0 
179 0 0 
177 0 0 
168 0 0 
172 0 0 
165 0 0 
177 0 0 
177 0 0 
174 0 0 
176 0 0 
178 0 0 
171 0 0 
175 0 0 
169 0 0 
176 0 0 
173 0 0 
182 0 0 
180 0 0 
182 0 0 
171 0 0 
169 0 0 
175 0 0 
170 0 0 
178 0 0 
179 0 0 
181 0 0 
176 0 0 
178 0 0 
174 0 0 
174 0 0 
182 0 0 
174 0 0 
176 0 0 
179 0 0 
174 0 0 
181 0 0 
170 0 0 
174 0 0 
178 0 0 
180 0 0 
173 0 0 
181 0 0 
178 0 0 
179 0 0 
177 0 0 
180 0 0 
176 0 0 
177 0 0 
179 0 0 
172 0 0 
172 0 0 
180 0 0 
185 0 0 
174 0 0 
180 0 0 
177 0 0 
186 0 0 
184 0 0 
173 0 0 
179 0 0 
174 0 0 
180 0 0 
176 0 0 
180 0 0 
184 0 0 
181 0 0 
187 0 0 
181 0 0 
176 0 0 
183 0 0 
184 0 0 
179 0 0 
187 0 0 
182 0 0 
185 0 0 
186 0 0 
184 0 0 
188 0 0 
187 0 0 
182 0 0 
184 0 0 
179 0 0 
182 0 0 
183 0 0 
180 0 0 
186 0 0 
185 0 0 
187 0 0 
186 0 0 
185 0 0 
178 0 0 
180 0 0 
181 0 0 
181 0 0 
183 0 0 
181 0 0 
0 0 151 
0 0 144 
0 0 133 
0 0 133 
0 0 149 
0 0 153 
0 0 137 
0 0 140 
0 0 149 
0 0 122 
0 0 142 
0 0 140 
0 0 157 
0 0 144 
0 0 144 
0 0 151 
0 0 144 
0 0 165 
0 0 149 
0 0 135 
0 0 151 
0 0 144 
0 0 133 
0 0 140 
0 0 135 
0 0 147 
0 0 130 
0 0 155 
0 0 130 
0 0 149 
0 0 144 
0 0 151 
0 0 147 
0 0 155 
0 0 163 
0 0 151 
0 0 147 
0 0 135 
0 0 157 
0 0 137 
0 0 137 
0 0 135 
0 0 125 
0 0 140 
0 0 135 
0 0 159 
0 0 135 
0 0 137 
0 0 125 
0 0 135 
0 0 144 
0 0 147 
0 0 133 
0 0 135 
0 0 149 
0 0 142 
0 0 135 
0 0 149 
0 0 130 
0 0 147 
0 0 135 
0 0 151 
0 0 151 
0 0 140 
0 0 144 
0 0 135 
0 0 153 
0 0 128 
0 0 137 
0 0 137 
0 0 135 
0 0 149 
0 0 128 
0 0 133 
0 0 111 
0 0 122 
0 0 122 
0 0 149 
0 0 122 
0 0 122 
0 0 155 
0 0 130 
0 0 133 
0 0 151 
0 0 133 
0 0 130 
0 0 117 
0 0 122 
0 0 133 
0 0 111 
0 0 133 
0 0 128 
0 0 114 
0 0 128 
0 0 122 
0 0 130 
0 0 133 
0 0 125 
0 0 122 
0 0 125 
0 0 120 
0 0 142 
0 0 133 
0 0 130 
0 0 114 
0 0 137 
0 0 122 
0 0 125 
0 0 120 
0 0 102 
0 0 122 
0 0 111 
0 0 120 
0 0 105 
0 0 122 
0 0 102 
0 0 105 
0 0 114 
0 0 125 
0 0 84 
0 0 108 
0 0 105 
0 0 120 
0 0 105 
0 0 95 
0 0 80 
0 0 105 
31 34 72 
68 67 44 
77 78 0 
81 85 0 
82 82 0 
80 86 0 
83 85 0 
89 86 0 
81 82 0 
100 99 0 
87 92 0 
90 93 0 
92 98 0 
93 94 0 
89 96 0 
86 90 0 
106 112 0 
97 104 0 
90 89 0 
99 97 0 
93 95 0 
96 101 0 
94 97 0 
95 97 0 
110 114 0 
99 102 0 
93 101 0 
102 109 0 
105 108 0 
107 111 0 
103 102 0 
112 114 0 
103 107 0 
117 125 0 
108 117 0 
107 115 0 
117 125 0 
113 122 0 
126 134 0 
124 132 0 
113 113 0 
114 118 0 
119 129 0 
113 112 0 
109 114 0 
129 135 0 
111 115 0 
107 103 0 
117 114 0 
118 124 0 
116 124 0 
114 119 0 
117 119 0 
113 120 0 
122 125 0 
114 113 0 
109 115 0 
134 137 0 
124 127 0 
114 114 0 
114 118 0 
117 114 0 
116 115 0 
114 113 0 
120 118 0 
116 116 0 
99 95 0 
114 116 0 
128 128 0 
124 128 0 
122 119 0 
118 116 0 
123 121 0 
129 131 0 
120 118 0 
118 115 0 
120 119 0 
132 117 0 
128 124 0 
131 131 0 
123 108 0 
124 119 0 
121 115 0 
125 111 0 
130 120 0 
129 118 0 
126 120 0 
131 130 0 
130 129 0 
141 135 0 
127 123 0 
126 119 0 
125 118 0 
126 112 0 
137 120 0 
125 103 0 
135 125 0 
134 114 0 
133 117 0 
124 110 0 
123 96 0 
125 98 0 
138 121 0 
138 114 0 
128 120 0 
138 120 0 
129 115 0 
141 112 0 
134 112 0 
140 117 0 
142 127 0 
118 110 0 
138 116 0 
141 121 0 
137 112 0 
132 98 0 
133 110 0 
133 99 0 
139 115 0 
139 104 0 
139 109 0 
147 113 0 
140 92 0 
144 120 0 
133 101 0 
138 110 0 
141 89 0 
136 101 0 
143 104 0 
141 104 0 
144 81 0 
140 104 0 
137 87 0 
141 92 0 
140 94 0 
141 89 0 
145 72 0 
139 73 0 
142 94 0 
137 77 0 
136 85 0 
132 79 0 
144 92 0 
139 75 0 
126 64 0 
125 34 0 
154 0 0 
160 0 0 
156 0 0 
156 0 0 
160 0 0 
156 0 0 
157 0 0 
163 0 0 
161 0 0 
165 0 0 
168 0 0 
163 0 0 
152 0 0 
163 0 0 
167 0 0 
167 0 0 
161 0 0 
162 0 0 
166 0 0 
175 0 0 
163 0 0 
165 0 0 
167 0 0 
172 0 0 
170 0 0 
170 0 0 
173 0 0 
165 0 0 
175 0 0 
180 0 0 
164 0 0 
163 0 0 
173 0 0 
177 0 0 
177 0 0 
179 0 0 
171 0 0 
181 0 0 
177 0 0 
172 0 0 
173 0 0 
171 0 0 
176 0 0 
175 0 0 
172 0 0 
173 0 0 
170 0 0 
181 0 0 
175 0 0 
166 0 0 
174 0 0 
173 0 0 
177 0 0 
173 0 0 
178 0 0 
176 0 0 
185 0 0 
178 0 0 
176 0 0 
176 0 0 
180 0 0 
180 0 0 
175 0 0 
180 0 0 
181 0 0 
171 0 0 
175 0 0 
176 0 0 
183 0 0 
175 0 0 
177 0 0 
178 0 0 
185 0 0 
183 0 0 
177 0 0 
178 0 0 
179 0 0 
176 0 0 
173 0 0 
179 0 0 
183 0 0 
178 0 0 
180 0 0 
173 0 0 
178 0 0 
182 0 0 
182 0 0 
178 0 0 
183 0 0 
179 0 0 
180 0 0 
173 0 0 
182 0 0 
182 0 0 
181 0 0 
186 0 0 
177 0 0 
180 0 0 
173 0 0 
178 0 0 
184 0 0 
185 0 0 
186 0 0 
178 0 0 
182 0 0 
179 0 0 
181 0 0 
177 0 0 
182 0 0 
181 0 0 
183 0 0 
188 0 0 
179 0 0 
184 0 0 
187 0 0 
186 0 0 
182 0 0 
181 0 0 
183 0 0 
180 0 0 
180 0 0 
182 0 0 
187 0 0 
181 0 0 
181 0 0 
185 0 0 
189 0 0 
0 0 151 
0 0 153 
0 0 151 
0 0 133 
0 0 133 
0 0 151 
0 0 142 
0 0 144 
0 0 165 
0 0 142 
0 0 137 
0 0 135 
0 0 140 
0 0 147 
0 0 159 
0 0 137 
0 0 153 
0 0 130 
0 0 149 
0 0 133 
0 0 125 
0 0 130 
0 0 149 
0 0 133 
0 0 147 
0 0 144 
0 0 149 
0 0 135 
0 0 149 
0 0 153 
0 0 144 
0 0 153 
0 0 149 
0 0 137 
0 0 147 
0 0 140 
0 0 135 
0 0 149 
0 0 117 
0 0 153 
0 0 120 
0 0 135 
0 0 128 
0 0 153 
0 0 140 
0 0 128 
0 0 135 
0 0 149 
0 0 133 
0 0 142 
0 0 140 
0 0 137 
0 0 151 
0 0 147 
0 0 140 
0 0 128 
0 0 130 
0 0 128 
0 0 144 
0 0 153 
0 0 128 
0 0 149 
0 0 130 
0 0 135 
0 0 133 
0 0 140 
0 0 128 
0 0 114 
0 0 135 
0 0 122 
0 0 122 
0 0 140 
0 0 130 
0 0 147 
0 0 128 
0 0 137 
0 0 125 
0 0 125 
0 0 149 
0 0 144 
0 0 117 
0 0 120 
0 0 140 
0 0 125 
0 0 137 
0 0 144 
0 0 140 
0 0 130 
0 0 128 
0 0 122 
0 0 120 
0 0 133 
0 0 108 
0 0 108 
0 0 117 
0 0 120 
0 0 133 
0 0 108 
0 0 133 
0 0 111 
0 0 120 
0 0 117 
0 0 128 
0 0 125 
0 0 137 
0 0 122 
0 0 92 
0 0 102 
0 0 105 
0 0 108 
0 0 108 
0 0 105 
0 0 114 
0 0 128 
0 0 105 
0 0 102 
0 0 95 
0 0 108 
0 0 84 
0 0 102 
0 0 88 
0 0 95 
0 0 84 
0 0 102 
0 0 72 
45 45 80 
80 87 51 
90 98 0 
81 88 0 
82 82 0 
87 94 0 
93 100 0 
79 89 0 
88 92 0 
81 82 0 
104 115 0 
100 104 0 
92 97 0 
92 99 0 
99 105 0 
99 104 0 
86 91 0 
73 80 0 
98 96 0 
95 102 0 
99 104 0 
101 108 0 
96 108 0 
112 112 0 
105 111 0 
105 113 0 
92 84 0 
99 108 0 
108 117 0 
108 112 0 
94 99 0 
105 111 0 
113 121 0 
91 95 0 
99 104 0 
104 112 0 
105 115 0 
105 110 0 
106 113 0 
120 123 0 
106 112 0 
119 129 0 
105 107 0 
119 118 0 
116 126 0 
114 117 0 
116 119 0 
104 108 0 
111 119 0 
121 124 0 
116 121 0 
112 113 0 
110 111 0 
113 121 0 
115 116 0 
125 127 0 
115 120 0 
115 113 0 
122 122 0 
113 121 0 
114 111 0 
112 109 0 
128 126 0 
126 129 0 
128 125 0 
120 124 0 
123 116 0 
124 123 0 
127 131 0 
124 119 0 
127 130 0 
136 134 0 
127 125 0 
123 116 0 
119 120 0 
130 130 0 
132 127 0 
128 126 0 
120 117 0 
124 127 0 
115 124 0 
124 130 0 
122 123 0 
121 115 0 
124 121 0 
137 138 0 
127 121 0 
124 127 0 
137 125 0 
128 125 0 
128 120 0 
130 117 0 
130 122 0 
131 125 0 
128 117 0 
132 124 0 
122 106 0 
122 108 0 
130 121 0 
133 122 0 
133 119 0 
132 119 0 
138 120 0 
133 111 0 
136 125 0 
132 104 0 
142 115 0 
131 118 0 
132 117 0 
123 112 0 
133 118 0 
134 113 0 
141 121 0 
135 115 0 
127 82 0 
135 107 0 
140 116 0 
131 116 0 
134 115 0 
135 110 0 
142 116 0 
141 106 0 
140 112 0 
137 126 0 
139 109 0 
149 115 0 
143 109 0 
139 95 0 
141 101 0 
125 92 0 
140 107 0 
141 97 0 
144 95 0 
141 97 0 
139 93 0 
135 98 0 
142 100 0 
139 102 0 
145 99 0 
134 88 0 
150 106 0 
135 92 0 
144 92 0 
146 100 0 
140 85 0 
146 90 0 
138 78 0 
147 90 0 
130 81 0 
136 34 0 
147 0 0 
156 0 0 
145 0 0 
166 0 0 
151 0 0 
161 0 0 
153 0 0 
167 0 0 
163 0 0 
167 0 0 
171 0 0 
166 0 0 
162 0 0 
163 0 0 
170 0 0 
166 0 0 
160 0 0 
171 0 0 
167 0 0 
163 0 0 
169 0 0 
167 0 0 
172 0 0 
167 0 0 
164 0 0 
177 0 0 
172 0 0 
162 0 0 
171 0 0 
169 0 0 
167 0 0 
174 0 0 
173 0 0 
170 0 0 
172 0 0 
171 0 0 
165 0 0 
171 0 0 
167 0 0 
170 0 0 
177 0 0 
178 0 0 
174 0 0 
176 0 0 
174 0 0 
177 0 0 
178 0 0 
172 0 0 
176 0 0 
175 0 0 
172 0 0 
176 0 0 
177 0 0 
177 0 0 
176 0 0 
178 0 0 
177 0 0 
175 0 0 
174 0 0 
177 0 0 
178 0 0 
184 0 0 
186 0 0 
178 0 0 
176 0 0 
176 0 0 
179 0 0 
175 0 0 
182 0 0 
173 0 0 
175 0 0 
179 0 0 
182 0 0 
178 0 0 
180 0 0 
177 0 0 
181 0 0 
177 0 0 
184 0 0 
176 0 0 
177 0 0 
184 0 0 
180 0 0 
174 0 0 
179 0 0 
181 0 0 
180 0 0 
175 0 0 
179 0 0 
183 0 0 
182 0 0 
181 0 0 
182 0 0 
178 0 0 
180 0 0 
177 0 0 
177 0 0 
186 0 0 
181 0 0 
181 0 0 
183 0 0 
182 0 0 
186 0 0 
183 0 0 
179 0 0 
183 0 0 
184 0 0 
178 0 0 
181 0 0 
182 0 0 
182 0 0 
179 0 0 
180 0 0 
185 0 0 
178 0 0 
180 0 0 
179 0 0 
179 0 0 
182 0 0 
178 0 0 
181 0 0 
182 0 0 
185 0 0 
181 0 0 
180 0 0 
0 0 142 
0 0 155 
0 0 147 
0 0 144 
0 0 140 
0 0 157 
0 0 135 
0 0 140 
0 0 147 
0 0 122 
0 0 135 
0 0 144 
0 0 128 
0 0 144 
0 0 142 
0 0 142 
0 0 151 
0 0 153 
0 0 153 
0 0 137 
0 0 137 
0 0 142 
0 0 128 
0 0 142 
0 0 147 
0 0 142 
0 0 137 
0 0 133 
0 0 159 
0 0 130 
0 0 140 
0 0 142 
0 0 128 
0 0 142 
0 0 149 
0 0 155 
0 0 142 
0 0 128 
0 0 130 
0 0 151 
0 0 140 
0 0 140 
0 0 151 
0 0 144 
0 0 135 
0 0 140 
0 0 149 
0 0 147 
0 0 151 
0 0 135 
0 0 149 
0 0 135 
0 0 142 
0 0 135 
0 0 147 
0 0 130 
0 0 137 
0 0 137 
0 0 149 
0 0 142 
0 0 128 
0 0 137 
0 0 130 
0 0 140 
0 0 142 
0 0 128 
0 0 125 
0 0 137 
0 0 133 
0 0 130 
0 0 135 
0 0 120 
0 0 130 
0 0 135 
0 0 140 
0 0 144 
0 0 130 
0 0 125 
0 0 125 
0 0 108 
0 0 128 
0 0 108 
0 0 135 
0 0 122 
0 0 133 
0 0 120 
0 0 128 
0 0 130 
0 0 122 
0 0 137 
0 0 135 
0 0 125 
0 0 130 
0 0 137 
0 0 117 
0 0 130 
0 0 114 
0 0 153 
0 0 117 
0 0 133 
0 0 128 
0 0 122 
0 0 108 
0 0 140 
0 0 102 
0 0 128 
0 0 114 
0 0 125 
0 0 125 
0 0 133 
0 0 125 
0 0 108 
0 0 95 
0 0 88 
0 0 95 
0 0 117 
0 0 105 
0 0 120 
0 0 105 
0 0 84 
0 0 108 
0 0 80 
18 20 88 
58 57 51 
77 86 0 
70 75 0 
101 106 0 
83 92 0 
92 96 0 
88 92 0 
96 94 0 
74 80 0 
88 91 0 
85 89 0 
90 88 0 
98 104 0 
86 92 0 
109 116 0 
89 96 0 
89 87 0 
104 106 0 
104 111 0 
106 110 0 
99 105 0 
105 113 0 
102 106 0 
98 99 0 
102 108 0 
107 107 0 
100 101 0 
103 105 0 
98 104 0 
102 111 0 
114 118 0 
103 108 0 
112 118 0 
111 117 0 
110 110 0 
110 113 0 
108 112 0 
105 113 0 
118 122 0 
118 123 0 
111 119 0 
96 91 0 
109 112 0 
119 122 0 
110 112 0 
111 111 0 
115 120 0 
117 121 0 
108 108 0 
108 112 0 
122 127 0 
101 101 0 
127 130 0 
122 125 0 
105 105 0 
117 118 0 
110 115 0 
129 133 0 
123 128 0 
118 118 0 
116 120 0 
113 111 0 
113 111 0 
119 116 0 
109 115 0 
139 137 0 
116 122 0 
124 124 0 
126 122 0 
129 120 0 
106 93 0 
115 127 0 
135 137 0 
124 126 0 
117 119 0 
116 109 0 
129 139 0 
140 143 0 
131 133 0 
112 106 0 
122 120 0 
136 137 0 
112 120 0 
127 121 0 
131 122 0 
132 128 0 
128 121 0 
129 129 0 
121 115 0 
131 131 0 
121 114 0 
127 126 0 
130 127 0 
125 122 0 
122 111 0 
135 128 0 
130 127 0 
137 121 0 
139 120 0 
123 118 0 
133 132 0 
123 110 0 
132 116 0 
131 126 0 
124 112 0 
136 113 0 
134 115 0 
137 117 0 
132 114 0 
139 126 0 
135 125 0 
134 107 0 
135 107 0 
133 107 0 
136 123 0 
128 102 0 
139 126 0 
129 116 0 
142 115 0 
137 102 0 
141 112 0 
129 101 0 
143 112 0 
142 122 0 
135 113 0 
139 105 0 
137 115 0 
146 117 0 
140 108 0 
140 93 0 
139 105 0 
138 91 0 
141 105 0 
133 103 0 
141 86 0 
139 99 0 
145 103 0 
142 89 0 
132 99 0 
137 92 0 
135 98 0 
139 104 0 
143 93 0 
146 100 0 
150 90 0 
148 87 0 
148 83 0 
133 80 0 
144 90 0 
144 102 0 
144 96 0 
137 85 0 
133 75 0 
134 57 0 
137 19 0 
156 0 0 
157 0 0 
150 0 0 
158 0 0 
160 0 0 
159 0 0 
158 0 0 
169 0 0 
168 0 0 
164 0 0 
168 0 0 
163 0 0 
162 0 0 
168 0 0 
167 0 0 
165 0 0 
168 0 0 
172 0 0 
166 0 0 
169 0 0 
175 0 0 
168 0 0 
171 0 0 
163 0 0 
171 0 0 
171 0 0 
176 0 0 
180 0 0 
173 0 0 
171 0 0 
177 0 0 
169 0 0 
173 0 0 
175 0 0 
172 0 0 
176 0 0 
167 0 0 
176 0 0 
177 0 0 
177 0 0 
173 0 0 
176 0 0 
174 0 0 
172 0 0 
179 0 0 
178 0 0 
172 0 0 
176 0 0 
177 0 0 
180 0 0 
173 0 0 
173 0 0 
174 0 0 
184 0 0 
177 0 0 
180 0 0 
181 0 0 
179 0 0 
177 0 0 
176 0 0 
176 0 0 
175 0 0 
181 0 0 
172 0 0 
180 0 0 
179 0 0 
175 0 0 
178 0 0 
175 0 0 
181 0 0 
175 0 0 
183 0 0 
178 0 0 
179 0 0 
179 0 0 
181 0 0 
181 0 0 
185 0 0 
178 0 0 
180 0 0 
180 0 0 
174 0 0 
185 0 0 
175 0 0 
183 0 0 
181 0 0 
189 0 0 
178 0 0 
183 0 0 
176 0 0 
181 0 0 
180 0 0 
182 0 0 
181 0 0 
185 0 0 
184 0 0 
180 0 0 
187 0 0 
181 0 0 
182 0 0 
186 0 0 
185 0 0 
183 0 0 
183 0 0 
177 0 0 
185 0 0 
181 0 0 
183 0 0 
176 0 0 
185 0 0 
181 0 0 
183 0 0 
182 0 0 
186 0 0 
180 0 0 
182 0 0 
182 0 0 
185 0 0 
181 0 0 
183 0 0 
186 0 0 
182 0 0 
0 0 135 
0 0 153 
0 0 137 
0 0 142 
0 0 142 
0 0 159 
0 0 144 
0 0 142 
0 0 155 
0 0 149 
0 0 144 
0 0 151 
0 0 135 
0 0 135 
0 0 135 
0 0 149 
0 0 130 
0 0 130 
0 0 117 
0 0 159 
0 0 135 
0 0 142 
0 0 151 
0 0 114 
0 0 140 
0 0 135 
0 0 147 
0 0 130 
0 0 155 
0 0 149 
0 0 144 
0 0 135 
0 0 130 
0 0 151 
0 0 128 
0 0 114 
0 0 135 
0 0 144 
0 0 125 
0 0 149 
0 0 128 
0 0 151 
0 0 140 
0 0 153 
0 0 125 
0 0 149 
0 0 149 
0 0 155 
0 0 149 
0 0 128 
0 0 140 
0 0 137 
0 0 122 
0 0 149 
0 0 117 
0 0 142 
0 0 142 
0 0 140 
0 0 135 
0 0 133 
0 0 159 
0 0 147 
0 0 130 
0 0 137 
0 0 137 
0 0 128 
0 0 142 
0 0 142 
0 0 133 
0 0 142 
0 0 149 
0 0 133 
0 0 147 
0 0 135 
0 0 135 
0 0 128 
0 0 125 
0 0 122 
0 0 135 
0 0 114 
0 0 137 
0 0 128 
0 0 108 
0 0 122 
0 0 144 
0 0 128 
0 0 133 
0 0 114 
0 0 111 
0 0 125 
0 0 117 
0 0 128 
0 0 117 
0 0 125 
0 0 122 
0 0 120 
0 0 114 
0 0 135 
0 0 108 
0 0 120 
0 0 120 
0 0 108 
0 0 108 
0 0 108 
0 0 114 
0 0 99 
0 0 108 
0 0 105 
0 0 105 
0 0 108 
0 0 120 
0 0 108 
0 0 120 
0 0 108 
0 0 111 
0 0 95 
0 0 99 
0 0 102 
0 0 117 
0 0 102 
43 35 80 
72 78 51 
87 90 0 
87 87 0 
84 92 0 
82 85 0 
86 87 0 
81 85 0 
96 104 0 
77 82 0 
91 93 0 
92 102 0 
92 93 0 
89 92 0 
105 115 0 
100 106 0 
106 114 0 
91 96 0 
90 97 0 
89 96 0 
101 106 0 
113 119 0 
96 99 0 
101 111 0 
101 106 0 
110 116 0 
101 110 0 
100 107 0 
105 114 0 
104 105 0 
98 105 0 
91 96 0 
105 108 0 
107 111 0 
119 129 0 
100 102 0 
103 107 0 
117 126 0 
104 112 0 
110 118 0 
125 131 0 
113 117 0 
109 110 0 
114 119 0 
104 104 0 
112 115 0 
119 126 0 
112 115 0 
123 121 0 
115 125 0 
104 107 0 
107 110 0 
117 127 0 
112 118 0 
108 108 0 
114 116 0 
125 129 0 
114 119 0 
113 118 0 
116 125 0 
116 123 0 
121 129 0 
121 128 0 
118 127 0 
126 131 0 
124 123 0 
132 132 0 
118 124 0 
117 118 0 
126 128 0 
117 119 0 
127 130 0 
117 113 0 
128 122 0 
118 113 0 
130 134 0 
128 138 0 
134 131 0 
114 114 0 
113 110 0 
122 123 0 
133 133 0 
118 116 0 
116 106 0 
135 139 0 
130 123 0 
126 128 0 
125 117 0 
129 130 0 
131 129 0 
132 130 0 
120 118 0 
128 121 0 
133 131 0 
125 118 0 
137 124 0 
127 110 0 
129 113 0 
133 126 0 
146 138 0 
120 101 0 
129 122 0 
130 116 0 
132 121 0 
134 120 0 
136 122 0 
135 119 0 
130 117 0 
140 127 0 
135 117 0 
123 120 0 
128 110 0 
135 116 0 
142 118 0 
133 112 0 
140 120 0 
131 108 0 
135 123 0 
131 110 0 
147 130 0 
133 107 0 
125 110 0 
137 114 0 
143 108 0 
137 94 0 
131 93 0 
140 121 0 
131 107 0 
133 109 0 
139 118 0 
138 116 0 
146 122 0 
141 114 0 
135 110 0 
136 101 0 
138 103 0 
141 107 0 
142 89 0 
143 109 0 
138 97 0 
141 96 0 
148 111 0 
138 91 0 
139 111 0 
141 85 0 
150 106 0 
143 98 0 
144 104 0 
141 93 0 
144 89 0 
142 90 0 
141 94 0 
140 85 0 
142 87 0 
150 98 0 
143 69 0 
143 80 0 
143 99 0 
125 69 0 
127 45 0 
151 0 0 
164 0 0 
155 0 0 
161 0 0 
157 0 0 
159 0 0 
153 0 0 
163 0 0 
164 0 0 
171 0 0 
170 0 0 
178 0 0 
168 0 0 
166 0 0 
163 0 0 
167 0 0 
168 0 0 
164 0 0 
170 0 0 
171 0 0 
173 0 0 
181 0 0 
175 0 0 
161 0 0 
175 0 0 
171 0 0 
172 0 0 
165 0 0 
171 0 0 
175 0 0 
168 0 0 
177 0 0 
175 0 0 
178 0 0 
168 0 0 
171 0 0 
180 0 0 
177 0 0 
175 0 0 
179 0 0 
177 0 0 
181 0 0 
175 0 0 
172 0 0 
171 0 0 
174 0 0 
177 0 0 
183 0 0 
175 0 0 
178 0 0 
182 0 0 
178 0 0 
178 0 0 
167 0 0 
178 0 0 
174 0 0 
179 0 0 
177 0 0 
177 0 0 
175 0 0 
171 0 0 
176 0 0 
176 0 0 
186 0 0 
179 0 0 
178 0 0 
178 0 0 
184 0 0 
175 0 0 
185 0 0 
175 0 0 
178 0 0 
173 0 0 
181 0 0 
180 0 0 
180 0 0 
182 0 0 
175 0 0 
178 0 0 
177 0 0 
181 0 0 
182 0 0 
186 0 0 
183 0 0 
178 0 0 
183 0 0 
179 0 0 
182 0 0 
182 0 0 
182 0 0 
181 0 0 
181 0 0 
175 0 0 
183 0 0 
180 0 0 
182 0 0 
178 0 0 
180 0 0 
176 0 0 
175 0 0 
177 0 0 
178 0 0 
184 0 0 
180 0 0 
177 0 0 
180 0 0 
180 0 0 
186 0 0 
180 0 0 
174 0 0 
176 0 0 
182 0 0 
181 0 0 
181 0 0 
180 0 0 
186 0 0 
183 0 0 
187 0 0 
182 0 0 
182 0 0 
0 0 159 
0 0 149 
0 0 144 
0 0 142 
0 0 151 
0 0 161 
0 0 122 
0 0 128 
0 0 155 
0 0 149 
0 0 151 
0 0 111 
0 0 142 
0 0 133 
0 0 144 
0 0 125 
0 0 128 
0 0 111 
0 0 135 
0 0 142 
0 0 155 
0 0 163 
0 0 151 
0 0 142 
0 0 153 
0 0 147 
0 0 165 
0 0 153 
0 0 137 
0 0 135 
0 0 122 
0 0 151 
0 0 135 
0 0 130 
0 0 149 
0 0 142 
0 0 120 
0 0 122 
0 0 142 
0 0 137 
0 0 159 
0 0 153 
0 0 159 
0 0 151 
0 0 151 
0 0 135 
0 0 117 
0 0 120 
0 0 140 
0 0 125 
0 0 130 
0 0 144 
0 0 149 
0 0 111 
0 0 128 
0 0 130 
0 0 151 
0 0 135 
0 0 102 
0 0 130 
0 0 117 
0 0 120 
0 0 135 
0 0 140 
0 0 117 
0 0 137 
0 0 128 
0 0 133 
0 0 133 
0 0 147 
0 0 137 
0 0 147 
0 0 140 
0 0 133 
0 0 125 
0 0 149 
0 0 125 
0 0 140 
0 0 114 
0 0 135 
0 0 137 
0 0 130 
0 0 117 
0 0 133 
0 0 117 
0 0 125 
0 0 128 
0 0 144 
0 0 125 
0 0 125 
0 0 122 
0 0 95 
0 0 108 
0 0 120 
0 0 117 
0 0 105 
0 0 114 
0 0 108 
0 0 108 
0 0 120 
0 0 114 
0 0 120 
0 0 102 
0 0 130 
0 0 105 
0 0 128 
0 0 122 
0 0 88 
0 0 102 
0 0 105 
0 0 102 
0 0 111 
0 0 102 
0 0 105 
0 0 88 
0 0 95 
0 0 92 
26 28 99 
51 57 44 
74 78 0 
71 73 0 
87 85 0 
79 79 0 
87 89 0 
93 98 0 
82 89 0 
90 94 0 
93 98 0 
95 101 0 
86 89 0 
90 93 0 
91 94 0 
102 106 0 
100 107 0 
85 92 0 
95 101 0 
101 109 0 
96 103 0 
102 109 0 
110 117 0 
103 105 0 
96 103 0 
108 116 0 
99 111 0 
101 105 0 
99 105 0 
94 102 0 
108 112 0 
99 108 0 
107 108 0 
111 109 0 
97 104 0 
106 114 0 
115 121 0 
104 109 0 
110 120 0 
115 118 0 
113 120 0 
108 113 0 
111 115 0 
114 112 0 
112 118 0 
121 130 0 
114 122 0 
101 106 0 
111 120 0 
126 119 0 
116 115 0 
116 123 0 
104 104 0 
114 117 0 
116 119 0 
108 115 0 
122 130 0 
124 130 0 
117 120 0 
120 132 0 
133 139 0 
123 132 0 
125 124 0 
110 114 0 
112 118 0 
115 112 0 
134 140 0 
128 128 0 
115 117 0 
125 116 0 
127 124 0 
111 120 0 
117 120 0 
117 116 0 
123 121 0 
127 138 0 
118 117 0 
132 134 0 
129 132 0 
133 136 0 
123 126 0 
121 121 0 
122 117 0 
124 125 0 
123 126 0 
124 127 0 
125 132 0 
127 127 0 
123 112 0 
133 131 0 
124 121 0 
133 142 0 
132 134 0 
143 138 0 
126 123 0 
134 122 0 
135 127 0 
135 129 0 
136 121 0 
137 133 0 
142 132 0 
141 141 0 
133 126 0 
134 118 0 
131 121 0 
136 125 0 
132 117 0 
130 117 0 
131 118 0 
129 117 0 
135 120 0 
139 132 0 
132 120 0 
139 131 0 
131 102 0 
138 122 0 
133 116 0 
136 119 0 
134 118 0 
136 123 0 
141 121 0 
139 123 0 
141 127 0 
138 122 0 
145 126 0 
143 119 0 
138 108 0 
138 114 0 
148 136 0 
139 108 0 
143 114 0 
142 107 0 
142 104 0 
146 97 0 
136 104 0 
150 130 0 
142 119 0 
140 115 0 
142 99 0 
142 111 0 
137 115 0 
147 115 0 
141 105 0 
142 113 0 
148 116 0 
143 98 0 
142 95 0 
149 100 0 
152 102 0 
141 104 0 
138 102 0 
147 98 0 
152 116 0 
138 92 0 
146 91 0 
150 105 0 
145 78 0 
147 72 0 
145 82 0 
142 60 0 
154 87 0 
143 61 0 
139 74 0 
120 53 0 
129 79 0 
144 28 0 
161 0 0 
165 0 0 
160 0 0 
161 0 0 
157 0 0 
164 0 0 
157 0 0 
158 0 0 
166 0 0 
169 0 0 
168 0 0 
169 0 0 
168 0 0 
172 0 0 
176 0 0 
172 0 0 
171 0 0 
169 0 0 
168 0 0 
166 0 0 
171 0 0 
175 0 0 
167 0 0 
173 0 0 
177 0 0 
177 0 0 
169 0 0 
172 0 0 
170 0 0 
173 0 0 
170 0 0 
172 0 0 
168 0 0 
178 0 0 
172 0 0 
174 0 0 
175 0 0 
178 0 0 
174 0 0 
171 0 0 
173 0 0 
175 0 0 
174 0 0 
179 0 0 
180 0 0 
184 0 0 
179 0 0 
177 0 0 
173 0 0 
176 0 0 
177 0 0 
178 0 0 
177 0 0 
182 0 0 
172 0 0 
178 0 0 
178 0 0 
180 0 0 
176 0 0 
177 0 0 
179 0 0 
179 0 0 
175 0 0 
177 0 0 
177 0 0 
181 0 0 
177 0 0 
182 0 0 
178 0 0 
174 0 0 
174 0 0 
179 0 0 
180 0 0 
182 0 0 
179 0 0 
178 0 0 
176 0 0 
180 0 0 
185 0 0 
183 0 0 
185 0 0 
180 0 0 
177 0 0 
180 0 0 
179 0 0 
181 0 0 
186 0 0 
181 0 0 
182 0 0 
187 0 0 
183 0 0 
184 0 0 
180 0 0 
179 0 0 
182 0 0 
177 0 0 
190 0 0 
176 0 0 
178 0 0 
181 0 0 
180 0 0 
184 0 0 
182 0 0 
184 0 0 
180 0 0 
186 0 0 
178 0 0 
178 0 0 
182 0 0 
177 0 0 
186 0 0 
181 0 0 
184 0 0 
182 0 0 
180 0 0 
181 0 0 
179 0 0 
0 0 135 
0 0 142 
0 0 151 
0 0 153 
0 0 140 
0 0 147 
0 0 140 
0 0 142 
0 0 159 
0 0 155 
0 0 142 
0 0 142 
0 0 149 
0 0 137 
0 0 122 
0 0 135 
0 0 159 
0 0 135 
0 0 161 
0 0 140 
0 0 171 
0 0 137 
0 0 122 
0 0 144 
0 0 142 
0 0 149 
0 0 108 
0 0 120 
0 0 128 
0 0 147 
0 0 122 
0 0 133 
0 0 133 
0 0 128 
0 0 140 
0 0 137 
0 0 144 
0 0 142 
0 0 117 
0 0 133 
0 0 135 
0 0 142 
0 0 135 
0 0 142 
0 0 159 
0 0 130 
0 0 133 
0 0 135 
0 0 135 
0 0 147 
0 0 140 
0 0 128 
0 0 140 
0 0 144 
0 0 144 
0 0 144 
0 0 135 
0 0 137 
0 0 135 
0 0 128 
0 0 128 
0 0 140 
0 0 128 
0 0 161 
0 0 135 
0 0 135 
0 0 140 
0 0 137 
0 0 111 
0 0 108 
0 0 151 
0 0 137 
0 0 114 
0 0 144 
0 0 120 
0 0 108 
0 0 130 
0 0 120 
0 0 111 
0 0 149 
0 0 130 
0 0 140 
0 0 120 
0 0 108 
0 0 125 
0 0 137 
0 0 111 
0 0 120 
0 0 117 
0 0 135 
0 0 111 
0 0 114 
0 0 95 
0 0 117 
0 0 128 
0 0 120 
0 0 111 
0 0 111 
0 0 117 
0 0 111 
0 0 117 
0 0 111 
0 0 105 
0 0 114 
0 0 108 
0 0 108 
0 0 120 
0 0 122 
0 0 105 
0 0 108 
0 0 108 
0 0 99 
0 0 102 
0 0 120 
30 34 88 
54 54 80 
58 64 36 
69 75 0 
82 88 0 
87 94 0 
75 78 0 
81 83 0 
92 100 0 
100 106 0 
88 92 0 
87 83 0 
70 75 0 
95 89 0 
79 78 0 
83 90 0 
99 104 0 
95 106 0 
99 94 0 
98 104 0 
102 112 0 
96 99 0 
102 110 0 
106 113 0 
83 89 0 
115 123 0 
101 102 0 
104 105 0 
115 120 0 
106 110 0 
114 123 0 
108 117 0 
109 118 0 
117 124 0 
116 126 0 
109 108 0 
111 119 0 
113 116 0 
118 129 0 
108 119 0 
114 122 0 
114 111 0 
112 116 0 
121 126 0 
99 98 0 
118 125 0 
117 123 0 
115 117 0 
111 121 0 
122 136 0 
119 131 0 
114 117 0 
125 131 0 
117 121 0 
124 127 0 
130 136 0 
112 118 0 
121 124 0 
122 121 0 
118 124 0 
113 119 0 
125 133 0 
118 116 0 
107 96 0 
128 131 0 
117 124 0 
127 124 0 
115 120 0 
114 118 0 
119 123 0 
120 126 0 
124 130 0 
126 125 0 
129 136 0 
122 114 0 
120 121 0 
116 120 0 
128 128 0 
122 123 0 
115 118 0 
122 117 0 
125 128 0 
132 128 0 
130 145 0 
122 125 0 
126 123 0 
134 136 0 
128 122 0 
132 136 0 
132 129 0 
133 136 0 
139 138 0 
119 105 0 
133 132 0 
129 128 0 
115 120 0 
133 123 0 
133 128 0 
125 114 0 
137 132 0 
130 132 0 
122 108 0 
135 139 0 
148 137 0 
137 117 0 
130 118 0 
125 117 0 
144 130 0 
131 129 0 
136 121 0 
140 131 0 
122 117 0 
132 128 0 
126 119 0 
138 129 0 
136 118 0 
135 125 0 
145 127 0 
137 120 0 
144 135 0 
135 109 0 
131 110 0 
138 121 0 
135 118 0 
145 126 0 
139 116 0 
139 123 0 
143 126 0 
142 138 0 
144 123 0 
147 122 0 
145 123 0 
133 120 0 
140 112 0 
138 113 0 
145 130 0 
140 109 0 
143 124 0 
145 109 0 
143 118 0 
139 112 0 
142 102 0 
144 112 0 
143 99 0 
145 110 0 
142 108 0 
149 110 0 
155 124 0 
136 87 0 
149 102 0 
142 103 0 
147 88 0 
142 98 0 
147 102 0 
151 112 0 
146 91 0 
141 89 0 
138 98 0 
151 66 0 
142 91 0 
142 91 0 
141 88 0 
136 57 0 
137 73 0 
144 83 0 
139 87 0 
149 72 0 
148 87 0 
137 78 0 
118 53 0 
133 53 0 
148 28 0 
152 0 0 
157 0 0 
163 0 0 
163 0 0 
161 0 0 
167 0 0 
166 0 0 
164 0 0 
167 0 0 
168 0 0 
167 0 0 
169 0 0 
169 0 0 
166 0 0 
170 0 0 
165 0 0 
165 0 0 
171 0 0 
160 0 0 
175 0 0 
171 0 0 
180 0 0 
173 0 0 
173 0 0 
172 0 0 
174 0 0 
175 0 0 
168 0 0 
173 0 0 
172 0 0 
171 0 0 
173 0 0 
171 0 0 
176 0 0 
171 0 0 
176 0 0 
167 0 0 
177 0 0 
175 0 0 
172 0 0 
174 0 0 
181 0 0 
178 0 0 
169 0 0 
178 0 0 
171 0 0 
178 0 0 
177 0 0 
182 0 0 
178 0 0 
179 0 0 
173 0 0 
176 0 0 
181 0 0 
180 0 0 
180 0 0 
177 0 0 
178 0 0 
176 0 0 
175 0 0 
175 0 0 
173 0 0 
176 0 0 
185 0 0 
172 0 0 
183 0 0 
179 0 0 
179 0 0 
176 0 0 
177 0 0 
179 0 0 
179 0 0 
176 0 0 
180 0 0 
179 0 0 
178 0 0 
185 0 0 
179 0 0 
177 0 0 
179 0 0 
177 0 0 
180 0 0 
180 0 0 
179 0 0 
184 0 0 
177 0 0 
181 0 0 
180 0 0 
179 0 0 
181 0 0 
176 0 0 
179 0 0 
181 0 0 
184 0 0 
184 0 0 
182 0 0 
179 0 0 
180 0 0 
178 0 0 
182 0 0 
185 0 0 
180 0 0 
179 0 0 
183 0 0 
183 0 0 
180 0 0 
179 0 0 
181 0 0 
182 0 0 
183 0 0 
182 0 0 
182 0 0 
180 0 0 
184 0 0 
0 0 125 
0 0 111 
0 0 133 
0 0 147 
0 0 133 
0 0 155 
0 0 135 
0 0 147 
0 0 117 
0 0 137 
0 0 159 
0 0 137 
0 0 147 
0 0 144 
0 0 130 
0 0 120 
0 0 135 
0 0 130 
0 0 125 
0 0 147 
0 0 133 
0 0 159 
0 0 140 
0 0 133 
0 0 111 
0 0 142 
0 0 137 
0 0 130 
0 0 147 
0 0 117 
0 0 117 
0 0 149 
0 0 128 
0 0 142 
0 0 130 
0 0 108 
0 0 125 
0 0 133 
0 0 122 
0 0 128 
0 0 130 
0 0 137 
0 0 125 
0 0 133 
0 0 137 
0 0 149 
0 0 147 
0 0 130 
0 0 130 
0 0 142 
0 0 142 
0 0 135 
0 0 135 
0 0 133 
0 0 157 
0 0 130 
0 0 105 
0 0 125 
0 0 125 
0 0 144 
0 0 135 
0 0 142 
0 0 114 
0 0 122 
0 0 125 
0 0 122 
0 0 105 
0 0 130 
0 0 142 
0 0 114 
0 0 117 
0 0 135 
0 0 122 
0 0 114 
0 0 128 
0 0 120 
0 0 111 
0 0 108 
0 0 114 
0 0 125 
0 0 125 
0 0 128 
0 0 111 
0 0 125 
0 0 105 
0 0 122 
0 0 117 
0 0 128 
0 0 92 
0 0 125 
0 0 108 
0 0 117 
0 0 133 
0 0 117 
0 0 117 
0 0 117 
0 0 99 
0 0 128 
0 0 102 
0 0 114 
0 0 102 
0 0 99 
0 0 108 
0 0 111 
0 0 117 
0 0 111 
0 0 92 
0 0 105 
0 0 111 
0 0 102 
0 0 105 
14 0 111 
43 45 92 
49 53 25 
73 77 0 
89 95 0 
82 85 0 
90 98 0 
95 101 0 
84 90 0 
88 92 0 
85 89 0 
86 89 0 
88 96 0 
101 106 0 
100 104 0 
91 93 0 
98 106 0 
94 100 0 
100 101 0 
101 100 0 
106 111 0 
96 102 0 
86 93 0 
114 125 0 
95 102 0 
110 109 0 
111 114 0 
95 96 0 
100 110 0 
93 95 0 
96 102 0 
123 127 0 
82 87 0 
97 101 0 
102 103 0 
96 101 0 
110 111 0 
110 113 0 
110 111 0 
107 110 0 
109 119 0 
115 125 0 
115 120 0 
99 107 0 
118 119 0 
128 133 0 
127 134 0 
112 118 0 
115 125 0 
114 122 0 
112 113 0 
114 128 0 
117 122 0 
112 119 0 
117 129 0 
116 122 0 
116 120 0 
118 124 0 
127 137 0 
110 114 0 
122 126 0 
116 118 0 
101 100 0 
123 130 0 
120 130 0 
132 141 0 
125 134 0 
129 128 0 
119 120 0 
116 118 0 
119 127 0 
123 133 0 
120 120 0 
119 121 0 
130 137 0 
124 132 0 
124 132 0 
123 125 0 
136 142 0 
129 135 0 
116 116 0 
128 127 0 
125 127 0 
115 116 0 
128 129 0 
128 135 0 
113 122 0 
123 111 0 
129 133 0 
131 137 0 
123 128 0 
124 120 0 
120 124 0 
133 128 0 
128 131 0 
124 124 0 
121 118 0 
131 121 0 
139 136 0 
135 120 0 
118 121 0 
129 132 0 
135 131 0 
132 132 0 
132 120 0 
131 125 0 
138 129 0 
136 134 0 
134 125 0 
134 123 0 
137 130 0 
138 121 0 
135 128 0 
135 119 0 
128 119 0 
137 125 0 
132 121 0 
143 129 0 
137 122 0 
135 126 0 
131 117 0 
138 123 0 
136 111 0 
137 123 0 
126 108 0 
139 105 0 
140 114 0 
139 121 0 
137 122 0 
138 111 0 
137 118 0 
145 124 0 
139 114 0 
145 107 0 
139 123 0 
143 127 0 
142 126 0 
139 104 0 
135 110 0 
131 108 0 
143 121 0 
140 131 0 
149 130 0 
153 133 0 
139 117 0 
149 120 0 
144 123 0 
144 106 0 
145 105 0 
148 104 0 
146 105 0 
146 121 0 
144 109 0 
142 104 0 
136 99 0 
143 101 0 
152 117 0 
145 102 0 
135 100 0 
146 106 0 
150 100 0 
135 101 0 
147 102 0 
134 89 0 
143 102 0 
155 106 0 
148 88 0 
153 99 0 
151 109 0 
147 93 0 
148 88 0 
147 85 0 
145 75 0 
142 73 0 
139 80 0 
131 70 0 
140 28 0 
159 0 0 
164 0 0 
163 0 0 
169 0 0 
160 0 0 
154 0 0 
162 0 0 
166 0 0 
164 0 0 
171 0 0 
174 0 0 
165 0 0 
163 0 0 
167 0 0 
166 0 0 
170 0 0 
171 0 0 
170 0 0 
170 0 0 
178 0 0 
163 0 0 
175 0 0 
175 0 0 
167 0 0 
169 0 0 
175 0 0 
166 0 0 
173 0 0 
177 0 0 
171 0 0 
170 0 0 
179 0 0 
174 0 0 
171 0 0 
175 0 0 
172 0 0 
172 0 0 
176 0 0 
171 0 0 
179 0 0 
174 0 0 
175 0 0 
173 0 0 
175 0 0 
176 0 0 
178 0 0 
170 0 0 
182 0 0 
178 0 0 
169 0 0 
176 0 0 
176 0 0 
172 0 0 
177 0 0 
180 0 0 
171 0 0 
174 0 0 
180 0 0 
176 0 0 
179 0 0 
174 0 0 
178 0 0 
177 0 0 
178 0 0 
178 0 0 
170 0 0 
176 0 0 
180 0 0 
175 0 0 
183 0 0 
182 0 0 
179 0 0 
176 0 0 
179 0 0 
187 0 0 
180 0 0 
177 0 0 
176 0 0 
181 0 0 
178 0 0 
185 0 0 
184 0 0 
180 0 0 
180 0 0 
180 0 0 
179 0 0 
182 0 0 
176 0 0 
180 0 0 
179 0 0 
183 0 0 
178 0 0 
181 0 0 
182 0 0 
184 0 0 
180 0 0 
181 0 0 
181 0 0 
184 0 0 
181 0 0 
183 0 0 
186 0 0 
183 0 0 
187 0 0 
179 0 0 
181 0 0 
181 0 0 
182 0 0 
184 0 0 
183 0 0 
182 0 0 
179 0 0 
0 0 151 
0 0 142 
0 0 157 
0 0 151 
0 0 130 
0 0 147 
0 0 142 
0 0 159 
0 0 133 
0 0 144 
0 0 147 
0 0 165 
0 0 147 
0 0 133 
0 0 157 
0 0 128 
0 0 167 
0 0 173 
0 0 144 
0 0 130 
0 0 130 
0 0 147 
0 0 144 
0 0 161 
0 0 133 
0 0 122 
0 0 130 
0 0 144 
0 0 142 
0 0 137 
0 0 142 
0 0 137 
0 0 125 
0 0 135 
0 0 117 
0 0 140 
0 0 125 
0 0 122 
0 0 140 
0 0 144 
0 0 128 
0 0 122 
0 0 117 
0 0 133 
0 0 125 
0 0 147 
0 0 144 
0 0 125 
0 0 120 
0 0 111 
0 0 137 
0 0 135 
0 0 137 
0 0 144 
0 0 114 
0 0 147 
0 0 140 
0 0 125 
0 0 117 
0 0 125 
0 0 114 
0 0 137 
0 0 114 
0 0 144 
0 0 135 
0 0 122 
0 0 130 
0 0 137 
0 0 130 
0 0 144 
0 0 111 
0 0 125 
0 0 117 
0 0 95 
0 0 120 
0 0 105 
0 0 99 
0 0 117 
0 0 117 
0 0 142 
0 0 111 
0 0 122 
0 0 117 
0 0 130 
0 0 120 
0 0 133 
0 0 125 
0 0 128 
0 0 111 
0 0 130 
0 0 99 
0 0 108 
0 0 120 
0 0 120 
0 0 120 
0 0 108 
0 0 117 
0 0 108 
0 0 128 
0 0 111 
0 0 102 
0 0 128 
0 0 108 
0 0 84 
0 0 95 
0 0 72 
0 0 111 
0 0 122 
0 0 92 
41 45 67 
56 57 76 
71 73 25 
80 83 0 
79 82 0 
84 85 0 
85 89 0 
93 98 0 
88 92 0 
98 104 0 
92 102 0 
92 98 0 
105 113 0 
94 101 0 
96 99 0 
92 96 0 
95 100 0 
98 106 0 
101 108 0 
91 96 0 
92 96 0 
106 108 0 
111 118 0 
100 99 0 
101 104 0 
101 109 0 
88 89 0 
95 100 0 
94 103 0 
105 111 0 
105 108 0 
112 117 0 
104 111 0 
104 110 0 
102 105 0 
121 126 0 
102 109 0 
118 127 0 
106 117 0 
107 110 0 
106 110 0 
119 127 0 
108 108 0 
125 135 0 
109 120 0 
115 124 0 
103 108 0 
110 115 0 
117 124 0 
109 119 0 
120 117 0 
105 112 0 
96 106 0 
128 134 0 
115 122 0 
117 116 0 
109 109 0 
109 106 0 
104 109 0 
116 122 0 
122 128 0 
114 117 0 
122 134 0 
128 131 0 
118 120 0 
111 114 0 
122 132 0 
121 116 0 
125 128 0 
128 129 0 
126 133 0 
122 124 0 
121 127 0 
115 118 0 
119 129 0 
123 124 0 
128 135 0 
108 105 0 
123 130 0 
113 117 0 
133 133 0 
131 129 0 
123 126 0 
134 129 0 
131 131 0 
115 117 0 
127 135 0 
126 135 0 
136 139 0 
139 136 0 
117 123 0 
123 125 0 
135 135 0 
136 139 0 
127 123 0 
127 118 0 
133 136 0 
126 124 0 
129 126 0 
124 122 0 
127 120 0 
133 135 0 
130 131 0 
134 126 0 
136 119 0 
133 126 0 
131 128 0 
134 131 0 
127 120 0 
134 135 0 
134 126 0 
123 116 0 
138 128 0 
139 143 0 
133 122 0 
140 132 0 
128 115 0 
137 123 0 
139 131 0 
138 124 0 
134 116 0 
130 120 0 
135 121 0 
143 130 0 
139 115 0 
150 136 0 
140 125 0 
134 121 0 
133 117 0 
140 126 0 
145 127 0 
142 117 0 
149 121 0 
134 112 0 
141 126 0 
130 107 0 
139 107 0 
137 109 0 
141 126 0 
146 116 0 
146 123 0 
140 117 0 
143 107 0 
145 117 0 
144 116 0 
145 110 0 
143 123 0 
144 121 0 
140 107 0 
145 124 0 
141 107 0 
148 118 0 
139 110 0 
142 115 0 
141 115 0 
155 127 0 
141 99 0 
146 101 0 
148 104 0 
142 108 0 
150 106 0 
148 110 0 
145 121 0 
145 101 0 
137 89 0 
152 110 0 
141 75 0 
142 92 0 
150 78 0 
150 89 0 
150 89 0 
146 104 0 
148 80 0 
143 97 0 
152 90 0 
146 92 0 
141 78 0 
144 83 0 
150 99 0 
138 72 0 
130 69 0 
146 29 0 
158 0 0 
157 0 0 
165 0 0 
160 0 0 
171 0 0 
163 0 0 
165 0 0 
168 0 0 
164 0 0 
169 0 0 
171 0 0 
169 0 0 
165 0 0 
166 0 0 
167 0 0 
168 0 0 
177 0 0 
169 0 0 
168 0 0 
174 0 0 
170 0 0 
174 0 0 
171 0 0 
166 0 0 
167 0 0 
175 0 0 
174 0 0 
173 0 0 
166 0 0 
171 0 0 
177 0 0 
177 0 0 
166 0 0 
174 0 0 
179 0 0 
180 0 0 
174 0 0 
169 0 0 
172 0 0 
173 0 0 
178 0 0 
176 0 0 
177 0 0 
176 0 0 
169 0 0 
173 0 0 
174 0 0 
179 0 0 
179 0 0 
176 0 0 
180 0 0 
175 0 0 
171 0 0 
182 0 0 
175 0 0 
178 0 0 
175 0 0 
181 0 0 
178 0 0 
175 0 0 
177 0 0 
178 0 0 
176 0 0 
175 0 0 
183 0 0 
177 0 0 
177 0 0 
178 0 0 
176 0 0 
181 0 0 
183 0 0 
174 0 0 
177 0 0 
178 0 0 
180 0 0 
174 0 0 
181 0 0 
183 0 0 
179 0 0 
181 0 0 
177 0 0 
178 0 0 
182 0 0 
181 0 0 
176 0 0 
183 0 0 
183 0 0 
179 0 0 
178 0 0 
184 0 0 
183 0 0 
182 0 0 
175 0 0 
183 0 0 
180 0 0 
178 0 0 
179 0 0 
179 0 0 
179 0 0 
179 0 0 
179 0 0 
178 0 0 
183 0 0 
178 0 0 
183 0 0 
180 0 0 
182 0 0 
181 0 0 
181 0 0 
0 0 144 
0 0 140 
0 0 130 
0 0 133 
0 0 149 
0 0 151 
0 0 147 
0 0 135 
0 0 130 
0 0 137 
0 0 117 
0 0 135 
0 0 142 
0 0 125 
0 0 140 
0 0 140 
0 0 130 
0 0 144 
0 0 151 
0 0 133 
0 0 137 
0 0 135 
0 0 140 
0 0 120 
0 0 133 
0 0 140 
0 0 142 
0 0 117 
0 0 120 
0 0 137 
0 0 137 
0 0 140 
0 0 133 
0 0 137 
0 0 140 
0 0 140 
0 0 137 
0 0 144 
0 0 133 
0 0 117 
0 0 149 
0 0 122 
0 0 128 
0 0 142 
0 0 135 
0 0 128 
0 0 128 
0 0 111 
0 0 144 
0 0 144 
0 0 140 
0 0 151 
0 0 153 
0 0 128 
0 0 135 
0 0 135 
0 0 135 
0 0 133 
0 0 120 
0 0 105 
0 0 135 
0 0 117 
0 0 122 
0 0 142 
0 0 128 
0 0 117 
0 0 117 
0 0 122 
0 0 111 
0 0 125 
0 0 114 
0 0 133 
0 0 120 
0 0 102 
0 0 135 
0 0 105 
0 0 133 
0 0 108 
0 0 125 
0 0 114 
0 0 120 
0 0 114 
0 0 111 
0 0 108 
0 0 102 
0 0 120 
0 0 137 
0 0 130 
0 0 114 
0 0 102 
0 0 120 
0 0 88 
0 0 111 
0 0 117 
0 0 120 
0 0 95 
0 0 117 
0 0 111 
0 0 102 
0 0 92 
0 0 95 
0 0 108 
0 0 95 
0 0 133 
0 0 95 
0 0 95 
44 49 88 
45 49 67 
71 77 0 
78 83 0 
79 85 0 
76 83 0 
90 94 0 
81 82 0 
86 94 0 
102 112 0 
96 104 0 
84 88 0 
92 96 0 
91 100 0 
97 100 0 
99 108 0 
92 98 0 
100 109 0 
97 100 0 
94 97 0 
110 116 0 
94 102 0 
100 111 0 
108 112 0 
97 98 0 
111 121 0 
96 102 0 
96 108 0 
111 122 0 
102 109 0 
108 118 0 
110 115 0 
108 112 0 
114 123 0 
103 104 0 
102 114 0 
107 116 0 
116 122 0 
103 112 0 
129 139 0 
115 122 0 
111 117 0 
111 119 0 
119 129 0 
114 117 0 
106 108 0 
103 110 0 
99 106 0 
123 132 0 
104 114 0 
118 124 0 
121 132 0 
122 122 0 
119 127 0 
116 117 0 
119 123 0 
116 116 0 
120 128 0 
111 115 0 
113 122 0 
103 105 0 
121 117 0 
121 123 0 
128 136 0 
117 123 0 
121 126 0 
115 123 0 
111 114 0 
116 120 0 
114 122 0 
115 119 0 
129 139 0 
126 136 0 
122 115 0 
124 134 0 
124 129 0 
125 119 0 
116 125 0 
122 136 0 
124 126 0 
129 139 0 
126 123 0 
127 132 0 
127 134 0 
118 122 0 
139 146 0 
122 121 0 
140 139 0 
112 112 0 
122 123 0 
131 127 0 
129 131 0 
129 135 0 
125 126 0 
122 122 0 
126 124 0 
131 128 0 
135 133 0 
120 123 0 
133 136 0 
134 133 0 
133 131 0 
132 130 0 
139 126 0 
136 138 0 
129 127 0 
130 120 0 
132 134 0 
132 130 0 
126 112 0 
133 135 0 
130 117 0 
139 140 0 
131 116 0 
137 132 0 
130 124 0 
131 118 0 
132 117 0 
136 128 0 
138 130 0 
144 135 0 
134 128 0 
135 127 0 
136 120 0 
131 121 0 
134 123 0 
139 121 0 
143 129 0 
140 131 0 
141 130 0 
144 124 0 
136 119 0 
135 109 0 
134 124 0 
137 120 0 
144 122 0 
149 133 0 
142 121 0 
143 117 0 
141 113 0 
143 122 0 
142 118 0 
145 126 0 
142 113 0 
136 126 0 
133 110 0 
139 110 0 
145 129 0 
145 129 0 
135 103 0 
145 110 0 
153 111 0 
141 115 0 
151 126 0 
148 127 0 
138 111 0 
136 115 0 
143 102 0 
146 115 0 
147 106 0 
148 113 0 
154 115 0 
156 111 0 
144 117 0 
154 113 0 
135 80 0 
149 98 0 
145 102 0 
148 104 0 
148 110 0 
140 104 0 
138 94 0 
152 97 0 
145 80 0 
151 109 0 
147 86 0 
147 78 0 
154 102 0 
143 85 0 
150 91 0 
149 82 0 
152 80 0 
147 69 0 
149 69 0 
150 103 0 
125 81 0 
139 75 0 
142 49 0 
164 0 0 
160 0 0 
160 0 0 
162 0 0 
173 0 0 
171 0 0 
170 0 0 
164 0 0 
172 0 0 
168 0 0 
178 0 0 
173 0 0 
169 0 0 
164 0 0 
178 0 0 
169 0 0 
173 0 0 
176 0 0 
177 0 0 
168 0 0 
169 0 0 
176 0 0 
175 0 0 
175 0 0 
166 0 0 
169 0 0 
172 0 0 
175 0 0 
178 0 0 
176 0 0 
179 0 0 
171 0 0 
173 0 0 
176 0 0 
177 0 0 
173 0 0 
179 0 0 
173 0 0 
175 0 0 
172 0 0 
169 0 0 
174 0 0 
177 0 0 
177 0 0 
177 0 0 
176 0 0 
179 0 0 
174 0 0 
180 0 0 
179 0 0 
177 0 0 
179 0 0 
178 0 0 
179 0 0 
177 0 0 
177 0 0 
179 0 0 
178 0 0 
176 0 0 
179 0 0 
182 0 0 
178 0 0 
178 0 0 
180 0 0 
177 0 0 
179 0 0 
179 0 0 
176 0 0 
176 0 0 
179 0 0 
177 0 0 
177 0 0 
183 0 0 
181 0 0 
174 0 0 
184 0 0 
178 0 0 
181 0 0 
180 0 0 
179 0 0 
183 0 0 
177 0 0 
182 0 0 
179 0 0 
183 0 0 
172 0 0 
185 0 0 
177 0 0 
180 0 0 
179 0 0 
184 0 0 
179 0 0 
180 0 0 
180 0 0 
179 0 0 
182 0 0 
181 0 0 
182 0 0 
184 0 0 
177 0 0 
177 0 0 
181 0 0 
183 0 0 
181 0 0 
176 0 0 
178 0 0 
0 0 137 
0 0 125 
0 0 125 
0 0 140 
0 0 130 
0 0 117 
0 0 151 
0 0 125 
0 0 130 
0 0 133 
0 0 130 
0 0 128 
0 0 125 
0 0 135 
0 0 142 
0 0 130 
0 0 147 
0 0 130 
0 0 144 
0 0 125 
0 0 130 
0 0 135 
0 0 155 
0 0 151 
0 0 151 
0 0 140 
0 0 137 
0 0 125 
0 0 137 
0 0 130 
0 0 137 
0 0 142 
0 0 149 
0 0 120 
0 0 140 
0 0 125 
0 0 130 
0 0 117 
0 0 142 
0 0 125 
0 0 128 
0 0 149 
0 0 130 
0 0 128 
0 0 128 
0 0 140 
0 0 122 
0 0 117 
0 0 125 
0 0 144 
0 0 125 
0 0 133 
0 0 120 
0 0 128 
0 0 137 
0 0 114 
0 0 102 
0 0 133 
0 0 120 
0 0 135 
0 0 140 
0 0 147 
0 0 142 
0 0 125 
0 0 130 
0 0 128 
0 0 125 
0 0 111 
0 0 120 
0 0 108 
0 0 130 
0 0 135 
0 0 137 
0 0 133 
0 0 135 
0 0 125 
0 0 125 
0 0 111 
0 0 120 
0 0 120 
0 0 111 
0 0 120 
0 0 114 
0 0 105 
0 0 117 
0 0 114 
0 0 95 
0 0 114 
0 0 114 
0 0 108 
0 0 102 
0 0 105 
0 0 125 
0 0 102 
0 0 120 
0 0 111 
0 0 125 
0 0 105 
0 0 102 
0 0 114 
0 0 92 
0 0 108 
0 0 62 
17 19 62 
55 60 105 
72 78 36 
71 75 0 
79 89 0 
87 90 0 
92 92 0 
85 94 0 
88 90 0 
85 92 0 
81 82 0 
94 103 0 
94 96 0 
108 117 0 
94 98 0 
77 83 0 
80 83 0 
86 89 0 
87 96 0 
90 97 0 
95 100 0 
89 93 0 
94 103 0 
105 107 0 
99 104 0 
108 107 0 
106 111 0 
110 113 0 
103 104 0 
89 91 0 
109 118 0 
111 118 0 
94 94 0 
115 118 0 
96 102 0 
109 124 0 
120 129 0 
100 108 0 
103 115 0 
118 127 0 
108 119 0 
120 128 0 
115 126 0 
124 136 0 
114 115 0 
118 120 0 
102 108 0 
104 111 0 
113 112 0 
126 136 0 
117 119 0 
120 124 0 
117 118 0 
106 112 0 
120 121 0 
126 135 0 
123 125 0 
127 137 0 
125 129 0 
122 133 0 
99 103 0 
127 135 0 
109 119 0 
106 116 0 
118 123 0 
127 136 0 
116 121 0 
131 136 0 
112 120 0 
116 123 0 
132 136 0 
121 118 0 
126 134 0 
111 119 0 
123 132 0 
123 121 0 
113 126 0 
126 127 0 
136 144 0 
127 128 0 
116 114 0 
116 123 0 
132 135 0 
122 127 0 
130 131 0 
120 123 0 
130 125 0 
137 144 0 
116 114 0 
121 122 0 
127 132 0 
129 135 0 
113 119 0 
126 132 0 
121 120 0 
129 126 0 
128 126 0 
119 117 0 
131 130 0 
117 110 0 
125 123 0 
136 129 0 
131 133 0 
120 125 0 
130 121 0 
136 137 0 
131 130 0 
132 129 0 
130 131 0 
134 119 0 
133 126 0 
140 138 0 
136 130 0 
127 131 0 
131 127 0 
134 127 0 
137 130 0 
137 128 0 
134 136 0 
126 101 0 
141 136 0 
129 116 0 
144 132 0 
137 126 0 
140 119 0 
132 129 0 
132 129 0 
145 133 0 
145 134 0 
137 121 0 
120 99 0 
147 125 0 
144 126 0 
134 114 0 
125 114 0 
142 133 0 
133 122 0 
138 116 0 
137 125 0 
140 113 0 
138 111 0 
146 136 0 
138 120 0 
142 124 0 
141 119 0 
141 124 0 
146 116 0 
142 109 0 
140 103 0 
142 117 0 
141 110 0 
141 114 0 
143 113 0 
140 105 0 
145 125 0 
149 132 0 
146 100 0 
154 126 0 
139 103 0 
145 111 0 
152 114 0 
137 97 0 
145 107 0 
151 114 0 
151 108 0 
148 96 0 
144 111 0 
146 117 0 
140 106 0 
143 97 0 
152 102 0 
149 109 0 
146 109 0 
143 108 0 
143 100 0 
145 87 0 
144 91 0 
148 107 0 
151 96 0 
143 94 0 
148 96 0 
150 98 0 
152 102 0 
155 104 0 
148 96 0 
143 84 0 
144 72 0 
150 87 0 
144 70 0 
149 97 0 
142 85 0 
130 66 0 
137 53 0 
145 53 0 
163 0 0 
159 0 0 
162 0 0 
157 0 0 
170 0 0 
161 0 0 
169 0 0 
162 0 0 
164 0 0 
159 0 0 
164 0 0 
168 0 0 
169 0 0 
171 0 0 
165 0 0 
168 0 0 
177 0 0 
169 0 0 
164 0 0 
170 0 0 
172 0 0 
166 0 0 
173 0 0 
169 0 0 
172 0 0 
168 0 0 
174 0 0 
168 0 0 
168 0 0 
169 0 0 
174 0 0 
171 0 0 
174 0 0 
178 0 0 
170 0 0 
179 0 0 
175 0 0 
170 0 0 
176 0 0 
169 0 0 
176 0 0 
176 0 0 
179 0 0 
175 0 0 
172 0 0 
174 0 0 
182 0 0 
174 0 0 
172 0 0 
174 0 0 
178 0 0 
182 0 0 
171 0 0 
172 0 0 
174 0 0 
178 0 0 
177 0 0 
178 0 0 
174 0 0 
176 0 0 
181 0 0 
179 0 0 
179 0 0 
182 0 0 
178 0 0 
176 0 0 
177 0 0 
181 0 0 
179 0 0 
175 0 0 
184 0 0 
178 0 0 
180 0 0 
177 0 0 
178 0 0 
173 0 0 
180 0 0 
181 0 0 
180 0 0 
184 0 0 
184 0 0 
180 0 0 
183 0 0 
183 0 0 
185 0 0 
181 0 0 
183 0 0 
181 0 0 
180 0 0 
179 0 0 
185 0 0 
181 0 0 
182 0 0 
177 0 0 
181 0 0 
183 0 0 
178 0 0 
181 0 0 
188 0 0 
180 0 0 
178 0 0 
185 0 0 
178 0 0 
0 0 140 
0 0 140 
0 0 133 
0 0 140 
0 0 142 
0 0 153 
0 0 144 
0 0 147 
0 0 153 
0 0 147 
0 0 149 
0 0 151 
0 0 133 
0 0 133 
0 0 147 
0 0 120 
0 0 125 
0 0 142 
0 0 117 
0 0 137 
0 0 140 
0 0 147 
0 0 133 
0 0 130 
0 0 122 
0 0 135 
0 0 117 
0 0 125 
0 0 144 
0 0 135 
0 0 125 
0 0 122 
0 0 140 
0 0 140 
0 0 117 
0 0 122 
0 0 133 
0 0 128 
0 0 135 
0 0 130 
0 0 125 
0 0 133 
0 0 133 
0 0 128 
0 0 125 
0 0 125 
0 0 144 
0 0 130 
0 0 122 
0 0 125 
0 0 122 
0 0 105 
0 0 130 
0 0 88 
0 0 125 
0 0 135 
0 0 125 
0 0 122 
0 0 128 
0 0 120 
0 0 137 
0 0 102 
0 0 105 
0 0 117 
0 0 122 
0 0 137 
0 0 102 
0 0 125 
0 0 122 
0 0 135 
0 0 111 
0 0 108 
0 0 120 
0 0 120 
0 0 117 
0 0 142 
0 0 102 
0 0 117 
0 0 135 
0 0 122 
0 0 120 
0 0 88 
0 0 108 
0 0 128 
0 0 117 
0 0 111 
0 0 111 
0 0 102 
0 0 120 
0 0 84 
0 0 88 
0 0 114 
0 0 99 
0 0 105 
0 0 108 
0 0 99 
0 0 108 
0 0 88 
0 0 67 
0 0 92 
25 28 92 
53 57 44 
67 75 36 
74 80 0 
83 93 0 
86 92 0 
92 94 0 
79 88 0 
96 106 0 
90 98 0 
96 103 0 
88 97 0 
86 92 0 
106 115 0 
98 110 0 
111 118 0 
103 110 0 
100 106 0 
95 104 0 
102 109 0 
86 91 0 
85 86 0 
99 109 0 
104 106 0 
99 98 0 
120 120 0 
110 121 0 
113 121 0 
120 128 0 
99 109 0 
101 106 0 
104 107 0 
106 114 0 
112 123 0 
112 117 0 
103 105 0 
111 113 0 
119 131 0 
97 101 0 
107 112 0 
108 118 0 
117 122 0 
114 115 0 
110 116 0 
105 109 0 
108 112 0 
124 135 0 
108 113 0 
106 113 0 
112 119 0 
108 118 0 
118 119 0 
120 125 0 
110 121 0 
113 114 0 
115 120 0 
112 114 0 
112 116 0 
122 123 0 
119 131 0 
126 129 0 
130 141 0 
124 130 0 
117 123 0 
132 140 0 
119 121 0 
124 129 0 
121 128 0 
121 127 0 
116 124 0 
104 107 0 
120 130 0 
131 134 0 
115 121 0 
116 123 0 
126 137 0 
122 129 0 
124 134 0 
115 126 0 
123 132 0 
129 128 0 
119 126 0 
122 129 0 
127 131 0 
134 137 0 
122 126 0 
127 135 0 
131 137 0 
126 121 0 
124 118 0 
128 136 0 
117 121 0 
122 121 0 
134 137 0 
124 125 0 
131 133 0 
133 138 0 
134 132 0 
131 134 0 
139 143 0 
130 139 0 
138 138 0 
132 131 0 
127 126 0 
131 129 0 
133 137 0 
133 130 0 
131 126 0 
134 124 0 
139 133 0 
138 126 0 
127 125 0 
135 132 0 
129 128 0 
137 133 0 
129 120 0 
131 130 0 
133 126 0 
124 123 0 
139 125 0 
146 144 0 
124 116 0 
139 134 0 
136 120 0 
136 132 0 
130 111 0 
145 129 0 
140 132 0 
132 126 0 
140 129 0 
141 122 0 
133 122 0 
138 125 0 
125 118 0 
141 139 0 
136 116 0 
136 116 0 
150 135 0 
141 132 0 
135 128 0 
145 132 0 
142 121 0 
144 123 0 
140 117 0 
129 105 0 
138 118 0 
134 113 0 
139 115 0 
145 119 0 
147 128 0 
141 120 0 
138 107 0 
136 112 0 
147 118 0 
139 111 0 
140 115 0 
142 119 0 
150 125 0 
145 125 0 
146 104 0 
144 119 0 
134 114 0 
141 109 0 
143 106 0 
150 118 0 
157 115 0 
137 94 0 
153 118 0 
151 121 0 
143 108 0 
148 118 0 
154 123 0 
148 109 0 
151 107 0 
149 107 0 
151 108 0 
147 119 0 
146 101 0 
147 107 0 
148 100 0 
148 101 0 
149 102 0 
148 100 0 
150 102 0 
151 110 0 
151 109 0 
149 100 0 
153 102 0 
151 85 0 
154 90 0 
153 102 0 
148 83 0 
149 94 0 
148 84 0 
148 78 0 
148 75 0 
140 73 0 
136 75 0 
142 53 0 
146 50 0 
158 0 0 
163 0 0 
161 0 0 
166 0 0 
169 0 0 
171 0 0 
167 0 0 
169 0 0 
176 0 0 
172 0 0 
166 0 0 
173 0 0 
174 0 0 
171 0 0 
173 0 0 
167 0 0 
169 0 0 
169 0 0 
167 0 0 
173 0 0 
165 0 0 
166 0 0 
176 0 0 
172 0 0 
179 0 0 
175 0 0 
172 0 0 
172 0 0 
172 0 0 
180 0 0 
173 0 0 
174 0 0 
176 0 0 
179 0 0 
170 0 0 
175 0 0 
179 0 0 
172 0 0 
171 0 0 
172 0 0 
178 0 0 
178 0 0 
174 0 0 
177 0 0 
179 0 0 
178 0 0 
174 0 0 
181 0 0 
173 0 0 
178 0 0 
180 0 0 
181 0 0 
176 0 0 
178 0 0 
178 0 0 
179 0 0 
181 0 0 
181 0 0 
176 0 0 
181 0 0 
177 0 0 
180 0 0 
182 0 0 
178 0 0 
181 0 0 
178 0 0 
177 0 0 
178 0 0 
179 0 0 
175 0 0 
179 0 0 
182 0 0 
176 0 0 
182 0 0 
180 0 0 
175 0 0 
183 0 0 
177 0 0 
182 0 0 
181 0 0 
177 0 0 
183 0 0 
181 0 0 
179 0 0 
179 0 0 
182 0 0 
179 0 0 
181 0 0 
181 0 0 
179 0 0 
181 0 0 
180 0 0 
185 0 0 
178 0 0 
187 0 0 
180 0 0 
182 0 0 
175 0 0 
176 0 0 
179 0 0 
0 0 149 
0 0 137 
0 0 140 
0 0 147 
0 0 140 
0 0 144 
0 0 108 
0 0 130 
0 0 122 
0 0 120 
0 0 130 
0 0 140 
0 0 120 
0 0 155 
0 0 147 
0 0 142 
0 0 140 
0 0 137 
0 0 133 
0 0 142 
0 0 142 
0 0 137 
0 0 144 
0 0 125 
0 0 149 
0 0 128 
0 0 102 
0 0 137 
0 0 130 
0 0 147 
0 0 122 
0 0 133 
0 0 130 
0 0 122 
0 0 130 
0 0 120 
0 0 137 
0 0 120 
0 0 133 
0 0 137 
0 0 133 
0 0 125 
0 0 122 
0 0 122 
0 0 147 
0 0 130 
0 0 133 
0 0 128 
0 0 117 
0 0 142 
0 0 108 
0 0 114 
0 0 111 
0 0 105 
0 0 122 
0 0 155 
0 0 122 
0 0 120 
0 0 122 
0 0 108 
0 0 120 
0 0 125 
0 0 114 
0 0 149 
0 0 137 
0 0 142 
0 0 137 
0 0 114 
0 0 128 
0 0 114 
0 0 125 
0 0 142 
0 0 128 
0 0 105 
0 0 105 
0 0 105 
0 0 125 
0 0 117 
0 0 117 
0 0 117 
0 0 111 
0 0 114 
0 0 122 
0 0 125 
0 0 102 
0 0 92 
0 0 114 
0 0 99 
0 0 108 
0 0 114 
0 0 122 
0 0 108 
0 0 111 
0 0 95 
0 0 99 
0 0 92 
18 20 92 
43 44 99 
58 64 51 
61 64 0 
70 70 0 
72 78 0 
88 96 0 
80 83 0 
82 91 0 
75 78 0 
77 80 0 
95 99 0 
102 110 0 
99 106 0 
80 87 0 
101 104 0 
71 80 0 
106 112 0 
106 111 0 
102 99 0 
97 107 0 
88 96 0 
100 109 0 
94 102 0 
99 111 0 
86 93 0 
90 101 0 
104 111 0 
107 115 0 
111 113 0 
101 105 0 
99 106 0 
107 107 0 
102 108 0 
101 109 0 
108 111 0 
97 100 0 
102 110 0 
104 103 0 
105 108 0 
109 118 0 
116 122 0 
106 113 0 
118 126 0 
122 128 0 
107 101 0 
114 118 0 
109 116 0 
110 110 0 
113 120 0 
124 124 0 
110 113 0 
119 124 0 
109 111 0 
109 116 0 
114 122 0 
110 115 0 
101 103 0 
105 105 0 
119 130 0 
120 124 0 
125 133 0 
114 121 0 
107 112 0 
120 123 0 
116 122 0 
111 114 0 
123 120 0 
111 124 0 
121 122 0 
121 123 0 
123 134 0 
124 130 0 
119 125 0 
110 109 0 
123 120 0 
130 132 0 
123 127 0 
125 132 0 
125 133 0 
123 131 0 
120 124 0 
134 148 0 
129 128 0 
123 128 0 
122 129 0 
129 130 0 
127 129 0 
123 122 0 
133 135 0 
123 132 0 
122 126 0 
122 120 0 
126 127 0 
119 123 0 
132 125 0 
125 126 0 
120 125 0 
135 133 0 
121 123 0 
117 124 0 
127 124 0 
134 138 0 
133 134 0 
134 133 0 
140 142 0 
123 129 0 
130 130 0 
143 135 0 
127 123 0 
137 137 0 
141 144 0 
118 114 0 
144 147 0 
134 130 0 
133 135 0 
129 121 0 
123 116 0 
124 123 0 
129 124 0 
135 128 0 
132 129 0 
140 129 0 
139 138 0 
131 128 0 
130 128 0 
143 143 0 
136 124 0 
130 116 0 
137 131 0 
138 128 0 
146 127 0 
137 115 0 
134 123 0 
145 139 0 
123 105 0 
135 119 0 
146 123 0 
148 134 0 
140 128 0 
138 116 0 
142 134 0 
141 127 0 
126 112 0 
145 136 0 
151 131 0 
146 125 0 
148 127 0 
149 121 0 
144 124 0 
137 122 0 
135 122 0 
144 130 0 
142 128 0 
146 131 0 
148 127 0 
142 126 0 
147 119 0 
146 131 0 
145 108 0 
146 115 0 
134 116 0 
144 119 0 
146 119 0 
153 133 0 
154 112 0 
144 112 0 
142 127 0 
146 127 0 
144 103 0 
140 118 0 
147 103 0 
141 119 0 
150 121 0 
150 115 0 
147 105 0 
144 99 0 
148 111 0 
152 123 0 
151 112 0 
143 79 0 
146 101 0 
141 87 0 
153 108 0 
152 95 0 
148 96 0 
144 98 0 
151 102 0 
149 97 0 
145 89 0 
150 104 0 
151 83 0 
152 100 0 
141 96 0 
151 114 0 
148 100 0 
153 83 0 
151 90 0 
145 98 0 
146 90 0 
153 96 0 
146 92 0 
152 91 0 
142 88 0 
129 67 0 
128 57 0 
146 35 0 
152 34 0 
165 0 0 
158 0 0 
169 0 0 
164 0 0 
160 0 0 
165 0 0 
170 0 0 
167 0 0 
161 0 0 
165 0 0 
162 0 0 
165 0 0 
169 0 0 
175 0 0 
172 0 0 
171 0 0 
168 0 0 
169 0 0 
170 0 0 
177 0 0 
177 0 0 
177 0 0 
178 0 0 
172 0 0 
177 0 0 
175 0 0 
169 0 0 
174 0 0 
169 0 0 
174 0 0 
174 0 0 
180 0 0 
174 0 0 
173 0 0 
173 0 0 
177 0 0 
175 0 0 
173 0 0 
178 0 0 
174 0 0 
176 0 0 
184 0 0 
179 0 0 
173 0 0 
178 0 0 
175 0 0 
178 0 0 
175 0 0 
172 0 0 
175 0 0 
172 0 0 
176 0 0 
180 0 0 
176 0 0 
175 0 0 
176 0 0 
176 0 0 
180 0 0 
178 0 0 
176 0 0 
183 0 0 
181 0 0 
182 0 0 
184 0 0 
180 0 0 
181 0 0 
181 0 0 
181 0 0 
180 0 0 
179 0 0 
181 0 0 
178 0 0 
179 0 0 
179 0 0 
182 0 0 
182 0 0 
179 0 0 
182 0 0 
178 0 0 
178 0 0 
185 0 0 
179 0 0 
176 0 0 
181 0 0 
178 0 0 
184 0 0 
176 0 0 
177 0 0 
178 0 0 
178 0 0 
181 0 0 
183 0 0 
180 0 0 
182 0 0 
183 0 0 
183 0 0 
0 0 135 
0 0 133 
0 0 140 
0 0 135 
0 0 117 
0 0 133 
0 0 140 
0 0 137 
0 0 142 
0 0 120 
0 0 137 
0 0 114 
0 0 153 
0 0 137 
0 0 137 
0 0 114 
0 0 128 
0 0 147 
0 0 120 
0 0 117 
0 0 137 
0 0 140 
0 0 144 
0 0 108 
0 0 125 
0 0 140 
0 0 133 
0 0 125 
0 0 137 
0 0 105 
0 0 128 
0 0 137 
0 0 128 
0 0 108 
0 0 147 
0 0 137 
0 0 147 
0 0 120 
0 0 114 
0 0 125 
0 0 137 
0 0 133 
0 0 114 
0 0 114 
0 0 125 
0 0 122 
0 0 108 
0 0 144 
0 0 130 
0 0 130 
0 0 128 
0 0 102 
0 0 117 
0 0 125 
0 0 130 
0 0 120 
0 0 122 
0 0 122 
0 0 105 
0 0 114 
0 0 135 
0 0 84 
0 0 99 
0 0 120 
0 0 128 
0 0 114 
0 0 130 
0 0 128 
0 0 122 
0 0 133 
0 0 133 
0 0 120 
0 0 99 
0 0 114 
0 0 105 
0 0 84 
0 0 130 
0 0 130 
0 0 114 
0 0 120 
0 0 114 
0 0 108 
0 0 92 
0 0 114 
0 0 99 
0 0 95 
0 0 102 
0 0 128 
0 0 99 
0 0 99 
0 0 92 
0 0 95 
0 0 114 
31 35 114 
65 72 76 
72 80 36 
77 87 0 
78 83 0 
88 90 0 
77 85 0 
89 97 0 
98 106 0 
84 92 0 
101 112 0 
95 100 0 
97 106 0 
88 92 0 
92 96 0 
82 80 0 
85 91 0 
92 98 0 
97 98 0 
99 102 0 
84 89 0 
94 100 0 
104 111 0 
89 93 0 
107 112 0 
95 101 0 
97 103 0 
110 111 0 
105 107 0 
95 105 0 
106 109 0 
111 112 0 
104 107 0 
99 106 0 
103 113 0 
98 107 0 
100 102 0 
102 101 0 
92 97 0 
112 119 0 
104 114 0 
127 137 0 
110 119 0 
99 105 0 
112 119 0 
110 115 0 
105 113 0 
115 125 0 
107 114 0 
120 127 0 
111 121 0 
124 131 0 
113 118 0 
115 120 0 
95 102 0 
127 134 0 
109 114 0 
122 127 0 
112 123 0 
128 136 0 
116 121 0 
121 131 0 
124 129 0 
122 130 0 
113 117 0 
111 116 0 
131 133 0 
124 129 0 
120 127 0 
109 116 0 
112 120 0 
127 126 0 
117 128 0 
125 134 0 
129 140 0 
128 130 0 
125 131 0 
119 124 0 
123 129 0 
111 115 0 
125 128 0 
121 130 0 
122 128 0 
125 133 0 
115 114 0 
121 124 0 
125 134 0 
121 121 0 
129 134 0 
130 138 0 
135 136 0 
123 128 0 
117 122 0 
130 141 0 
134 134 0 
130 133 0 
125 125 0 
130 137 0 
131 131 0 
129 133 0 
129 128 0 
115 117 0 
137 140 0 
127 127 0 
130 133 0 
130 140 0 
126 120 0 
129 132 0 
126 128 0 
140 134 0 
129 133 0 
129 133 0 
135 138 0 
133 133 0 
137 133 0 
132 130 0 
140 133 0 
135 127 0 
127 122 0 
130 126 0 
138 142 0 
143 139 0 
135 129 0 
134 125 0 
136 135 0 
136 133 0 
132 127 0 
136 126 0 
137 130 0 
134 127 0 
136 131 0 
131 122 0 
136 123 0 
140 133 0 
138 131 0 
130 126 0 
144 126 0 
136 116 0 
137 118 0 
140 117 0 
151 142 0 
141 129 0 
139 125 0 
139 123 0 
145 117 0 
144 129 0 
138 125 0 
141 126 0 
144 136 0 
143 129 0 
148 134 0 
146 114 0 
140 116 0 
141 130 0 
140 125 0 
146 121 0 
142 119 0 
145 121 0 
146 134 0 
145 129 0 
150 124 0 
149 127 0 
139 116 0 
145 113 0 
148 116 0 
144 118 0 
146 129 0 
150 118 0 
138 125 0 
149 120 0 
144 120 0 
158 116 0 
149 116 0 
149 115 0 
150 116 0 
148 119 0 
152 111 0 
146 110 0 
150 109 0 
151 103 0 
146 117 0 
144 108 0 
144 111 0 
149 97 0 
146 98 0 
145 98 0 
150 103 0 
150 111 0 
144 98 0 
148 108 0 
148 108 0 
147 90 0 
155 101 0 
147 105 0 
151 111 0 
143 103 0 
149 94 0 
150 91 0 
153 102 0 
151 98 0 
152 100 0 
149 107 0 
150 90 0 
148 87 0 
153 85 0 
151 97 0 
157 82 0 
150 90 0 
152 88 0 
156 105 0 
140 83 0 
140 70 0 
142 39 0 
148 40 0 
167 0 0 
161 0 0 
165 0 0 
166 0 0 
169 0 0 
171 0 0 
169 0 0 
165 0 0 
167 0 0 
169 0 0 
163 0 0 
168 0 0 
172 0 0 
165 0 0 
174 0 0 
174 0 0 
174 0 0 
176 0 0 
170 0 0 
174 0 0 
165 0 0 
180 0 0 
175 0 0 
171 0 0 
173 0 0 
174 0 0 
173 0 0 
170 0 0 
178 0 0 
174 0 0 
176 0 0 
173 0 0 
177 0 0 
175 0 0 
187 0 0 
174 0 0 
177 0 0 
177 0 0 
172 0 0 
182 0 0 
171 0 0 
171 0 0 
183 0 0 
168 0 0 
177 0 0 
175 0 0 
178 0 0 
177 0 0 
178 0 0 
176 0 0 
181 0 0 
182 0 0 
180 0 0 
174 0 0 
175 0 0 
183 0 0 
177 0 0 
178 0 0 
180 0 0 
179 0 0 
180 0 0 
176 0 0 
181 0 0 
183 0 0 
177 0 0 
175 0 0 
175 0 0 
179 0 0 
181 0 0 
179 0 0 
177 0 0 
176 0 0 
181 0 0 
178 0 0 
180 0 0 
182 0 0 
176 0 0 
185 0 0 
186 0 0 
176 0 0 
185 0 0 
183 0 0 
181 0 0 
178 0 0 
182 0 0 
182 0 0 
178 0 0 
178 0 0 
181 0 0 
179 0 0 
178 0 0 
179 0 0 
180 0 0 
0 0 117 
0 0 137 
0 0 155 
0 0 135 
0 0 122 
0 0 122 
0 0 117 
0 0 133 
0 0 108 
0 0 142 
0 0 157 
0 0 108 
0 0 120 
0 0 128 
0 0 120 
0 0 142 
0 0 128 
0 0 120 
0 0 128 
0 0 125 
0 0 117 
0 0 125 
0 0 117 
0 0 135 
0 0 122 
0 0 135 
0 0 130 
0 0 125 
0 0 133 
0 0 140 
0 0 135 
0 0 114 
0 0 135 
0 0 142 
0 0 108 
0 0 135 
0 0 144 
0 0 133 
0 0 120 
0 0 102 
0 0 133 
0 0 130 
0 0 125 
0 0 114 
0 0 142 
0 0 117 
0 0 137 
0 0 125 
0 0 122 
0 0 128 
0 0 133 
0 0 125 
0 0 122 
0 0 122 
0 0 125 
0 0 120 
0 0 120 
0 0 122 
0 0 130 
0 0 125 
0 0 102 
0 0 120 
0 0 117 
0 0 122 
0 0 114 
0 0 137 
0 0 125 
0 0 111 
0 0 117 
0 0 111 
0 0 128 
0 0 99 
0 0 122 
0 0 102 
0 0 105 
0 0 114 
0 0 99 
0 0 99 
0 0 108 
0 0 108 
0 0 105 
0 0 128 
0 0 105 
0 0 125 
0 0 117 
0 0 111 
0 0 72 
0 0 99 
0 0 92 
14 0 102 
37 40 80 
63 70 57 
83 92 25 
60 66 0 
67 72 0 
84 94 0 
81 84 0 
78 87 0 
79 85 0 
100 108 0 
91 96 0 
89 100 0 
89 95 0 
80 87 0 
101 113 0 
88 96 0 
84 87 0 
73 82 0 
106 114 0 
102 109 0 
92 100 0 
97 106 0 
85 92 0 
74 80 0 
82 92 0 
104 113 0 
99 106 0 
106 111 0 
114 125 0 
100 105 0 
108 117 0 
100 109 0 
105 115 0 
110 120 0 
111 121 0 
113 110 0 
109 117 0 
99 103 0 
103 107 0 
111 125 0 
98 104 0 
107 115 0 
107 117 0 
106 116 0 
114 121 0 
111 120 0 
112 118 0 
119 124 0 
119 131 0 
101 103 0 
110 118 0 
111 113 0 
112 119 0 
103 108 0 
113 119 0 
112 117 0 
115 118 0 
117 125 0 
106 115 0 
117 127 0 
113 117 0 
128 128 0 
110 119 0 
121 130 0 
111 110 0 
120 131 0 
119 126 0 
114 126 0 
119 126 0 
118 129 0 
128 125 0 
115 121 0 
129 139 0 
116 125 0 
121 129 0 
125 127 0 
133 142 0 
126 133 0 
111 117 0 
138 142 0 
118 131 0 
119 122 0 
124 131 0 
124 130 0 
115 122 0 
133 137 0 
117 119 0 
131 136 0 
132 133 0 
127 130 0 
139 141 0 
133 139 0 
114 118 0 
135 146 0 
129 128 0 
135 138 0 
135 136 0 
134 128 0 
131 134 0 
137 141 0 
129 128 0 
137 137 0 
129 130 0 
125 119 0 
126 133 0 
134 132 0 
129 126 0 
131 139 0 
127 127 0 
123 126 0 
128 122 0 
127 127 0 
129 127 0 
131 127 0 
130 137 0 
132 124 0 
136 136 0 
133 134 0 
131 127 0 
137 128 0 
127 130 0 
118 122 0 
126 126 0 
139 130 0 
136 130 0 
144 135 0 
139 136 0 
130 125 0 
133 121 0 
130 119 0 
130 127 0 
134 130 0 
134 129 0 
144 134 0 
137 122 0 
138 125 0 
142 124 0 
131 125 0 
134 129 0 
139 139 0 
140 125 0 
147 145 0 
137 127 0 
132 126 0 
148 136 0 
144 132 0 
136 123 0 
157 143 0 
144 124 0 
142 132 0 
146 136 0 
136 131 0 
142 141 0 
140 112 0 
140 128 0 
145 125 0 
146 116 0 
135 118 0 
150 129 0 
142 122 0 
146 130 0 
147 119 0 
139 121 0 
149 134 0 
149 130 0 
144 114 0 
155 122 0 
149 129 0 
141 115 0 
151 120 0 
142 112 0 
149 122 0 
157 127 0 
143 113 0 
139 101 0 
146 110 0 
141 113 0 
153 117 0 
144 116 0 
151 115 0 
140 98 0 
148 107 0 
146 100 0 
153 124 0 
149 116 0 
151 109 0 
147 116 0 
156 113 0 
151 117 0 
153 109 0 
147 103 0 
148 115 0 
144 105 0 
153 87 0 
157 128 0 
147 98 0 
154 114 0 
152 98 0 
152 113 0 
151 100 0 
150 99 0 
151 101 0 
162 104 0 
155 104 0 
151 85 0 
148 96 0 
152 104 0 
154 104 0 
154 100 0 
149 95 0 
154 108 0 
156 92 0 
151 98 0 
152 99 0 
153 90 0 
155 92 0 
142 72 0 
128 87 0 
135 57 0 
136 28 0 
150 0 0 
160 0 0 
163 0 0 
164 0 0 
158 0 0 
173 0 0 
167 0 0 
167 0 0 
168 0 0 
171 0 0 
172 0 0 
170 0 0 
172 0 0 
170 0 0 
169 0 0 
174 0 0 
173 0 0 
171 0 0 
179 0 0 
168 0 0 
173 0 0 
169 0 0 
171 0 0 
179 0 0 
175 0 0 
168 0 0 
174 0 0 
169 0 0 
174 0 0 
173 0 0 
173 0 0 
171 0 0 
175 0 0 
176 0 0 
173 0 0 
172 0 0 
173 0 0 
177 0 0 
175 0 0 
173 0 0 
182 0 0 
173 0 0 
172 0 0 
176 0 0 
180 0 0 
180 0 0 
181 0 0 
175 0 0 
174 0 0 
179 0 0 
176 0 0 
177 0 0 
181 0 0 
176 0 0 
180 0 0 
177 0 0 
176 0 0 
176 0 0 
182 0 0 
180 0 0 
181 0 0 
180 0 0 
182 0 0 
179 0 0 
180 0 0 
175 0 0 
175 0 0 
177 0 0 
174 0 0 
181 0 0 
181 0 0 
174 0 0 
177 0 0 
180 0 0 
177 0 0 
176 0 0 
183 0 0 
177 0 0 
177 0 0 
173 0 0 
179 0 0 
179 0 0 
182 0 0 
180 0 0 
185 0 0 
183 0 0 
180 0 0 
181 0 0 
182 0 0 
177 0 0 
0 0 135 
0 0 108 
0 0 111 
0 0 140 
0 0 125 
0 0 140 
0 0 120 
0 0 108 
0 0 144 
0 0 114 
0 0 105 
0 0 128 
0 0 155 
0 0 137 
0 0 125 
0 0 114 
0 0 133 
0 0 130 
0 0 117 
0 0 117 
0 0 133 
0 0 140 
0 0 133 
0 0 140 
0 0 125 
0 0 130 
0 0 125 
0 0 102 
0 0 128 
0 0 142 
0 0 122 
0 0 120 
0 0 135 
0 0 117 
0 0 140 
0 0 102 
0 0 125 
0 0 122 
0 0 117 
0 0 122 
0 0 144 
0 0 128 
0 0 130 
0 0 125 
0 0 105 
0 0 120 
0 0 102 
0 0 125 
0 0 105 
0 0 105 
0 0 128 
0 0 135 
0 0 125 
0 0 122 
0 0 130 
0 0 114 
0 0 111 
0 0 125 
0 0 92 
0 0 108 
0 0 117 
0 0 114 
0 0 111 
0 0 128 
0 0 128 
0 0 120 
0 0 133 
0 0 102 
0 0 130 
0 0 111 
0 0 120 
0 0 80 
0 0 108 
0 0 117 
0 0 108 
0 0 111 
0 0 102 
0 0 108 
0 0 117 
0 0 108 
0 0 114 
0 0 108 
0 0 95 
0 0 95 
0 0 99 
17 19 102 
31 34 88 
51 57 44 
70 78 51 
65 70 0 
97 107 0 
63 66 0 
69 77 0 
73 80 0 
101 108 0 
88 96 0 
79 87 0 
94 98 0 
93 96 0 
82 87 0 
98 104 0 
94 106 0 
89 98 0 
106 114 0 
100 111 0 
94 98 0 
99 99 0 
105 114 0 
85 94 0 
93 100 0 
94 101 0 
97 104 0 
100 102 0 
107 116 0 
107 116 0 
89 91 0 
97 103 0 
102 103 0 
86 93 0 
102 109 0 
99 107 0 
109 118 0 
111 108 0 
106 116 0 
102 108 0 
107 113 0 
107 113 0 
112 125 0 
110 118 0 
109 119 0 
117 131 0 
113 120 0 
113 117 0 
97 100 0 
116 118 0 
113 126 0 
111 119 0 
115 123 0 
114 127 0 
117 127 0 
126 131 0 
107 116 0 
103 111 0 
111 121 0 
105 115 0 
115 121 0 
109 118 0 
106 111 0 
120 128 0 
117 122 0 
122 125 0 
114 125 0 
118 127 0 
123 135 0 
107 110 0 
121 120 0 
116 123 0 
122 126 0 
118 124 0 
118 125 0 
119 128 0 
113 122 0 
120 132 0 
124 118 0 
108 109 0 
123 129 0 
120 129 0 
117 122 0 
114 123 0 
126 122 0 
132 141 0 
132 135 0 
118 120 0 
118 125 0 
130 137 0 
123 124 0 
121 131 0 
122 126 0 
125 131 0 
124 130 0 
127 133 0 
124 126 0 
126 126 0 
130 131 0 
126 131 0 
129 133 0 
126 124 0 
137 140 0 
132 132 0 
131 131 0 
130 122 0 
137 141 0 
133 137 0 
136 132 0 
123 124 0 
130 127 0 
137 140 0 
142 146 0 
124 115 0 
135 139 0 
131 130 0 
128 126 0 
131 129 0 
132 130 0 
145 145 0 
135 138 0 
139 132 0 
134 126 0 
132 132 0 
134 135 0 
137 144 0 
138 130 0 
134 138 0 
133 131 0 
137 138 0 
127 120 0 
144 126 0 
137 121 0 
138 123 0 
133 124 0 
132 126 0 
134 122 0 
135 129 0 
130 132 0 
140 123 0 
132 128 0 
146 115 0 
148 129 0 
137 128 0 
133 117 0 
144 128 0 
134 124 0 
135 128 0 
153 143 0 
139 121 0 
128 102 0 
144 134 0 
148 123 0 
146 122 0 
145 136 0 
142 124 0 
142 130 0 
139 123 0 
146 128 0 
145 136 0 
144 124 0 
145 132 0 
132 111 0 
145 123 0 
145 123 0 
144 124 0 
145 120 0 
145 115 0 
144 126 0 
148 118 0 
148 129 0 
144 106 0 
143 120 0 
153 120 0 
147 116 0 
153 120 0 
150 130 0 
144 124 0 
148 126 0 
137 111 0 
147 107 0 
143 111 0 
152 126 0 
146 102 0 
150 112 0 
149 117 0 
152 120 0 
156 115 0 
144 115 0 
144 101 0 
150 111 0 
150 115 0 
143 118 0 
156 116 0 
145 103 0 
155 119 0 
151 99 0 
138 103 0 
153 109 0 
152 106 0 
151 113 0 
148 109 0 
150 107 0 
151 100 0 
148 95 0 
150 100 0 
151 87 0 
149 94 0 
151 94 0 
147 99 0 
157 110 0 
149 84 0 
152 94 0 
157 98 0 
150 75 0 
156 103 0 
154 98 0 
157 97 0 
148 94 0 
155 108 0 
155 99 0 
155 92 0 
152 85 0 
148 92 0 
152 67 0 
135 72 0 
126 73 0 
136 60 0 
135 49 0 
152 20 0 
168 0 0 
166 0 0 
170 0 0 
167 0 0 
167 0 0 
173 0 0 
173 0 0 
173 0 0 
170 0 0 
170 0 0 
174 0 0 
169 0 0 
172 0 0 
171 0 0 
178 0 0 
172 0 0 
174 0 0 
173 0 0 
172 0 0 
174 0 0 
171 0 0 
173 0 0 
170 0 0 
174 0 0 
172 0 0 
175 0 0 
178 0 0 
173 0 0 
179 0 0 
179 0 0 
179 0 0 
177 0 0 
168 0 0 
173 0 0 
175 0 0 
179 0 0 
178 0 0 
180 0 0 
179 0 0 
172 0 0 
172 0 0 
172 0 0 
179 0 0 
180 0 0 
176 0 0 
176 0 0 
181 0 0 
173 0 0 
180 0 0 
183 0 0 
178 0 0 
172 0 0 
175 0 0 
171 0 0 
177 0 0 
175 0 0 
177 0 0 
179 0 0 
176 0 0 
175 0 0 
184 0 0 
176 0 0 
178 0 0 
173 0 0 
179 0 0 
178 0 0 
182 0 0 
180 0 0 
183 0 0 
179 0 0 
179 0 0 
175 0 0 
174 0 0 
179 0 0 
178 0 0 
178 0 0 
183 0 0 
178 0 0 
174 0 0 
181 0 0 
178 0 0 
182 0 0 
180 0 0 
179 0 0 
180 0 0 
0 0 140 
0 0 117 
0 0 128 
0 0 125 
0 0 102 
0 0 111 
0 0 128 
0 0 140 
0 0 135 
0 0 120 
0 0 108 
0 0 133 
0 0 142 
0 0 135 
0 0 125 
0 0 133 
0 0 111 
0 0 137 
0 0 130 
0 0 108 
0 0 133 
0 0 149 
0 0 128 
0 0 120 
0 0 147 
0 0 133 
0 0 140 
0 0 114 
0 0 122 
0 0 122 
0 0 147 
0 0 125 
0 0 111 
0 0 117 
0 0 130 
0 0 114 
0 0 122 
0 0 133 
0 0 128 
0 0 111 
0 0 128 
0 0 135 
0 0 125 
0 0 133 
0 0 108 
0 0 108 
0 0 142 
0 0 120 
0 0 120 
0 0 140 
0 0 130 
0 0 117 
0 0 111 
0 0 130 
0 0 117 
0 0 99 
0 0 125 
0 0 122 
0 0 120 
0 0 125 
0 0 117 
0 0 114 
0 0 117 
0 0 125 
0 0 137 
0 0 117 
0 0 95 
0 0 128 
0 0 105 
0 0 92 
0 0 102 
0 0 108 
0 0 111 
0 0 92 
0 0 95 
0 0 114 
0 0 84 
0 0 105 
0 0 99 
0 0 105 
0 0 88 
30 34 84 
41 45 92 
74 83 72 
71 80 62 
75 83 0 
67 72 0 
80 83 0 
73 75 0 
84 90 0 
83 90 0 
76 80 0 
84 93 0 
92 96 0 
83 87 0 
78 80 0 
100 105 0 
95 98 0 
108 120 0 
104 110 0 
96 98 0 
96 101 0 
96 107 0 
86 94 0 
98 104 0 
109 112 0 
96 106 0 
108 119 0 
100 106 0 
100 106 0 
91 95 0 
98 106 0 
95 99 0 
103 105 0 
102 107 0 
99 109 0 
94 102 0 
104 116 0 
107 118 0 
89 95 0 
114 127 0 
115 116 0 
101 107 0 
104 113 0 
111 119 0 
116 118 0 
112 115 0 
106 114 0 
116 116 0 
113 124 0 
117 124 0 
120 121 0 
108 115 0 
111 118 0 
123 136 0 
108 121 0 
118 131 0 
111 118 0 
104 107 0 
117 114 0 
117 125 0 
112 119 0 
114 115 0 
130 132 0 
112 123 0 
112 123 0 
107 114 0 
111 117 0 
123 127 0 
117 128 0 
117 119 0 
121 131 0 
119 123 0 
109 119 0 
125 135 0 
128 137 0 
120 126 0 
127 133 0 
122 131 0 
122 126 0 
121 130 0 
125 131 0 
115 116 0 
130 131 0 
138 149 0 
126 134 0 
129 125 0 
112 115 0 
125 128 0 
125 135 0 
105 108 0 
122 131 0 
132 134 0 
126 132 0 
128 131 0 
123 127 0 
121 129 0 
133 141 0 
123 125 0 
125 130 0 
127 134 0 
126 136 0 
122 136 0 
127 136 0 
132 136 0 
138 142 0 
127 131 0 
129 136 0 
120 125 0 
138 137 0 
129 133 0 
125 121 0 
134 131 0 
126 136 0 
135 135 0 
123 128 0 
125 128 0 
130 131 0 
135 133 0 
131 137 0 
126 116 0 
130 136 0 
129 135 0 
136 134 0 
128 131 0 
137 137 0 
143 147 0 
125 129 0 
138 141 0 
137 140 0 
141 134 0 
127 117 0 
125 130 0 
142 147 0 
139 144 0 
135 136 0 
142 143 0 
137 132 0 
132 131 0 
135 127 0 
135 129 0 
144 141 0 
143 131 0 
143 128 0 
137 123 0 
136 128 0 
137 124 0 
136 133 0 
138 127 0 
139 123 0 
141 134 0 
134 129 0 
140 119 0 
137 128 0 
136 127 0 
139 127 0 
140 119 0 
141 126 0 
139 125 0 
147 133 0 
137 131 0 
150 139 0 
143 137 0 
139 127 0 
142 133 0 
141 123 0 
142 123 0 
145 126 0 
147 133 0 
148 122 0 
148 133 0 
152 136 0 
136 121 0 
147 127 0 
136 94 0 
146 129 0 
151 133 0 
144 129 0 
153 129 0 
153 123 0 
144 118 0 
141 111 0 
157 124 0 
153 126 0 
138 107 0 
153 124 0 
150 121 0 
148 121 0 
147 127 0 
147 114 0 
142 126 0 
154 113 0 
155 121 0 
156 130 0 
149 115 0 
148 118 0 
155 128 0 
146 114 0 
152 106 0 
154 122 0 
146 113 0 
152 106 0 
151 105 0 
155 112 0 
155 108 0 
144 103 0 
157 117 0 
153 118 0 
151 113 0 
155 107 0 
153 120 0 
148 104 0 
152 113 0 
156 100 0 
153 113 0 
154 92 0 
146 94 0 
149 104 0 
155 97 0 
154 96 0 
157 96 0 
146 80 0 
154 104 0 
151 85 0 
153 90 0 
147 79 0 
150 102 0 
153 87 0 
152 110 0 
155 104 0 
158 94 0 
148 81 0 
152 86 0 
146 75 0 
145 97 0 
131 69 0 
133 63 0 
142 45 0 
156 40 0 
165 0 0 
167 0 0 
166 0 0 
166 0 0 
165 0 0 
172 0 0 
171 0 0 
168 0 0 
167 0 0 
173 0 0 
170 0 0 
162 0 0 
174 0 0 
173 0 0 
171 0 0 
174 0 0 
171 0 0 
174 0 0 
175 0 0 
172 0 0 
164 0 0 
176 0 0 
171 0 0 
174 0 0 
178 0 0 
180 0 0 
174 0 0 
171 0 0 
173 0 0 
173 0 0 
179 0 0 
178 0 0 
174 0 0 
173 0 0 
177 0 0 
178 0 0 
176 0 0 
181 0 0 
175 0 0 
177 0 0 
177 0 0 
176 0 0 
176 0 0 
174 0 0 
182 0 0 
180 0 0 
177 0 0 
173 0 0 
172 0 0 
179 0 0 
178 0 0 
180 0 0 
180 0 0 
174 0 0 
178 0 0 
182 0 0 
183 0 0 
176 0 0 
174 0 0 
176 0 0 
183 0 0 
178 0 0 
180 0 0 
175 0 0 
178 0 0 
178 0 0 
176 0 0 
180 0 0 
180 0 0 
184 0 0 
177 0 0 
178 0 0 
179 0 0 
184 0 0 
179 0 0 
177 0 0 
179 0 0 
178 0 0 
178 0 0 
180 0 0 
183 0 0 
0 0 133 
0 0 137 
0 0 130 
0 0 140 
0 0 95 
0 0 117 
0 0 135 
0 0 128 
0 0 111 
0 0 144 
0 0 114 
0 0 130 
0 0 140 
0 0 125 
0 0 128 
0 0 128 
0 0 135 
0 0 120 
0 0 125 
0 0 114 
0 0 122 
0 0 125 
0 0 125 
0 0 108 
0 0 117 
0 0 120 
0 0 128 
0 0 128 
0 0 137 
0 0 125 
0 0 125 
0 0 140 
0 0 128 
0 0 130 
0 0 142 
0 0 142 
0 0 128 
0 0 108 
0 0 122 
0 0 120 
0 0 108 
0 0 137 
0 0 102 
0 0 111 
0 0 88 
0 0 135 
0 0 117 
0 0 122 
0 0 114 
0 0 130 
0 0 114 
0 0 125 
0 0 108 
0 0 120 
0 0 105 
0 0 137 
0 0 122 
0 0 105 
0 0 114 
0 0 128 
0 0 120 
0 0 111 
0 0 125 
0 0 125 
0 0 105 
0 0 105 
0 0 122 
0 0 114 
0 0 108 
0 0 105 
0 0 84 
0 0 125 
0 0 111 
0 0 102 
0 0 108 
0 0 92 
0 0 102 
36 40 88 
61 64 57 
71 78 57 
74 80 57 
91 97 0 
77 85 0 
66 69 0 
87 95 0 
78 78 0 
78 83 0 
94 103 0 
89 99 0 
90 100 0 
81 91 0 
83 87 0 
108 120 0 
94 100 0 
102 108 0 
77 83 0 
96 102 0 
78 85 0 
89 96 0 
99 108 0 
98 107 0 
100 107 0 
101 113 0 
99 106 0 
104 110 0 
97 105 0 
87 97 0 
94 103 0 
104 113 0 
97 108 0 
100 104 0 
112 121 0 
107 111 0 
107 108 0 
102 103 0 
101 103 0 
117 123 0 
99 95 0 
102 112 0 
103 113 0 
119 126 0 
114 123 0 
105 115 0 
111 118 0 
109 120 0 
99 100 0 
109 116 0 
107 117 0 
98 106 0 
112 122 0 
110 122 0 
113 127 0 
104 112 0 
122 128 0 
117 123 0 
119 129 0 
119 127 0 
114 108 0 
116 120 0 
129 136 0 
123 136 0 
121 127 0 
115 122 0 
109 113 0 
114 122 0 
116 123 0 
110 117 0 
126 132 0 
114 123 0 
115 125 0 
117 123 0 
122 130 0 
123 131 0 
126 133 0 
117 121 0 
127 125 0 
114 111 0 
119 118 0 
128 137 0 
128 135 0 
122 134 0 
114 117 0 
118 126 0 
127 130 0 
130 140 0 
122 123 0 
113 116 0 
133 143 0 
118 123 0 
120 122 0 
120 130 0 
132 139 0 
114 122 0 
127 130 0 
116 120 0 
136 133 0 
137 145 0 
126 129 0 
126 127 0 
129 141 0 
124 134 0 
126 135 0 
140 142 0 
136 139 0 
125 130 0 
131 131 0 
139 138 0 
134 137 0 
122 123 0 
135 139 0 
124 124 0 
127 127 0 
131 133 0 
130 129 0 
126 129 0 
134 138 0 
130 134 0 
132 126 0 
126 126 0 
129 129 0 
138 146 0 
131 135 0 
137 145 0 
137 135 0 
128 125 0 
141 134 0 
137 133 0 
134 141 0 
143 143 0 
129 122 0 
129 120 0 
138 139 0 
134 125 0 
132 132 0 
145 141 0 
141 139 0 
140 128 0 
137 130 0 
129 126 0 
140 130 0 
140 130 0 
138 124 0 
139 127 0 
140 132 0 
141 135 0 
149 141 0 
145 131 0 
135 125 0 
137 126 0 
138 117 0 
140 136 0 
147 123 0 
138 128 0 
134 123 0 
135 129 0 
150 140 0 
150 147 0 
139 122 0 
142 132 0 
140 136 0 
143 133 0 
139 128 0 
145 136 0 
141 121 0 
147 126 0 
144 131 0 
150 136 0 
138 132 0 
144 120 0 
133 129 0 
153 140 0 
142 122 0 
152 125 0 
144 127 0 
144 116 0 
146 117 0 
142 138 0 
146 124 0 
151 125 0 
150 123 0 
136 118 0 
146 127 0 
143 110 0 
144 113 0 
145 124 0 
154 120 0 
150 118 0 
144 112 0 
154 128 0 
149 121 0 
149 125 0 
153 117 0 
147 109 0 
153 124 0 
151 113 0 
149 97 0 
156 146 0 
150 108 0 
150 114 0 
149 114 0 
151 117 0 
150 111 0 
151 113 0 
153 116 0 
143 112 0 
151 99 0 
152 117 0 
148 113 0 
153 100 0 
157 109 0 
157 108 0 
155 90 0 
154 116 0 
152 110 0 
151 105 0 
150 97 0 
150 96 0 
151 100 0 
146 86 0 
152 100 0 
153 98 0 
152 89 0 
154 114 0 
152 100 0 
155 86 0 
147 82 0 
156 93 0 
153 104 0 
152 102 0 
156 85 0 
154 85 0 
155 96 0 
160 102 0 
152 108 0 
149 89 0 
146 78 0 
142 78 0 
155 101 0 
148 83 0 
133 96 0 
130 67 0 
140 49 0 
148 45 0 
161 0 0 
172 0 0 
171 0 0 
169 0 0 
169 0 0 
163 0 0 
158 0 0 
176 0 0 
171 0 0 
176 0 0 
172 0 0 
171 0 0 
175 0 0 
174 0 0 
172 0 0 
174 0 0 
174 0 0 
171 0 0 
176 0 0 
175 0 0 
169 0 0 
171 0 0 
173 0 0 
177 0 0 
174 0 0 
175 0 0 
175 0 0 
172 0 0 
177 0 0 
177 0 0 
174 0 0 
170 0 0 
175 0 0 
174 0 0 
176 0 0 
170 0 0 
179 0 0 
176 0 0 
179 0 0 
178 0 0 
179 0 0 
172 0 0 
180 0 0 
175 0 0 
183 0 0 
177 0 0 
184 0 0 
178 0 0 
180 0 0 
181 0 0 
179 0 0 
179 0 0 
176 0 0 
181 0 0 
178 0 0 
176 0 0 
180 0 0 
183 0 0 
179 0 0 
176 0 0 
185 0 0 
177 0 0 
186 0 0 
176 0 0 
178 0 0 
180 0 0 
177 0 0 
178 0 0 
175 0 0 
179 0 0 
176 0 0 
180 0 0 
182 0 0 
178 0 0 
181 0 0 
178 0 0 
181 0 0 
70 79 92 
81 91 72 
60 67 95 
40 45 111 
0 0 114 
0 0 114 
0 0 105 
0 0 140 
0 0 133 
0 0 133 
0 0 117 
0 0 120 
0 0 114 
0 0 120 
0 0 108 
0 0 117 
0 0 125 
0 0 120 
0 0 117 
0 0 117 
0 0 117 
0 0 114 
0 0 133 
0 0 122 
0 0 140 
0 0 128 
0 0 99 
0 0 137 
0 0 133 
0 0 114 
0 0 117 
0 0 122 
0 0 111 
0 0 114 
0 0 114 
0 0 120 
0 0 111 
0 0 122 
0 0 125 
0 0 88 
0 0 137 
0 0 130 
0 0 102 
0 0 111 
0 0 133 
0 0 95 
0 0 122 
0 0 105 
0 0 135 
0 0 122 
0 0 114 
0 0 99 
0 0 130 
0 0 122 
0 0 120 
0 0 122 
0 0 114 
0 0 99 
0 0 95 
0 0 117 
0 0 105 
0 0 111 
0 0 95 
0 0 128 
0 0 120 
0 0 114 
0 0 108 
0 0 99 
0 0 99 
0 0 92 
0 0 111 
0 0 95 
26 28 99 
36 40 80 
63 70 57 
78 86 44 
79 83 25 
95 105 0 
76 85 0 
88 97 0 
70 78 0 
77 83 0 
83 89 0 
81 85 0 
89 97 0 
92 97 0 
91 101 0 
75 80 0 
87 94 0 
79 87 0 
92 102 0 
95 101 0 
95 102 0 
93 93 0 
79 82 0 
105 115 0 
92 100 0 
97 105 0 
101 109 0 
82 89 0 
90 98 0 
101 108 0 
94 98 0 
95 100 0 
102 109 0 
98 106 0 
100 109 0 
98 106 0 
122 133 0 
103 111 0 
101 109 0 
106 114 0 
97 100 0 
114 121 0 
108 119 0 
106 118 0 
98 102 0 
98 98 0 
108 116 0 
103 108 0 
105 116 0 
111 117 0 
119 124 0 
110 123 0 
115 124 0 
93 105 0 
120 129 0 
112 114 0 
123 132 0 
123 125 0 
117 128 0 
120 126 0 
126 134 0 
123 127 0 
110 120 0 
122 128 0 
117 119 0 
121 136 0 
126 137 0 
118 123 0 
121 122 0 
119 128 0 
107 115 0 
123 132 0 
118 119 0 
121 127 0 
115 120 0 
119 126 0 
121 132 0 
114 127 0 
119 124 0 
115 124 0 
129 134 0 
122 133 0 
118 130 0 
118 117 0 
123 138 0 
116 119 0 
114 125 0 
129 141 0 
122 128 0 
119 123 0 
135 145 0 
127 138 0 
121 127 0 
120 120 0 
117 120 0 
140 153 0 
132 136 0 
128 132 0 
130 140 0 
132 139 0 
129 132 0 
116 122 0 
131 138 0 
129 134 0 
131 131 0 
137 147 0 
118 121 0 
130 139 0 
125 127 0 
129 133 0 
139 143 0 
128 133 0 
131 141 0 
136 138 0 
129 129 0 
122 127 0 
136 143 0 
131 132 0 
131 131 0 
131 130 0 
129 135 0 
135 134 0 
135 136 0 
130 136 0 
137 134 0 
128 131 0 
134 127 0 
140 139 0 
128 129 0 
141 144 0 
125 121 0 
144 150 0 
137 134 0 
130 125 0 
130 128 0 
134 135 0 
128 130 0 
128 122 0 
142 137 0 
143 140 0 
128 127 0 
135 128 0 
141 142 0 
141 141 0 
142 139 0 
132 132 0 
140 142 0 
138 129 0 
129 124 0 
145 129 0 
136 127 0 
140 135 0 
149 145 0 
145 138 0 
138 134 0 
135 140 0 
137 132 0 
146 136 0 
140 134 0 
144 144 0 
135 131 0 
140 128 0 
144 119 0 
136 117 0 
141 123 0 
134 120 0 
140 118 0 
132 114 0 
140 132 0 
142 126 0 
141 126 0 
143 123 0 
148 123 0 
136 125 0 
150 130 0 
133 126 0 
151 152 0 
150 130 0 
143 120 0 
152 134 0 
145 127 0 
141 112 0 
141 131 0 
146 118 0 
155 130 0 
144 139 0 
142 122 0 
143 118 0 
156 124 0 
146 126 0 
149 120 0 
148 118 0 
150 134 0 
136 103 0 
141 125 0 
143 116 0 
150 116 0 
147 115 0 
146 117 0 
148 116 0 
146 120 0 
154 129 0 
151 125 0 
145 104 0 
151 120 0 
150 110 0 
152 120 0 
157 120 0 
151 109 0 
153 119 0 
154 133 0 
145 107 0 
151 116 0 
138 99 0 
152 118 0 
155 119 0 
151 117 0 
151 113 0 
153 96 0 
156 111 0 
155 96 0 
156 111 0 
150 100 0 
150 107 0 
148 93 0 
156 108 0 
155 112 0 
151 109 0 
151 104 0 
149 97 0 
156 95 0 
151 97 0 
150 106 0 
153 109 0 
152 98 0 
159 100 0 
156 96 0 
152 98 0 
157 104 0 
154 106 0 
156 106 0 
150 85 0 
152 97 0 
156 94 0 
150 92 0 
156 88 0 
158 83 0 
153 105 0 
157 101 0 
145 89 0 
147 92 0 
138 92 0 
122 53 0 
131 70 0 
135 45 0 
149 53 0 
163 20 0 
167 0 0 
170 0 0 
170 0 0 
169 0 0 
167 0 0 
174 0 0 
167 0 0 
171 0 0 
171 0 0 
171 0 0 
172 0 0 
176 0 0 
172 0 0 
175 0 0 
175 0 0 
177 0 0 
172 0 0 
168 0 0 
179 0 0 
175 0 0 
174 0 0 
174 0 0 
176 0 0 
181 0 0 
173 0 0 
171 0 0 
172 0 0 
177 0 0 
167 0 0 
179 0 0 
176 0 0 
172 0 0 
182 0 0 
179 0 0 
176 0 0 
179 0 0 
176 0 0 
178 0 0 
178 0 0 
179 0 0 
179 0 0 
177 0 0 
176 0 0 
177 0 0 
178 0 0 
175 0 0 
180 0 0 
178 0 0 
178 0 0 
181 0 0 
176 0 0 
174 0 0 
185 0 0 
177 0 0 
176 0 0 
177 0 0 
174 0 0 
178 0 0 
181 0 0 
179 0 0 
177 0 0 
181 0 0 
182 0 0 
182 0 0 
180 0 0 
179 0 0 
177 0 0 
174 45 0 
177 83 0 
173 72 0 
171 85 0 
92 103 0 
93 104 0 
92 103 0 
87 98 0 
97 108 0 
85 94 0 
80 89 67 
70 78 57 
61 69 84 
40 45 117 
18 20 120 
0 0 105 
0 0 108 
0 0 130 
0 0 114 
0 0 122 
0 0 120 
0 0 117 
0 0 111 
0 0 105 
0 0 114 
0 0 130 
0 0 125 
0 0 99 
0 0 99 
0 0 125 
0 0 120 
0 0 95 
0 0 128 
0 0 117 
0 0 105 
0 0 137 
0 0 122 
0 0 117 
0 0 114 
0 0 117 
0 0 122 
0 0 117 
0 0 125 
0 0 120 
0 0 128 
0 0 108 
0 0 111 
0 0 133 
0 0 105 
0 0 117 
0 0 114 
0 0 108 
0 0 108 
0 0 120 
0 0 117 
0 0 92 
0 0 88 
0 0 120 
0 0 114 
0 0 122 
0 0 99 
0 0 122 
0 0 105 
0 0 108 
0 0 99 
0 0 99 
0 0 117 
0 0 114 
0 0 111 
0 0 80 
26 28 92 
32 35 62 
58 61 84 
70 75 57 
80 86 44 
86 96 0 
73 78 0 
74 82 0 
82 91 0 
91 99 0 
68 75 0 
82 89 0 
100 109 0 
92 101 0 
96 106 0 
94 101 0 
95 100 0 
91 100 0 
92 100 0 
98 107 0 
70 77 0 
93 102 0 
93 100 0 
89 96 0 
94 101 0 
105 116 0 
102 111 0 
99 106 0 
107 113 0 
101 111 0 
103 111 0 
114 122 0 
97 107 0 
114 123 0 
96 105 0 
105 115 0 
88 93 0 
110 116 0 
113 123 0 
110 116 0 
103 113 0 
106 111 0 
112 120 0 
106 111 0 
109 117 0 
113 124 0 
115 125 0 
94 103 0 
110 116 0 
114 122 0 
112 121 0 
98 103 0 
107 114 0 
108 113 0 
100 110 0 
109 122 0 
111 121 0 
113 120 0 
98 103 0 
124 136 0 
107 116 0 
108 119 0 
114 120 0 
118 122 0 
105 115 0 
130 143 0 
104 114 0 
121 125 0 
122 134 0 
111 122 0 
121 124 0 
113 119 0 
121 136 0 
114 123 0 
122 128 0 
122 129 0 
119 132 0 
128 138 0 
116 118 0 
112 116 0 
114 126 0 
119 121 0 
120 129 0 
125 136 0 
130 141 0 
133 143 0 
121 129 0 
115 128 0 
126 132 0 
107 112 0 
117 127 0 
123 129 0 
125 130 0 
126 125 0 
127 133 0 
109 113 0 
118 126 0 
138 143 0 
125 133 0 
126 134 0 
126 137 0 
131 133 0 
139 151 0 
119 122 0 
116 117 0 
125 127 0 
135 138 0 
131 138 0 
125 127 0 
131 130 0 
139 145 0 
128 137 0 
127 128 0 
130 131 0 
114 120 0 
125 131 0 
124 127 0 
123 135 0 
127 136 0 
127 132 0 
132 139 0 
145 153 0 
132 134 0 
137 144 0 
129 135 0 
128 136 0 
133 140 0 
131 140 0 
135 146 0 
137 136 0 
128 131 0 
138 144 0 
132 135 0 
141 142 0 
141 143 0 
118 121 0 
128 130 0 
130 135 0 
133 136 0 
142 144 0 
130 124 0 
134 138 0 
136 126 0 
133 133 0 
143 135 0 
140 143 0 
128 125 0 
142 137 0 
133 128 0 
146 141 0 
141 129 0 
130 127 0 
134 135 0 
129 127 0 
144 142 0 
133 135 0 
130 120 0 
143 137 0 
138 133 0 
141 134 0 
147 142 0 
132 130 0 
144 142 0 
145 141 0 
143 136 0 
143 139 0 
137 117 0 
140 125 0 
132 129 0 
137 123 0 
145 128 0 
147 133 0 
151 126 0 
138 118 0 
138 116 0 
147 134 0 
137 125 0 
144 129 0 
147 139 0 
145 129 0 
138 131 0 
154 146 0 
159 146 0 
146 133 0 
152 140 0 
140 129 0 
155 136 0 
151 142 0 
146 131 0 
142 126 0 
145 115 0 
147 125 0 
145 130 0 
143 134 0 
157 141 0 
149 134 0 
146 133 0 
141 112 0 
144 114 0 
147 112 0 
148 126 0 
145 118 0 
144 110 0 
146 120 0 
152 119 0 
156 131 0 
154 131 0 
156 129 0 
150 122 0 
150 108 0 
147 112 0 
153 126 0 
143 111 0 
149 115 0 
154 127 0 
148 122 0 
147 116 0 
157 118 0 
144 93 0 
153 113 0 
153 107 0 
163 115 0 
151 98 0 
148 98 0 
148 111 0 
153 108 0 
147 96 0 
158 123 0 
147 105 0 
149 117 0 
151 106 0 
156 114 0 
154 120 0 
156 125 0 
153 95 0 
159 98 0 
147 87 0 
157 114 0 
150 98 0 
156 96 0 
156 103 0 
151 90 0 
154 123 0 
153 107 0 
159 102 0 
152 93 0 
153 97 0 
157 99 0 
157 94 0 
152 82 0 
153 98 0 
161 103 0 
148 81 0 
155 92 0 
156 102 0 
154 94 0 
159 94 0 
154 84 0 
153 104 0 
159 70 0 
150 85 0 
141 75 0 
140 83 0 
146 88 0 
135 67 0 
129 60 0 
133 20 0 
154 36 0 
165 0 0 
169 0 0 
171 0 0 
166 0 0 
165 0 0 
172 0 0 
169 0 0 
171 0 0 
170 0 0 
169 0 0 
171 0 0 
173 0 0 
178 0 0 
173 0 0 
171 0 0 
179 0 0 
171 0 0 
174 0 0 
177 0 0 
173 0 0 
170 0 0 
178 0 0 
181 0 0 
173 0 0 
180 0 0 
178 0 0 
173 0 0 
173 0 0 
171 0 0 
173 0 0 
178 0 0 
176 0 0 
175 0 0 
179 0 0 
177 0 0 
184 0 0 
176 0 0 
172 0 0 
170 0 0 
176 0 0 
179 0 0 
182 0 0 
176 0 0 
173 0 0 
179 0 0 
175 0 0 
173 0 0 
176 0 0 
180 0 0 
181 0 0 
180 0 0 
179 0 0 
176 0 0 
174 0 0 
178 0 0 
177 28 0 
176 49 0 
173 63 0 
171 69 0 
169 96 0 
166 104 0 
164 101 0 
167 132 0 
165 110 0 
161 104 0 
162 96 0 
86 96 0 
102 113 0 
83 92 0 
91 102 0 
102 115 0 
91 102 0 
92 102 0 
96 107 0 
91 102 0 
102 114 0 
81 90 0 
86 96 0 
87 97 62 
63 70 76 
65 72 88 
42 48 99 
48 53 88 
32 35 105 
40 45 114 
26 28 108 
0 0 102 
0 0 120 
0 0 125 
0 0 95 
0 0 117 
0 0 108 
0 0 105 
0 0 102 
0 0 122 
0 0 122 
0 0 111 
0 0 117 
0 0 122 
0 0 80 
0 0 108 
0 0 102 
0 0 108 
0 0 111 
0 0 120 
0 0 122 
0 0 128 
0 0 92 
0 0 120 
0 0 117 
0 0 105 
0 0 92 
0 0 95 
0 0 117 
0 0 120 
0 0 102 
0 0 99 
0 0 111 
0 0 84 
0 0 105 
0 0 117 
0 0 84 
0 0 84 
0 0 99 
0 0 95 
35 40 88 
52 57 92 
36 40 102 
61 67 44 
72 80 36 
76 81 25 
82 90 0 
88 97 0 
83 90 0 
73 78 0 
70 78 0 
84 93 0 
68 75 0 
87 96 0 
88 98 0 
84 93 0 
87 94 0 
94 100 0 
81 85 0 
81 87 0 
90 98 0 
99 106 0 
94 102 0 
94 101 0 
87 96 0 
102 113 0 
89 92 0 
90 97 0 
92 98 0 
107 116 0 
99 109 0 
114 118 0 
100 108 0 
102 108 0 
97 103 0 
100 111 0 
93 104 0 
98 102 0 
102 113 0 
98 108 0 
115 120 0 
104 108 0 
92 97 0 
93 102 0 
107 118 0 
96 108 0 
102 114 0 
108 116 0 
108 115 0 
104 113 0 
103 108 0 
120 131 0 
110 117 0 
102 111 0 
94 98 0 
105 115 0 
108 114 0 
113 124 0 
106 111 0 
104 109 0 
104 111 0 
117 125 0 
120 131 0 
102 106 0 
113 127 0 
111 123 0 
118 129 0 
110 117 0 
106 112 0 
121 126 0 
108 114 0 
116 122 0 
112 120 0 
114 123 0 
117 124 0 
117 120 0 
113 122 0 
113 119 0 
114 121 0 
115 125 0 
123 130 0 
124 134 0 
108 107 0 
123 133 0 
117 122 0 
120 126 0 
117 119 0 
128 142 0 
115 124 0 
111 119 0 
111 124 0 
125 136 0 
112 119 0 
113 126 0 
132 145 0 
116 126 0 
113 117 0 
131 137 0 
128 133 0 
128 130 0 
125 126 0 
124 123 0 
114 121 0 
130 138 0 
131 136 0 
111 120 0 
116 116 0 
127 124 0 
127 136 0 
123 122 0 
134 138 0 
130 140 0 
129 133 0 
130 130 0 
126 122 0 
135 134 0 
138 148 0 
127 126 0 
124 133 0 
136 143 0 
144 150 0 
129 130 0 
133 141 0 
139 151 0 
130 133 0 
125 132 0 
127 131 0 
129 137 0 
129 133 0 
136 138 0 
127 133 0 
136 139 0 
131 129 0 
139 142 0 
132 130 0 
131 133 0 
140 143 0 
129 127 0 
134 132 0 
133 131 0 
134 143 0 
145 146 0 
142 140 0 
143 140 0 
127 125 0 
135 135 0 
134 129 0 
139 140 0 
142 140 0 
139 131 0 
135 131 0 
144 146 0 
138 130 0 
141 138 0 
134 129 0 
141 148 0 
139 130 0 
144 128 0 
137 131 0 
129 130 0 
141 140 0 
142 140 0 
132 128 0 
135 135 0 
133 129 0 
142 139 0 
138 130 0 
140 125 0 
134 124 0 
142 138 0 
138 135 0 
151 129 0 
131 120 0 
142 127 0 
144 137 0 
146 123 0 
146 133 0 
142 135 0 
140 127 0 
142 136 0 
138 120 0 
143 134 0 
141 134 0 
139 132 0 
148 124 0 
141 134 0 
145 128 0 
149 130 0 
141 128 0 
137 128 0 
148 129 0 
142 131 0 
146 134 0 
146 130 0 
140 131 0 
147 134 0 
147 129 0 
150 130 0 
146 127 0 
144 125 0 
147 128 0 
156 110 0 
145 107 0 
140 111 0 
154 119 0 
142 112 0 
142 128 0 
144 120 0 
149 128 0 
145 109 0 
156 136 0 
154 118 0 
149 120 0 
150 116 0 
141 119 0 
156 126 0 
152 117 0 
152 118 0 
152 128 0 
151 138 0 
153 112 0 
151 114 0 
152 121 0 
157 124 0 
155 119 0 
147 95 0 
148 121 0 
151 123 0 
151 124 0 
159 103 0 
158 118 0 
154 111 0 
156 126 0 
161 113 0 
155 116 0 
151 114 0 
153 115 0 
151 117 0 
161 111 0 
159 123 0 
157 126 0 
153 93 0 
150 113 0 
157 121 0 
153 94 0 
154 110 0 
153 112 0 
154 116 0 
152 91 0 
161 98 0 
154 78 0 
154 90 0 
153 109 0 
159 104 0 
152 100 0 
161 102 0 
160 89 0 
160 112 0 
163 110 0 
166 108 0 
159 96 0 
158 96 0 
154 91 0 
158 98 0 
153 91 0 
158 100 0 
157 87 0 
154 92 0 
153 86 0 
148 75 0 
153 99 0 
159 75 0 
154 85 0 
145 90 0 
143 95 0 
138 83 0 
138 67 0 
132 70 0 
131 53 0 
148 49 0 
140 20 0 
158 40 0 
168 20 0 
174 0 0 
171 0 0 
172 0 0 
172 0 0 
179 0 0 
174 0 0 
176 0 0 
171 0 0 
172 0 0 
168 0 0 
174 0 0 
175 0 0 
167 0 0 
169 0 0 
170 0 0 
173 0 0 
178 0 0 
178 0 0 
175 0 0 
174 0 0 
177 0 0 
183 0 0 
174 0 0 
178 0 0 
176 0 0 
173 0 0 
176 0 0 
178 0 0 
178 0 0 
175 0 0 
176 0 0 
178 0 0 
175 0 0 
178 0 0 
177 0 0 
176 0 0 
173 0 0 
175 0 0 
176 28 0 
176 35 0 
168 40 0 
169 63 0 
168 64 0 
163 65 0 
168 72 0 
165 106 0 
167 105 0 
161 105 0 
160 103 0 
162 101 0 
164 100 0 
162 85 0 
160 114 0 
159 98 0 
160 106 0 
159 99 0 
163 118 0 
168 124 0 
96 108 0 
98 110 0 
91 101 0 
95 106 0 
100 112 0 
95 106 0 
87 97 0 
95 106 0 
100 112 0 
96 107 0 
91 101 0 
89 100 0 
96 106 0 
78 86 0 
101 112 0 
80 89 0 
84 94 0 
79 88 0 
75 83 0 
66 73 0 
70 78 25 
61 67 51 
86 95 67 
77 86 57 
63 70 57 
58 64 57 
63 70 72 
61 67 67 
44 49 92 
18 20 95 
18 20 102 
31 34 84 
25 28 114 
18 20 120 
0 0 105 
17 19 105 
17 19 95 
0 0 114 
0 0 137 
0 0 95 
0 0 102 
0 0 111 
0 0 105 
17 20 99 
18 20 111 
18 20 95 
32 35 128 
17 19 92 
41 45 80 
18 20 80 
31 35 84 
48 53 80 
52 57 62 
60 67 62 
44 49 72 
64 70 57 
74 81 36 
75 83 0 
75 83 0 
68 75 0 
82 90 0 
80 90 0 
65 73 0 
85 90 0 
90 98 0 
78 85 0 
74 80 0 
76 85 0 
83 92 0 
86 96 0 
79 88 0 
94 99 0 
70 74 0 
95 101 0 
79 88 0 
90 100 0 
69 72 0 
81 89 0 
104 115 0 
96 101 0 
86 92 0 
95 104 0 
90 98 0 
78 87 0 
79 86 0 
78 79 0 
87 95 0 
113 117 0 
99 109 0 
90 100 0 
103 113 0 
106 115 0 
98 103 0 
102 112 0 
97 102 0 
111 115 0 
94 98 0 
100 111 0 
105 108 0 
102 110 0 
115 123 0 
98 105 0 
97 107 0 
103 113 0 
115 128 0 
98 106 0 
98 109 0 
109 113 0 
104 116 0 
117 121 0 
118 124 0 
104 114 0 
109 117 0 
100 108 0 
114 118 0 
109 121 0 
102 106 0 
106 112 0 
113 118 0 
109 112 0 
121 130 0 
114 121 0 
110 115 0 
118 124 0 
116 126 0 
107 113 0 
114 128 0 
111 124 0 
104 107 0 
126 127 0 
126 130 0 
127 137 0 
111 116 0 
119 131 0 
118 124 0 
106 117 0 
113 126 0 
111 113 0 
119 129 0 
116 125 0 
133 141 0 
119 123 0 
118 122 0 
124 135 0 
121 127 0 
124 138 0 
105 115 0 
117 123 0 
117 124 0 
121 127 0 
128 139 0 
132 143 0 
128 136 0 
125 134 0 
117 122 0 
122 130 0 
122 129 0 
127 136 0 
124 128 0 
129 144 0 
129 137 0 
117 124 0 
128 132 0 
135 143 0 
127 127 0 
128 132 0 
126 133 0 
120 124 0 
134 138 0 
133 137 0 
129 142 0 
121 122 0 
135 140 0 
143 151 0 
132 139 0 
126 125 0 
129 125 0 
141 147 0 
135 141 0 
123 132 0 
135 139 0 
128 135 0 
129 132 0 
127 137 0 
126 133 0 
126 133 0 
125 122 0 
143 147 0 
136 142 0 
128 131 0 
143 153 0 
132 134 0 
137 147 0 
135 137 0 
137 135 0 
120 123 0 
139 133 0 
140 134 0 
132 137 0 
131 133 0 
133 130 0 
138 140 0 
141 145 0 
132 133 0 
141 138 0 
134 128 0 
127 130 0 
142 136 0 
134 136 0 
137 132 0 
133 128 0 
138 135 0 
147 134 0 
136 133 0 
146 150 0 
137 129 0 
147 152 0 
140 140 0 
136 131 0 
136 140 0 
135 133 0 
133 132 0 
126 120 0 
145 138 0 
139 119 0 
136 131 0 
131 126 0 
142 139 0 
140 135 0 
150 140 0 
142 137 0 
142 127 0 
149 129 0 
143 131 0 
144 143 0 
140 128 0 
140 121 0 
143 129 0 
141 138 0 
141 134 0 
148 147 0 
143 128 0 
141 132 0 
144 134 0 
141 135 0 
138 129 0 
143 121 0 
155 138 0 
144 131 0 
148 139 0 
145 127 0 
145 127 0 
146 129 0 
140 127 0 
147 122 0 
149 130 0 
151 134 0 
151 136 0 
147 125 0 
157 132 0 
144 127 0 
145 118 0 
146 134 0 
137 117 0 
149 135 0 
144 126 0 
152 130 0 
153 135 0 
161 141 0 
147 124 0 
156 131 0 
137 114 0 
147 118 0 
144 124 0 
151 123 0 
151 126 0 
145 124 0 
150 116 0 
156 127 0 
154 124 0 
156 132 0 
150 119 0 
161 126 0 
147 115 0 
154 117 0 
151 108 0 
154 116 0 
152 121 0 
148 106 0 
151 125 0 
158 128 0 
156 117 0 
149 106 0 
156 116 0 
153 112 0 
151 109 0 
152 105 0 
154 115 0 
155 117 0 
145 93 0 
157 118 0 
149 93 0 
154 105 0 
160 108 0 
157 111 0 
158 113 0 
156 110 0 
153 124 0 
156 106 0 
148 91 0 
155 115 0 
148 98 0 
158 98 0 
151 98 0 
149 94 0 
157 90 0 
151 63 0 
161 94 0 
158 104 0 
158 102 0 
156 102 0 
157 98 0 
154 87 0 
157 92 0 
155 89 0 
152 96 0 
159 90 0 
150 87 0 
161 109 0 
154 86 0 
154 94 0 
159 100 0 
149 90 0 
155 83 0 
158 83 0 
157 99 0 
149 69 0 
155 95 0 
149 81 0 
145 88 0 
138 78 0 
141 97 0 
125 63 0 
134 85 0 
141 81 0 
135 67 0 
145 69 0 
144 57 0 
136 53 0 
150 34 0 
152 20 0 
163 45 0 
150 28 0 
158 0 0 
170 28 0 
169 20 0 
174 20 0 
173 0 0 
172 0 0 
170 0 0 
176 0 0 
167 0 0 
174 0 0 
169 0 0 
171 20 0 
167 20 0 
168 0 0 
168 35 0 
166 49 0 
166 34 0 
157 34 0 
165 45 0 
170 53 0 
161 60 0 
164 67 0 
168 70 0 
162 75 0 
164 81 0 
161 90 0 
163 92 0 
165 114 0 
160 101 0 
158 82 0 
159 83 0 
158 89 0 
161 100 0 
155 73 0 
161 107 0 
154 80 0 
162 99 0 
164 107 0 
163 88 0 
161 94 0 
163 98 0 
162 106 0 
168 126 0 
161 112 0 
159 102 0 
161 93 0 
162 102 0 
