P3
400 225
255
204 226 255 
204 226 255 
204 226 255 
204 226 255 
204 226 255 
204 226 255 
204 226 255 
204 226 255 
204 226 255 
204 226 255 
204 226 255 
204 226 255 
204 226 255 
204 226 255 
204 226 255 
203 226 255 
203 226 255 
203 226 255 
203 226 255 
203 226 255 
194 215 255 
186 207 255 
183 203 255 
164 182 255 
153 170 255 
139 154 255 
143 159 255 
136 151 255 
116 129 255 
111 123 255 
103 115 255 
95 105 255 
70 78 255 
70 78 255 
53 59 255 
35 39 255 
40 45 255 
28 31 255 
35 39 255 
20 22 255 
0 0 255 
0 0 255 
0 0 255 
28 31 255 
40 45 255 
45 50 255 
45 50 255 
57 63 255 
78 87 255 
80 90 255 
90 100 255 
110 123 255 
102 114 255 
125 140 255 
138 154 255 
141 157 255 
139 155 255 
164 184 255 
168 188 255 
177 198 255 
185 207 255 
197 220 255 
201 224 255 
200 224 255 
200 224 255 
200 224 255 
200 224 255 
200 224 255 
200 224 255 
200 224 255 
200 224 255 
200 224 255 
200 224 255 
200 224 255 
200 224 255 
200 224 255 
200 224 255 
200 224 255 
199 224 255 
199 224 255 
199 223 255 
199 223 255 
199 223 255 
199 223 255 
199 223 255 
199 223 255 
199 223 255 
199 223 255 
199 223 255 
199 223 255 
199 223 255 
199 223 255 
198 223 255 
198 223 255 
198 223 255 
198 223 255 
198 223 255 
198 223 255 
198 223 255 
198 223 255 
198 223 255 
198 223 255 
198 223 255 
198 223 255 
198 223 255 
198 223 255 
197 223 255 
197 222 255 
197 222 255 
197 222 255 
197 222 255 
197 222 255 
197 222 255 
197 222 255 
197 222 255 
197 222 255 
197 222 255 
197 222 255 
197 222 255 
197 222 255 
197 222 255 
196 222 255 
196 222 255 
196 222 255 
196 222 255 
196 222 255 
196 222 255 
196 222 255 
196 222 255 
196 222 255 
196 222 255 
196 222 255 
196 222 255 
196 222 255 
196 222 255 
196 221 255 
196 221 255 
195 221 255 
195 221 255 
195 221 255 
195 221 255 
195 221 255 
195 221 255 
195 221 255 
195 221 255 
195 221 255 
195 221 255 
195 221 255 
195 221 255 
195 221 255 
195 221 255 
195 221 255 
195 221 255 
195 221 255 
195 221 255 
194 221 255 
194 221 255 
194 221 255 
194 221 255 
194 221 255 
194 221 255 
194 221 255 
194 221 255 
194 221 255 
194 221 255 
194 221 255 
194 221 255 
194 221 255 
194 221 255 
194 221 255 
194 221 255 
194 221 255 
194 221 255 
194 221 255 
194 221 255 
194 221 255 
194 221 255 
194 220 255 
194 220 255 
194 220 255 
194 220 255 
194 220 255 
194 220 255 
194 220 255 
194 220 255 
194 220 255 
193 220 255 
193 220 255 
193 220 255 
193 220 255 
193 220 255 
193 220 255 
193 220 255 
193 220 255 
193 220 255 
193 220 255 
193 220 255 
193 220 255 
193 220 255 
193 220 255 
193 220 255 
193 220 255 
193 220 255 
193 220 255 
193 220 255 
193 220 255 
193 220 255 
193 220 255 
193 220 255 
193 220 255 
193 220 255 
193 220 255 
193 220 255 
193 220 255 
194 220 255 
194 220 255 
194 220 255 
194 220 255 
194 220 255 
194 220 255 
194 220 255 
194 220 255 
194 220 255 
194 221 255 
194 221 255 
194 221 255 
194 221 255 
194 221 255 
194 221 255 
194 221 255 
194 221 255 
194 221 255 
194 221 255 
194 221 255 
194 221 255 
194 221 255 
194 221 255 
194 221 255 
194 221 255 
194 221 255 
194 221 255 
194 221 255 
194 221 255 
194 221 255 
194 221 255 
195 221 255 
195 221 255 
195 221 255 
195 221 255 
195 221 255 
195 221 255 
195 221 255 
195 221 255 
195 221 255 
195 221 255 
195 221 255 
195 221 255 
195 221 255 
195 221 255 
195 221 255 
195 221 255 
195 221 255 
195 221 255 
196 221 255 
196 221 255 
196 222 255 
196 222 255 
196 222 255 
196 222 255 
196 222 255 
196 222 255 
196 222 255 
196 222 255 
196 222 255 
196 222 255 
196 222 255 
196 222 255 
196 222 255 
196 222 255 
197 222 255 
197 222 255 
197 222 255 
197 222 255 
197 222 255 
197 222 255 
197 222 255 
197 222 255 
197 222 255 
197 222 255 
197 222 255 
197 222 255 
197 222 255 
197 222 255 
197 223 255 
198 223 255 
198 223 255 
198 223 255 
198 223 255 
198 223 255 
198 223 255 
198 223 255 
198 223 255 
198 223 255 
198 223 255 
198 223 255 
198 223 255 
198 223 255 
198 223 255 
199 223 255 
199 223 255 
199 223 255 
199 223 255 
199 223 255 
199 223 255 
199 223 255 
199 223 255 
199 223 255 
199 223 255 
199 223 255 
199 223 255 
199 224 255 
199 224 255 
200 224 255 
200 224 255 
200 224 255 
200 224 255 
200 224 255 
200 224 255 
200 224 255 
200 224 255 
200 224 255 
200 224 255 
200 224 255 
200 224 255 
200 224 255 
200 224 255 
200 224 255 
201 224 255 
200 218 249 
201 214 244 
202 188 214 
203 178 203 
201 179 204 
203 165 188 
202 145 165 
201 131 149 
200 140 159 
203 119 135 
203 107 122 
203 116 133 
202 95 108 
203 63 72 
202 81 92 
203 63 72 
202 39 44 
205 31 36 
202 22 25 
204 0 0 
202 0 0 
206 0 0 
206 0 0 
204 31 36 
207 31 36 
202 31 36 
204 55 62 
206 63 72 
205 87 99 
202 90 102 
205 108 122 
206 129 147 
203 139 157 
204 125 142 
204 141 159 
204 146 165 
204 179 203 
205 169 191 
203 187 212 
205 190 215 
203 203 230 
203 219 248 
203 223 253 
203 226 255 
203 226 255 
203 226 255 
203 226 255 
204 226 255 
204 226 255 
204 226 255 
204 226 255 
204 226 255 
204 226 255 
204 226 255 
204 226 255 
204 226 255 
204 226 255 
204 226 255 
204 226 255 
204 226 255 
204 226 255 
204 226 255 
204 226 255 
204 226 255 
204 226 255 
204 226 255 
204 226 255 
204 226 255 
204 226 255 
204 226 255 
204 226 255 
204 226 255 
204 226 255 
198 219 255 
182 202 255 
178 197 255 
141 156 255 
124 137 255 
115 127 255 
105 117 255 
61 67 255 
35 39 255 
0 0 255 
0 0 255 
0 0 255 
0 0 255 
0 0 255 
0 0 255 
0 0 255 
0 0 255 
0 0 255 
0 0 255 
0 0 255 
0 0 255 
0 0 255 
0 0 255 
0 0 255 
0 0 255 
0 0 255 
0 0 255 
0 0 255 
0 0 255 
0 0 255 
0 0 255 
0 0 255 
0 0 255 
0 0 255 
0 0 255 
0 0 255 
0 0 254 
0 0 255 
0 0 255 
0 0 255 
0 0 255 
0 0 255 
0 0 255 
0 0 255 
0 0 255 
0 0 255 
0 0 255 
0 0 255 
0 0 255 
0 0 255 
0 0 255 
20 22 255 
82 92 255 
96 107 255 
104 116 255 
147 165 255 
159 178 255 
167 187 255 
181 203 255 
196 219 255 
200 224 255 
200 224 255 
200 224 255 
200 224 255 
200 224 255 
200 224 255 
200 224 255 
200 224 255 
200 224 255 
199 224 255 
199 224 255 
199 223 255 
199 223 255 
199 223 255 
199 223 255 
199 223 255 
199 223 255 
199 223 255 
199 223 255 
199 223 255 
199 223 255 
199 223 255 
199 223 255 
198 223 255 
198 223 255 
198 223 255 
198 223 255 
198 223 255 
198 223 255 
198 223 255 
198 223 255 
198 223 255 
198 223 255 
198 223 255 
198 223 255 
198 223 255 
198 223 255 
197 223 255 
197 222 255 
197 222 255 
197 222 255 
197 222 255 
197 222 255 
197 222 255 
197 222 255 
197 222 255 
197 222 255 
197 222 255 
197 222 255 
197 222 255 
197 222 255 
197 222 255 
196 222 255 
196 222 255 
196 222 255 
196 222 255 
196 222 255 
196 222 255 
196 222 255 
196 222 255 
196 222 255 
196 222 255 
196 222 255 
196 222 255 
196 222 255 
196 222 255 
196 222 255 
196 221 255 
195 221 255 
195 221 255 
195 221 255 
195 221 255 
195 221 255 
195 221 255 
195 221 255 
195 221 255 
195 221 255 
195 221 255 
195 221 255 
195 221 255 
195 221 255 
195 221 255 
195 221 255 
195 221 255 
195 221 255 
195 221 255 
195 221 255 
195 221 255 
194 221 255 
194 221 255 
194 221 255 
194 221 255 
194 221 255 
194 221 255 
194 221 255 
194 221 255 
194 221 255 
194 221 255 
194 221 255 
194 221 255 
194 221 255 
194 221 255 
194 221 255 
194 221 255 
194 221 255 
194 221 255 
194 221 255 
194 221 255 
194 221 255 
194 221 255 
194 221 255 
194 221 255 
194 220 255 
194 220 255 
194 220 255 
194 220 255 
194 220 255 
194 220 255 
194 220 255 
194 220 255 
194 220 255 
194 220 255 
194 220 255 
194 220 255 
194 220 255 
194 220 255 
194 220 255 
194 220 255 
194 220 255 
194 220 255 
194 220 255 
194 220 255 
194 220 255 
194 220 255 
194 220 255 
194 220 255 
194 220 255 
194 220 255 
194 220 255 
194 220 255 
194 220 255 
194 220 255 
194 220 255 
194 220 255 
194 220 255 
194 220 255 
194 221 255 
194 221 255 
194 221 255 
194 221 255 
194 221 255 
194 221 255 
194 221 255 
194 221 255 
194 221 255 
194 221 255 
194 221 255 
194 221 255 
194 221 255 
194 221 255 
194 221 255 
194 221 255 
194 221 255 
194 221 255 
194 221 255 
194 221 255 
194 221 255 
194 221 255 
194 221 255 
194 221 255 
194 221 255 
195 221 255 
195 221 255 
195 221 255 
195 221 255 
195 221 255 
195 221 255 
195 221 255 
195 221 255 
195 221 255 
195 221 255 
195 221 255 
195 221 255 
195 221 255 
195 221 255 
195 221 255 
195 221 255 
195 221 255 
195 221 255 
195 221 255 
196 221 255 
196 222 255 
196 222 255 
196 222 255 
196 222 255 
196 222 255 
196 222 255 
196 222 255 
196 222 255 
196 222 255 
196 222 255 
196 222 255 
196 222 255 
196 222 255 
196 222 255 
196 222 255 
197 222 255 
197 222 255 
197 222 255 
197 222 255 
197 222 255 
197 222 255 
197 222 255 
197 222 255 
197 222 255 
197 222 255 
197 222 255 
197 222 255 
197 222 255 
197 222 255 
197 222 255 
198 223 255 
198 223 255 
198 223 255 
198 223 255 
198 223 255 
198 223 255 
198 223 255 
198 223 255 
198 223 255 
198 223 255 
198 223 255 
198 223 255 
198 223 255 
198 223 255 
199 223 255 
199 223 255 
199 223 255 
199 223 255 
199 223 255 
199 223 255 
199 223 255 
199 223 255 
199 223 255 
199 223 255 
199 223 255 
199 223 255 
199 224 255 
199 224 255 
200 224 255 
200 224 255 
200 224 255 
200 224 255 
200 224 255 
200 224 255 
200 224 255 
200 224 255 
200 224 255 
200 221 252 
200 205 234 
201 200 228 
202 172 196 
200 147 167 
202 142 161 
203 114 130 
202 74 84 
204 50 57 
204 0 0 
204 0 0 
201 0 0 
203 0 0 
203 0 0 
204 0 0 
204 0 0 
205 0 0 
204 0 0 
202 0 0 
205 0 0 
201 0 0 
202 0 0 
202 0 0 
203 0 0 
204 0 0 
203 0 0 
203 0 0 
208 0 0 
204 0 0 
202 0 0 
201 0 0 
205 0 0 
204 0 0 
207 0 0 
204 0 0 
206 0 0 
206 0 0 
205 0 0 
205 0 0 
207 0 0 
206 0 0 
204 0 0 
205 0 0 
201 0 0 
205 0 0 
201 0 0 
204 0 0 
203 0 0 
207 0 0 
207 0 0 
204 0 0 
206 22 25 
204 59 67 
204 131 149 
206 135 153 
203 163 184 
204 172 194 
202 185 209 
204 199 226 
205 218 246 
204 226 255 
204 226 255 
204 226 255 
204 226 255 
204 226 255 
204 226 255 
204 226 255 
204 226 255 
204 226 255 
204 226 255 
204 226 255 
205 226 255 
205 226 255 
204 226 255 
204 226 255 
202 224 255 
183 202 255 
159 177 255 
143 158 255 
126 139 255 
86 96 255 
50 55 255 
0 0 255 
0 0 255 
0 0 255 
0 0 255 
0 0 255 
0 0 255 
0 0 255 
0 0 255 
0 0 255 
0 0 255 
0 0 255 
0 0 255 
0 0 255 
0 0 255 
0 0 255 
0 0 255 
0 0 255 
0 0 255 
0 0 255 
0 0 255 
0 0 255 
0 0 255 
0 0 255 
0 0 255 
0 0 255 
0 0 255 
0 0 255 
0 0 255 
0 0 255 
0 0 255 
0 0 255 
0 0 255 
0 0 255 
0 0 255 
0 0 255 
0 0 254 
0 0 255 
0 0 255 
0 0 255 
0 0 255 
0 0 255 
0 0 254 
0 0 254 
0 0 255 
0 0 255 
0 0 255 
0 0 255 
0 0 255 
0 0 255 
0 0 255 
0 0 255 
0 0 255 
0 0 255 
0 0 255 
0 0 254 
0 0 255 
0 0 254 
0 0 255 
0 0 255 
20 22 255 
69 77 255 
104 116 255 
133 148 255 
145 163 255 
159 178 255 
186 209 255 
199 223 255 
200 224 255 
200 224 255 
200 224 255 
200 224 255 
199 224 255 
199 224 255 
199 223 255 
199 223 255 
199 223 255 
199 223 255 
199 223 255 
199 223 255 
199 223 255 
199 223 255 
199 223 255 
199 223 255 
199 223 255 
199 223 255 
198 223 255 
198 223 255 
198 223 255 
198 223 255 
198 223 255 
198 223 255 
198 223 255 
198 223 255 
198 223 255 
198 223 255 
198 223 255 
198 223 255 
198 223 255 
198 223 255 
197 223 255 
197 222 255 
197 222 255 
197 222 255 
197 222 255 
197 222 255 
197 222 255 
197 222 255 
197 222 255 
197 222 255 
197 222 255 
197 222 255 
197 222 255 
197 222 255 
197 222 255 
196 222 255 
196 222 255 
196 222 255 
196 222 255 
196 222 255 
196 222 255 
196 222 255 
196 222 255 
196 222 255 
196 222 255 
196 222 255 
196 222 255 
196 222 255 
196 222 255 
196 222 255 
196 221 255 
196 221 255 
195 221 255 
195 221 255 
195 221 255 
195 221 255 
195 221 255 
195 221 255 
195 221 255 
195 221 255 
195 221 255 
195 221 255 
195 221 255 
195 221 255 
195 221 255 
195 221 255 
195 221 255 
195 221 255 
195 221 255 
195 221 255 
195 221 255 
195 221 255 
194 221 255 
194 221 255 
194 221 255 
194 221 255 
194 221 255 
194 221 255 
194 221 255 
194 221 255 
194 221 255 
194 221 255 
194 221 255 
194 221 255 
194 221 255 
194 221 255 
194 221 255 
194 221 255 
194 221 255 
194 221 255 
194 221 255 
194 221 255 
194 221 255 
194 221 255 
194 221 255 
194 221 255 
194 221 255 
194 221 255 
194 221 255 
194 221 255 
194 221 255 
194 221 255 
194 221 255 
194 220 255 
194 220 255 
194 220 255 
194 220 255 
194 220 255 
194 220 255 
194 220 255 
194 220 255 
194 220 255 
194 220 255 
194 220 255 
194 220 255 
194 220 255 
194 220 255 
194 221 255 
194 221 255 
194 221 255 
194 221 255 
194 221 255 
194 221 255 
194 221 255 
194 221 255 
194 221 255 
194 221 255 
194 221 255 
194 221 255 
194 221 255 
194 221 255 
194 221 255 
194 221 255 
194 221 255 
194 221 255 
194 221 255 
194 221 255 
194 221 255 
194 221 255 
194 221 255 
194 221 255 
194 221 255 
194 221 255 
194 221 255 
194 221 255 
194 221 255 
194 221 255 
194 221 255 
195 221 255 
195 221 255 
195 221 255 
195 221 255 
195 221 255 
195 221 255 
195 221 255 
195 221 255 
195 221 255 
195 221 255 
195 221 255 
195 221 255 
195 221 255 
195 221 255 
195 221 255 
195 221 255 
195 221 255 
195 221 255 
195 221 255 
195 221 255 
195 221 255 
196 221 255 
196 222 255 
196 222 255 
196 222 255 
196 222 255 
196 222 255 
196 222 255 
196 222 255 
196 222 255 
196 222 255 
196 222 255 
196 222 255 
196 222 255 
196 222 255 
196 222 255 
196 222 255 
197 222 255 
197 222 255 
197 222 255 
197 222 255 
197 222 255 
197 222 255 
197 222 255 
197 222 255 
197 222 255 
197 222 255 
197 222 255 
197 222 255 
197 222 255 
197 222 255 
197 223 255 
198 223 255 
198 223 255 
198 223 255 
198 223 255 
198 223 255 
198 223 255 
198 223 255 
198 223 255 
198 223 255 
198 223 255 
198 223 255 
198 223 255 
198 223 255 
198 223 255 
199 223 255 
199 223 255 
199 223 255 
199 223 255 
199 223 255 
199 223 255 
199 223 255 
199 223 255 
199 223 255 
199 223 255 
199 223 255 
199 223 255 
199 224 255 
199 224 255 
200 224 255 
200 224 255 
200 224 255 
200 224 255 
200 221 253 
200 212 242 
200 176 201 
199 167 191 
202 143 163 
199 118 135 
203 77 88 
203 0 0 
204 0 0 
203 0 0 
206 0 0 
204 0 0 
202 0 0 
204 0 0 
204 0 0 
205 0 0 
204 0 0 
203 0 0 
204 0 0 
202 0 0 
205 0 0 
205 0 0 
202 0 0 
204 0 0 
204 0 0 
206 0 0 
205 0 0 
206 0 0 
203 0 0 
204 0 0 
205 0 0 
205 0 0 
203 0 0 
203 0 0 
207 0 0 
205 0 0 
205 0 0 
204 0 0 
209 0 0 
207 0 0 
204 0 0 
205 0 0 
207 0 0 
206 0 0 
207 0 0 
205 0 0 
204 0 0 
206 0 0 
204 0 0 
205 0 0 
203 0 0 
207 0 0 
206 0 0 
207 0 0 
208 0 0 
206 0 0 
206 0 0 
204 0 0 
207 0 0 
208 0 0 
207 0 0 
204 0 0 
209 0 0 
209 0 0 
208 0 0 
206 0 0 
206 0 0 
204 55 62 
205 96 108 
203 145 163 
205 150 169 
205 196 221 
203 204 230 
204 223 252 
204 226 255 
204 226 255 
205 226 255 
205 226 255 
165 182 255 
142 157 255 
110 122 255 
89 98 255 
40 45 255 
0 0 255 
0 0 255 
0 0 255 
0 0 255 
0 0 255 
0 0 255 
0 0 255 
0 0 255 
0 0 255 
0 0 255 
0 0 255 
0 0 255 
0 0 255 
0 0 255 
0 0 255 
0 0 255 
0 0 255 
0 0 255 
0 0 255 
0 0 255 
0 0 255 
0 0 255 
0 0 255 
0 0 255 
0 0 255 
0 0 255 
0 0 255 
0 0 254 
0 0 255 
0 0 255 
0 0 255 
0 0 255 
0 0 255 
0 0 255 
0 0 255 
0 0 255 
0 0 255 
0 0 255 
0 0 255 
0 0 255 
0 0 255 
0 0 255 
0 0 255 
0 0 255 
0 0 254 
0 0 255 
0 0 254 
0 0 255 
0 0 255 
0 0 255 
0 0 254 
0 0 255 
0 0 255 
0 0 255 
0 0 255 
0 0 255 
0 0 255 
0 0 253 
0 0 254 
0 0 255 
0 0 255 
0 0 255 
0 0 255 
0 0 253 
0 0 255 
0 0 255 
0 0 255 
0 0 254 
0 0 255 
0 0 255 
0 0 255 
0 0 255 
28 31 255 
89 100 255 
128 143 255 
147 164 255 
165 184 255 
191 214 255 
200 224 255 
199 224 255 
199 224 255 
199 223 255 
199 223 255 
199 223 255 
199 223 255 
199 223 255 
199 223 255 
199 223 255 
199 223 255 
199 223 255 
199 223 255 
199 223 255 
199 223 255 
198 223 255 
198 223 255 
198 223 255 
198 223 255 
198 223 255 
198 223 255 
198 223 255 
198 223 255 
198 223 255 
198 223 255 
198 223 255 
198 223 255 
198 223 255 
198 223 255 
197 223 255 
197 222 255 
197 222 255 
197 222 255 
197 222 255 
197 222 255 
197 222 255 
197 222 255 
197 222 255 
197 222 255 
197 222 255 
197 222 255 
197 222 255 
197 222 255 
197 222 255 
196 222 255 
196 222 255 
196 222 255 
196 222 255 
196 222 255 
196 222 255 
196 222 255 
196 222 255 
196 222 255 
196 222 255 
196 222 255 
196 222 255 
196 222 255 
196 222 255 
196 222 255 
196 222 255 
196 221 255 
195 221 255 
195 221 255 
195 221 255 
195 221 255 
195 221 255 
195 221 255 
195 221 255 
195 221 255 
195 221 255 
195 221 255 
195 221 255 
195 221 255 
195 221 255 
195 221 255 
195 221 255 
195 221 255 
195 221 255 
195 221 255 
195 221 255 
195 221 255 
195 221 255 
194 221 255 
194 221 255 
194 221 255 
194 221 255 
194 221 255 
194 221 255 
194 221 255 
194 221 255 
194 221 255 
194 221 255 
194 221 255 
194 221 255 
194 221 255 
194 221 255 
194 221 255 
194 221 255 
194 221 255 
194 221 255 
194 221 255 
194 221 255 
194 221 255 
194 221 255 
194 221 255 
194 221 255 
194 221 255 
194 221 255 
194 221 255 
194 221 255 
194 221 255 
194 221 255 
194 221 255 
194 221 255 
194 221 255 
194 221 255 
194 221 255 
194 221 255 
194 221 255 
194 221 255 
194 221 255 
194 221 255 
194 221 255 
194 221 255 
194 221 255 
194 221 255 
194 221 255 
194 221 255 
194 221 255 
194 221 255 
194 221 255 
194 221 255 
194 221 255 
194 221 255 
194 221 255 
194 221 255 
194 221 255 
194 221 255 
194 221 255 
194 221 255 
194 221 255 
194 221 255 
194 221 255 
194 221 255 
194 221 255 
194 221 255 
194 221 255 
194 221 255 
194 221 255 
194 221 255 
194 221 255 
194 221 255 
195 221 255 
195 221 255 
195 221 255 
195 221 255 
195 221 255 
195 221 255 
195 221 255 
195 221 255 
195 221 255 
195 221 255 
195 221 255 
195 221 255 
195 221 255 
195 221 255 
195 221 255 
195 221 255 
195 221 255 
195 221 255 
195 221 255 
195 221 255 
195 221 255 
196 221 255 
196 221 255 
196 222 255 
196 222 255 
196 222 255 
196 222 255 
196 222 255 
196 222 255 
196 222 255 
196 222 255 
196 222 255 
196 222 255 
196 222 255 
196 222 255 
196 222 255 
196 222 255 
196 222 255 
197 222 255 
197 222 255 
197 222 255 
197 222 255 
197 222 255 
197 222 255 
197 222 255 
197 222 255 
197 222 255 
197 222 255 
197 222 255 
197 222 255 
197 222 255 
197 222 255 
197 223 255 
198 223 255 
198 223 255 
198 223 255 
198 223 255 
198 223 255 
198 223 255 
198 223 255 
198 223 255 
198 223 255 
198 223 255 
198 223 255 
198 223 255 
198 223 255 
198 223 255 
199 223 255 
199 223 255 
199 223 255 
199 223 255 
199 223 255 
199 223 255 
199 223 255 
199 223 255 
199 223 255 
199 223 255 
199 223 255 
199 223 255 
199 224 255 
199 224 255 
200 224 255 
200 217 248 
201 191 218 
199 173 198 
202 124 142 
201 77 88 
203 38 44 
199 0 0 
202 0 0 
203 0 0 
205 0 0 
201 0 0 
204 0 0 
203 0 0 
201 0 0 
203 0 0 
207 0 0 
205 0 0 
201 0 0 
206 0 0 
205 0 0 
209 0 0 
202 0 0 
203 0 0 
205 0 0 
208 0 0 
208 0 0 
206 0 0 
206 0 0 
206 0 0 
205 0 0 
206 0 0 
206 0 0 
205 0 0 
208 0 0 
205 0 0 
204 0 0 
206 0 0 
204 0 0 
204 0 0 
203 0 0 
206 0 0 
202 0 0 
202 0 0 
207 0 0 
203 0 0 
206 0 0 
207 0 0 
207 0 0 
206 0 0 
205 0 0 
207 0 0 
205 0 0 
205 0 0 
204 0 0 
203 0 0 
208 0 0 
206 0 0 
207 0 0 
207 0 0 
207 0 0 
205 0 0 
206 0 0 
207 0 0 
206 0 0 
209 0 0 
206 0 0 
206 0 0 
208 0 0 
207 0 0 
209 0 0 
207 0 0 
207 0 0 
207 0 0 
208 0 0 
206 0 0 
206 0 0 
204 0 0 
209 0 0 
205 22 25 
207 87 99 
205 122 137 
206 148 167 
204 189 214 
0 0 255 
0 0 255 
0 0 255 
0 0 255 
0 0 255 
0 0 255 
0 0 255 
0 0 255 
0 0 255 
0 0 255 
0 0 255 
0 0 255 
0 0 255 
0 0 255 
0 0 255 
0 0 255 
0 0 255 
0 0 255 
0 0 255 
0 0 255 
0 0 255 
0 0 255 
0 0 255 
0 0 255 
0 0 255 
0 0 255 
0 0 255 
0 0 255 
0 0 255 
0 0 255 
0 0 254 
0 0 255 
0 0 255 
0 0 255 
0 0 255 
0 0 255 
0 0 255 
0 0 255 
0 0 255 
0 0 255 
0 0 255 
0 0 255 
0 0 255 
0 0 255 
0 0 255 
0 0 255 
0 0 255 
0 0 255 
0 0 255 
0 0 254 
0 0 254 
0 0 254 
0 0 254 
0 0 255 
0 0 255 
0 0 255 
0 0 255 
0 0 255 
0 0 255 
0 0 255 
0 0 254 
0 0 255 
0 0 255 
0 0 255 
0 0 255 
0 0 255 
0 0 254 
0 0 255 
0 0 255 
0 0 255 
0 0 255 
0 0 255 
0 0 255 
0 0 254 
0 0 255 
0 0 254 
0 0 255 
0 0 255 
0 0 254 
0 0 255 
0 0 253 
0 0 255 
0 0 254 
52 59 254 
101 114 255 
145 163 255 
164 184 255 
191 214 255 
199 223 255 
199 223 255 
199 223 255 
199 223 255 
199 223 255 
199 223 255 
199 223 255 
199 223 255 
199 223 255 
199 223 255 
199 223 255 
199 223 255 
198 223 255 
198 223 255 
198 223 255 
198 223 255 
198 223 255 
198 223 255 
198 223 255 
198 223 255 
198 223 255 
198 223 255 
198 223 255 
198 223 255 
198 223 255 
198 223 255 
197 223 255 
197 222 255 
197 222 255 
197 222 255 
197 222 255 
197 222 255 
197 222 255 
197 222 255 
197 222 255 
197 222 255 
197 222 255 
197 222 255 
197 222 255 
197 222 255 
197 222 255 
197 222 255 
196 222 255 
196 222 255 
196 222 255 
196 222 255 
196 222 255 
196 222 255 
196 222 255 
196 222 255 
196 222 255 
196 222 255 
196 222 255 
196 222 255 
196 222 255 
196 222 255 
196 222 255 
196 221 255 
196 221 255 
195 221 255 
195 221 255 
195 221 255 
195 221 255 
195 221 255 
195 221 255 
195 221 255 
195 221 255 
195 221 255 
195 221 255 
195 221 255 
195 221 255 
195 221 255 
195 221 255 
195 221 255 
195 221 255 
195 221 255 
195 221 255 
195 221 255 
195 221 255 
195 221 255 
195 221 255 
194 221 255 
194 221 255 
194 221 255 
194 221 255 
194 221 255 
194 221 255 
194 221 255 
194 221 255 
194 221 255 
194 221 255 
194 221 255 
194 221 255 
194 221 255 
194 221 255 
194 221 255 
194 221 255 
194 221 255 
194 221 255 
194 221 255 
194 221 255 
194 221 255 
194 221 255 
194 221 255 
194 221 255 
194 221 255 
194 221 255 
194 221 255 
194 221 255 
194 221 255 
194 221 255 
194 221 255 
194 221 255 
194 221 255 
194 221 255 
194 221 255 
194 221 255 
194 221 255 
194 221 255 
194 221 255 
194 221 255 
194 221 255 
194 221 255 
194 221 255 
194 221 255 
194 221 255 
194 221 255 
194 221 255 
194 221 255 
194 221 255 
194 221 255 
194 221 255 
194 221 255 
194 221 255 
194 221 255 
194 221 255 
194 221 255 
194 221 255 
194 221 255 
194 221 255 
194 221 255 
194 221 255 
194 221 255 
195 221 255 
195 221 255 
195 221 255 
195 221 255 
195 221 255 
195 221 255 
195 221 255 
195 221 255 
195 221 255 
195 221 255 
195 221 255 
195 221 255 
195 221 255 
195 221 255 
195 221 255 
195 221 255 
195 221 255 
195 221 255 
195 221 255 
195 221 255 
195 221 255 
195 221 255 
196 221 255 
196 221 255 
196 222 255 
196 222 255 
196 222 255 
196 222 255 
196 222 255 
196 222 255 
196 222 255 
196 222 255 
196 222 255 
196 222 255 
196 222 255 
196 222 255 
196 222 255 
196 222 255 
196 222 255 
197 222 255 
197 222 255 
197 222 255 
197 222 255 
197 222 255 
197 222 255 
197 222 255 
197 222 255 
197 222 255 
197 222 255 
197 222 255 
197 222 255 
197 222 255 
197 222 255 
197 222 255 
197 223 255 
198 223 255 
198 223 255 
198 223 255 
198 223 255 
198 223 255 
198 223 255 
198 223 255 
198 223 255 
198 223 255 
198 223 255 
198 223 255 
198 223 255 
198 223 255 
198 223 255 
199 223 255 
199 223 255 
199 223 255 
199 223 255 
199 223 255 
199 223 255 
199 223 255 
199 223 255 
199 223 255 
199 223 255 
199 223 255 
199 223 255 
200 219 250 
201 196 224 
201 161 184 
201 130 149 
204 83 95 
203 0 0 
201 0 0 
203 0 0 
202 0 0 
202 0 0 
202 0 0 
205 0 0 
206 0 0 
203 0 0 
205 0 0 
204 0 0 
202 0 0 
205 0 0 
207 0 0 
201 0 0 
205 0 0 
204 0 0 
204 0 0 
204 0 0 
204 0 0 
205 0 0 
203 0 0 
205 0 0 
202 0 0 
204 0 0 
202 0 0 
203 0 0 
205 0 0 
203 0 0 
203 0 0 
206 0 0 
206 0 0 
203 0 0 
207 0 0 
203 0 0 
207 0 0 
205 0 0 
205 0 0 
205 0 0 
204 0 0 
205 0 0 
205 0 0 
206 0 0 
208 0 0 
205 0 0 
204 0 0 
207 0 0 
211 0 0 
206 0 0 
205 0 0 
207 0 0 
203 0 0 
208 0 0 
208 0 0 
207 0 0 
209 0 0 
206 0 0 
208 0 0 
205 0 0 
207 0 0 
203 0 0 
206 0 0 
205 0 0 
207 0 0 
207 0 0 
207 0 0 
205 0 0 
209 0 0 
208 0 0 
207 0 0 
209 0 0 
209 0 0 
203 0 0 
206 0 0 
206 0 0 
206 0 0 
207 0 0 
204 0 0 
206 0 0 
208 0 0 
209 0 0 
205 0 0 
206 0 0 
0 0 255 
0 0 255 
0 0 255 
0 0 255 
0 0 255 
0 0 255 
0 0 255 
0 0 255 
0 0 255 
0 0 255 
0 0 255 
0 0 255 
0 0 255 
0 0 255 
0 0 255 
0 0 255 
0 0 255 
0 0 255 
0 0 255 
0 0 255 
0 0 255 
0 0 255 
0 0 255 
0 0 255 
0 0 255 
0 0 255 
0 0 255 
0 0 255 
0 0 255 
0 0 255 
0 0 255 
0 0 255 
0 0 255 
0 0 254 
0 0 255 
0 0 255 
0 0 255 
0 0 255 
0 0 255 
0 0 254 
0 0 255 
0 0 255 
0 0 255 
0 0 255 
0 0 255 
0 0 255 
0 0 255 
0 0 255 
0 0 255 
0 0 255 
0 0 255 
0 0 255 
0 0 255 
0 0 255 
0 0 254 
0 0 255 
0 0 255 
0 0 254 
0 0 255 
0 0 254 
0 0 255 
0 0 255 
0 0 255 
0 0 255 
0 0 255 
0 0 255 
0 0 255 
0 0 255 
0 0 255 
0 0 255 
0 0 254 
0 0 254 
0 0 255 
0 0 254 
0 0 255 
0 0 255 
0 0 255 
0 0 255 
0 0 254 
0 0 255 
0 0 255 
0 0 255 
0 0 253 
0 0 255 
0 0 255 
0 0 255 
0 0 255 
19 22 255 
84 95 255 
119 134 255 
154 173 254 
180 202 255 
199 223 255 
199 223 255 
199 223 255 
199 223 255 
199 223 255 
199 223 255 
199 223 255 
199 223 255 
199 223 255 
199 223 255 
198 223 255 
198 223 255 
198 223 255 
198 223 255 
198 223 255 
198 223 255 
198 223 255 
198 223 255 
198 223 255 
198 223 255 
198 223 255 
198 223 255 
198 223 255 
198 223 255 
198 223 255 
197 222 255 
197 222 255 
197 222 255 
197 222 255 
197 222 255 
197 222 255 
197 222 255 
197 222 255 
197 222 255 
197 222 255 
197 222 255 
197 222 255 
197 222 255 
197 222 255 
197 222 255 
196 222 255 
196 222 255 
196 222 255 
196 222 255 
196 222 255 
196 222 255 
196 222 255 
196 222 255 
196 222 255 
196 222 255 
196 222 255 
196 222 255 
196 222 255 
196 222 255 
196 222 255 
196 222 255 
196 221 255 
195 221 255 
195 221 255 
195 221 255 
195 221 255 
195 221 255 
195 221 255 
195 221 255 
195 221 255 
195 221 255 
195 221 255 
195 221 255 
195 221 255 
195 221 255 
195 221 255 
195 221 255 
195 221 255 
195 221 255 
195 221 255 
195 221 255 
195 221 255 
195 221 255 
195 221 255 
195 221 255 
195 221 255 
194 221 255 
194 221 255 
194 221 255 
194 221 255 
194 221 255 
194 221 255 
194 221 255 
194 221 255 
194 221 255 
194 221 255 
194 221 255 
194 221 255 
194 221 255 
194 221 255 
194 221 255 
194 221 255 
194 221 255 
194 221 255 
194 221 255 
194 221 255 
194 221 255 
194 221 255 
194 221 255 
194 221 255 
194 221 255 
194 221 255 
194 221 255 
194 221 255 
194 221 255 
194 221 255 
194 221 255 
194 221 255 
194 221 255 
194 221 255 
194 221 255 
194 221 255 
194 221 255 
194 221 255 
194 221 255 
194 221 255 
194 221 255 
194 221 255 
194 221 255 
194 221 255 
194 221 255 
194 221 255 
194 221 255 
194 221 255 
194 221 255 
194 221 255 
194 221 255 
194 221 255 
194 221 255 
194 221 255 
195 221 255 
195 221 255 
195 221 255 
195 221 255 
195 221 255 
195 221 255 
195 221 255 
195 221 255 
195 221 255 
195 221 255 
195 221 255 
195 221 255 
195 221 255 
195 221 255 
195 221 255 
195 221 255 
195 221 255 
195 221 255 
195 221 255 
195 221 255 
195 221 255 
195 221 255 
195 221 255 
195 221 255 
196 221 255 
196 222 255 
196 222 255 
196 222 255 
196 222 255 
196 222 255 
196 222 255 
196 222 255 
196 222 255 
196 222 255 
196 222 255 
196 222 255 
196 222 255 
196 222 255 
196 222 255 
196 222 255 
196 222 255 
197 222 255 
197 222 255 
197 222 255 
197 222 255 
197 222 255 
197 222 255 
197 222 255 
197 222 255 
197 222 255 
197 222 255 
197 222 255 
197 222 255 
197 222 255 
197 222 255 
197 222 255 
198 223 255 
198 223 255 
198 223 255 
198 223 255 
198 223 255 
198 223 255 
198 223 255 
198 223 255 
198 223 255 
198 223 255 
198 223 255 
198 223 255 
198 223 255 
198 223 255 
198 223 255 
199 223 255 
199 223 255 
199 223 255 
199 223 255 
199 223 255 
199 223 255 
199 223 255 
199 223 255 
199 223 255 
199 223 255 
200 204 233 
200 173 198 
201 139 159 
201 89 102 
201 0 0 
203 0 0 
202 0 0 
203 0 0 
202 0 0 
203 0 0 
201 0 0 
205 0 0 
203 0 0 
203 0 0 
202 0 0 
203 0 0 
206 0 0 
204 0 0 
201 0 0 
201 0 0 
205 0 0 
203 0 0 
203 0 0 
203 0 0 
207 0 0 
204 0 0 
206 0 0 
203 0 0 
203 0 0 
205 0 0 
203 0 0 
204 0 0 
206 0 0 
204 0 0 
204 0 0 
204 0 0 
204 0 0 
207 0 0 
206 0 0 
208 0 0 
206 0 0 
202 0 0 
207 0 0 
208 0 0 
205 0 0 
207 0 0 
208 0 0 
209 0 0 
206 0 0 
205 0 0 
204 0 0 
206 0 0 
209 0 0 
205 0 0 
208 0 0 
210 0 0 
205 0 0 
204 0 0 
207 0 0 
205 0 0 
205 0 0 
207 0 0 
207 0 0 
207 0 0 
206 0 0 
211 0 0 
207 0 0 
206 0 0 
206 0 0 
205 0 0 
208 0 0 
204 0 0 
204 0 0 
210 0 0 
205 0 0 
206 0 0 
207 0 0 
206 0 0 
209 0 0 
207 0 0 
205 0 0 
203 0 0 
207 0 0 
205 0 0 
206 0 0 
210 0 0 
208 0 0 
207 0 0 
208 0 0 
207 0 0 
208 0 0 
209 0 0 
0 0 255 
0 0 255 
0 0 255 
0 0 255 
0 0 255 
0 0 255 
0 0 255 
0 0 255 
0 0 255 
0 0 255 
0 0 255 
0 0 255 
0 0 255 
0 0 255 
0 0 255 
0 0 255 
0 0 255 
0 0 255 
0 0 255 
0 0 255 
0 0 255 
0 0 255 
0 0 255 
0 0 255 
0 0 255 
0 0 255 
0 0 255 
0 0 255 
0 0 255 
0 0 255 
0 0 255 
0 0 254 
0 0 254 
0 0 255 
0 0 255 
0 0 255 
0 0 255 
0 0 255 
0 0 255 
0 0 255 
0 0 255 
0 0 255 
0 0 254 
0 0 255 
0 0 255 
0 0 255 
0 0 254 
0 0 255 
0 0 254 
0 0 255 
0 0 255 
0 0 255 
0 0 255 
0 0 255 
0 0 254 
0 0 254 
0 0 254 
0 0 255 
0 0 255 
0 0 255 
0 0 255 
0 0 255 
0 0 255 
0 0 255 
0 0 255 
0 0 255 
0 0 255 
0 0 255 
0 0 254 
0 0 255 
0 0 254 
0 0 255 
0 0 255 
0 0 254 
0 0 254 
0 0 254 
0 0 255 
0 0 255 
0 0 255 
0 0 255 
0 0 253 
0 0 254 
0 0 254 
0 0 255 
0 0 254 
0 0 255 
0 0 253 
0 0 255 
0 0 254 
0 0 255 
0 0 253 
0 0 254 
52 59 253 
101 114 255 
157 176 255 
181 203 255 
198 222 255 
199 223 255 
199 223 255 
199 223 255 
199 223 255 
199 223 255 
199 223 255 
199 223 255 
198 223 255 
198 223 255 
198 223 255 
198 223 255 
198 223 255 
198 223 255 
198 223 255 
198 223 255 
198 223 255 
198 223 255 
198 223 255 
198 223 255 
198 223 255 
198 223 255 
198 223 255 
197 222 255 
197 222 255 
197 222 255 
197 222 255 
197 222 255 
197 222 255 
197 222 255 
197 222 255 
197 222 255 
197 222 255 
197 222 255 
197 222 255 
197 222 255 
197 222 255 
197 222 255 
196 222 255 
196 222 255 
196 222 255 
196 222 255 
196 222 255 
196 222 255 
196 222 255 
196 222 255 
196 222 255 
196 222 255 
196 222 255 
196 222 255 
196 222 255 
196 222 255 
196 222 255 
196 222 255 
196 222 255 
196 221 255 
195 221 255 
195 221 255 
195 221 255 
195 221 255 
195 221 255 
195 221 255 
195 221 255 
195 221 255 
195 221 255 
195 221 255 
195 221 255 
195 221 255 
195 221 255 
195 221 255 
195 221 255 
195 221 255 
195 221 255 
195 221 255 
195 221 255 
195 221 255 
195 221 255 
195 221 255 
195 221 255 
195 221 255 
195 221 255 
195 221 255 
194 221 255 
194 221 255 
194 221 255 
194 221 255 
194 221 255 
194 221 255 
194 221 255 
194 221 255 
194 221 255 
194 221 255 
194 221 255 
194 221 255 
194 221 255 
194 221 255 
194 221 255 
194 221 255 
194 221 255 
194 221 255 
194 221 255 
194 221 255 
194 221 255 
194 221 255 
194 221 255 
194 221 255 
194 221 255 
194 221 255 
194 221 255 
194 221 255 
194 221 255 
194 221 255 
194 221 255 
194 221 255 
194 221 255 
194 221 255 
194 221 255 
194 221 255 
194 221 255 
194 221 255 
194 221 255 
194 221 255 
194 221 255 
194 221 255 
194 221 255 
194 221 255 
195 221 255 
195 221 255 
195 221 255 
195 221 255 
195 221 255 
195 221 255 
195 221 255 
195 221 255 
195 221 255 
195 221 255 
195 221 255 
195 221 255 
195 221 255 
195 221 255 
195 221 255 
195 221 255 
195 221 255 
195 221 255 
195 221 255 
195 221 255 
195 221 255 
195 221 255 
195 221 255 
195 221 255 
195 221 255 
195 221 255 
196 221 255 
196 222 255 
196 222 255 
196 222 255 
196 222 255 
196 222 255 
196 222 255 
196 222 255 
196 222 255 
196 222 255 
196 222 255 
196 222 255 
196 222 255 
196 222 255 
196 222 255 
196 222 255 
196 222 255 
196 222 255 
197 222 255 
197 222 255 
197 222 255 
197 222 255 
197 222 255 
197 222 255 
197 222 255 
197 222 255 
197 222 255 
197 222 255 
197 222 255 
197 222 255 
197 222 255 
197 222 255 
197 222 255 
198 223 255 
198 223 255 
198 223 255 
198 223 255 
198 223 255 
198 223 255 
198 223 255 
198 223 255 
198 223 255 
198 223 255 
198 223 255 
198 223 255 
198 223 255 
198 223 255 
198 223 255 
199 223 255 
199 223 255 
199 223 255 
199 223 255 
199 223 255 
199 223 255 
199 223 255 
199 223 255 
200 201 230 
200 176 201 
200 118 135 
199 54 62 
202 0 0 
198 0 0 
203 0 0 
200 0 0 
203 0 0 
202 0 0 
199 0 0 
206 0 0 
203 0 0 
202 0 0 
205 0 0 
204 0 0 
202 0 0 
201 0 0 
202 0 0 
208 0 0 
205 0 0 
204 0 0 
207 0 0 
205 0 0 
205 0 0 
200 0 0 
201 0 0 
205 0 0 
205 0 0 
203 0 0 
204 0 0 
205 0 0 
204 0 0 
204 0 0 
206 0 0 
206 0 0 
204 0 0 
203 0 0 
204 0 0 
205 0 0 
206 0 0 
206 0 0 
207 0 0 
206 0 0 
209 0 0 
207 0 0 
207 0 0 
203 0 0 
207 0 0 
207 0 0 
208 0 0 
207 0 0 
207 0 0 
205 0 0 
208 0 0 
207 0 0 
203 0 0 
206 0 0 
209 0 0 
207 0 0 
208 0 0 
207 0 0 
209 0 0 
206 0 0 
209 0 0 
206 0 0 
210 0 0 
207 0 0 
208 0 0 
208 0 0 
207 0 0 
207 0 0 
209 0 0 
205 0 0 
204 0 0 
206 0 0 
207 0 0 
208 0 0 
206 0 0 
206 0 0 
207 0 0 
204 0 0 
208 0 0 
208 0 0 
206 0 0 
207 0 0 
208 0 0 
209 0 0 
210 0 0 
208 0 0 
208 0 0 
204 0 0 
208 0 0 
204 0 0 
207 0 0 
205 0 0 
0 0 255 
0 0 255 
0 0 255 
0 0 255 
0 0 255 
0 0 255 
0 0 255 
0 0 255 
0 0 255 
0 0 255 
0 0 255 
0 0 255 
0 0 255 
0 0 255 
0 0 255 
0 0 255 
0 0 255 
0 0 255 
0 0 255 
0 0 255 
0 0 255 
0 0 255 
0 0 255 
0 0 255 
0 0 255 
0 0 255 
0 0 255 
0 0 255 
0 0 255 
0 0 255 
0 0 255 
0 0 255 
0 0 255 
0 0 255 
0 0 255 
0 0 255 
0 0 255 
0 0 255 
0 0 255 
0 0 255 
0 0 255 
0 0 255 
0 0 255 
0 0 255 
0 0 255 
0 0 255 
0 0 255 
0 0 255 
0 0 255 
0 0 255 
0 0 255 
0 0 254 
0 0 255 
0 0 255 
0 0 255 
0 0 255 
0 0 255 
0 0 255 
0 0 254 
0 0 253 
0 0 255 
0 0 254 
0 0 253 
0 0 255 
0 0 255 
0 0 255 
0 0 254 
0 0 254 
0 0 252 
0 0 255 
0 0 255 
0 0 255 
0 0 255 
0 0 254 
0 0 255 
0 0 253 
0 0 253 
0 0 254 
0 0 255 
0 0 255 
0 0 255 
0 0 254 
0 0 254 
0 0 254 
0 0 255 
0 0 253 
0 0 255 
0 0 253 
0 0 255 
0 0 255 
0 0 255 
0 0 254 
0 0 254 
0 0 255 
0 0 255 
0 0 254 
59 67 255 
119 134 255 
159 179 255 
184 207 255 
199 223 255 
199 223 255 
199 223 255 
199 223 255 
199 223 255 
199 223 255 
199 223 255 
198 223 255 
198 223 255 
198 223 255 
198 223 255 
198 223 255 
198 223 255 
198 223 255 
198 223 255 
198 223 255 
198 223 255 
198 223 255 
198 223 255 
198 223 255 
198 223 255 
197 223 255 
197 222 255 
197 222 255 
197 222 255 
197 222 255 
197 222 255 
197 222 255 
197 222 255 
197 222 255 
197 222 255 
197 222 255 
197 222 255 
197 222 255 
197 222 255 
197 222 255 
197 222 255 
196 222 255 
196 222 255 
196 222 255 
196 222 255 
196 222 255 
196 222 255 
196 222 255 
196 222 255 
196 222 255 
196 222 255 
196 222 255 
196 222 255 
196 222 255 
196 222 255 
196 222 255 
196 222 255 
196 222 255 
196 221 255 
195 221 255 
195 221 255 
195 221 255 
195 221 255 
195 221 255 
195 221 255 
195 221 255 
195 221 255 
195 221 255 
195 221 255 
195 221 255 
195 221 255 
195 221 255 
195 221 255 
195 221 255 
195 221 255 
195 221 255 
195 221 255 
195 221 255 
195 221 255 
195 221 255 
195 221 255 
195 221 255 
195 221 255 
195 221 255 
195 221 255 
195 221 255 
195 221 255 
195 221 255 
195 221 255 
194 221 255 
194 221 255 
194 221 255 
194 221 255 
194 221 255 
194 221 255 
194 221 255 
194 221 255 
194 221 255 
194 221 255 
194 221 255 
194 221 255 
194 221 255 
194 221 255 
194 221 255 
194 221 255 
194 221 255 
194 221 255 
194 221 255 
194 221 255 
194 221 255 
194 221 255 
194 221 255 
194 221 255 
194 221 255 
194 221 255 
194 221 255 
194 221 255 
194 221 255 
194 221 255 
195 221 255 
195 221 255 
195 221 255 
195 221 255 
195 221 255 
195 221 255 
195 221 255 
195 221 255 
195 221 255 
195 221 255 
195 221 255 
195 221 255 
195 221 255 
195 221 255 
195 221 255 
195 221 255 
195 221 255 
195 221 255 
195 221 255 
195 221 255 
195 221 255 
195 221 255 
195 221 255 
195 221 255 
195 221 255 
195 221 255 
195 221 255 
195 221 255 
195 221 255 
195 221 255 
196 221 255 
196 221 255 
196 222 255 
196 222 255 
196 222 255 
196 222 255 
196 222 255 
196 222 255 
196 222 255 
196 222 255 
196 222 255 
196 222 255 
196 222 255 
196 222 255 
196 222 255 
196 222 255 
196 222 255 
196 222 255 
197 222 255 
197 222 255 
197 222 255 
197 222 255 
197 222 255 
197 222 255 
197 222 255 
197 222 255 
197 222 255 
197 222 255 
197 222 255 
197 222 255 
197 222 255 
197 222 255 
197 222 255 
197 223 255 
198 223 255 
198 223 255 
198 223 255 
198 223 255 
198 223 255 
198 223 255 
198 223 255 
198 223 255 
198 223 255 
198 223 255 
198 223 255 
198 223 255 
198 223 255 
198 223 255 
198 223 255 
199 223 255 
199 223 255 
199 223 255 
199 223 255 
199 223 255 
199 223 255 
198 215 246 
201 183 209 
199 122 140 
203 54 62 
200 0 0 
201 0 0 
201 0 0 
200 0 0 
202 0 0 
201 0 0 
204 0 0 
202 0 0 
202 0 0 
204 0 0 
202 0 0 
204 0 0 
201 0 0 
203 0 0 
204 0 0 
204 0 0 
199 0 0 
203 0 0 
202 0 0 
204 0 0 
204 0 0 
205 0 0 
204 0 0 
205 0 0 
204 0 0 
204 0 0 
205 0 0 
205 0 0 
206 0 0 
206 0 0 
205 0 0 
206 0 0 
203 0 0 
208 0 0 
204 0 0 
206 0 0 
205 0 0 
207 0 0 
206 0 0 
207 0 0 
205 0 0 
208 0 0 
206 0 0 
205 0 0 
205 0 0 
205 0 0 
205 0 0 
208 0 0 
205 0 0 
205 0 0 
208 0 0 
206 0 0 
205 0 0 
208 0 0 
205 0 0 
209 0 0 
207 0 0 
204 0 0 
205 0 0 
207 0 0 
208 0 0 
206 0 0 
209 0 0 
206 0 0 
207 0 0 
209 0 0 
208 0 0 
206 0 0 
207 0 0 
208 0 0 
209 0 0 
208 0 0 
205 0 0 
208 0 0 
209 0 0 
204 0 0 
205 0 0 
210 0 0 
208 0 0 
210 0 0 
207 0 0 
208 0 0 
208 0 0 
208 0 0 
208 0 0 
206 0 0 
209 0 0 
207 0 0 
211 0 0 
210 0 0 
210 0 0 
211 0 0 
205 0 0 
208 0 0 
209 0 0 
211 0 0 
0 0 255 
0 0 255 
0 0 255 
0 0 255 
0 0 255 
0 0 255 
0 0 255 
0 0 255 
0 0 255 
0 0 255 
0 0 255 
0 0 255 
0 0 255 
0 0 255 
0 0 255 
0 0 255 
0 0 255 
0 0 255 
0 0 254 
0 0 254 
0 0 255 
0 0 255 
0 0 255 
0 0 254 
0 0 255 
0 0 255 
0 0 254 
0 0 255 
0 0 255 
0 0 255 
0 0 255 
0 0 255 
0 0 255 
0 0 255 
0 0 255 
0 0 255 
0 0 255 
0 0 255 
0 0 255 
0 0 255 
0 0 255 
0 0 255 
0 0 255 
0 0 255 
0 0 255 
0 0 255 
0 0 254 
0 0 255 
0 0 255 
0 0 254 
0 0 254 
0 0 255 
0 0 255 
0 0 255 
0 0 254 
0 0 255 
0 0 253 
0 0 253 
0 0 255 
0 0 255 
0 0 255 
0 0 254 
0 0 255 
0 0 255 
0 0 255 
0 0 255 
0 0 254 
0 0 255 
0 0 255 
0 0 254 
0 0 253 
0 0 255 
0 0 254 
0 0 255 
0 0 255 
0 0 254 
0 0 254 
0 0 254 
0 0 253 
0 0 255 
0 0 255 
0 0 254 
0 0 254 
0 0 255 
0 0 255 
0 0 254 
0 0 254 
0 0 252 
0 0 255 
0 0 255 
0 0 253 
0 0 254 
0 0 255 
0 0 254 
0 0 253 
0 0 252 
0 0 253 
0 0 254 
0 0 255 
0 0 255 
91 102 254 
139 156 254 
184 207 255 
197 221 255 
199 223 255 
199 223 255 
199 223 255 
199 223 255 
199 223 255 
198 223 255 
198 223 255 
198 223 255 
198 223 255 
198 223 255 
198 223 255 
198 223 255 
198 223 255 
198 223 255 
198 223 255 
198 223 255 
198 223 255 
198 223 255 
198 223 255 
197 223 255 
197 222 255 
197 222 255 
197 222 255 
197 222 255 
197 222 255 
197 222 255 
197 222 255 
197 222 255 
197 222 255 
197 222 255 
197 222 255 
197 222 255 
197 222 255 
197 222 255 
197 222 255 
196 222 255 
196 222 255 
196 222 255 
196 222 255 
196 222 255 
196 222 255 
196 222 255 
196 222 255 
196 222 255 
196 222 255 
196 222 255 
196 222 255 
196 222 255 
196 222 255 
196 222 255 
196 222 255 
196 222 255 
196 222 255 
196 221 255 
196 221 255 
195 221 255 
195 221 255 
195 221 255 
195 221 255 
195 221 255 
195 221 255 
195 221 255 
195 221 255 
195 221 255 
195 221 255 
195 221 255 
195 221 255 
195 221 255 
195 221 255 
195 221 255 
195 221 255 
195 221 255 
195 221 255 
195 221 255 
195 221 255 
195 221 255 
195 221 255 
195 221 255 
195 221 255 
195 221 255 
195 221 255 
195 221 255 
195 221 255 
195 221 255 
195 221 255 
195 221 255 
195 221 255 
195 221 255 
195 221 255 
195 221 255 
195 221 255 
195 221 255 
195 221 255 
195 221 255 
195 221 255 
195 221 255 
194 221 255 
195 221 255 
195 221 255 
195 221 255 
195 221 255 
195 221 255 
195 221 255 
195 221 255 
195 221 255 
195 221 255 
195 221 255 
195 221 255 
195 221 255 
195 221 255 
195 221 255 
195 221 255 
195 221 255 
195 221 255 
195 221 255 
195 221 255 
195 221 255 
195 221 255 
195 221 255 
195 221 255 
195 221 255 
195 221 255 
195 221 255 
195 221 255 
195 221 255 
195 221 255 
195 221 255 
195 221 255 
195 221 255 
195 221 255 
195 221 255 
195 221 255 
195 221 255 
195 221 255 
195 221 255 
195 221 255 
195 221 255 
196 221 255 
196 221 255 
196 222 255 
196 222 255 
196 222 255 
196 222 255 
196 222 255 
196 222 255 
196 222 255 
196 222 255 
196 222 255 
196 222 255 
196 222 255 
196 222 255 
196 222 255 
196 222 255 
196 222 255 
196 222 255 
196 222 255 
197 222 255 
197 222 255 
197 222 255 
197 222 255 
197 222 255 
197 222 255 
197 222 255 
197 222 255 
197 222 255 
197 222 255 
197 222 255 
197 222 255 
197 222 255 
197 222 255 
197 222 255 
197 222 255 
197 223 255 
198 223 255 
198 223 255 
198 223 255 
198 223 255 
198 223 255 
198 223 255 
198 223 255 
198 223 255 
198 223 255 
198 223 255 
198 223 255 
198 223 255 
198 223 255 
198 223 255 
199 223 255 
199 223 255 
199 223 255 
199 223 255 
199 223 255 
199 223 255 
200 181 207 
200 161 184 
200 97 111 
200 0 0 
201 0 0 
201 0 0 
199 0 0 
204 0 0 
202 0 0 
200 0 0 
200 0 0 
203 0 0 
201 0 0 
202 0 0 
203 0 0 
203 0 0 
204 0 0 
204 0 0 
204 0 0 
203 0 0 
205 0 0 
204 0 0 
202 0 0 
206 0 0 
202 0 0 
204 0 0 
204 0 0 
202 0 0 
208 0 0 
202 0 0 
206 0 0 
206 0 0 
205 0 0 
203 0 0 
206 0 0 
203 0 0 
206 0 0 
203 0 0 
206 0 0 
206 0 0 
205 0 0 
205 0 0 
207 0 0 
205 0 0 
204 0 0 
206 0 0 
209 0 0 
209 0 0 
209 0 0 
205 0 0 
204 0 0 
207 0 0 
205 0 0 
207 0 0 
206 0 0 
207 0 0 
208 0 0 
204 0 0 
210 0 0 
207 0 0 
207 0 0 
204 0 0 
206 0 0 
209 0 0 
206 0 0 
207 0 0 
209 0 0 
208 0 0 
209 0 0 
211 0 0 
208 0 0 
205 0 0 
207 0 0 
203 0 0 
210 0 0 
212 0 0 
208 0 0 
208 0 0 
206 0 0 
210 0 0 
213 0 0 
207 0 0 
204 0 0 
210 0 0 
209 0 0 
206 0 0 
206 0 0 
208 0 0 
207 0 0 
209 0 0 
209 0 0 
207 0 0 
207 0 0 
209 0 0 
208 0 0 
210 0 0 
211 0 0 
207 0 0 
210 0 0 
207 0 0 
207 0 0 
210 0 0 
209 0 0 
0 0 255 
0 0 255 
0 0 255 
0 0 255 
0 0 255 
0 0 255 
0 0 255 
0 0 255 
0 0 255 
0 0 255 
0 0 255 
0 0 255 
0 0 255 
0 0 255 
0 0 255 
0 0 255 
0 0 254 
0 0 255 
0 0 255 
0 0 255 
0 0 255 
0 0 254 
0 0 255 
0 0 255 
0 0 255 
0 0 255 
0 0 255 
0 0 255 
0 0 255 
0 0 255 
0 0 255 
0 0 255 
0 0 255 
0 0 255 
0 0 254 
0 0 255 
0 0 255 
0 0 255 
0 0 255 
0 0 254 
0 0 255 
0 0 255 
0 0 254 
0 0 255 
0 0 255 
0 0 255 
0 0 254 
0 0 255 
0 0 255 
0 0 254 
0 0 255 
0 0 255 
0 0 254 
0 0 255 
0 0 255 
0 0 255 
0 0 254 
0 0 255 
0 0 254 
0 0 255 
0 0 255 
0 0 255 
0 0 255 
0 0 255 
0 0 255 
0 0 255 
0 0 254 
0 0 254 
0 0 255 
0 0 255 
0 0 254 
0 0 255 
0 0 253 
0 0 255 
0 0 254 
0 0 252 
0 0 255 
0 0 255 
0 0 254 
0 0 254 
0 0 253 
0 0 254 
0 0 254 
0 0 253 
0 0 255 
0 0 254 
0 0 254 
0 0 254 
0 0 254 
0 0 255 
0 0 254 
0 0 254 
0 0 255 
0 0 254 
0 0 253 
0 0 254 
0 0 254 
0 0 255 
0 0 249 
0 0 253 
0 0 255 
0 0 253 
0 0 254 
52 59 255 
129 145 254 
170 191 255 
197 221 255 
199 223 255 
199 223 255 
199 223 255 
199 223 255 
198 223 255 
198 223 255 
198 223 255 
198 223 255 
198 223 255 
198 223 255 
198 223 255 
198 223 255 
198 223 255 
198 223 255 
198 223 255 
198 223 255 
198 223 255 
198 223 255 
198 223 255 
197 222 255 
197 222 255 
197 222 255 
197 222 255 
197 222 255 
197 222 255 
197 222 255 
197 222 255 
197 222 255 
197 222 255 
197 222 255 
197 222 255 
197 222 255 
197 222 255 
197 222 255 
197 222 255 
196 222 255 
196 222 255 
196 222 255 
196 222 255 
196 222 255 
196 222 255 
196 222 255 
196 222 255 
196 222 255 
196 222 255 
196 222 255 
196 222 255 
196 222 255 
196 222 255 
196 222 255 
196 222 255 
196 222 255 
196 222 255 
196 221 255 
196 221 255 
195 221 255 
195 221 255 
195 221 255 
195 221 255 
195 221 255 
195 221 255 
195 221 255 
195 221 255 
195 221 255 
195 221 255 
195 221 255 
195 221 255 
195 221 255 
195 221 255 
195 221 255 
195 221 255 
195 221 255 
195 221 255 
195 221 255 
195 221 255 
195 221 255 
195 221 255 
195 221 255 
195 221 255 
195 221 255 
195 221 255 
195 221 255 
195 221 255 
195 221 255 
195 221 255 
195 221 255 
195 221 255 
195 221 255 
195 221 255 
195 221 255 
195 221 255 
195 221 255 
195 221 255 
195 221 255 
195 221 255 
195 221 255 
195 221 255 
195 221 255 
195 221 255 
195 221 255 
195 221 255 
195 221 255 
195 221 255 
195 221 255 
195 221 255 
195 221 255 
195 221 255 
195 221 255 
195 221 255 
195 221 255 
195 221 255 
195 221 255 
195 221 255 
195 221 255 
195 221 255 
195 221 255 
195 221 255 
195 221 255 
195 221 255 
195 221 255 
195 221 255 
195 221 255 
195 221 255 
195 221 255 
195 221 255 
195 221 255 
195 221 255 
195 221 255 
195 221 255 
195 221 255 
195 221 255 
196 221 255 
196 221 255 
196 222 255 
196 222 255 
196 222 255 
196 222 255 
196 222 255 
196 222 255 
196 222 255 
196 222 255 
196 222 255 
196 222 255 
196 222 255 
196 222 255 
196 222 255 
196 222 255 
196 222 255 
196 222 255 
196 222 255 
196 222 255 
197 222 255 
197 222 255 
197 222 255 
197 222 255 
197 222 255 
197 222 255 
197 222 255 
197 222 255 
197 222 255 
197 222 255 
197 222 255 
197 222 255 
197 222 255 
197 222 255 
197 222 255 
197 222 255 
198 223 255 
198 223 255 
198 223 255 
198 223 255 
198 223 255 
198 223 255 
198 223 255 
198 223 255 
198 223 255 
198 223 255 
198 223 255 
198 223 255 
198 223 255 
198 223 255 
198 223 255 
199 223 255 
199 223 255 
199 223 255 
199 223 255 
199 221 253 
199 192 220 
201 141 161 
199 59 67 
203 0 0 
201 0 0 
205 0 0 
204 0 0 
202 0 0 
201 0 0 
202 0 0 
202 0 0 
204 0 0 
202 0 0 
199 0 0 
203 0 0 
206 0 0 
203 0 0 
201 0 0 
201 0 0 
207 0 0 
205 0 0 
205 0 0 
205 0 0 
204 0 0 
203 0 0 
200 0 0 
204 0 0 
201 0 0 
203 0 0 
204 0 0 
207 0 0 
203 0 0 
207 0 0 
202 0 0 
201 0 0 
208 0 0 
206 0 0 
208 0 0 
204 0 0 
206 0 0 
207 0 0 
206 0 0 
203 0 0 
202 0 0 
208 0 0 
207 0 0 
207 0 0 
208 0 0 
205 0 0 
203 0 0 
206 0 0 
207 0 0 
207 0 0 
207 0 0 
209 0 0 
207 0 0 
206 0 0 
206 0 0 
207 0 0 
209 0 0 
209 0 0 
208 0 0 
206 0 0 
209 0 0 
207 0 0 
207 0 0 
210 0 0 
209 0 0 
206 0 0 
206 0 0 
209 0 0 
206 0 0 
210 0 0 
207 0 0 
211 0 0 
209 0 0 
208 0 0 
209 0 0 
206 0 0 
209 0 0 
206 0 0 
204 0 0 
207 0 0 
206 0 0 
208 0 0 
210 0 0 
209 0 0 
208 0 0 
206 0 0 
209 0 0 
210 0 0 
205 0 0 
206 0 0 
211 0 0 
210 0 0 
208 0 0 
207 0 0 
209 0 0 
208 0 0 
206 0 0 
207 0 0 
210 0 0 
209 0 0 
207 0 0 
207 0 0 
209 0 0 
0 0 255 
0 0 255 
0 0 255 
0 0 255 
0 0 255 
0 0 255 
0 0 255 
0 0 255 
0 0 255 
0 0 255 
0 0 255 
0 0 255 
0 0 255 
0 0 255 
0 0 255 
0 0 255 
0 0 255 
0 0 255 
0 0 255 
0 0 255 
0 0 255 
0 0 255 
0 0 255 
0 0 255 
0 0 255 
0 0 255 
0 0 255 
0 0 255 
0 0 255 
0 0 255 
0 0 255 
0 0 255 
0 0 255 
0 0 255 
0 0 255 
0 0 255 
0 0 255 
0 0 255 
0 0 254 
0 0 255 
0 0 255 
0 0 254 
0 0 255 
0 0 254 
0 0 254 
0 0 255 
0 0 255 
0 0 255 
0 0 255 
0 0 255 
0 0 255 
0 0 255 
0 0 255 
0 0 254 
0 0 255 
0 0 254 
0 0 255 
0 0 255 
0 0 255 
0 0 255 
0 0 254 
0 0 255 
0 0 254 
0 0 253 
0 0 255 
0 0 255 
0 0 253 
0 0 253 
0 0 254 
0 0 254 
0 0 255 
0 0 253 
0 0 255 
0 0 255 
0 0 254 
0 0 253 
0 0 253 
0 0 255 
0 0 253 
0 0 255 
0 0 255 
0 0 254 
0 0 255 
0 0 252 
0 0 253 
0 0 255 
0 0 255 
0 0 254 
0 0 254 
0 0 255 
0 0 254 
0 0 253 
0 0 254 
0 0 255 
0 0 255 
0 0 253 
0 0 254 
0 0 254 
0 0 254 
0 0 253 
0 0 250 
0 0 255 
0 0 253 
0 0 254 
0 0 252 
0 0 253 
28 31 255 
116 130 254 
156 176 254 
197 221 254 
199 223 255 
199 223 255 
199 223 255 
198 223 255 
198 223 255 
198 223 255 
198 223 255 
198 223 255 
198 223 255 
198 223 255 
198 223 255 
198 223 255 
198 223 255 
198 223 255 
198 223 255 
198 223 255 
198 223 255 
198 223 255 
197 223 255 
197 222 255 
197 222 255 
197 222 255 
197 222 255 
197 222 255 
197 222 255 
197 222 255 
197 222 255 
197 222 255 
197 222 255 
197 222 255 
197 222 255 
197 222 255 
197 222 255 
197 222 255 
197 222 255 
196 222 255 
196 222 255 
196 222 255 
196 222 255 
196 222 255 
196 222 255 
196 222 255 
196 222 255 
196 222 255 
196 222 255 
196 222 255 
196 222 255 
196 222 255 
196 222 255 
196 222 255 
196 222 255 
196 222 255 
196 222 255 
196 222 255 
196 221 255 
196 221 255 
195 221 255 
195 221 255 
195 221 255 
195 221 255 
195 221 255 
195 221 255 
195 221 255 
195 221 255 
195 221 255 
195 221 255 
195 221 255 
195 221 255 
195 221 255 
195 221 255 
195 221 255 
195 221 255 
195 221 255 
195 221 255 
195 221 255 
195 221 255 
195 221 255 
195 221 255 
195 221 255 
195 221 255 
195 221 255 
195 221 255 
195 221 255 
195 221 255 
195 221 255 
195 221 255 
195 221 255 
195 221 255 
195 221 255 
195 221 255 
195 221 255 
195 221 255 
195 221 255 
195 221 255 
195 221 255 
195 221 255 
195 221 255 
195 221 255 
195 221 255 
195 221 255 
195 221 255 
195 221 255 
195 221 255 
195 221 255 
195 221 255 
195 221 255 
195 221 255 
195 221 255 
195 221 255 
195 221 255 
195 221 255 
195 221 255 
195 221 255 
195 221 255 
195 221 255 
195 221 255 
195 221 255 
195 221 255 
195 221 255 
195 221 255 
195 221 255 
195 221 255 
195 221 255 
195 221 255 
196 221 255 
196 221 255 
196 222 255 
196 222 255 
196 222 255 
196 222 255 
196 222 255 
196 222 255 
196 222 255 
196 222 255 
196 222 255 
196 222 255 
196 222 255 
196 222 255 
196 222 255 
196 222 255 
196 222 255 
196 222 255 
196 222 255 
196 222 255 
196 222 255 
197 222 255 
197 222 255 
197 222 255 
197 222 255 
197 222 255 
197 222 255 
197 222 255 
197 222 255 
197 222 255 
197 222 255 
197 222 255 
197 222 255 
197 222 255 
197 222 255 
197 222 255 
197 222 255 
197 223 255 
198 223 255 
198 223 255 
198 223 255 
198 223 255 
198 223 255 
198 223 255 
198 223 255 
198 223 255 
198 223 255 
198 223 255 
198 223 255 
198 223 255 
198 223 255 
198 223 255 
198 223 255 
199 223 255 
199 223 255 
199 223 255 
199 218 249 
196 184 211 
197 126 144 
200 54 62 
201 0 0 
199 0 0 
201 0 0 
204 0 0 
202 0 0 
203 0 0 
199 0 0 
204 0 0 
204 0 0 
200 0 0 
202 0 0 
204 0 0 
201 0 0 
200 0 0 
202 0 0 
201 0 0 
208 0 0 
205 0 0 
202 0 0 
202 0 0 
204 0 0 
207 0 0 
204 0 0 
202 0 0 
203 0 0 
202 0 0 
200 0 0 
205 0 0 
204 0 0 
205 0 0 
207 0 0 
202 0 0 
205 0 0 
205 0 0 
204 0 0 
206 0 0 
206 0 0 
204 0 0 
205 0 0 
208 0 0 
206 0 0 
204 0 0 
202 0 0 
205 0 0 
205 0 0 
208 0 0 
205 0 0 
205 0 0 
208 0 0 
205 0 0 
207 0 0 
209 0 0 
205 0 0 
209 0 0 
209 0 0 
208 0 0 
208 0 0 
212 0 0 
207 0 0 
206 0 0 
210 0 0 
208 0 0 
208 0 0 
208 0 0 
209 0 0 
208 0 0 
208 0 0 
205 0 0 
205 0 0 
209 0 0 
207 0 0 
206 0 0 
207 0 0 
205 0 0 
208 0 0 
211 0 0 
209 0 0 
206 0 0 
208 0 0 
209 0 0 
214 0 0 
209 0 0 
211 0 0 
207 0 0 
211 0 0 
210 0 0 
208 0 0 
208 0 0 
208 0 0 
207 0 0 
208 0 0 
208 0 0 
213 0 0 
209 0 0 
208 0 0 
209 0 0 
206 0 0 
209 0 0 
208 0 0 
213 0 0 
207 0 0 
210 0 0 
209 0 0 
207 0 0 
211 0 0 
209 0 0 
0 0 255 
0 0 255 
0 0 255 
0 0 255 
0 0 255 
0 0 255 
0 0 255 
0 0 254 
0 0 254 
0 0 255 
0 0 255 
0 0 255 
0 0 255 
0 0 255 
0 0 255 
0 0 255 
0 0 255 
0 0 255 
0 0 255 
0 0 255 
0 0 255 
0 0 254 
0 0 255 
0 0 255 
0 0 254 
0 0 255 
0 0 255 
0 0 255 
0 0 254 
0 0 255 
0 0 254 
0 0 255 
0 0 255 
0 0 254 
0 0 255 
0 0 255 
0 0 255 
0 0 255 
0 0 255 
0 0 255 
0 0 254 
0 0 255 
0 0 255 
0 0 255 
0 0 254 
0 0 255 
0 0 255 
0 0 255 
0 0 254 
0 0 255 
0 0 255 
0 0 255 
0 0 255 
0 0 254 
0 0 255 
0 0 254 
0 0 255 
0 0 255 
0 0 254 
0 0 254 
0 0 255 
0 0 254 
0 0 254 
0 0 255 
0 0 255 
0 0 254 
0 0 255 
0 0 255 
0 0 255 
0 0 254 
0 0 254 
0 0 253 
0 0 255 
0 0 254 
0 0 253 
0 0 255 
0 0 255 
0 0 254 
0 0 255 
0 0 253 
0 0 255 
0 0 255 
0 0 255 
0 0 252 
0 0 254 
0 0 253 
0 0 253 
0 0 254 
0 0 254 
0 0 253 
0 0 255 
0 0 254 
0 0 254 
0 0 253 
0 0 254 
0 0 254 
0 0 255 
0 0 254 
0 0 254 
0 0 253 
0 0 248 
0 0 254 
0 0 255 
0 0 249 
0 0 253 
0 0 252 
0 0 254 
0 0 253 
0 0 255 
28 31 254 
109 122 252 
167 188 255 
197 221 255 
199 223 255 
199 223 255 
199 223 255 
198 223 255 
198 223 255 
198 223 255 
198 223 255 
198 223 255 
198 223 255 
198 223 255 
198 223 255 
198 223 255 
198 223 255 
198 223 255 
198 223 255 
198 223 255 
198 223 255 
198 223 255 
197 222 255 
197 222 255 
197 222 255 
197 222 255 
197 222 255 
197 222 255 
197 222 255 
197 222 255 
197 222 255 
197 222 255 
197 222 255 
197 222 255 
197 222 255 
197 222 255 
197 222 255 
197 222 255 
197 222 255 
196 222 255 
196 222 255 
196 222 255 
196 222 255 
196 222 255 
196 222 255 
196 222 255 
196 222 255 
196 222 255 
196 222 255 
196 222 255 
196 222 255 
196 222 255 
196 222 255 
196 222 255 
196 222 255 
196 222 255 
196 222 255 
196 222 255 
196 222 255 
196 221 255 
196 221 255 
195 221 255 
195 221 255 
195 221 255 
195 221 255 
195 221 255 
195 221 255 
195 221 255 
195 221 255 
195 221 255 
195 221 255 
195 221 255 
195 221 255 
195 221 255 
195 221 255 
195 221 255 
195 221 255 
195 221 255 
195 221 255 
195 221 255 
195 221 255 
195 221 255 
195 221 255 
195 221 255 
195 221 255 
195 221 255 
195 221 255 
195 221 255 
195 221 255 
195 221 255 
195 221 255 
195 221 255 
195 221 255 
195 221 255 
195 221 255 
195 221 255 
195 221 255 
195 221 255 
195 221 255 
195 221 255 
195 221 255 
195 221 255 
195 221 255 
195 221 255 
195 221 255 
195 221 255 
195 221 255 
195 221 255 
195 221 255 
195 221 255 
195 221 255 
195 221 255 
195 221 255 
195 221 255 
195 221 255 
195 221 255 
195 221 255 
195 221 255 
195 221 255 
195 221 255 
195 221 255 
196 221 255 
196 221 255 
196 221 255 
196 222 255 
196 222 255 
196 222 255 
196 222 255 
196 222 255 
196 222 255 
196 222 255 
196 222 255 
196 222 255 
196 222 255 
196 222 255 
196 222 255 
196 222 255 
196 222 255 
196 222 255 
196 222 255 
196 222 255 
196 222 255 
196 222 255 
197 222 255 
197 222 255 
197 222 255 
197 222 255 
197 222 255 
197 222 255 
197 222 255 
197 222 255 
197 222 255 
197 222 255 
197 222 255 
197 222 255 
197 222 255 
197 222 255 
197 222 255 
197 222 255 
197 222 255 
198 223 255 
198 223 255 
198 223 255 
198 223 255 
198 223 255 
198 223 255 
198 223 255 
198 223 255 
198 223 255 
198 223 255 
198 223 255 
198 223 255 
198 223 255 
198 223 255 
198 223 255 
198 223 255 
199 223 255 
199 223 255 
198 221 253 
198 183 209 
198 126 144 
195 38 44 
203 0 0 
204 0 0 
202 0 0 
197 0 0 
203 0 0 
203 0 0 
201 0 0 
202 0 0 
204 0 0 
203 0 0 
203 0 0 
202 0 0 
203 0 0 
201 0 0 
205 0 0 
204 0 0 
202 0 0 
202 0 0 
200 0 0 
205 0 0 
209 0 0 
201 0 0 
202 0 0 
206 0 0 
207 0 0 
203 0 0 
206 0 0 
202 0 0 
201 0 0 
208 0 0 
204 0 0 
206 0 0 
209 0 0 
205 0 0 
207 0 0 
206 0 0 
206 0 0 
201 0 0 
203 0 0 
208 0 0 
206 0 0 
206 0 0 
205 0 0 
205 0 0 
204 0 0 
205 0 0 
202 0 0 
206 0 0 
207 0 0 
206 0 0 
206 0 0 
205 0 0 
206 0 0 
206 0 0 
205 0 0 
208 0 0 
207 0 0 
208 0 0 
208 0 0 
205 0 0 
204 0 0 
208 0 0 
209 0 0 
209 0 0 
211 0 0 
208 0 0 
208 0 0 
210 0 0 
207 0 0 
207 0 0 
207 0 0 
209 0 0 
211 0 0 
208 0 0 
208 0 0 
208 0 0 
208 0 0 
206 0 0 
207 0 0 
208 0 0 
207 0 0 
208 0 0 
207 0 0 
207 0 0 
205 0 0 
207 0 0 
210 0 0 
206 0 0 
210 0 0 
210 0 0 
208 0 0 
212 0 0 
210 0 0 
208 0 0 
207 0 0 
214 0 0 
209 0 0 
208 0 0 
209 0 0 
206 0 0 
211 0 0 
206 0 0 
208 0 0 
210 0 0 
207 0 0 
207 0 0 
207 0 0 
209 0 0 
209 0 0 
0 0 255 
0 0 255 
0 0 255 
0 0 255 
0 0 255 
0 0 255 
0 0 255 
0 0 255 
0 0 255 
0 0 255 
0 0 255 
0 0 255 
0 0 255 
0 0 255 
0 0 255 
0 0 255 
0 0 255 
0 0 255 
0 0 254 
0 0 255 
0 0 255 
0 0 255 
0 0 254 
0 0 255 
0 0 255 
0 0 255 
0 0 255 
0 0 255 
0 0 255 
0 0 255 
0 0 254 
0 0 255 
0 0 254 
0 0 254 
0 0 255 
0 0 255 
0 0 254 
0 0 255 
0 0 255 
0 0 255 
0 0 255 
0 0 255 
0 0 255 
0 0 254 
0 0 255 
0 0 255 
0 0 254 
0 0 255 
0 0 255 
0 0 255 
0 0 254 
0 0 255 
0 0 252 
0 0 255 
0 0 255 
0 0 254 
0 0 255 
0 0 255 
0 0 255 
0 0 254 
0 0 255 
0 0 255 
0 0 255 
0 0 253 
0 0 255 
0 0 255 
0 0 255 
0 0 255 
0 0 254 
0 0 254 
0 0 255 
0 0 254 
0 0 254 
0 0 255 
0 0 254 
0 0 254 
0 0 255 
0 0 255 
0 0 253 
0 0 254 
0 0 255 
0 0 254 
0 0 253 
0 0 255 
0 0 252 
0 0 253 
0 0 253 
0 0 254 
0 0 253 
0 0 254 
0 0 255 
0 0 250 
0 0 253 
0 0 250 
0 0 254 
0 0 254 
0 0 249 
0 0 255 
0 0 253 
0 0 254 
0 0 254 
0 0 252 
0 0 254 
0 0 255 
0 0 253 
0 0 252 
0 0 254 
0 0 255 
0 0 250 
0 0 253 
0 0 253 
0 0 255 
34 38 253 
119 134 254 
169 189 255 
199 223 255 
199 223 255 
199 223 255 
198 223 255 
198 223 255 
198 223 255 
198 223 255 
198 223 255 
198 223 255 
198 223 255 
198 223 255 
198 223 255 
198 223 255 
198 223 255 
198 223 255 
198 223 255 
198 223 255 
198 223 255 
197 223 255 
197 222 255 
197 222 255 
197 222 255 
197 222 255 
197 222 255 
197 222 255 
197 222 255 
197 222 255 
197 222 255 
197 222 255 
197 222 255 
197 222 255 
197 222 255 
197 222 255 
197 222 255 
197 222 255 
197 222 255 
196 222 255 
196 222 255 
196 222 255 
196 222 255 
196 222 255 
196 222 255 
196 222 255 
196 222 255 
196 222 255 
196 222 255 
196 222 255 
196 222 255 
196 222 255 
196 222 255 
196 222 255 
196 222 255 
196 222 255 
196 222 255 
196 222 255 
196 222 255 
196 222 255 
196 221 255 
196 221 255 
196 221 255 
195 221 255 
195 221 255 
195 221 255 
195 221 255 
195 221 255 
195 221 255 
195 221 255 
195 221 255 
195 221 255 
195 221 255 
195 221 255 
195 221 255 
195 221 255 
195 221 255 
195 221 255 
195 221 255 
195 221 255 
195 221 255 
195 221 255 
195 221 255 
195 221 255 
195 221 255 
195 221 255 
195 221 255 
195 221 255 
195 221 255 
195 221 255 
195 221 255 
195 221 255 
195 221 255 
195 221 255 
195 221 255 
195 221 255 
195 221 255 
195 221 255 
195 221 255 
195 221 255 
195 221 255 
195 221 255 
195 221 255 
195 221 255 
195 221 255 
195 221 255 
195 221 255 
195 221 255 
195 221 255 
195 221 255 
195 221 255 
195 221 255 
195 221 255 
196 221 255 
196 221 255 
196 221 255 
196 222 255 
196 222 255 
196 222 255 
196 222 255 
196 222 255 
196 222 255 
196 222 255 
196 222 255 
196 222 255 
196 222 255 
196 222 255 
196 222 255 
196 222 255 
196 222 255 
196 222 255 
196 222 255 
196 222 255 
196 222 255 
196 222 255 
196 222 255 
196 222 255 
196 222 255 
197 222 255 
197 222 255 
197 222 255 
197 222 255 
197 222 255 
197 222 255 
197 222 255 
197 222 255 
197 222 255 
197 222 255 
197 222 255 
197 222 255 
197 222 255 
197 222 255 
197 222 255 
197 222 255 
197 223 255 
198 223 255 
198 223 255 
198 223 255 
198 223 255 
198 223 255 
198 223 255 
198 223 255 
198 223 255 
198 223 255 
198 223 255 
198 223 255 
198 223 255 
198 223 255 
198 223 255 
198 223 255 
199 223 255 
199 223 255 
199 222 254 
199 194 223 
199 134 153 
199 54 62 
199 0 0 
198 0 0 
200 0 0 
202 0 0 
201 0 0 
202 0 0 
204 0 0 
202 0 0 
203 0 0 
201 0 0 
205 0 0 
202 0 0 
205 0 0 
202 0 0 
203 0 0 
203 0 0 
203 0 0 
202 0 0 
204 0 0 
201 0 0 
204 0 0 
204 0 0 
204 0 0 
205 0 0 
203 0 0 
207 0 0 
199 0 0 
204 0 0 
205 0 0 
205 0 0 
205 0 0 
208 0 0 
205 0 0 
207 0 0 
207 0 0 
202 0 0 
205 0 0 
206 0 0 
203 0 0 
205 0 0 
208 0 0 
205 0 0 
207 0 0 
206 0 0 
204 0 0 
205 0 0 
206 0 0 
207 0 0 
209 0 0 
207 0 0 
206 0 0 
207 0 0 
205 0 0 
208 0 0 
207 0 0 
208 0 0 
209 0 0 
205 0 0 
206 0 0 
208 0 0 
207 0 0 
209 0 0 
206 0 0 
210 0 0 
212 0 0 
206 0 0 
208 0 0 
203 0 0 
212 0 0 
206 0 0 
207 0 0 
206 0 0 
205 0 0 
207 0 0 
210 0 0 
210 0 0 
210 0 0 
208 0 0 
208 0 0 
206 0 0 
207 0 0 
209 0 0 
207 0 0 
207 0 0 
206 0 0 
208 0 0 
207 0 0 
209 0 0 
208 0 0 
209 0 0 
206 0 0 
207 0 0 
211 0 0 
208 0 0 
207 0 0 
208 0 0 
210 0 0 
208 0 0 
210 0 0 
208 0 0 
213 0 0 
208 0 0 
207 0 0 
209 0 0 
209 0 0 
212 0 0 
208 0 0 
209 0 0 
209 0 0 
206 0 0 
209 0 0 
209 0 0 
0 0 254 
0 0 255 
0 0 255 
0 0 255 
0 0 255 
0 0 255 
0 0 255 
0 0 255 
0 0 255 
0 0 255 
0 0 255 
0 0 255 
0 0 255 
0 0 255 
0 0 255 
0 0 255 
0 0 255 
0 0 255 
0 0 255 
0 0 255 
0 0 255 
0 0 254 
0 0 255 
0 0 254 
0 0 255 
0 0 255 
0 0 255 
0 0 255 
0 0 255 
0 0 254 
0 0 255 
0 0 255 
0 0 255 
0 0 255 
0 0 255 
0 0 255 
0 0 255 
0 0 255 
0 0 255 
0 0 255 
0 0 255 
0 0 255 
0 0 255 
0 0 255 
0 0 255 
0 0 254 
0 0 255 
0 0 255 
0 0 255 
0 0 255 
0 0 254 
0 0 254 
0 0 255 
0 0 254 
0 0 254 
0 0 254 
0 0 255 
0 0 254 
0 0 255 
0 0 255 
0 0 255 
0 0 255 
0 0 254 
0 0 254 
0 0 255 
0 0 255 
0 0 253 
0 0 255 
0 0 255 
0 0 253 
0 0 255 
0 0 255 
0 0 255 
0 0 255 
0 0 255 
0 0 254 
0 0 255 
0 0 254 
0 0 255 
0 0 253 
0 0 254 
0 0 254 
0 0 254 
0 0 254 
0 0 255 
0 0 254 
0 0 252 
0 0 254 
0 0 253 
0 0 254 
0 0 255 
0 0 253 
0 0 255 
0 0 255 
0 0 253 
0 0 254 
0 0 255 
0 0 253 
0 0 255 
0 0 253 
0 0 253 
0 0 255 
0 0 250 
0 0 254 
0 0 254 
0 0 255 
0 0 255 
0 0 254 
0 0 254 
0 0 254 
0 0 254 
0 0 253 
0 0 254 
0 0 255 
0 0 254 
71 80 255 
138 154 255 
189 213 254 
199 223 255 
199 223 255 
198 223 255 
198 223 255 
198 223 255 
198 223 255 
198 223 255 
198 223 255 
198 223 255 
198 223 255 
198 223 255 
198 223 255 
198 223 255 
198 223 255 
198 223 255 
198 223 255 
198 223 255 
198 223 255 
197 222 255 
197 222 255 
197 222 255 
197 222 255 
197 222 255 
197 222 255 
197 222 255 
197 222 255 
197 222 255 
197 222 255 
197 222 255 
197 222 255 
197 222 255 
197 222 255 
197 222 255 
197 222 255 
197 222 255 
197 222 255 
196 222 255 
196 222 255 
196 222 255 
196 222 255 
196 222 255 
196 222 255 
196 222 255 
196 222 255 
196 222 255 
196 222 255 
196 222 255 
196 222 255 
196 222 255 
196 222 255 
196 222 255 
196 222 255 
196 222 255 
196 222 255 
196 222 255 
196 222 255 
196 222 255 
196 222 255 
196 222 255 
196 221 255 
196 221 255 
196 221 255 
196 221 255 
195 221 255 
195 221 255 
195 221 255 
195 221 255 
195 221 255 
195 221 255 
195 221 255 
195 221 255 
195 221 255 
195 221 255 
195 221 255 
195 221 255 
195 221 255 
195 221 255 
195 221 255 
195 221 255 
195 221 255 
195 221 255 
195 221 255 
195 221 255 
195 221 255 
195 221 255 
195 221 255 
195 221 255 
195 221 255 
195 221 255 
195 221 255 
195 221 255 
195 221 255 
195 221 255 
195 221 255 
195 221 255 
195 221 255 
195 221 255 
195 221 255 
195 221 255 
195 221 255 
195 221 255 
196 221 255 
196 221 255 
196 221 255 
196 221 255 
196 222 255 
196 222 255 
196 222 255 
196 222 255 
196 222 255 
196 222 255 
196 222 255 
196 222 255 
196 222 255 
196 222 255 
196 222 255 
196 222 255 
196 222 255 
196 222 255 
196 222 255 
196 222 255 
196 222 255 
196 222 255 
196 222 255 
196 222 255 
196 222 255 
196 222 255 
196 222 255 
197 222 255 
197 222 255 
197 222 255 
197 222 255 
197 222 255 
197 222 255 
197 222 255 
197 222 255 
197 222 255 
197 222 255 
197 222 255 
197 222 255 
197 222 255 
197 222 255 
197 222 255 
197 222 255 
197 222 255 
197 222 255 
198 223 255 
198 223 255 
198 223 255 
198 223 255 
198 223 255 
198 223 255 
198 223 255 
198 223 255 
198 223 255 
198 223 255 
198 223 255 
198 223 255 
198 223 255 
198 223 255 
198 223 255 
198 223 255 
199 223 255 
199 223 255 
199 208 238 
198 158 181 
202 80 92 
199 0 0 
196 0 0 
201 0 0 
199 0 0 
204 0 0 
205 0 0 
203 0 0 
201 0 0 
202 0 0 
199 0 0 
197 0 0 
200 0 0 
197 0 0 
199 0 0 
205 0 0 
197 0 0 
202 0 0 
203 0 0 
203 0 0 
200 0 0 
205 0 0 
205 0 0 
201 0 0 
203 0 0 
206 0 0 
201 0 0 
202 0 0 
204 0 0 
201 0 0 
204 0 0 
203 0 0 
205 0 0 
203 0 0 
206 0 0 
201 0 0 
207 0 0 
206 0 0 
207 0 0 
204 0 0 
206 0 0 
207 0 0 
209 0 0 
206 0 0 
203 0 0 
210 0 0 
207 0 0 
205 0 0 
203 0 0 
206 0 0 
206 0 0 
207 0 0 
205 0 0 
207 0 0 
206 0 0 
208 0 0 
203 0 0 
205 0 0 
208 0 0 
206 0 0 
209 0 0 
206 0 0 
208 0 0 
210 0 0 
204 0 0 
208 0 0 
210 0 0 
210 0 0 
207 0 0 
208 0 0 
209 0 0 
209 0 0 
207 0 0 
206 0 0 
208 0 0 
209 0 0 
210 0 0 
209 0 0 
207 0 0 
207 0 0 
205 0 0 
210 0 0 
207 0 0 
209 0 0 
210 0 0 
209 0 0 
206 0 0 
207 0 0 
207 0 0 
208 0 0 
211 0 0 
209 0 0 
210 0 0 
208 0 0 
210 0 0 
208 0 0 
206 0 0 
206 0 0 
207 0 0 
211 0 0 
208 0 0 
208 0 0 
212 0 0 
210 0 0 
210 0 0 
211 0 0 
209 0 0 
210 0 0 
206 0 0 
208 0 0 
210 0 0 
212 0 0 
209 0 0 
208 0 0 
210 0 0 
207 0 0 
0 0 255 
0 0 255 
0 0 255 
0 0 255 
0 0 255 
0 0 255 
0 0 255 
0 0 255 
0 0 255 
0 0 255 
0 0 255 
0 0 255 
0 0 255 
0 0 255 
0 0 255 
0 0 255 
0 0 255 
0 0 255 
0 0 254 
0 0 255 
0 0 255 
0 0 254 
0 0 255 
0 0 255 
0 0 255 
0 0 254 
0 0 255 
0 0 255 
0 0 255 
0 0 255 
0 0 254 
0 0 255 
0 0 255 
0 0 254 
0 0 255 
0 0 255 
0 0 255 
0 0 255 
0 0 255 
0 0 254 
0 0 255 
0 0 253 
0 0 255 
0 0 255 
0 0 255 
0 0 254 
0 0 255 
0 0 255 
0 0 255 
0 0 255 
0 0 255 
0 0 254 
0 0 255 
0 0 254 
0 0 255 
0 0 254 
0 0 255 
0 0 253 
0 0 253 
0 0 255 
0 0 255 
0 0 254 
0 0 254 
0 0 254 
0 0 254 
0 0 254 
0 0 255 
0 0 254 
0 0 254 
0 0 254 
0 0 255 
0 0 255 
0 0 254 
0 0 255 
0 0 254 
0 0 253 
0 0 253 
0 0 253 
0 0 255 
0 0 255 
0 0 254 
0 0 254 
0 0 255 
0 0 254 
0 0 255 
0 0 254 
0 0 253 
0 0 255 
0 0 254 
0 0 252 
0 0 254 
0 0 254 
0 0 253 
0 0 255 
0 0 254 
0 0 253 
0 0 254 
0 0 254 
0 0 255 
0 0 249 
0 0 254 
0 0 254 
0 0 254 
0 0 250 
0 0 252 
0 0 250 
0 0 253 
0 0 254 
0 0 252 
0 0 253 
0 0 250 
0 0 254 
0 0 250 
0 0 254 
0 0 252 
0 0 253 
0 0 254 
19 22 255 
97 109 252 
159 178 255 
199 223 255 
199 223 255 
199 223 255 
198 223 255 
198 223 255 
198 223 255 
198 223 255 
198 223 255 
198 223 255 
198 223 255 
198 223 255 
198 223 255 
198 223 255 
198 223 255 
198 223 255 
198 223 255 
198 223 255 
198 223 255 
198 223 255 
197 222 255 
197 222 255 
197 222 255 
197 222 255 
197 222 255 
197 222 255 
197 222 255 
197 222 255 
197 222 255 
197 222 255 
197 222 255 
197 222 255 
197 222 255 
197 222 255 
197 222 255 
197 222 255 
197 222 255 
197 222 255 
196 222 255 
196 222 255 
196 222 255 
196 222 255 
196 222 255 
196 222 255 
196 222 255 
196 222 255 
196 222 255 
196 222 255 
196 222 255 
196 222 255 
196 222 255 
196 222 255 
196 222 255 
196 222 255 
196 222 255 
196 222 255 
196 222 255 
196 222 255 
196 222 255 
196 222 255 
196 222 255 
196 222 255 
196 222 255 
196 222 255 
196 222 255 
196 222 255 
196 221 255 
196 221 255 
196 221 255 
196 221 255 
196 221 255 
195 221 255 
195 221 255 
195 221 255 
195 221 255 
195 221 255 
195 221 255 
195 221 255 
195 221 255 
195 221 255 
195 221 255 
195 221 255 
195 221 255 
195 221 255 
195 221 255 
195 221 255 
195 221 255 
195 221 255 
195 221 255 
195 221 255 
195 221 255 
196 221 255 
196 221 255 
196 221 255 
196 221 255 
196 221 255 
196 222 255 
196 222 255 
196 222 255 
196 222 255 
196 222 255 
196 222 255 
196 222 255 
196 222 255 
196 222 255 
196 222 255 
196 222 255 
196 222 255 
196 222 255 
196 222 255 
196 222 255 
196 222 255 
196 222 255 
196 222 255 
196 222 255 
196 222 255 
196 222 255 
196 222 255 
196 222 255 
196 222 255 
196 222 255 
196 222 255 
196 222 255 
196 222 255 
197 222 255 
197 222 255 
197 222 255 
197 222 255 
197 222 255 
197 222 255 
197 222 255 
197 222 255 
197 222 255 
197 222 255 
197 222 255 
197 222 255 
197 222 255 
197 222 255 
197 222 255 
197 222 255 
197 222 255 
197 222 255 
197 223 255 
198 223 255 
198 223 255 
198 223 255 
198 223 255 
198 223 255 
198 223 255 
198 223 255 
198 223 255 
198 223 255 
198 223 255 
198 223 255 
198 223 255 
198 223 255 
198 223 255 
198 223 255 
199 223 255 
199 223 255 
199 222 254 
199 176 201 
201 107 122 
197 31 36 
202 0 0 
203 0 0 
202 0 0 
197 0 0 
199 0 0 
205 0 0 
203 0 0 
203 0 0 
204 0 0 
202 0 0 
198 0 0 
203 0 0 
201 0 0 
208 0 0 
204 0 0 
202 0 0 
208 0 0 
199 0 0 
202 0 0 
196 0 0 
201 0 0 
207 0 0 
206 0 0 
204 0 0 
201 0 0 
206 0 0 
206 0 0 
202 0 0 
205 0 0 
202 0 0 
207 0 0 
204 0 0 
201 0 0 
204 0 0 
207 0 0 
205 0 0 
208 0 0 
203 0 0 
207 0 0 
203 0 0 
205 0 0 
206 0 0 
206 0 0 
206 0 0 
206 0 0 
207 0 0 
212 0 0 
205 0 0 
208 0 0 
208 0 0 
205 0 0 
207 0 0 
207 0 0 
207 0 0 
209 0 0 
207 0 0 
210 0 0 
208 0 0 
207 0 0 
205 0 0 
209 0 0 
206 0 0 
208 0 0 
204 0 0 
207 0 0 
210 0 0 
207 0 0 
207 0 0 
207 0 0 
209 0 0 
208 0 0 
209 0 0 
206 0 0 
209 0 0 
205 0 0 
209 0 0 
209 0 0 
210 0 0 
210 0 0 
209 0 0 
207 0 0 
209 0 0 
207 0 0 
211 0 0 
203 0 0 
206 0 0 
208 0 0 
209 0 0 
208 0 0 
210 0 0 
215 0 0 
204 0 0 
210 0 0 
206 0 0 
208 0 0 
209 0 0 
210 0 0 
212 0 0 
208 0 0 
210 0 0 
208 0 0 
211 0 0 
209 0 0 
209 0 0 
209 0 0 
210 0 0 
208 0 0 
209 0 0 
206 0 0 
209 0 0 
211 0 0 
210 0 0 
210 0 0 
210 0 0 
208 0 0 
208 0 0 
210 0 0 
0 0 255 
0 0 255 
0 0 255 
0 0 255 
0 0 255 
0 0 255 
0 0 255 
0 0 255 
0 0 255 
0 0 255 
0 0 255 
0 0 255 
0 0 255 
0 0 255 
0 0 255 
0 0 255 
0 0 255 
0 0 255 
0 0 255 
0 0 255 
0 0 255 
0 0 254 
0 0 255 
0 0 255 
0 0 255 
0 0 255 
0 0 255 
0 0 255 
0 0 255 
0 0 255 
0 0 254 
0 0 255 
0 0 255 
0 0 255 
0 0 255 
0 0 255 
0 0 255 
0 0 254 
0 0 254 
0 0 255 
0 0 255 
0 0 255 
0 0 255 
0 0 255 
0 0 255 
0 0 255 
0 0 255 
0 0 255 
0 0 255 
0 0 254 
0 0 254 
0 0 255 
0 0 254 
0 0 254 
0 0 255 
0 0 255 
0 0 254 
0 0 255 
0 0 255 
0 0 253 
0 0 254 
0 0 255 
0 0 255 
0 0 252 
0 0 254 
0 0 253 
0 0 255 
0 0 254 
0 0 254 
0 0 254 
0 0 254 
0 0 253 
0 0 254 
0 0 254 
0 0 253 
0 0 255 
0 0 254 
0 0 254 
0 0 254 
0 0 254 
0 0 254 
0 0 254 
0 0 255 
0 0 255 
0 0 255 
0 0 254 
0 0 250 
0 0 253 
0 0 250 
0 0 253 
0 0 253 
0 0 255 
0 0 255 
0 0 252 
0 0 252 
0 0 252 
0 0 253 
0 0 249 
0 0 253 
0 0 254 
0 0 254 
0 0 254 
0 0 252 
0 0 254 
0 0 249 
0 0 252 
0 0 252 
0 0 252 
0 0 254 
0 0 254 
0 0 254 
0 0 250 
0 0 249 
0 0 253 
0 0 252 
0 0 254 
0 0 252 
0 0 253 
0 0 254 
0 0 250 
59 67 254 
140 158 254 
191 214 255 
199 223 255 
199 223 255 
198 223 255 
198 223 255 
198 223 255 
198 223 255 
198 223 255 
198 223 255 
198 223 255 
198 223 255 
198 223 255 
198 223 255 
198 223 255 
198 223 255 
198 223 255 
198 223 255 
198 223 255 
198 223 255 
197 223 255 
197 222 255 
197 222 255 
197 222 255 
197 222 255 
197 222 255 
197 222 255 
197 222 255 
197 222 255 
197 222 255 
197 222 255 
197 222 255 
197 222 255 
197 222 255 
197 222 255 
197 222 255 
197 222 255 
197 222 255 
197 222 255 
197 222 255 
196 222 255 
196 222 255 
196 222 255 
196 222 255 
196 222 255 
196 222 255 
196 222 255 
196 222 255 
196 222 255 
196 222 255 
196 222 255 
196 222 255 
196 222 255 
196 222 255 
196 222 255 
196 222 255 
196 222 255 
196 222 255 
196 222 255 
196 222 255 
196 222 255 
196 222 255 
196 222 255 
196 222 255 
196 222 255 
196 222 255 
196 222 255 
196 222 255 
196 222 255 
196 222 255 
196 222 255 
196 222 255 
196 222 255 
196 222 255 
196 222 255 
196 222 255 
196 222 255 
196 222 255 
196 222 255 
196 222 255 
196 222 255 
196 222 255 
196 222 255 
196 222 255 
196 222 255 
196 222 255 
196 222 255 
196 222 255 
196 222 255 
196 222 255 
196 222 255 
196 222 255 
196 222 255 
196 222 255 
196 222 255 
196 222 255 
196 222 255 
196 222 255 
196 222 255 
196 222 255 
196 222 255 
196 222 255 
196 222 255 
196 222 255 
196 222 255 
196 222 255 
196 222 255 
196 222 255 
196 222 255 
196 222 255 
196 222 255 
196 222 255 
196 222 255 
196 222 255 
196 222 255 
196 222 255 
196 222 255 
196 222 255 
197 222 255 
197 222 255 
197 222 255 
197 222 255 
197 222 255 
197 222 255 
197 222 255 
197 222 255 
197 222 255 
197 222 255 
197 222 255 
197 222 255 
197 222 255 
197 222 255 
197 222 255 
197 222 255 
197 222 255 
197 222 255 
197 222 255 
197 223 255 
198 223 255 
198 223 255 
198 223 255 
198 223 255 
198 223 255 
198 223 255 
198 223 255 
198 223 255 
198 223 255 
198 223 255 
198 223 255 
198 223 255 
198 223 255 
198 223 255 
198 223 255 
198 223 255 
199 223 255 
199 223 255 
198 213 244 
197 150 171 
199 77 88 
196 0 0 
200 0 0 
200 0 0 
202 0 0 
200 0 0 
206 0 0 
203 0 0 
201 0 0 
200 0 0 
197 0 0 
202 0 0 
197 0 0 
202 0 0 
201 0 0 
201 0 0 
201 0 0 
202 0 0 
198 0 0 
204 0 0 
203 0 0 
204 0 0 
207 0 0 
205 0 0 
208 0 0 
204 0 0 
206 0 0 
203 0 0 
206 0 0 
204 0 0 
204 0 0 
209 0 0 
206 0 0 
203 0 0 
205 0 0 
205 0 0 
208 0 0 
208 0 0 
207 0 0 
202 0 0 
210 0 0 
205 0 0 
206 0 0 
206 0 0 
206 0 0 
205 0 0 
204 0 0 
209 0 0 
210 0 0 
206 0 0 
211 0 0 
208 0 0 
205 0 0 
205 0 0 
206 0 0 
206 0 0 
207 0 0 
208 0 0 
207 0 0 
207 0 0 
205 0 0 
205 0 0 
207 0 0 
209 0 0 
204 0 0 
205 0 0 
208 0 0 
208 0 0 
208 0 0 
210 0 0 
207 0 0 
209 0 0 
209 0 0 
208 0 0 
206 0 0 
206 0 0 
211 0 0 
208 0 0 
208 0 0 
207 0 0 
208 0 0 
208 0 0 
210 0 0 
206 0 0 
205 0 0 
204 0 0 
208 0 0 
212 0 0 
207 0 0 
212 0 0 
210 0 0 
210 0 0 
210 0 0 
205 0 0 
209 0 0 
205 0 0 
211 0 0 
208 0 0 
209 0 0 
210 0 0 
209 0 0 
208 0 0 
210 0 0 
211 0 0 
210 0 0 
210 0 0 
207 0 0 
209 0 0 
207 0 0 
210 0 0 
211 0 0 
211 0 0 
211 0 0 
210 0 0 
214 0 0 
208 0 0 
208 0 0 
209 0 0 
209 0 0 
212 0 0 
210 0 0 
0 0 255 
0 0 255 
0 0 255 
0 0 255 
0 0 255 
0 0 255 
0 0 255 
0 0 255 
0 0 255 
0 0 255 
0 0 255 
0 0 255 
0 0 255 
0 0 255 
0 0 254 
0 0 255 
0 0 255 
0 0 255 
0 0 255 
0 0 255 
0 0 254 
0 0 255 
0 0 255 
0 0 254 
0 0 255 
0 0 255 
0 0 255 
0 0 255 
0 0 255 
0 0 253 
0 0 255 
0 0 255 
0 0 255 
0 0 255 
0 0 255 
0 0 255 
0 0 255 
0 0 255 
0 0 255 
0 0 254 
0 0 254 
0 0 253 
0 0 255 
0 0 255 
0 0 255 
0 0 254 
0 0 255 
0 0 255 
0 0 255 
0 0 255 
0 0 254 
0 0 254 
0 0 255 
0 0 255 
0 0 254 
0 0 253 
0 0 255 
0 0 254 
0 0 255 
0 0 255 
0 0 255 
0 0 255 
0 0 255 
0 0 254 
0 0 254 
0 0 255 
0 0 255 
0 0 255 
0 0 253 
0 0 254 
0 0 254 
0 0 253 
0 0 254 
0 0 254 
0 0 255 
0 0 254 
0 0 255 
0 0 255 
0 0 254 
0 0 254 
0 0 250 
0 0 254 
0 0 254 
0 0 255 
0 0 254 
0 0 255 
0 0 249 
0 0 250 
0 0 252 
0 0 254 
0 0 252 
0 0 254 
0 0 253 
0 0 252 
0 0 254 
0 0 255 
0 0 254 
0 0 253 
0 0 254 
0 0 249 
0 0 252 
0 0 253 
0 0 250 
0 0 253 
0 0 254 
0 0 250 
0 0 253 
0 0 249 
0 0 254 
0 0 255 
0 0 249 
0 0 253 
0 0 252 
0 0 252 
0 0 250 
0 0 254 
0 0 252 
0 0 254 
0 0 252 
0 0 254 
0 0 254 
0 0 246 
19 22 250 
112 126 255 
181 203 254 
199 223 255 
199 223 255 
199 223 255 
198 223 255 
198 223 255 
198 223 255 
198 223 255 
198 223 255 
198 223 255 
198 223 255 
198 223 255 
198 223 255 
198 223 255 
198 223 255 
198 223 255 
198 223 255 
198 223 255 
198 223 255 
198 223 255 
197 223 255 
197 222 255 
197 222 255 
197 222 255 
197 222 255 
197 222 255 
197 222 255 
197 222 255 
197 222 255 
197 222 255 
197 222 255 
197 222 255 
197 222 255 
197 222 255 
197 222 255 
197 222 255 
197 222 255 
197 222 255 
197 222 255 
197 222 255 
196 222 255 
196 222 255 
196 222 255 
196 222 255 
196 222 255 
196 222 255 
196 222 255 
196 222 255 
196 222 255 
196 222 255 
196 222 255 
196 222 255 
196 222 255 
196 222 255 
196 222 255 
196 222 255 
196 222 255 
196 222 255 
196 222 255 
196 222 255 
196 222 255 
196 222 255 
196 222 255 
196 222 255 
196 222 255 
196 222 255 
196 222 255 
196 222 255 
196 222 255 
196 222 255 
196 222 255 
196 222 255 
196 222 255 
196 222 255 
196 222 255 
196 222 255 
196 222 255 
196 222 255 
196 222 255 
196 222 255 
196 222 255 
196 222 255 
196 222 255 
196 222 255 
196 222 255 
196 222 255 
196 222 255 
196 222 255 
196 222 255 
196 222 255 
196 222 255 
196 222 255 
196 222 255 
196 222 255 
196 222 255 
196 222 255 
196 222 255 
196 222 255 
196 222 255 
196 222 255 
196 222 255 
196 222 255 
196 222 255 
196 222 255 
196 222 255 
196 222 255 
196 222 255 
196 222 255 
196 222 255 
196 222 255 
196 222 255 
197 222 255 
197 222 255 
197 222 255 
197 222 255 
197 222 255 
197 222 255 
197 222 255 
197 222 255 
197 222 255 
197 222 255 
197 222 255 
197 222 255 
197 222 255 
197 222 255 
197 222 255 
197 222 255 
197 222 255 
197 222 255 
197 222 255 
197 222 255 
197 223 255 
198 223 255 
198 223 255 
198 223 255 
198 223 255 
198 223 255 
198 223 255 
198 223 255 
198 223 255 
198 223 255 
198 223 255 
198 223 255 
198 223 255 
198 223 255 
198 223 255 
198 223 255 
198 223 255 
199 223 255 
199 223 255 
199 223 255 
199 196 224 
198 148 169 
201 31 36 
201 0 0 
199 0 0 
197 0 0 
201 0 0 
194 0 0 
200 0 0 
201 0 0 
204 0 0 
199 0 0 
203 0 0 
201 0 0 
200 0 0 
199 0 0 
203 0 0 
203 0 0 
200 0 0 
199 0 0 
200 0 0 
203 0 0 
202 0 0 
201 0 0 
203 0 0 
206 0 0 
204 0 0 
203 0 0 
204 0 0 
204 0 0 
208 0 0 
210 0 0 
205 0 0 
207 0 0 
206 0 0 
205 0 0 
208 0 0 
203 0 0 
209 0 0 
208 0 0 
206 0 0 
207 0 0 
205 0 0 
203 0 0 
206 0 0 
206 0 0 
207 0 0 
206 0 0 
204 0 0 
207 0 0 
204 0 0 
207 0 0 
206 0 0 
207 0 0 
204 0 0 
205 0 0 
208 0 0 
203 0 0 
206 0 0 
210 0 0 
204 0 0 
207 0 0 
210 0 0 
209 0 0 
205 0 0 
204 0 0 
209 0 0 
210 0 0 
209 0 0 
208 0 0 
210 0 0 
209 0 0 
206 0 0 
212 0 0 
206 0 0 
208 0 0 
211 0 0 
211 0 0 
212 0 0 
208 0 0 
209 0 0 
208 0 0 
206 0 0 
209 0 0 
209 0 0 
209 0 0 
210 0 0 
211 0 0 
208 0 0 
207 0 0 
208 0 0 
209 0 0 
210 0 0 
211 0 0 
207 0 0 
208 0 0 
214 0 0 
210 0 0 
210 0 0 
208 0 0 
211 0 0 
210 0 0 
208 0 0 
207 0 0 
210 0 0 
211 0 0 
209 0 0 
212 0 0 
209 0 0 
211 0 0 
209 0 0 
210 0 0 
208 0 0 
208 0 0 
208 0 0 
210 0 0 
207 0 0 
213 0 0 
210 0 0 
207 0 0 
209 0 0 
206 0 0 
209 0 0 
206 0 0 
210 0 0 
0 0 255 
0 0 255 
0 0 255 
0 0 255 
0 0 255 
0 0 255 
0 0 255 
0 0 255 
0 0 255 
0 0 255 
0 0 255 
0 0 255 
0 0 255 
0 0 255 
0 0 255 
0 0 255 
0 0 255 
0 0 255 
0 0 255 
0 0 255 
0 0 255 
0 0 255 
0 0 255 
0 0 255 
0 0 255 
0 0 255 
0 0 254 
0 0 255 
0 0 255 
0 0 254 
0 0 255 
0 0 255 
0 0 255 
0 0 254 
0 0 255 
0 0 255 
0 0 255 
0 0 254 
0 0 255 
0 0 254 
0 0 255 
0 0 255 
0 0 255 
0 0 254 
0 0 255 
0 0 255 
0 0 253 
0 0 254 
0 0 254 
0 0 254 
0 0 255 
0 0 254 
0 0 252 
0 0 254 
0 0 255 
0 0 255 
0 0 254 
0 0 254 
0 0 255 
0 0 255 
0 0 253 
0 0 255 
0 0 253 
0 0 255 
0 0 255 
0 0 254 
0 0 255 
0 0 254 
0 0 254 
0 0 255 
0 0 255 
0 0 254 
0 0 254 
0 0 255 
0 0 254 
0 0 254 
0 0 254 
0 0 254 
0 0 253 
0 0 254 
0 0 252 
0 0 253 
0 0 255 
0 0 254 
0 0 253 
0 0 254 
0 0 255 
0 0 255 
0 0 253 
0 0 253 
0 0 254 
0 0 254 
0 0 254 
0 0 250 
0 0 254 
0 0 253 
0 0 254 
0 0 255 
0 0 250 
0 0 249 
0 0 253 
0 0 254 
0 0 255 
0 0 254 
0 0 253 
0 0 255 
0 0 255 
0 0 252 
0 0 255 
0 0 253 
0 0 255 
0 0 253 
0 0 254 
0 0 253 
0 0 255 
0 0 249 
0 0 252 
0 0 249 
0 0 253 
0 0 253 
0 0 253 
0 0 252 
0 0 254 
0 0 254 
0 0 249 
91 102 254 
160 180 253 
198 222 255 
199 223 255 
199 223 255 
198 223 255 
198 223 255 
198 223 255 
198 223 255 
198 223 255 
198 223 255 
198 223 255 
198 223 255 
198 223 255 
198 223 255 
198 223 255 
198 223 255 
198 223 255 
198 223 255 
198 223 255 
198 223 255 
198 223 255 
197 223 255 
197 222 255 
197 222 255 
197 222 255 
197 222 255 
197 222 255 
197 222 255 
197 222 255 
197 222 255 
197 222 255 
197 222 255 
197 222 255 
197 222 255 
197 222 255 
197 222 255 
197 222 255 
197 222 255 
197 222 255 
197 222 255 
197 222 255 
197 222 255 
197 222 255 
196 222 255 
196 222 255 
196 222 255 
196 222 255 
196 222 255 
196 222 255 
196 222 255 
196 222 255 
196 222 255 
196 222 255 
196 222 255 
196 222 255 
196 222 255 
196 222 255 
196 222 255 
196 222 255 
196 222 255 
196 222 255 
196 222 255 
196 222 255 
196 222 255 
196 222 255 
196 222 255 
196 222 255 
196 222 255 
196 222 255 
196 222 255 
196 222 255 
196 222 255 
196 222 255 
196 222 255 
196 222 255 
196 222 255 
196 222 255 
196 222 255 
196 222 255 
196 222 255 
196 222 255 
196 222 255 
196 222 255 
196 222 255 
196 222 255 
196 222 255 
196 222 255 
196 222 255 
196 222 255 
196 222 255 
196 222 255 
196 222 255 
196 222 255 
196 222 255 
196 222 255 
196 222 255 
196 222 255 
196 222 255 
196 222 255 
196 222 255 
196 222 255 
196 222 255 
196 222 255 
196 222 255 
196 222 255 
197 222 255 
197 222 255 
197 222 255 
197 222 255 
197 222 255 
197 222 255 
197 222 255 
197 222 255 
197 222 255 
197 222 255 
197 222 255 
197 222 255 
197 222 255 
197 222 255 
197 222 255 
197 222 255 
197 222 255 
197 222 255 
197 222 255 
197 222 255 
197 222 255 
197 223 255 
198 223 255 
198 223 255 
198 223 255 
198 223 255 
198 223 255 
198 223 255 
198 223 255 
198 223 255 
198 223 255 
198 223 255 
198 223 255 
198 223 255 
198 223 255 
198 223 255 
198 223 255 
198 223 255 
198 223 255 
199 223 255 
199 223 255 
199 222 254 
200 177 203 
199 111 128 
198 0 0 
200 0 0 
201 0 0 
202 0 0 
201 0 0 
201 0 0 
202 0 0 
199 0 0 
200 0 0 
200 0 0 
199 0 0 
201 0 0 
204 0 0 
204 0 0 
205 0 0 
202 0 0 
204 0 0 
205 0 0 
203 0 0 
201 0 0 
204 0 0 
202 0 0 
200 0 0 
201 0 0 
205 0 0 
204 0 0 
202 0 0 
204 0 0 
205 0 0 
204 0 0 
204 0 0 
203 0 0 
203 0 0 
208 0 0 
205 0 0 
206 0 0 
203 0 0 
207 0 0 
205 0 0 
209 0 0 
200 0 0 
205 0 0 
206 0 0 
207 0 0 
204 0 0 
202 0 0 
204 0 0 
207 0 0 
210 0 0 
206 0 0 
207 0 0 
209 0 0 
210 0 0 
206 0 0 
206 0 0 
208 0 0 
207 0 0 
208 0 0 
211 0 0 
210 0 0 
210 0 0 
206 0 0 
207 0 0 
208 0 0 
208 0 0 
209 0 0 
209 0 0 
211 0 0 
211 0 0 
207 0 0 
209 0 0 
209 0 0 
209 0 0 
207 0 0 
208 0 0 
206 0 0 
210 0 0 
206 0 0 
208 0 0 
208 0 0 
208 0 0 
213 0 0 
211 0 0 
207 0 0 
210 0 0 
205 0 0 
211 0 0 
207 0 0 
209 0 0 
210 0 0 
208 0 0 
209 0 0 
209 0 0 
211 0 0 
214 0 0 
209 0 0 
212 0 0 
207 0 0 
211 0 0 
209 0 0 
206 0 0 
211 0 0 
207 0 0 
211 0 0 
207 0 0 
207 0 0 
212 0 0 
211 0 0 
210 0 0 
210 0 0 
209 0 0 
211 0 0 
212 0 0 
210 0 0 
211 0 0 
207 0 0 
211 0 0 
209 0 0 
210 0 0 
212 0 0 
210 0 0 
212 0 0 
207 0 0 
209 0 0 
206 0 0 
0 0 255 
0 0 255 
0 0 255 
0 0 255 
0 0 255 
0 0 255 
0 0 255 
0 0 255 
0 0 254 
0 0 254 
0 0 255 
0 0 255 
0 0 254 
0 0 253 
0 0 255 
0 0 255 
0 0 255 
0 0 255 
0 0 255 
0 0 255 
0 0 254 
0 0 254 
0 0 255 
0 0 255 
0 0 255 
0 0 255 
0 0 255 
0 0 255 
0 0 255 
0 0 254 
0 0 255 
0 0 255 
0 0 255 
0 0 255 
0 0 254 
0 0 255 
0 0 254 
0 0 255 
0 0 254 
0 0 255 
0 0 255 
0 0 255 
0 0 255 
0 0 255 
0 0 254 
0 0 255 
0 0 254 
0 0 255 
0 0 255 
0 0 255 
0 0 255 
0 0 255 
0 0 255 
0 0 254 
0 0 255 
0 0 254 
0 0 254 
0 0 255 
0 0 253 
0 0 255 
0 0 255 
0 0 254 
0 0 254 
0 0 255 
0 0 255 
0 0 252 
0 0 255 
0 0 255 
0 0 254 
0 0 253 
0 0 253 
0 0 252 
0 0 254 
0 0 253 
0 0 254 
0 0 254 
0 0 254 
0 0 254 
0 0 254 
0 0 253 
0 0 255 
0 0 254 
0 0 254 
0 0 255 
0 0 255 
0 0 254 
0 0 253 
0 0 253 
0 0 254 
0 0 253 
0 0 255 
0 0 250 
0 0 255 
0 0 255 
0 0 250 
0 0 252 
0 0 253 
0 0 249 
0 0 249 
0 0 249 
0 0 250 
0 0 254 
0 0 255 
0 0 253 
0 0 253 
0 0 249 
0 0 253 
0 0 253 
0 0 253 
0 0 252 
0 0 250 
0 0 254 
0 0 252 
0 0 254 
0 0 253 
0 0 254 
0 0 249 
0 0 255 
0 0 249 
0 0 252 
0 0 252 
0 0 250 
0 0 253 
0 0 250 
0 0 253 
0 0 253 
0 0 250 
86 97 254 
158 177 254 
198 222 255 
199 223 255 
199 223 255 
199 223 255 
198 223 255 
198 223 255 
198 223 255 
198 223 255 
198 223 255 
198 223 255 
198 223 255 
198 223 255 
198 223 255 
198 223 255 
198 223 255 
198 223 255 
198 223 255 
198 223 255 
198 223 255 
198 223 255 
198 223 255 
197 223 255 
197 222 255 
197 222 255 
197 222 255 
197 222 255 
197 222 255 
197 222 255 
197 222 255 
197 222 255 
197 222 255 
197 222 255 
197 222 255 
197 222 255 
197 222 255 
197 222 255 
197 222 255 
197 222 255 
197 222 255 
197 222 255 
197 222 255 
197 222 255 
197 222 255 
197 222 255 
197 222 255 
196 222 255 
196 222 255 
196 222 255 
196 222 255 
196 222 255 
196 222 255 
196 222 255 
196 222 255 
196 222 255 
196 222 255 
196 222 255 
196 222 255 
196 222 255 
196 222 255 
196 222 255 
196 222 255 
196 222 255 
196 222 255 
196 222 255 
196 222 255 
196 222 255 
196 222 255 
196 222 255 
196 222 255 
196 222 255 
196 222 255 
196 222 255 
196 222 255 
196 222 255 
196 222 255 
196 222 255 
196 222 255 
196 222 255 
196 222 255 
196 222 255 
196 222 255 
196 222 255 
196 222 255 
196 222 255 
196 222 255 
196 222 255 
196 222 255 
196 222 255 
196 222 255 
196 222 255 
196 222 255 
196 222 255 
196 222 255 
196 222 255 
196 222 255 
196 222 255 
196 222 255 
197 222 255 
197 222 255 
197 222 255 
197 222 255 
197 222 255 
197 222 255 
197 222 255 
197 222 255 
197 222 255 
197 222 255 
197 222 255 
197 222 255 
197 222 255 
197 222 255 
197 222 255 
197 222 255 
197 222 255 
197 222 255 
197 222 255 
197 222 255 
197 222 255 
197 222 255 
197 222 255 
197 223 255 
198 223 255 
198 223 255 
198 223 255 
198 223 255 
198 223 255 
198 223 255 
198 223 255 
198 223 255 
198 223 255 
198 223 255 
198 223 255 
198 223 255 
198 223 255 
198 223 255 
198 223 255 
198 223 255 
198 223 255 
199 223 255 
199 223 255 
199 223 255 
199 219 250 
197 170 194 
201 59 67 
199 0 0 
206 0 0 
196 0 0 
201 0 0 
203 0 0 
203 0 0 
200 0 0 
199 0 0 
203 0 0 
204 0 0 
200 0 0 
201 0 0 
201 0 0 
203 0 0 
201 0 0 
203 0 0 
196 0 0 
204 0 0 
203 0 0 
205 0 0 
202 0 0 
203 0 0 
202 0 0 
202 0 0 
201 0 0 
205 0 0 
206 0 0 
205 0 0 
203 0 0 
204 0 0 
201 0 0 
205 0 0 
204 0 0 
210 0 0 
207 0 0 
205 0 0 
202 0 0 
202 0 0 
204 0 0 
206 0 0 
207 0 0 
204 0 0 
204 0 0 
206 0 0 
208 0 0 
206 0 0 
208 0 0 
207 0 0 
206 0 0 
207 0 0 
204 0 0 
209 0 0 
206 0 0 
205 0 0 
204 0 0 
206 0 0 
210 0 0 
207 0 0 
208 0 0 
209 0 0 
205 0 0 
210 0 0 
207 0 0 
207 0 0 
207 0 0 
209 0 0 
209 0 0 
207 0 0 
207 0 0 
208 0 0 
209 0 0 
211 0 0 
210 0 0 
209 0 0 
207 0 0 
209 0 0 
213 0 0 
210 0 0 
207 0 0 
207 0 0 
210 0 0 
211 0 0 
207 0 0 
207 0 0 
208 0 0 
211 0 0 
208 0 0 
209 0 0 
211 0 0 
210 0 0 
210 0 0 
211 0 0 
209 0 0 
211 0 0 
208 0 0 
208 0 0 
211 0 0 
209 0 0 
207 0 0 
210 0 0 
213 0 0 
208 0 0 
206 0 0 
207 0 0 
210 0 0 
211 0 0 
207 0 0 
209 0 0 
210 0 0 
211 0 0 
213 0 0 
210 0 0 
209 0 0 
211 0 0 
212 0 0 
209 0 0 
210 0 0 
211 0 0 
210 0 0 
208 0 0 
210 0 0 
214 0 0 
208 0 0 
208 0 0 
209 0 0 
210 0 0 
210 0 0 
0 0 255 
0 0 255 
0 0 254 
0 0 254 
0 0 255 
0 0 255 
0 0 255 
0 0 255 
0 0 255 
0 0 255 
0 0 255 
0 0 254 
0 0 255 
0 0 255 
0 0 255 
0 0 255 
0 0 255 
0 0 255 
0 0 255 
0 0 255 
0 0 255 
0 0 254 
0 0 255 
0 0 254 
0 0 255 
0 0 255 
0 0 255 
0 0 254 
0 0 255 
0 0 255 
0 0 254 
0 0 255 
0 0 255 
0 0 255 
0 0 255 
0 0 255 
0 0 255 
0 0 255 
0 0 255 
0 0 255 
0 0 255 
0 0 254 
0 0 255 
0 0 254 
0 0 255 
0 0 255 
0 0 255 
0 0 254 
0 0 255 
0 0 255 
0 0 254 
0 0 254 
0 0 254 
0 0 255 
0 0 254 
0 0 255 
0 0 255 
0 0 255 
0 0 254 
0 0 253 
0 0 254 
0 0 254 
0 0 254 
0 0 255 
0 0 255 
0 0 255 
0 0 254 
0 0 255 
0 0 253 
0 0 254 
0 0 253 
0 0 253 
0 0 255 
0 0 255 
0 0 254 
0 0 254 
0 0 254 
0 0 254 
0 0 254 
0 0 254 
0 0 254 
0 0 254 
0 0 253 
0 0 254 
0 0 255 
0 0 255 
0 0 249 
0 0 250 
0 0 255 
0 0 254 
0 0 254 
0 0 254 
0 0 250 
0 0 250 
0 0 253 
0 0 254 
0 0 255 
0 0 252 
0 0 248 
0 0 255 
0 0 255 
0 0 254 
0 0 254 
0 0 252 
0 0 253 
0 0 253 
0 0 254 
0 0 249 
0 0 253 
0 0 253 
0 0 255 
0 0 253 
0 0 254 
0 0 253 
0 0 252 
0 0 254 
0 0 250 
0 0 252 
0 0 249 
0 0 253 
0 0 254 
0 0 254 
0 0 253 
0 0 255 
0 0 253 
0 0 249 
0 0 254 
0 0 249 
0 0 253 
77 86 253 
146 164 255 
197 221 255 
199 223 255 
199 223 255 
199 223 255 
199 223 255 
198 223 255 
198 223 255 
198 223 255 
198 223 255 
198 223 255 
198 223 255 
198 223 255 
198 223 255 
198 223 255 
198 223 255 
198 223 255 
198 223 255 
198 223 255 
198 223 255 
198 223 255 
198 223 255 
198 223 255 
198 223 255 
197 222 255 
197 222 255 
197 222 255 
197 222 255 
197 222 255 
197 222 255 
197 222 255 
197 222 255 
197 222 255 
197 222 255 
197 222 255 
197 222 255 
197 222 255 
197 222 255 
197 222 255 
197 222 255 
197 222 255 
197 222 255 
197 222 255 
197 222 255 
197 222 255 
197 222 255 
197 222 255 
197 222 255 
197 222 255 
197 222 255 
197 222 255 
196 222 255 
196 222 255 
196 222 255 
196 222 255 
196 222 255 
196 222 255 
196 222 255 
196 222 255 
196 222 255 
196 222 255 
196 222 255 
196 222 255 
196 222 255 
196 222 255 
196 222 255 
196 222 255 
196 222 255 
196 222 255 
196 222 255 
196 222 255 
196 222 255 
196 222 255 
196 222 255 
196 222 255 
196 222 255 
196 222 255 
196 222 255 
196 222 255 
196 222 255 
196 222 255 
196 222 255 
196 222 255 
196 222 255 
196 222 255 
196 222 255 
196 222 255 
196 222 255 
196 222 255 
196 222 255 
197 222 255 
197 222 255 
197 222 255 
197 222 255 
197 222 255 
197 222 255 
197 222 255 
197 222 255 
197 222 255 
197 222 255 
197 222 255 
197 222 255 
197 222 255 
197 222 255 
197 222 255 
197 222 255 
197 222 255 
197 222 255 
197 222 255 
197 222 255 
197 222 255 
197 222 255 
197 222 255 
197 222 255 
197 222 255 
197 222 255 
198 223 255 
198 223 255 
198 223 255 
198 223 255 
198 223 255 
198 223 255 
198 223 255 
198 223 255 
198 223 255 
198 223 255 
198 223 255 
198 223 255 
198 223 255 
198 223 255 
198 223 255 
198 223 255 
198 223 255 
198 223 255 
199 223 255 
199 223 255 
199 223 255 
199 223 255 
198 219 250 
197 159 182 
195 50 57 
196 0 0 
200 0 0 
200 0 0 
200 0 0 
198 0 0 
202 0 0 
200 0 0 
193 0 0 
201 0 0 
203 0 0 
200 0 0 
204 0 0 
201 0 0 
197 0 0 
206 0 0 
200 0 0 
197 0 0 
209 0 0 
200 0 0 
203 0 0 
202 0 0 
202 0 0 
200 0 0 
208 0 0 
205 0 0 
206 0 0 
206 0 0 
206 0 0 
202 0 0 
202 0 0 
203 0 0 
207 0 0 
204 0 0 
205 0 0 
205 0 0 
202 0 0 
206 0 0 
207 0 0 
208 0 0 
207 0 0 
210 0 0 
204 0 0 
201 0 0 
207 0 0 
205 0 0 
206 0 0 
204 0 0 
204 0 0 
205 0 0 
204 0 0 
206 0 0 
206 0 0 
204 0 0 
210 0 0 
209 0 0 
207 0 0 
205 0 0 
206 0 0 
208 0 0 
206 0 0 
208 0 0 
208 0 0 
202 0 0 
209 0 0 
207 0 0 
202 0 0 
208 0 0 
207 0 0 
209 0 0 
205 0 0 
211 0 0 
210 0 0 
207 0 0 
206 0 0 
211 0 0 
208 0 0 
208 0 0 
210 0 0 
205 0 0 
208 0 0 
208 0 0 
207 0 0 
210 0 0 
208 0 0 
210 0 0 
211 0 0 
204 0 0 
208 0 0 
210 0 0 
211 0 0 
209 0 0 
210 0 0 
211 0 0 
210 0 0 
210 0 0 
211 0 0 
210 0 0 
208 0 0 
208 0 0 
208 0 0 
210 0 0 
206 0 0 
207 0 0 
211 0 0 
209 0 0 
212 0 0 
211 0 0 
208 0 0 
212 0 0 
209 0 0 
212 0 0 
211 0 0 
212 0 0 
212 0 0 
211 0 0 
212 0 0 
209 0 0 
213 0 0 
209 0 0 
209 0 0 
208 0 0 
211 0 0 
211 0 0 
210 0 0 
210 0 0 
208 0 0 
212 0 0 
211 0 0 
208 0 0 
0 0 255 
0 0 255 
0 0 255 
0 0 255 
0 0 255 
0 0 255 
0 0 255 
0 0 255 
0 0 254 
0 0 254 
0 0 255 
0 0 255 
0 0 255 
0 0 255 
0 0 255 
0 0 255 
0 0 255 
0 0 255 
0 0 255 
0 0 255 
0 0 255 
0 0 255 
0 0 255 
0 0 255 
0 0 255 
0 0 255 
0 0 255 
0 0 254 
0 0 255 
0 0 255 
0 0 255 
0 0 255 
0 0 254 
0 0 255 
0 0 255 
0 0 254 
0 0 255 
0 0 255 
0 0 255 
0 0 255 
0 0 255 
0 0 255 
0 0 255 
0 0 254 
0 0 255 
0 0 255 
0 0 253 
0 0 254 
0 0 254 
0 0 255 
0 0 252 
0 0 253 
0 0 255 
0 0 254 
0 0 253 
0 0 254 
0 0 255 
0 0 255 
0 0 253 
0 0 255 
0 0 252 
0 0 253 
0 0 253 
0 0 254 
0 0 254 
0 0 255 
0 0 255 
0 0 252 
0 0 255 
0 0 252 
0 0 253 
0 0 254 
0 0 254 
0 0 253 
0 0 254 
0 0 255 
0 0 254 
0 0 255 
0 0 254 
0 0 254 
0 0 252 
0 0 255 
0 0 253 
0 0 254 
0 0 255 
0 0 254 
0 0 252 
0 0 255 
0 0 253 
0 0 253 
0 0 252 
0 0 255 
0 0 253 
0 0 253 
0 0 255 
0 0 252 
0 0 255 
0 0 254 
0 0 250 
0 0 254 
0 0 253 
0 0 252 
0 0 250 
0 0 254 
0 0 250 
0 0 255 
0 0 252 
0 0 252 
0 0 250 
0 0 255 
0 0 253 
0 0 252 
0 0 253 
0 0 252 
0 0 253 
0 0 249 
0 0 252 
0 0 254 
0 0 253 
0 0 255 
0 0 253 
0 0 253 
0 0 254 
0 0 250 
0 0 252 
0 0 246 
0 0 250 
0 0 254 
0 0 252 
0 0 249 
0 0 252 
39 44 249 
138 155 253 
190 213 254 
199 223 255 
199 223 255 
199 223 255 
199 223 255 
199 223 255 
198 223 255 
198 223 255 
198 223 255 
198 223 255 
198 223 255 
198 223 255 
198 223 255 
198 223 255 
198 223 255 
198 223 255 
198 223 255 
198 223 255 
198 223 255 
198 223 255 
198 223 255 
198 223 255 
198 223 255 
198 223 255 
197 223 255 
197 222 255 
197 222 255 
197 222 255 
197 222 255 
197 222 255 
197 222 255 
197 222 255 
197 222 255 
197 222 255 
197 222 255 
197 222 255 
197 222 255 
197 222 255 
197 222 255 
197 222 255 
197 222 255 
197 222 255 
197 222 255 
197 222 255 
197 222 255 
197 222 255 
197 222 255 
197 222 255 
197 222 255 
197 222 255 
197 222 255 
197 222 255 
197 222 255 
197 222 255 
197 222 255 
197 222 255 
197 222 255 
196 222 255 
196 222 255 
196 222 255 
196 222 255 
196 222 255 
196 222 255 
196 222 255 
196 222 255 
196 222 255 
196 222 255 
196 222 255 
196 222 255 
196 222 255 
196 222 255 
196 222 255 
196 222 255 
196 222 255 
196 222 255 
196 222 255 
196 222 255 
196 222 255 
197 222 255 
197 222 255 
197 222 255 
197 222 255 
197 222 255 
197 222 255 
197 222 255 
197 222 255 
197 222 255 
197 222 255 
197 222 255 
197 222 255 
197 222 255 
197 222 255 
197 222 255 
197 222 255 
197 222 255 
197 222 255 
197 222 255 
197 222 255 
197 222 255 
197 222 255 
197 222 255 
197 222 255 
197 222 255 
197 222 255 
197 222 255 
197 222 255 
197 222 255 
197 222 255 
197 222 255 
197 223 255 
198 223 255 
198 223 255 
198 223 255 
198 223 255 
198 223 255 
198 223 255 
198 223 255 
198 223 255 
198 223 255 
198 223 255 
198 223 255 
198 223 255 
198 223 255 
198 223 255 
198 223 255 
198 223 255 
198 223 255 
198 223 255 
199 223 255 
199 223 255 
199 223 255 
199 223 255 
199 223 255 
199 218 249 
198 150 171 
199 67 76 
195 0 0 
194 0 0 
196 0 0 
198 0 0 
204 0 0 
198 0 0 
195 0 0 
200 0 0 
200 0 0 
208 0 0 
201 0 0 
204 0 0 
198 0 0 
198 0 0 
206 0 0 
201 0 0 
200 0 0 
201 0 0 
202 0 0 
203 0 0 
197 0 0 
206 0 0 
204 0 0 
205 0 0 
207 0 0 
199 0 0 
200 0 0 
204 0 0 
203 0 0 
203 0 0 
203 0 0 
205 0 0 
201 0 0 
207 0 0 
205 0 0 
209 0 0 
207 0 0 
207 0 0 
204 0 0 
204 0 0 
205 0 0 
201 0 0 
204 0 0 
204 0 0 
205 0 0 
205 0 0 
206 0 0 
206 0 0 
206 0 0 
208 0 0 
210 0 0 
208 0 0 
208 0 0 
208 0 0 
207 0 0 
208 0 0 
211 0 0 
208 0 0 
208 0 0 
206 0 0 
207 0 0 
209 0 0 
209 0 0 
210 0 0 
206 0 0 
206 0 0 
208 0 0 
209 0 0 
206 0 0 
209 0 0 
209 0 0 
208 0 0 
207 0 0 
208 0 0 
208 0 0 
211 0 0 
207 0 0 
212 0 0 
207 0 0 
211 0 0 
208 0 0 
210 0 0 
205 0 0 
212 0 0 
206 0 0 
209 0 0 
211 0 0 
207 0 0 
209 0 0 
212 0 0 
209 0 0 
207 0 0 
210 0 0 
206 0 0 
214 0 0 
208 0 0 
208 0 0 
211 0 0 
213 0 0 
212 0 0 
209 0 0 
208 0 0 
211 0 0 
208 0 0 
207 0 0 
212 0 0 
207 0 0 
209 0 0 
210 0 0 
210 0 0 
213 0 0 
211 0 0 
211 0 0 
209 0 0 
210 0 0 
211 0 0 
211 0 0 
212 0 0 
209 0 0 
210 0 0 
214 0 0 
209 0 0 
209 0 0 
213 0 0 
208 0 0 
211 0 0 
210 0 0 
214 0 0 
210 0 0 
210 0 0 
212 0 0 
0 0 255 
0 0 255 
0 0 254 
0 0 255 
0 0 255 
0 0 255 
0 0 255 
0 0 255 
0 0 255 
0 0 255 
0 0 255 
0 0 255 
0 0 255 
0 0 255 
0 0 255 
0 0 255 
0 0 255 
0 0 255 
0 0 255 
0 0 255 
0 0 255 
0 0 255 
0 0 254 
0 0 255 
0 0 255 
0 0 255 
0 0 255 
0 0 255 
0 0 255 
0 0 254 
0 0 255 
0 0 254 
0 0 255 
0 0 255 
0 0 254 
0 0 255 
0 0 255 
0 0 254 
0 0 255 
0 0 254 
0 0 254 
0 0 255 
0 0 255 
0 0 254 
0 0 255 
0 0 255 
0 0 254 
0 0 255 
0 0 254 
0 0 254 
0 0 255 
0 0 255 
0 0 254 
0 0 254 
0 0 253 
0 0 255 
0 0 255 
0 0 252 
0 0 253 
0 0 254 
0 0 253 
0 0 254 
0 0 253 
0 0 254 
0 0 254 
0 0 255 
0 0 255 
0 0 254 
0 0 253 
0 0 255 
0 0 250 
0 0 254 
0 0 254 
0 0 253 
0 0 255 
0 0 254 
0 0 253 
0 0 253 
0 0 254 
0 0 255 
0 0 254 
0 0 253 
0 0 253 
0 0 253 
0 0 254 
0 0 255 
0 0 253 
0 0 252 
0 0 254 
0 0 254 
0 0 254 
0 0 255 
0 0 249 
0 0 253 
0 0 252 
0 0 252 
0 0 254 
0 0 253 
0 0 252 
0 0 252 
0 0 255 
0 0 253 
0 0 250 
0 0 254 
0 0 254 
0 0 250 
0 0 254 
0 0 253 
0 0 249 
0 0 253 
0 0 253 
0 0 250 
0 0 253 
0 0 255 
0 0 253 
0 0 254 
0 0 253 
0 0 249 
0 0 253 
0 0 249 
0 0 250 
0 0 252 
0 0 253 
0 0 250 
0 0 255 
0 0 250 
0 0 252 
0 0 248 
0 0 253 
0 0 253 
0 0 250 
0 0 254 
0 0 250 
66 74 253 
147 165 253 
194 218 255 
199 223 255 
199 223 255 
199 223 255 
199 223 255 
199 223 255 
198 223 255 
198 223 255 
198 223 255 
198 223 255 
198 223 255 
198 223 255 
198 223 255 
198 223 255 
198 223 255 
198 223 255 
198 223 255 
198 223 255 
198 223 255 
198 223 255 
198 223 255 
198 223 255 
198 223 255 
198 223 255 
198 223 255 
198 223 255 
197 223 255 
197 222 255 
197 222 255 
197 222 255 
197 222 255 
197 222 255 
197 222 255 
197 222 255 
197 222 255 
197 222 255 
197 222 255 
197 222 255 
197 222 255 
197 222 255 
197 222 255 
197 222 255 
197 222 255 
197 222 255 
197 222 255 
197 222 255 
197 222 255 
197 222 255 
197 222 255 
197 222 255 
197 222 255 
197 222 255 
197 222 255 
197 222 255 
197 222 255 
197 222 255 
197 222 255 
197 222 255 
197 222 255 
197 222 255 
197 222 255 
197 222 255 
197 222 255 
197 222 255 
197 222 255 
197 222 255 
197 222 255 
197 222 255 
197 222 255 
197 222 255 
197 222 255 
197 222 255 
197 222 255 
197 222 255 
197 222 255 
197 222 255 
197 222 255 
197 222 255 
197 222 255 
197 222 255 
197 222 255 
197 222 255 
197 222 255 
197 222 255 
197 222 255 
197 222 255 
197 222 255 
197 222 255 
197 222 255 
197 222 255 
197 222 255 
197 222 255 
197 222 255 
197 222 255 
197 222 255 
197 222 255 
197 222 255 
197 222 255 
197 222 255 
197 222 255 
197 222 255 
197 222 255 
197 222 255 
197 223 255 
198 223 255 
198 223 255 
198 223 255 
198 223 255 
198 223 255 
198 223 255 
198 223 255 
198 223 255 
198 223 255 
198 223 255 
198 223 255 
198 223 255 
198 223 255 
198 223 255 
198 223 255 
198 223 255 
198 223 255 
198 223 255 
198 223 255 
198 223 255 
199 223 255 
199 223 255 
199 223 255 
199 223 255 
199 223 255 
199 218 249 
201 150 171 
199 63 72 
198 0 0 
197 0 0 
199 0 0 
198 0 0 
197 0 0 
195 0 0 
200 0 0 
198 0 0 
203 0 0 
200 0 0 
198 0 0 
206 0 0 
203 0 0 
202 0 0 
202 0 0 
201 0 0 
202 0 0 
199 0 0 
198 0 0 
203 0 0 
199 0 0 
202 0 0 
207 0 0 
200 0 0 
204 0 0 
204 0 0 
205 0 0 
201 0 0 
208 0 0 
202 0 0 
207 0 0 
202 0 0 
201 0 0 
204 0 0 
203 0 0 
208 0 0 
206 0 0 
204 0 0 
203 0 0 
207 0 0 
210 0 0 
206 0 0 
204 0 0 
206 0 0 
207 0 0 
203 0 0 
209 0 0 
204 0 0 
207 0 0 
207 0 0 
204 0 0 
212 0 0 
207 0 0 
209 0 0 
207 0 0 
205 0 0 
204 0 0 
205 0 0 
207 0 0 
207 0 0 
203 0 0 
202 0 0 
208 0 0 
209 0 0 
207 0 0 
210 0 0 
206 0 0 
208 0 0 
206 0 0 
207 0 0 
209 0 0 
207 0 0 
207 0 0 
207 0 0 
207 0 0 
210 0 0 
208 0 0 
208 0 0 
210 0 0 
208 0 0 
211 0 0 
211 0 0 
207 0 0 
209 0 0 
212 0 0 
210 0 0 
212 0 0 
211 0 0 
210 0 0 
211 0 0 
209 0 0 
212 0 0 
209 0 0 
212 0 0 
208 0 0 
209 0 0 
210 0 0 
209 0 0 
207 0 0 
211 0 0 
212 0 0 
209 0 0 
209 0 0 
210 0 0 
208 0 0 
210 0 0 
210 0 0 
208 0 0 
211 0 0 
210 0 0 
213 0 0 
213 0 0 
211 0 0 
215 0 0 
211 0 0 
210 0 0 
209 0 0 
211 0 0 
209 0 0 
211 0 0 
212 0 0 
209 0 0 
208 0 0 
214 0 0 
211 0 0 
214 0 0 
211 0 0 
213 0 0 
212 0 0 
211 0 0 
212 0 0 
210 0 0 
215 0 0 
0 0 255 
0 0 255 
0 0 255 
0 0 255 
0 0 255 
0 0 255 
0 0 255 
0 0 255 
0 0 255 
0 0 255 
0 0 255 
0 0 255 
0 0 255 
0 0 255 
0 0 255 
0 0 255 
0 0 253 
0 0 255 
0 0 255 
0 0 255 
0 0 255 
0 0 255 
0 0 255 
0 0 255 
0 0 254 
0 0 254 
0 0 255 
0 0 255 
0 0 255 
0 0 255 
0 0 253 
0 0 253 
0 0 255 
0 0 254 
0 0 255 
0 0 255 
0 0 255 
0 0 255 
0 0 255 
0 0 254 
0 0 255 
0 0 253 
0 0 255 
0 0 255 
0 0 255 
0 0 254 
0 0 255 
0 0 254 
0 0 255 
0 0 254 
0 0 255 
0 0 255 
0 0 254 
0 0 255 
0 0 255 
0 0 255 
0 0 254 
0 0 255 
0 0 254 
0 0 254 
0 0 254 
0 0 254 
0 0 254 
0 0 253 
0 0 254 
0 0 254 
0 0 255 
0 0 254 
0 0 255 
0 0 252 
0 0 252 
0 0 255 
0 0 254 
0 0 255 
0 0 255 
0 0 253 
0 0 255 
0 0 252 
0 0 255 
0 0 253 
0 0 255 
0 0 250 
0 0 254 
0 0 250 
0 0 254 
0 0 253 
0 0 253 
0 0 254 
0 0 254 
0 0 254 
0 0 253 
0 0 254 
0 0 253 
0 0 252 
0 0 253 
0 0 255 
0 0 254 
0 0 249 
0 0 252 
0 0 250 
0 0 253 
0 0 253 
0 0 250 
0 0 253 
0 0 252 
0 0 254 
0 0 253 
0 0 250 
0 0 252 
0 0 254 
0 0 250 
0 0 252 
0 0 252 
0 0 252 
0 0 246 
0 0 253 
0 0 255 
0 0 252 
0 0 254 
0 0 254 
0 0 249 
0 0 252 
0 0 252 
0 0 252 
0 0 248 
0 0 255 
0 0 250 
0 0 250 
0 0 250 
0 0 250 
0 0 248 
0 0 253 
0 0 253 
0 0 250 
0 0 246 
48 54 253 
146 164 252 
199 223 255 
199 223 255 
199 223 255 
199 223 255 
199 223 255 
199 223 255 
199 223 255 
198 223 255 
198 223 255 
198 223 255 
198 223 255 
198 223 255 
198 223 255 
198 223 255 
198 223 255 
198 223 255 
198 223 255 
198 223 255 
198 223 255 
198 223 255 
198 223 255 
198 223 255 
198 223 255 
198 223 255 
198 223 255 
198 223 255 
198 223 255 
198 223 255 
197 223 255 
197 222 255 
197 222 255 
197 222 255 
197 222 255 
197 222 255 
197 222 255 
197 222 255 
197 222 255 
197 222 255 
197 222 255 
197 222 255 
197 222 255 
197 222 255 
197 222 255 
197 222 255 
197 222 255 
197 222 255 
197 222 255 
197 222 255 
197 222 255 
197 222 255 
197 222 255 
197 222 255 
197 222 255 
197 222 255 
197 222 255 
197 222 255 
197 222 255 
197 222 255 
197 222 255 
197 222 255 
197 222 255 
197 222 255 
197 222 255 
197 222 255 
197 222 255 
197 222 255 
197 222 255 
197 222 255 
197 222 255 
197 222 255 
197 222 255 
197 222 255 
197 222 255 
197 222 255 
197 222 255 
197 222 255 
197 222 255 
197 222 255 
197 222 255 
197 222 255 
197 222 255 
197 222 255 
197 222 255 
197 222 255 
197 222 255 
197 222 255 
197 222 255 
197 222 255 
197 222 255 
197 222 255 
197 222 255 
197 222 255 
197 222 255 
197 222 255 
197 222 255 
197 222 255 
197 222 255 
197 223 255 
198 223 255 
198 223 255 
198 223 255 
198 223 255 
198 223 255 
198 223 255 
198 223 255 
198 223 255 
198 223 255 
198 223 255 
198 223 255 
198 223 255 
198 223 255 
198 223 255 
198 223 255 
198 223 255 
198 223 255 
198 223 255 
198 223 255 
198 223 255 
199 223 255 
199 223 255 
199 223 255 
199 223 255 
199 223 255 
199 223 255 
199 223 255 
199 221 253 
198 170 194 
199 67 76 
198 0 0 
193 0 0 
197 0 0 
201 0 0 
199 0 0 
200 0 0 
199 0 0 
205 0 0 
203 0 0 
199 0 0 
202 0 0 
202 0 0 
203 0 0 
204 0 0 
204 0 0 
201 0 0 
201 0 0 
202 0 0 
201 0 0 
200 0 0 
200 0 0 
202 0 0 
205 0 0 
203 0 0 
200 0 0 
203 0 0 
203 0 0 
200 0 0 
203 0 0 
203 0 0 
205 0 0 
205 0 0 
202 0 0 
205 0 0 
206 0 0 
204 0 0 
206 0 0 
205 0 0 
200 0 0 
201 0 0 
205 0 0 
210 0 0 
206 0 0 
208 0 0 
209 0 0 
209 0 0 
207 0 0 
209 0 0 
210 0 0 
202 0 0 
207 0 0 
206 0 0 
211 0 0 
208 0 0 
203 0 0 
204 0 0 
208 0 0 
206 0 0 
206 0 0 
204 0 0 
209 0 0 
209 0 0 
208 0 0 
203 0 0 
208 0 0 
208 0 0 
205 0 0 
208 0 0 
206 0 0 
209 0 0 
207 0 0 
208 0 0 
212 0 0 
209 0 0 
206 0 0 
210 0 0 
210 0 0 
207 0 0 
212 0 0 
207 0 0 
208 0 0 
207 0 0 
209 0 0 
208 0 0 
207 0 0 
210 0 0 
210 0 0 
207 0 0 
208 0 0 
208 0 0 
207 0 0 
211 0 0 
213 0 0 
214 0 0 
208 0 0 
210 0 0 
211 0 0 
211 0 0 
210 0 0 
208 0 0 
211 0 0 
214 0 0 
208 0 0 
209 0 0 
211 0 0 
209 0 0 
211 0 0 
210 0 0 
212 0 0 
211 0 0 
213 0 0 
214 0 0 
208 0 0 
212 0 0 
213 0 0 
212 0 0 
211 0 0 
208 0 0 
208 0 0 
211 0 0 
210 0 0 
213 0 0 
211 0 0 
210 0 0 
212 0 0 
211 0 0 
208 0 0 
208 0 0 
211 0 0 
213 0 0 
211 0 0 
210 0 0 
212 0 0 
209 0 0 
211 0 0 
0 0 255 
0 0 253 
0 0 255 
0 0 255 
0 0 255 
0 0 255 
0 0 255 
0 0 255 
0 0 255 
0 0 255 
0 0 255 
0 0 255 
0 0 254 
0 0 254 
0 0 254 
0 0 255 
0 0 255 
0 0 255 
0 0 255 
0 0 255 
0 0 255 
0 0 255 
0 0 255 
0 0 254 
0 0 254 
0 0 255 
0 0 255 
0 0 255 
0 0 254 
0 0 255 
0 0 253 
0 0 255 
0 0 255 
0 0 255 
0 0 254 
0 0 255 
0 0 255 
0 0 255 
0 0 255 
0 0 255 
0 0 254 
0 0 254 
0 0 255 
0 0 254 
0 0 254 
0 0 255 
0 0 255 
0 0 255 
0 0 254 
0 0 253 
0 0 255 
0 0 254 
0 0 253 
0 0 254 
0 0 255 
0 0 255 
0 0 254 
0 0 254 
0 0 255 
0 0 254 
0 0 255 
0 0 254 
0 0 254 
0 0 253 
0 0 255 
0 0 254 
0 0 253 
0 0 254 
0 0 252 
0 0 255 
0 0 254 
0 0 253 
0 0 255 
0 0 253 
0 0 254 
0 0 254 
0 0 254 
0 0 254 
0 0 255 
0 0 255 
0 0 255 
0 0 255 
0 0 254 
0 0 249 
0 0 252 
0 0 250 
0 0 255 
0 0 254 
0 0 255 
0 0 255 
0 0 254 
0 0 254 
0 0 254 
0 0 253 
0 0 253 
0 0 252 
0 0 252 
0 0 252 
0 0 250 
0 0 253 
0 0 255 
0 0 250 
0 0 253 
0 0 248 
0 0 250 
0 0 253 
0 0 252 
0 0 253 
0 0 253 
0 0 250 
0 0 249 
0 0 254 
0 0 248 
0 0 246 
0 0 254 
0 0 252 
0 0 254 
0 0 252 
0 0 252 
0 0 254 
0 0 252 
0 0 248 
0 0 249 
0 0 248 
0 0 249 
0 0 253 
0 0 252 
0 0 253 
0 0 248 
0 0 248 
0 0 254 
0 0 248 
0 0 252 
0 0 249 
0 0 252 
0 0 255 
0 0 249 
59 67 250 
164 184 253 
198 222 255 
199 223 255 
199 223 255 
199 223 255 
199 223 255 
199 223 255 
199 223 255 
199 223 255 
199 223 255 
198 223 255 
198 223 255 
198 223 255 
198 223 255 
198 223 255 
198 223 255 
198 223 255 
198 223 255 
198 223 255 
198 223 255 
198 223 255 
198 223 255 
198 223 255 
198 223 255 
198 223 255 
198 223 255 
198 223 255 
198 223 255 
198 223 255 
198 223 255 
198 223 255 
198 223 255 
197 223 255 
197 222 255 
197 222 255 
197 222 255 
197 222 255 
197 222 255 
197 222 255 
197 222 255 
197 222 255 
197 222 255 
197 222 255 
197 222 255 
197 222 255 
197 222 255 
197 222 255 
197 222 255 
197 222 255 
197 222 255 
197 222 255 
197 222 255 
197 222 255 
197 222 255 
197 222 255 
197 222 255 
197 222 255 
197 222 255 
197 222 255 
197 222 255 
197 222 255 
197 222 255 
197 222 255 
197 222 255 
197 222 255 
197 222 255 
197 222 255 
197 222 255 
197 222 255 
197 222 255 
197 222 255 
197 222 255 
197 222 255 
197 222 255 
197 222 255 
197 222 255 
197 222 255 
197 222 255 
197 222 255 
197 222 255 
197 222 255 
197 222 255 
197 222 255 
197 222 255 
197 222 255 
197 222 255 
197 222 255 
197 222 255 
197 222 255 
197 222 255 
197 222 255 
197 223 255 
198 223 255 
198 223 255 
198 223 255 
198 223 255 
198 223 255 
198 223 255 
198 223 255 
198 223 255 
198 223 255 
198 223 255 
198 223 255 
198 223 255 
198 223 255 
198 223 255 
198 223 255 
198 223 255 
198 223 255 
198 223 255 
198 223 255 
198 223 255 
198 223 255 
198 223 255 
199 223 255 
199 223 255 
199 223 255 
199 223 255 
199 223 255 
199 223 255 
199 223 255 
199 223 255 
199 223 255 
199 185 212 
198 94 108 
196 0 0 
197 0 0 
195 0 0 
198 0 0 
196 0 0 
198 0 0 
193 0 0 
201 0 0 
201 0 0 
198 0 0 
199 0 0 
197 0 0 
198 0 0 
204 0 0 
202 0 0 
202 0 0 
203 0 0 
204 0 0 
203 0 0 
202 0 0 
206 0 0 
203 0 0 
201 0 0 
201 0 0 
205 0 0 
206 0 0 
206 0 0 
206 0 0 
201 0 0 
205 0 0 
208 0 0 
204 0 0 
203 0 0 
201 0 0 
202 0 0 
205 0 0 
207 0 0 
209 0 0 
204 0 0 
207 0 0 
206 0 0 
206 0 0 
205 0 0 
205 0 0 
205 0 0 
210 0 0 
208 0 0 
203 0 0 
212 0 0 
207 0 0 
208 0 0 
200 0 0 
210 0 0 
206 0 0 
205 0 0 
208 0 0 
208 0 0 
204 0 0 
209 0 0 
206 0 0 
206 0 0 
203 0 0 
211 0 0 
211 0 0 
210 0 0 
206 0 0 
209 0 0 
208 0 0 
209 0 0 
208 0 0 
206 0 0 
209 0 0 
209 0 0 
207 0 0 
207 0 0 
211 0 0 
207 0 0 
208 0 0 
209 0 0 
210 0 0 
210 0 0 
208 0 0 
206 0 0 
211 0 0 
208 0 0 
207 0 0 
208 0 0 
209 0 0 
212 0 0 
208 0 0 
208 0 0 
207 0 0 
211 0 0 
210 0 0 
212 0 0 
210 0 0 
211 0 0 
209 0 0 
211 0 0 
212 0 0 
216 0 0 
209 0 0 
211 0 0 
212 0 0 
211 0 0 
213 0 0 
212 0 0 
213 0 0 
211 0 0 
213 0 0 
212 0 0 
209 0 0 
212 0 0 
211 0 0 
211 0 0 
211 0 0 
210 0 0 
213 0 0 
209 0 0 
207 0 0 
211 0 0 
210 0 0 
211 0 0 
209 0 0 
208 0 0 
209 0 0 
209 0 0 
213 0 0 
207 0 0 
208 0 0 
211 0 0 
213 0 0 
207 0 0 
212 0 0 
209 0 0 
213 0 0 
210 0 0 
0 0 255 
0 0 255 
0 0 254 
0 0 255 
0 0 255 
0 0 255 
0 0 255 
0 0 255 
0 0 255 
0 0 255 
0 0 254 
0 0 255 
0 0 253 
0 0 255 
0 0 254 
0 0 255 
0 0 255 
0 0 255 
0 0 254 
0 0 253 
0 0 255 
0 0 255 
0 0 254 
0 0 255 
0 0 254 
0 0 255 
0 0 253 
0 0 255 
0 0 254 
0 0 255 
0 0 255 
0 0 255 
0 0 255 
0 0 255 
0 0 254 
0 0 254 
0 0 255 
0 0 253 
0 0 254 
0 0 255 
0 0 255 
0 0 255 
0 0 254 
0 0 254 
0 0 255 
0 0 254 
0 0 255 
0 0 255 
0 0 255 
0 0 252 
0 0 255 
0 0 255 
0 0 255 
0 0 252 
0 0 255 
0 0 255 
0 0 254 
0 0 254 
0 0 255 
0 0 254 
0 0 254 
0 0 250 
0 0 254 
0 0 254 
0 0 253 
0 0 254 
0 0 254 
0 0 255 
0 0 255 
0 0 254 
0 0 254 
0 0 254 
0 0 254 
0 0 249 
0 0 253 
0 0 250 
0 0 255 
0 0 252 
0 0 254 
0 0 254 
0 0 253 
0 0 254 
0 0 254 
0 0 254 
0 0 252 
0 0 252 
0 0 254 
0 0 255 
0 0 252 
0 0 253 
0 0 254 
0 0 252 
0 0 252 
0 0 250 
0 0 254 
0 0 253 
0 0 250 
0 0 254 
0 0 255 
0 0 254 
0 0 252 
0 0 253 
0 0 250 
0 0 249 
0 0 253 
0 0 250 
0 0 249 
0 0 254 
0 0 253 
0 0 254 
0 0 250 
0 0 254 
0 0 254 
0 0 250 
0 0 252 
0 0 250 
0 0 248 
0 0 252 
0 0 252 
0 0 250 
0 0 255 
0 0 252 
0 0 252 
0 0 252 
0 0 249 
0 0 254 
0 0 252 
0 0 249 
0 0 252 
0 0 249 
0 0 250 
0 0 254 
0 0 254 
0 0 250 
0 0 252 
0 0 250 
0 0 248 
0 0 250 
0 0 250 
105 118 252 
178 200 254 
199 223 255 
199 223 255 
199 223 255 
199 223 255 
199 223 255 
199 223 255 
199 223 255 
199 223 255 
199 223 255 
199 223 255 
198 223 255 
198 223 255 
198 223 255 
198 223 255 
198 223 255 
198 223 255 
198 223 255 
198 223 255 
198 223 255 
198 223 255 
198 223 255 
198 223 255 
198 223 255 
198 223 255 
198 223 255 
198 223 255 
198 223 255 
198 223 255 
198 223 255 
198 223 255 
198 223 255 
198 223 255 
198 223 255 
198 223 255 
197 223 255 
197 222 255 
197 222 255 
197 222 255 
197 222 255 
197 222 255 
197 222 255 
197 222 255 
197 222 255 
197 222 255 
197 222 255 
197 222 255 
197 222 255 
197 222 255 
197 222 255 
197 222 255 
197 222 255 
197 222 255 
197 222 255 
197 222 255 
197 222 255 
197 222 255 
197 222 255 
197 222 255 
197 222 255 
197 222 255 
197 222 255 
197 222 255 
197 222 255 
197 222 255 
197 222 255 
197 222 255 
197 222 255 
197 222 255 
197 222 255 
197 222 255 
197 222 255 
197 222 255 
197 222 255 
197 222 255 
197 222 255 
197 222 255 
197 222 255 
197 222 255 
197 222 255 
197 222 255 
197 222 255 
197 222 255 
197 222 255 
198 223 255 
198 223 255 
198 223 255 
198 223 255 
198 223 255 
198 223 255 
198 223 255 
198 223 255 
198 223 255 
198 223 255 
198 223 255 
198 223 255 
198 223 255 
198 223 255 
198 223 255 
198 223 255 
198 223 255 
198 223 255 
198 223 255 
198 223 255 
198 223 255 
198 223 255 
198 223 255 
198 223 255 
198 223 255 
199 223 255 
199 223 255 
199 223 255 
199 223 255 
199 223 255 
199 223 255 
199 223 255 
199 223 255 
199 223 255 
199 223 255 
199 198 227 
197 122 140 
194 0 0 
195 0 0 
198 0 0 
196 0 0 
200 0 0 
195 0 0 
198 0 0 
200 0 0 
198 0 0 
199 0 0 
199 0 0 
202 0 0 
198 0 0 
197 0 0 
200 0 0 
204 0 0 
198 0 0 
199 0 0 
201 0 0 
205 0 0 
198 0 0 
201 0 0 
205 0 0 
206 0 0 
196 0 0 
203 0 0 
202 0 0 
202 0 0 
202 0 0 
206 0 0 
209 0 0 
205 0 0 
201 0 0 
209 0 0 
202 0 0 
204 0 0 
203 0 0 
200 0 0 
206 0 0 
204 0 0 
206 0 0 
200 0 0 
205 0 0 
204 0 0 
208 0 0 
200 0 0 
207 0 0 
205 0 0 
207 0 0 
210 0 0 
209 0 0 
204 0 0 
204 0 0 
207 0 0 
206 0 0 
207 0 0 
207 0 0 
206 0 0 
204 0 0 
208 0 0 
206 0 0 
210 0 0 
210 0 0 
204 0 0 
209 0 0 
211 0 0 
206 0 0 
204 0 0 
208 0 0 
208 0 0 
207 0 0 
209 0 0 
208 0 0 
208 0 0 
208 0 0 
207 0 0 
206 0 0 
206 0 0 
211 0 0 
209 0 0 
212 0 0 
211 0 0 
209 0 0 
208 0 0 
209 0 0 
207 0 0 
211 0 0 
207 0 0 
211 0 0 
210 0 0 
209 0 0 
210 0 0 
211 0 0 
210 0 0 
208 0 0 
212 0 0 
209 0 0 
208 0 0 
213 0 0 
215 0 0 
213 0 0 
209 0 0 
210 0 0 
210 0 0 
212 0 0 
208 0 0 
212 0 0 
210 0 0 
214 0 0 
211 0 0 
211 0 0 
210 0 0 
211 0 0 
209 0 0 
209 0 0 
211 0 0 
208 0 0 
209 0 0 
209 0 0 
212 0 0 
211 0 0 
213 0 0 
210 0 0 
213 0 0 
212 0 0 
211 0 0 
211 0 0 
209 0 0 
210 0 0 
212 0 0 
210 0 0 
210 0 0 
210 0 0 
212 0 0 
210 0 0 
209 0 0 
212 0 0 
208 0 0 
211 0 0 
0 0 255 
0 0 255 
0 0 255 
0 0 255 
0 0 255 
0 0 255 
0 0 255 
0 0 255 
0 0 255 
0 0 255 
0 0 255 
0 0 255 
0 0 255 
0 0 255 
0 0 255 
0 0 255 
0 0 255 
0 0 255 
0 0 255 
0 0 255 
0 0 255 
0 0 255 
0 0 255 
0 0 255 
0 0 255 
0 0 255 
0 0 255 
0 0 254 
0 0 253 
0 0 254 
0 0 254 
0 0 255 
0 0 255 
0 0 255 
0 0 254 
0 0 254 
0 0 255 
0 0 255 
0 0 255 
0 0 255 
0 0 253 
0 0 253 
0 0 253 
0 0 254 
0 0 254 
0 0 253 
0 0 253 
0 0 254 
0 0 254 
0 0 255 
0 0 255 
0 0 253 
0 0 254 
0 0 254 
0 0 255 
0 0 249 
0 0 254 
0 0 255 
0 0 255 
0 0 255 
0 0 255 
0 0 255 
0 0 255 
0 0 255 
0 0 255 
0 0 252 
0 0 255 
0 0 255 
0 0 254 
0 0 254 
0 0 254 
0 0 254 
0 0 255 
0 0 254 
0 0 254 
0 0 253 
0 0 252 
0 0 254 
0 0 250 
0 0 252 
0 0 250 
0 0 253 
0 0 250 
0 0 255 
0 0 250 
0 0 254 
0 0 254 
0 0 252 
0 0 253 
0 0 254 
0 0 250 
0 0 254 
0 0 253 
0 0 252 
0 0 253 
0 0 252 
0 0 254 
0 0 253 
0 0 250 
0 0 254 
0 0 250 
0 0 254 
0 0 254 
0 0 252 
0 0 253 
0 0 252 
0 0 252 
0 0 250 
0 0 249 
0 0 250 
0 0 249 
0 0 253 
0 0 250 
0 0 249 
0 0 253 
0 0 249 
0 0 252 
0 0 249 
0 0 252 
0 0 250 
0 0 249 
0 0 250 
0 0 253 
0 0 246 
0 0 250 
0 0 245 
0 0 252 
0 0 249 
0 0 254 
0 0 253 
0 0 252 
0 0 254 
0 0 252 
0 0 255 
0 0 246 
0 0 246 
0 0 250 
0 0 246 
0 0 250 
0 0 252 
0 0 253 
103 116 254 
188 211 255 
199 223 255 
199 223 255 
199 223 255 
199 223 255 
199 223 255 
199 223 255 
199 223 255 
199 223 255 
199 223 255 
199 223 255 
199 223 255 
199 223 255 
198 223 255 
198 223 255 
198 223 255 
198 223 255 
198 223 255 
198 223 255 
198 223 255 
198 223 255 
198 223 255 
198 223 255 
198 223 255 
198 223 255 
198 223 255 
198 223 255 
198 223 255 
198 223 255 
198 223 255 
198 223 255 
198 223 255 
198 223 255 
198 223 255 
198 223 255 
198 223 255 
198 223 255 
198 223 255 
198 223 255 
198 223 255 
197 223 255 
197 223 255 
197 222 255 
197 222 255 
197 222 255 
197 222 255 
197 222 255 
197 222 255 
197 222 255 
197 222 255 
197 222 255 
197 222 255 
197 222 255 
197 222 255 
197 222 255 
197 222 255 
197 222 255 
197 222 255 
197 222 255 
197 222 255 
197 222 255 
197 222 255 
197 222 255 
197 222 255 
197 222 255 
197 222 255 
197 222 255 
197 222 255 
197 222 255 
197 222 255 
197 222 255 
197 222 255 
197 222 255 
197 222 255 
197 223 255 
198 223 255 
198 223 255 
198 223 255 
198 223 255 
198 223 255 
198 223 255 
198 223 255 
198 223 255 
198 223 255 
198 223 255 
198 223 255 
198 223 255 
198 223 255 
198 223 255 
198 223 255 
198 223 255 
198 223 255 
198 223 255 
198 223 255 
198 223 255 
198 223 255 
198 223 255 
198 223 255 
198 223 255 
198 223 255 
198 223 255 
198 223 255 
198 223 255 
199 223 255 
199 223 255 
199 223 255 
199 223 255 
199 223 255 
199 223 255 
199 223 255 
199 223 255 
199 223 255 
199 223 255 
199 223 255 
199 223 255 
200 205 234 
197 153 175 
195 38 44 
199 0 0 
199 0 0 
198 0 0 
200 0 0 
200 0 0 
193 0 0 
198 0 0 
202 0 0 
195 0 0 
203 0 0 
195 0 0 
199 0 0 
196 0 0 
206 0 0 
198 0 0 
203 0 0 
199 0 0 
203 0 0 
202 0 0 
197 0 0 
205 0 0 
207 0 0 
201 0 0 
209 0 0 
203 0 0 
201 0 0 
207 0 0 
207 0 0 
204 0 0 
204 0 0 
203 0 0 
205 0 0 
202 0 0 
206 0 0 
201 0 0 
204 0 0 
204 0 0 
209 0 0 
203 0 0 
200 0 0 
204 0 0 
207 0 0 
202 0 0 
206 0 0 
205 0 0 
206 0 0 
206 0 0 
204 0 0 
205 0 0 
208 0 0 
205 0 0 
208 0 0 
206 0 0 
205 0 0 
206 0 0 
206 0 0 
206 0 0 
209 0 0 
208 0 0 
205 0 0 
210 0 0 
207 0 0 
203 0 0 
210 0 0 
213 0 0 
205 0 0 
207 0 0 
209 0 0 
208 0 0 
210 0 0 
210 0 0 
210 0 0 
212 0 0 
209 0 0 
210 0 0 
211 0 0 
210 0 0 
211 0 0 
207 0 0 
211 0 0 
206 0 0 
211 0 0 
207 0 0 
209 0 0 
207 0 0 
206 0 0 
209 0 0 
209 0 0 
210 0 0 
208 0 0 
207 0 0 
212 0 0 
206 0 0 
211 0 0 
212 0 0 
209 0 0 
208 0 0 
210 0 0 
212 0 0 
208 0 0 
206 0 0 
211 0 0 
213 0 0 
212 0 0 
212 0 0 
212 0 0 
208 0 0 
211 0 0 
211 0 0 
212 0 0 
208 0 0 
213 0 0 
210 0 0 
209 0 0 
212 0 0 
212 0 0 
210 0 0 
211 0 0 
209 0 0 
212 0 0 
211 0 0 
209 0 0 
210 0 0 
211 0 0 
208 0 0 
211 0 0 
210 0 0 
212 0 0 
212 0 0 
210 0 0 
209 0 0 
213 0 0 
211 0 0 
211 0 0 
211 0 0 
211 0 0 
209 0 0 
211 0 0 
209 0 0 
214 0 0 
0 0 255 
0 0 254 
0 0 255 
0 0 255 
0 0 255 
0 0 255 
0 0 255 
0 0 254 
0 0 255 
0 0 255 
0 0 255 
0 0 255 
0 0 255 
0 0 255 
0 0 255 
0 0 255 
0 0 254 
0 0 255 
0 0 255 
0 0 255 
0 0 255 
0 0 255 
0 0 255 
0 0 255 
0 0 255 
0 0 255 
0 0 254 
0 0 255 
0 0 253 
0 0 255 
0 0 255 
0 0 255 
0 0 253 
0 0 255 
0 0 255 
0 0 254 
0 0 254 
0 0 255 
0 0 255 
0 0 254 
0 0 255 
0 0 255 
0 0 255 
0 0 255 
0 0 255 
0 0 254 
0 0 255 
0 0 254 
0 0 254 
0 0 255 
0 0 254 
0 0 255 
0 0 254 
0 0 255 
0 0 254 
0 0 254 
0 0 255 
0 0 255 
0 0 255 
0 0 252 
0 0 254 
0 0 255 
0 0 253 
0 0 254 
0 0 254 
0 0 253 
0 0 252 
0 0 255 
0 0 252 
0 0 252 
0 0 255 
0 0 250 
0 0 250 
0 0 255 
0 0 252 
0 0 254 
0 0 255 
0 0 254 
0 0 249 
0 0 253 
0 0 254 
0 0 252 
0 0 253 
0 0 253 
0 0 255 
0 0 255 
0 0 255 
0 0 252 
0 0 253 
0 0 248 
0 0 254 
0 0 253 
0 0 250 
0 0 254 
0 0 248 
0 0 253 
0 0 253 
0 0 250 
0 0 254 
0 0 255 
0 0 253 
0 0 254 
0 0 250 
0 0 252 
0 0 252 
0 0 249 
0 0 253 
0 0 250 
0 0 255 
0 0 252 
0 0 254 
0 0 252 
0 0 250 
0 0 253 
0 0 250 
0 0 249 
0 0 252 
0 0 253 
0 0 250 
0 0 249 
0 0 253 
0 0 250 
0 0 253 
0 0 253 
0 0 252 
0 0 250 
0 0 241 
0 0 250 
0 0 250 
0 0 248 
0 0 252 
0 0 248 
0 0 249 
0 0 254 
0 0 250 
0 0 248 
0 0 249 
0 0 248 
0 0 248 
0 0 246 
0 0 253 
0 0 253 
52 59 250 
127 143 254 
197 221 255 
199 223 255 
199 223 255 
199 223 255 
199 223 255 
199 223 255 
199 223 255 
199 223 255 
199 223 255 
199 223 255 
199 223 255 
199 223 255 
199 223 255 
199 223 255 
198 223 255 
198 223 255 
198 223 255 
198 223 255 
198 223 255 
198 223 255 
198 223 255 
198 223 255 
198 223 255 
198 223 255 
198 223 255 
198 223 255 
198 223 255 
198 223 255 
198 223 255 
198 223 255 
198 223 255 
198 223 255 
198 223 255 
198 223 255 
198 223 255 
198 223 255 
198 223 255 
198 223 255 
198 223 255 
198 223 255 
198 223 255 
198 223 255 
198 223 255 
198 223 255 
198 223 255 
198 223 255 
198 223 255 
198 223 255 
198 223 255 
198 223 255 
198 223 255 
198 223 255 
198 223 255 
197 223 255 
198 223 255 
197 223 255 
197 223 255 
197 223 255 
197 223 255 
198 223 255 
198 223 255 
198 223 255 
198 223 255 
198 223 255 
198 223 255 
198 223 255 
198 223 255 
198 223 255 
198 223 255 
198 223 255 
198 223 255 
198 223 255 
198 223 255 
198 223 255 
198 223 255 
198 223 255 
198 223 255 
198 223 255 
198 223 255 
198 223 255 
198 223 255 
198 223 255 
198 223 255 
198 223 255 
198 223 255 
198 223 255 
198 223 255 
198 223 255 
198 223 255 
198 223 255 
198 223 255 
198 223 255 
198 223 255 
198 223 255 
198 223 255 
198 223 255 
198 223 255 
199 223 255 
199 223 255 
199 223 255 
199 223 255 
199 223 255 
199 223 255 
199 223 255 
199 223 255 
199 223 255 
199 223 255 
199 223 255 
199 223 255 
199 223 255 
199 223 255 
198 220 252 
198 179 204 
194 50 57 
200 0 0 
195 0 0 
195 0 0 
197 0 0 
198 0 0 
198 0 0 
202 0 0 
197 0 0 
197 0 0 
195 0 0 
202 0 0 
194 0 0 
200 0 0 
200 0 0 
201 0 0 
197 0 0 
201 0 0 
203 0 0 
205 0 0 
206 0 0 
199 0 0 
203 0 0 
205 0 0 
207 0 0 
201 0 0 
204 0 0 
204 0 0 
202 0 0 
206 0 0 
201 0 0 
207 0 0 
203 0 0 
205 0 0 
207 0 0 
206 0 0 
202 0 0 
203 0 0 
207 0 0 
206 0 0 
204 0 0 
208 0 0 
208 0 0 
205 0 0 
202 0 0 
206 0 0 
202 0 0 
207 0 0 
207 0 0 
206 0 0 
209 0 0 
205 0 0 
206 0 0 
208 0 0 
209 0 0 
205 0 0 
205 0 0 
208 0 0 
208 0 0 
207 0 0 
208 0 0 
206 0 0 
208 0 0 
207 0 0 
206 0 0 
208 0 0 
208 0 0 
209 0 0 
210 0 0 
207 0 0 
206 0 0 
208 0 0 
212 0 0 
207 0 0 
207 0 0 
209 0 0 
206 0 0 
209 0 0 
211 0 0 
211 0 0 
211 0 0 
208 0 0 
209 0 0 
211 0 0 
206 0 0 
211 0 0 
207 0 0 
212 0 0 
209 0 0 
210 0 0 
208 0 0 
211 0 0 
208 0 0 
210 0 0 
212 0 0 
206 0 0 
206 0 0 
210 0 0 
210 0 0 
212 0 0 
209 0 0 
212 0 0 
212 0 0 
209 0 0 
208 0 0 
210 0 0 
207 0 0 
214 0 0 
210 0 0 
213 0 0 
210 0 0 
210 0 0 
214 0 0 
212 0 0 
209 0 0 
210 0 0 
209 0 0 
212 0 0 
211 0 0 
213 0 0 
209 0 0 
212 0 0 
210 0 0 
210 0 0 
209 0 0 
209 0 0 
212 0 0 
211 0 0 
213 0 0 
212 0 0 
211 0 0 
211 0 0 
212 0 0 
212 0 0 
210 0 0 
213 0 0 
208 0 0 
215 0 0 
213 0 0 
212 0 0 
211 0 0 
207 0 0 
212 0 0 
0 0 255 
0 0 255 
0 0 254 
0 0 255 
0 0 254 
0 0 255 
0 0 255 
0 0 255 
0 0 254 
0 0 255 
0 0 255 
0 0 254 
0 0 255 
0 0 255 
0 0 255 
0 0 255 
0 0 255 
0 0 255 
0 0 254 
0 0 255 
0 0 255 
0 0 255 
0 0 255 
0 0 255 
0 0 255 
0 0 255 
0 0 254 
0 0 255 
0 0 254 
0 0 254 
0 0 254 
0 0 255 
0 0 254 
0 0 255 
0 0 253 
0 0 255 
0 0 255 
0 0 255 
0 0 255 
0 0 255 
0 0 255 
0 0 255 
0 0 255 
0 0 253 
0 0 255 
0 0 254 
0 0 255 
0 0 255 
0 0 255 
0 0 255 
0 0 254 
0 0 255 
0 0 255 
0 0 254 
0 0 255 
0 0 254 
0 0 254 
0 0 254 
0 0 254 
0 0 255 
0 0 254 
0 0 255 
0 0 254 
0 0 252 
0 0 255 
0 0 252 
0 0 254 
0 0 253 
0 0 255 
0 0 253 
0 0 255 
0 0 253 
0 0 252 
0 0 254 
0 0 252 
0 0 253 
0 0 255 
0 0 254 
0 0 254 
0 0 254 
0 0 255 
0 0 252 
0 0 255 
0 0 255 
0 0 253 
0 0 253 
0 0 254 
0 0 253 
0 0 253 
0 0 250 
0 0 252 
0 0 254 
0 0 253 
0 0 252 
0 0 252 
0 0 252 
0 0 253 
0 0 255 
0 0 249 
0 0 252 
0 0 250 
0 0 249 
0 0 253 
0 0 252 
0 0 253 
0 0 250 
0 0 252 
0 0 254 
0 0 252 
0 0 248 
0 0 250 
0 0 253 
0 0 249 
0 0 254 
0 0 252 
0 0 252 
0 0 255 
0 0 255 
0 0 252 
0 0 252 
0 0 248 
0 0 254 
0 0 250 
0 0 249 
0 0 252 
0 0 249 
0 0 248 
0 0 250 
0 0 250 
0 0 250 
0 0 253 
0 0 253 
0 0 252 
0 0 250 
0 0 252 
0 0 248 
0 0 249 
0 0 252 
0 0 250 
0 0 250 
0 0 254 
0 0 248 
0 0 245 
0 0 253 
91 102 249 
171 192 253 
199 223 255 
199 223 255 
199 223 255 
199 223 255 
199 223 255 
199 223 255 
199 223 255 
199 223 255 
199 223 255 
199 223 255 
199 223 255 
199 223 255 
199 223 255 
199 223 255 
199 223 255 
199 223 255 
199 223 255 
198 223 255 
198 223 255 
198 223 255 
198 223 255 
198 223 255 
198 223 255 
198 223 255 
198 223 255 
198 223 255 
198 223 255 
198 223 255 
198 223 255 
198 223 255 
198 223 255 
198 223 255 
198 223 255 
198 223 255 
198 223 255 
198 223 255 
198 223 255 
198 223 255 
198 223 255 
198 223 255 
198 223 255 
198 223 255 
198 223 255 
198 223 255 
198 223 255 
198 223 255 
198 223 255 
198 223 255 
198 223 255 
198 223 255 
198 223 255 
198 223 255 
198 223 255 
198 223 255 
198 223 255 
198 223 255 
198 223 255 
198 223 255 
198 223 255 
198 223 255 
198 223 255 
198 223 255 
198 223 255 
198 223 255 
198 223 255 
198 223 255 
198 223 255 
198 223 255 
198 223 255 
198 223 255 
198 223 255 
198 223 255 
198 223 255 
198 223 255 
198 223 255 
198 223 255 
198 223 255 
198 223 255 
198 223 255 
198 223 255 
198 223 255 
198 223 255 
198 223 255 
198 223 255 
198 223 255 
198 223 255 
198 223 255 
198 223 255 
198 223 255 
198 223 255 
198 223 255 
199 223 255 
199 223 255 
199 223 255 
199 223 255 
199 223 255 
199 223 255 
199 223 255 
199 223 255 
199 223 255 
199 223 255 
199 223 255 
199 223 255 
199 223 255 
199 223 255 
199 223 255 
199 223 255 
199 223 255 
199 192 220 
199 107 122 
197 0 0 
197 0 0 
197 0 0 
199 0 0 
200 0 0 
198 0 0 
198 0 0 
196 0 0 
195 0 0 
198 0 0 
199 0 0 
203 0 0 
198 0 0 
205 0 0 
200 0 0 
196 0 0 
203 0 0 
201 0 0 
199 0 0 
200 0 0 
206 0 0 
206 0 0 
194 0 0 
200 0 0 
199 0 0 
207 0 0 
200 0 0 
205 0 0 
203 0 0 
201 0 0 
206 0 0 
199 0 0 
200 0 0 
201 0 0 
204 0 0 
204 0 0 
210 0 0 
203 0 0 
203 0 0 
204 0 0 
205 0 0 
203 0 0 
203 0 0 
208 0 0 
202 0 0 
208 0 0 
207 0 0 
203 0 0 
211 0 0 
205 0 0 
202 0 0 
208 0 0 
207 0 0 
206 0 0 
207 0 0 
205 0 0 
205 0 0 
208 0 0 
208 0 0 
207 0 0 
207 0 0 
206 0 0 
206 0 0 
208 0 0 
211 0 0 
209 0 0 
205 0 0 
209 0 0 
206 0 0 
204 0 0 
208 0 0 
209 0 0 
207 0 0 
208 0 0 
205 0 0 
209 0 0 
212 0 0 
209 0 0 
209 0 0 
206 0 0 
205 0 0 
209 0 0 
208 0 0 
208 0 0 
208 0 0 
211 0 0 
207 0 0 
211 0 0 
205 0 0 
209 0 0 
208 0 0 
208 0 0 
209 0 0 
210 0 0 
208 0 0 
212 0 0 
210 0 0 
215 0 0 
210 0 0 
206 0 0 
208 0 0 
209 0 0 
213 0 0 
211 0 0 
210 0 0 
211 0 0 
209 0 0 
208 0 0 
210 0 0 
213 0 0 
212 0 0 
211 0 0 
207 0 0 
212 0 0 
211 0 0 
212 0 0 
213 0 0 
209 0 0 
209 0 0 
206 0 0 
211 0 0 
211 0 0 
214 0 0 
212 0 0 
212 0 0 
213 0 0 
212 0 0 
213 0 0 
213 0 0 
213 0 0 
209 0 0 
210 0 0 
213 0 0 
212 0 0 
214 0 0 
210 0 0 
212 0 0 
212 0 0 
209 0 0 
212 0 0 
211 0 0 
211 0 0 
213 0 0 
215 0 0 
0 0 255 
0 0 255 
0 0 255 
0 0 254 
0 0 255 
0 0 254 
0 0 255 
0 0 255 
0 0 255 
0 0 255 
0 0 255 
0 0 254 
0 0 254 
0 0 255 
0 0 254 
0 0 255 
0 0 255 
0 0 255 
0 0 255 
0 0 254 
0 0 255 
0 0 255 
0 0 255 
0 0 254 
0 0 255 
0 0 255 
0 0 255 
0 0 254 
0 0 255 
0 0 254 
0 0 255 
0 0 254 
0 0 255 
0 0 255 
0 0 255 
0 0 254 
0 0 255 
0 0 254 
0 0 255 
0 0 255 
0 0 255 
0 0 254 
0 0 254 
0 0 255 
0 0 254 
0 0 254 
0 0 253 
0 0 255 
0 0 255 
0 0 254 
0 0 254 
0 0 253 
0 0 254 
0 0 255 
0 0 252 
0 0 254 
0 0 254 
0 0 254 
0 0 255 
0 0 255 
0 0 253 
0 0 254 
0 0 253 
0 0 254 
0 0 254 
0 0 253 
0 0 253 
0 0 255 
0 0 252 
0 0 253 
0 0 254 
0 0 254 
0 0 254 
0 0 253 
0 0 254 
0 0 253 
0 0 253 
0 0 255 
0 0 250 
0 0 250 
0 0 252 
0 0 249 
0 0 253 
0 0 253 
0 0 254 
0 0 255 
0 0 250 
0 0 250 
0 0 253 
0 0 253 
0 0 254 
0 0 254 
0 0 253 
0 0 250 
0 0 255 
0 0 254 
0 0 249 
0 0 253 
0 0 252 
0 0 252 
0 0 252 
0 0 250 
0 0 253 
0 0 253 
0 0 253 
0 0 246 
0 0 252 
0 0 254 
0 0 253 
0 0 255 
0 0 252 
0 0 252 
0 0 253 
0 0 249 
0 0 253 
0 0 249 
0 0 246 
0 0 253 
0 0 249 
0 0 246 
0 0 248 
0 0 249 
0 0 253 
0 0 250 
0 0 253 
0 0 253 
0 0 249 
0 0 245 
0 0 248 
0 0 250 
0 0 242 
0 0 244 
0 0 250 
0 0 249 
0 0 245 
0 0 244 
0 0 252 
0 0 249 
0 0 248 
0 0 250 
0 0 246 
0 0 246 
0 0 246 
0 0 250 
0 0 241 
0 0 249 
119 134 245 
194 218 255 
199 224 255 
199 223 255 
199 223 255 
199 223 255 
199 223 255 
199 223 255 
199 223 255 
199 223 255 
199 223 255 
199 223 255 
199 223 255 
199 223 255 
199 223 255 
199 223 255 
199 223 255 
199 223 255 
199 223 255 
199 223 255 
199 223 255 
198 223 255 
198 223 255 
198 223 255 
198 223 255 
198 223 255 
198 223 255 
198 223 255 
198 223 255 
198 223 255 
198 223 255 
198 223 255 
198 223 255 
198 223 255 
198 223 255 
198 223 255 
198 223 255 
198 223 255 
198 223 255 
198 223 255 
198 223 255 
198 223 255 
198 223 255 
198 223 255 
198 223 255 
198 223 255 
198 223 255 
198 223 255 
198 223 255 
198 223 255 
198 223 255 
198 223 255 
198 223 255 
198 223 255 
198 223 255 
198 223 255 
198 223 255 
198 223 255 
198 223 255 
198 223 255 
198 223 255 
198 223 255 
198 223 255 
198 223 255 
198 223 255 
198 223 255 
198 223 255 
198 223 255 
198 223 255 
198 223 255 
198 223 255 
198 223 255 
198 223 255 
198 223 255 
198 223 255 
198 223 255 
198 223 255 
198 223 255 
198 223 255 
198 223 255 
198 223 255 
198 223 255 
198 223 255 
198 223 255 
198 223 255 
198 223 255 
198 223 255 
199 223 255 
199 223 255 
199 223 255 
199 223 255 
199 223 255 
199 223 255 
199 223 255 
199 223 255 
199 223 255 
199 223 255 
199 223 255 
199 223 255 
199 223 255 
199 223 255 
199 223 255 
199 223 255 
199 223 255 
199 223 255 
199 224 255 
200 218 249 
197 151 173 
196 0 0 
197 0 0 
196 0 0 
200 0 0 
199 0 0 
202 0 0 
199 0 0 
202 0 0 
202 0 0 
200 0 0 
201 0 0 
197 0 0 
199 0 0 
204 0 0 
201 0 0 
197 0 0 
199 0 0 
197 0 0 
202 0 0 
200 0 0 
201 0 0 
200 0 0 
201 0 0 
201 0 0 
204 0 0 
194 0 0 
198 0 0 
201 0 0 
205 0 0 
206 0 0 
205 0 0 
205 0 0 
204 0 0 
207 0 0 
203 0 0 
205 0 0 
202 0 0 
203 0 0 
202 0 0 
206 0 0 
202 0 0 
209 0 0 
210 0 0 
207 0 0 
209 0 0 
205 0 0 
207 0 0 
206 0 0 
210 0 0 
206 0 0 
206 0 0 
209 0 0 
209 0 0 
208 0 0 
208 0 0 
208 0 0 
210 0 0 
206 0 0 
210 0 0 
211 0 0 
206 0 0 
201 0 0 
207 0 0 
208 0 0 
201 0 0 
209 0 0 
207 0 0 
210 0 0 
209 0 0 
208 0 0 
207 0 0 
209 0 0 
207 0 0 
208 0 0 
211 0 0 
208 0 0 
209 0 0 
208 0 0 
209 0 0 
209 0 0 
211 0 0 
211 0 0 
211 0 0 
213 0 0 
209 0 0 
210 0 0 
209 0 0 
210 0 0 
210 0 0 
211 0 0 
212 0 0 
204 0 0 
209 0 0 
213 0 0 
211 0 0 
211 0 0 
210 0 0 
213 0 0 
207 0 0 
212 0 0 
209 0 0 
207 0 0 
210 0 0 
212 0 0 
209 0 0 
211 0 0 
209 0 0 
209 0 0 
207 0 0 
213 0 0 
209 0 0 
213 0 0 
211 0 0 
212 0 0 
208 0 0 
212 0 0 
211 0 0 
211 0 0 
211 0 0 
212 0 0 
212 0 0 
213 0 0 
210 0 0 
208 0 0 
213 0 0 
207 0 0 
214 0 0 
210 0 0 
210 0 0 
211 0 0 
211 0 0 
213 0 0 
210 0 0 
212 0 0 
212 0 0 
212 0 0 
211 0 0 
210 0 0 
211 0 0 
211 0 0 
210 0 0 
208 0 0 
209 0 0 
215 0 0 
216 0 0 
213 0 0 
0 0 255 
0 0 255 
0 0 254 
0 0 255 
0 0 255 
0 0 255 
0 0 255 
0 0 255 
0 0 255 
0 0 255 
0 0 255 
0 0 255 
0 0 254 
0 0 255 
0 0 254 
0 0 254 
0 0 255 
0 0 255 
0 0 255 
0 0 255 
0 0 255 
0 0 255 
0 0 255 
0 0 255 
0 0 255 
0 0 255 
0 0 255 
0 0 255 
0 0 255 
0 0 255 
0 0 255 
0 0 254 
0 0 254 
0 0 254 
0 0 254 
0 0 255 
0 0 255 
0 0 254 
0 0 255 
0 0 252 
0 0 254 
0 0 255 
0 0 254 
0 0 254 
0 0 253 
0 0 254 
0 0 255 
0 0 255 
0 0 254 
0 0 254 
0 0 254 
0 0 253 
0 0 253 
0 0 255 
0 0 254 
0 0 255 
0 0 254 
0 0 252 
0 0 255 
0 0 254 
0 0 254 
0 0 254 
0 0 252 
0 0 253 
0 0 254 
0 0 254 
0 0 253 
0 0 254 
0 0 254 
0 0 255 
0 0 254 
0 0 250 
0 0 255 
0 0 254 
0 0 254 
0 0 255 
0 0 252 
0 0 255 
0 0 254 
0 0 252 
0 0 254 
0 0 255 
0 0 255 
0 0 252 
0 0 254 
0 0 255 
0 0 253 
0 0 253 
0 0 253 
0 0 249 
0 0 253 
0 0 252 
0 0 250 
0 0 254 
0 0 252 
0 0 250 
0 0 254 
0 0 249 
0 0 252 
0 0 254 
0 0 248 
0 0 250 
0 0 249 
0 0 254 
0 0 255 
0 0 253 
0 0 252 
0 0 252 
0 0 248 
0 0 254 
0 0 253 
0 0 254 
0 0 253 
0 0 254 
0 0 249 
0 0 242 
0 0 246 
0 0 252 
0 0 249 
0 0 246 
0 0 252 
0 0 253 
0 0 246 
0 0 248 
0 0 250 
0 0 245 
0 0 248 
0 0 242 
0 0 249 
0 0 246 
0 0 250 
0 0 249 
0 0 248 
0 0 252 
0 0 248 
0 0 250 
0 0 249 
0 0 246 
0 0 246 
0 0 249 
0 0 248 
0 0 248 
0 0 246 
0 0 252 
0 0 241 
0 0 248 
0 0 245 
44 50 249 
157 176 253 
200 224 255 
199 224 255 
199 224 255 
199 224 255 
199 223 255 
199 223 255 
199 223 255 
199 223 255 
199 223 255 
199 223 255 
199 223 255 
199 223 255 
199 223 255 
199 223 255 
199 223 255 
199 223 255 
199 223 255 
199 223 255 
199 223 255 
199 223 255 
199 223 255 
199 223 255 
199 223 255 
199 223 255 
198 223 255 
198 223 255 
198 223 255 
198 223 255 
198 223 255 
198 223 255 
198 223 255 
198 223 255 
198 223 255 
198 223 255 
198 223 255 
198 223 255 
198 223 255 
198 223 255 
198 223 255 
198 223 255 
198 223 255 
198 223 255 
198 223 255 
198 223 255 
198 223 255 
198 223 255 
198 223 255 
198 223 255 
198 223 255 
198 223 255 
198 223 255 
198 223 255 
198 223 255 
198 223 255 
198 223 255 
198 223 255 
198 223 255 
198 223 255 
198 223 255 
198 223 255 
198 223 255 
198 223 255 
198 223 255 
198 223 255 
198 223 255 
198 223 255 
198 223 255 
198 223 255 
198 223 255 
198 223 255 
198 223 255 
198 223 255 
198 223 255 
198 223 255 
198 223 255 
198 223 255 
198 223 255 
198 223 255 
199 223 255 
199 223 255 
199 223 255 
199 223 255 
199 223 255 
199 223 255 
199 223 255 
199 223 255 
199 223 255 
199 223 255 
199 223 255 
199 223 255 
199 223 255 
199 223 255 
199 223 255 
199 223 255 
199 223 255 
199 223 255 
199 223 255 
199 223 255 
199 224 255 
199 224 255 
199 224 255 
200 224 255 
198 175 199 
195 38 44 
196 0 0 
201 0 0 
197 0 0 
194 0 0 
201 0 0 
198 0 0 
195 0 0 
197 0 0 
195 0 0 
198 0 0 
195 0 0 
199 0 0 
198 0 0 
203 0 0 
197 0 0 
202 0 0 
203 0 0 
202 0 0 
199 0 0 
206 0 0 
199 0 0 
200 0 0 
197 0 0 
207 0 0 
205 0 0 
203 0 0 
199 0 0 
206 0 0 
203 0 0 
209 0 0 
207 0 0 
207 0 0 
202 0 0 
205 0 0 
204 0 0 
206 0 0 
207 0 0 
209 0 0 
201 0 0 
204 0 0 
202 0 0 
209 0 0 
207 0 0 
207 0 0 
207 0 0 
202 0 0 
211 0 0 
201 0 0 
204 0 0 
203 0 0 
204 0 0 
202 0 0 
206 0 0 
205 0 0 
204 0 0 
205 0 0 
208 0 0 
212 0 0 
207 0 0 
211 0 0 
211 0 0 
210 0 0 
206 0 0 
206 0 0 
209 0 0 
207 0 0 
204 0 0 
209 0 0 
209 0 0 
208 0 0 
208 0 0 
208 0 0 
213 0 0 
209 0 0 
209 0 0 
212 0 0 
208 0 0 
204 0 0 
207 0 0 
203 0 0 
212 0 0 
211 0 0 
210 0 0 
212 0 0 
209 0 0 
212 0 0 
210 0 0 
210 0 0 
206 0 0 
211 0 0 
211 0 0 
211 0 0 
211 0 0 
209 0 0 
210 0 0 
214 0 0 
207 0 0 
210 0 0 
208 0 0 
212 0 0 
211 0 0 
213 0 0 
212 0 0 
211 0 0 
210 0 0 
213 0 0 
210 0 0 
212 0 0 
214 0 0 
212 0 0 
213 0 0 
211 0 0 
211 0 0 
212 0 0 
211 0 0 
211 0 0 
212 0 0 
213 0 0 
211 0 0 
212 0 0 
210 0 0 
214 0 0 
209 0 0 
208 0 0 
212 0 0 
213 0 0 
213 0 0 
208 0 0 
209 0 0 
210 0 0 
213 0 0 
214 0 0 
213 0 0 
213 0 0 
214 0 0 
214 0 0 
210 0 0 
211 0 0 
208 0 0 
210 0 0 
211 0 0 
212 0 0 
213 0 0 
212 0 0 
215 0 0 
213 0 0 
213 0 0 
0 0 254 
0 0 255 
0 0 254 
0 0 255 
0 0 255 
0 0 255 
0 0 255 
0 0 255 
0 0 255 
0 0 255 
0 0 255 
0 0 254 
0 0 254 
0 0 255 
0 0 255 
0 0 255 
0 0 255 
0 0 255 
0 0 255 
0 0 255 
0 0 255 
0 0 254 
0 0 255 
0 0 254 
0 0 255 
0 0 254 
0 0 255 
0 0 255 
0 0 255 
0 0 255 
0 0 255 
0 0 255 
0 0 255 
0 0 255 
0 0 254 
0 0 253 
0 0 253 
0 0 254 
0 0 255 
0 0 255 
0 0 255 
0 0 255 
0 0 255 
0 0 255 
0 0 255 
0 0 255 
0 0 254 
0 0 255 
0 0 254 
0 0 255 
0 0 254 
0 0 254 
0 0 254 
0 0 254 
0 0 255 
0 0 255 
0 0 253 
0 0 254 
0 0 254 
0 0 250 
0 0 252 
0 0 255 
0 0 254 
0 0 253 
0 0 255 
0 0 255 
0 0 253 
0 0 253 
0 0 255 
0 0 253 
0 0 253 
0 0 254 
0 0 252 
0 0 255 
0 0 255 
0 0 255 
0 0 255 
0 0 255 
0 0 253 
0 0 255 
0 0 254 
0 0 254 
0 0 255 
0 0 254 
0 0 254 
0 0 253 
0 0 246 
0 0 254 
0 0 255 
0 0 250 
0 0 252 
0 0 253 
0 0 253 
0 0 255 
0 0 252 
0 0 254 
0 0 252 
0 0 252 
0 0 250 
0 0 254 
0 0 254 
0 0 250 
0 0 254 
0 0 253 
0 0 253 
0 0 253 
0 0 252 
0 0 253 
0 0 249 
0 0 246 
0 0 249 
0 0 253 
0 0 246 
0 0 253 
0 0 246 
0 0 248 
0 0 250 
0 0 249 
0 0 252 
0 0 249 
0 0 250 
0 0 250 
0 0 253 
0 0 253 
0 0 250 
0 0 246 
0 0 246 
0 0 254 
0 0 250 
0 0 249 
0 0 246 
0 0 246 
0 0 246 
0 0 249 
0 0 248 
0 0 253 
0 0 248 
0 0 250 
0 0 245 
0 0 246 
0 0 249 
0 0 253 
0 0 246 
0 0 248 
0 0 250 
0 0 245 
0 0 253 
0 0 248 
0 0 249 
95 107 249 
191 215 255 
200 224 255 
200 224 255 
199 224 255 
199 224 255 
199 224 255 
199 224 255 
199 223 255 
199 223 255 
199 223 255 
199 223 255 
199 223 255 
199 223 255 
199 223 255 
199 223 255 
199 223 255 
199 223 255 
199 223 255 
199 223 255 
199 223 255 
199 223 255 
199 223 255 
199 223 255 
199 223 255 
199 223 255 
199 223 255 
199 223 255 
199 223 255 
199 223 255 
199 223 255 
198 223 255 
198 223 255 
198 223 255 
198 223 255 
198 223 255 
198 223 255 
198 223 255 
198 223 255 
198 223 255 
198 223 255 
198 223 255 
198 223 255 
198 223 255 
198 223 255 
198 223 255 
198 223 255 
198 223 255 
198 223 255 
198 223 255 
198 223 255 
198 223 255 
198 223 255 
198 223 255 
198 223 255 
198 223 255 
198 223 255 
198 223 255 
198 223 255 
198 223 255 
198 223 255 
198 223 255 
198 223 255 
198 223 255 
198 223 255 
198 223 255 
198 223 255 
198 223 255 
198 223 255 
198 223 255 
198 223 255 
199 223 255 
199 223 255 
199 223 255 
199 223 255 
199 223 255 
199 223 255 
199 223 255 
199 223 255 
199 223 255 
199 223 255 
199 223 255 
199 223 255 
199 223 255 
199 223 255 
199 223 255 
199 223 255 
199 223 255 
199 223 255 
199 223 255 
199 223 255 
199 223 255 
199 223 255 
199 223 255 
199 224 255 
199 224 255 
199 224 255 
199 224 255 
200 224 255 
200 224 255 
200 212 242 
196 107 122 
193 0 0 
192 0 0 
198 0 0 
197 0 0 
193 0 0 
202 0 0 
199 0 0 
193 0 0 
197 0 0 
197 0 0 
199 0 0 
203 0 0 
202 0 0 
201 0 0 
195 0 0 
202 0 0 
200 0 0 
197 0 0 
198 0 0 
200 0 0 
201 0 0 
199 0 0 
200 0 0 
200 0 0 
195 0 0 
201 0 0 
201 0 0 
205 0 0 
202 0 0 
201 0 0 
198 0 0 
201 0 0 
203 0 0 
202 0 0 
200 0 0 
205 0 0 
205 0 0 
206 0 0 
197 0 0 
207 0 0 
202 0 0 
204 0 0 
201 0 0 
203 0 0 
206 0 0 
209 0 0 
205 0 0 
207 0 0 
206 0 0 
206 0 0 
210 0 0 
205 0 0 
207 0 0 
206 0 0 
204 0 0 
208 0 0 
207 0 0 
207 0 0 
206 0 0 
208 0 0 
207 0 0 
210 0 0 
209 0 0 
204 0 0 
209 0 0 
213 0 0 
211 0 0 
207 0 0 
211 0 0 
203 0 0 
209 0 0 
209 0 0 
208 0 0 
208 0 0 
207 0 0 
209 0 0 
209 0 0 
212 0 0 
209 0 0 
207 0 0 
210 0 0 
207 0 0 
204 0 0 
206 0 0 
204 0 0 
208 0 0 
212 0 0 
208 0 0 
210 0 0 
204 0 0 
211 0 0 
212 0 0 
210 0 0 
211 0 0 
211 0 0 
210 0 0 
212 0 0 
208 0 0 
210 0 0 
209 0 0 
209 0 0 
209 0 0 
207 0 0 
211 0 0 
210 0 0 
210 0 0 
212 0 0 
208 0 0 
214 0 0 
210 0 0 
213 0 0 
212 0 0 
209 0 0 
210 0 0 
212 0 0 
210 0 0 
214 0 0 
209 0 0 
212 0 0 
211 0 0 
212 0 0 
214 0 0 
212 0 0 
212 0 0 
208 0 0 
209 0 0 
209 0 0 
211 0 0 
212 0 0 
209 0 0 
213 0 0 
209 0 0 
209 0 0 
214 0 0 
208 0 0 
211 0 0 
211 0 0 
211 0 0 
209 0 0 
210 0 0 
210 0 0 
213 0 0 
212 0 0 
209 0 0 
213 0 0 
213 0 0 
215 0 0 
209 0 0 
209 0 0 
0 0 253 
0 0 255 
0 0 255 
0 0 255 
0 0 255 
0 0 254 
0 0 255 
0 0 255 
0 0 255 
0 0 255 
0 0 255 
0 0 255 
0 0 255 
0 0 255 
0 0 255 
0 0 254 
0 0 255 
0 0 253 
0 0 255 
0 0 254 
0 0 255 
0 0 254 
0 0 254 
0 0 253 
0 0 255 
0 0 255 
0 0 254 
0 0 254 
0 0 254 
0 0 254 
0 0 255 
0 0 255 
0 0 255 
0 0 254 
0 0 254 
0 0 254 
0 0 255 
0 0 255 
0 0 255 
0 0 255 
0 0 255 
0 0 255 
0 0 255 
0 0 255 
0 0 252 
0 0 253 
0 0 255 
0 0 254 
0 0 253 
0 0 255 
0 0 255 
0 0 255 
0 0 254 
0 0 254 
0 0 253 
0 0 255 
0 0 253 
0 0 253 
0 0 254 
0 0 255 
0 0 254 
0 0 255 
0 0 254 
0 0 253 
0 0 254 
0 0 254 
0 0 252 
0 0 254 
0 0 253 
0 0 255 
0 0 250 
0 0 254 
0 0 253 
0 0 255 
0 0 255 
0 0 255 
0 0 255 
0 0 248 
0 0 253 
0 0 254 
0 0 252 
0 0 253 
0 0 250 
0 0 250 
0 0 250 
0 0 252 
0 0 253 
0 0 252 
0 0 250 
0 0 252 
0 0 252 
0 0 252 
0 0 250 
0 0 253 
0 0 249 
0 0 249 
0 0 254 
0 0 253 
0 0 253 
0 0 252 
0 0 246 
0 0 253 
0 0 252 
0 0 252 
0 0 249 
0 0 253 
0 0 245 
0 0 252 
0 0 249 
0 0 250 
0 0 249 
0 0 252 
0 0 255 
0 0 248 
0 0 246 
0 0 250 
0 0 253 
0 0 250 
0 0 248 
0 0 250 
0 0 252 
0 0 248 
0 0 250 
0 0 242 
0 0 254 
0 0 246 
0 0 249 
0 0 250 
0 0 253 
0 0 249 
0 0 249 
0 0 249 
0 0 250 
0 0 249 
0 0 249 
0 0 248 
0 0 250 
0 0 249 
0 0 249 
0 0 242 
0 0 242 
0 0 248 
0 0 246 
0 0 244 
0 0 240 
0 0 246 
0 0 252 
0 0 246 
0 0 250 
0 0 252 
40 44 245 
155 173 250 
200 224 255 
200 224 255 
200 224 255 
200 224 255 
200 224 255 
199 224 255 
199 224 255 
199 224 255 
199 224 255 
199 223 255 
199 223 255 
199 223 255 
199 223 255 
199 223 255 
199 223 255 
199 223 255 
199 223 255 
199 223 255 
199 223 255 
199 223 255 
199 223 255 
199 223 255 
199 223 255 
199 223 255 
199 223 255 
199 223 255 
199 223 255 
199 223 255 
199 223 255 
199 223 255 
199 223 255 
199 223 255 
199 223 255 
199 223 255 
199 223 255 
199 223 255 
199 223 255 
199 223 255 
199 223 255 
198 223 255 
198 223 255 
198 223 255 
198 223 255 
198 223 255 
198 223 255 
198 223 255 
198 223 255 
198 223 255 
198 223 255 
198 223 255 
198 223 255 
198 223 255 
198 223 255 
198 223 255 
198 223 255 
198 223 255 
198 223 255 
198 223 255 
199 223 255 
199 223 255 
199 223 255 
199 223 255 
199 223 255 
199 223 255 
199 223 255 
199 223 255 
199 223 255 
199 223 255 
199 223 255 
199 223 255 
199 223 255 
199 223 255 
199 223 255 
199 223 255 
199 223 255 
199 223 255 
199 223 255 
199 223 255 
199 223 255 
199 223 255 
199 223 255 
199 223 255 
199 223 255 
199 223 255 
199 223 255 
199 223 255 
199 223 255 
199 224 255 
199 224 255 
199 224 255 
199 224 255 
200 224 255 
200 224 255 
200 224 255 
200 224 255 
200 224 255 
195 183 209 
197 44 51 
195 0 0 
194 0 0 
200 0 0 
198 0 0 
199 0 0 
192 0 0 
203 0 0 
198 0 0 
204 0 0 
197 0 0 
197 0 0 
201 0 0 
197 0 0 
204 0 0 
196 0 0 
201 0 0 
201 0 0 
197 0 0 
201 0 0 
202 0 0 
205 0 0 
197 0 0 
203 0 0 
198 0 0 
201 0 0 
206 0 0 
198 0 0 
207 0 0 
201 0 0 
204 0 0 
202 0 0 
205 0 0 
200 0 0 
203 0 0 
205 0 0 
204 0 0 
203 0 0 
205 0 0 
200 0 0 
203 0 0 
204 0 0 
207 0 0 
205 0 0 
208 0 0 
201 0 0 
204 0 0 
205 0 0 
205 0 0 
203 0 0 
202 0 0 
207 0 0 
206 0 0 
209 0 0 
205 0 0 
205 0 0 
207 0 0 
209 0 0 
210 0 0 
209 0 0 
208 0 0 
208 0 0 
205 0 0 
206 0 0 
208 0 0 
208 0 0 
209 0 0 
213 0 0 
211 0 0 
205 0 0 
207 0 0 
209 0 0 
209 0 0 
207 0 0 
210 0 0 
207 0 0 
208 0 0 
208 0 0 
209 0 0 
208 0 0 
208 0 0 
211 0 0 
211 0 0 
210 0 0 
212 0 0 
208 0 0 
208 0 0 
209 0 0 
212 0 0 
209 0 0 
207 0 0 
214 0 0 
211 0 0 
212 0 0 
205 0 0 
208 0 0 
209 0 0 
212 0 0 
211 0 0 
211 0 0 
212 0 0 
209 0 0 
207 0 0 
210 0 0 
212 0 0 
205 0 0 
214 0 0 
210 0 0 
209 0 0 
212 0 0 
209 0 0 
215 0 0 
209 0 0 
210 0 0 
212 0 0 
211 0 0 
213 0 0 
207 0 0 
213 0 0 
208 0 0 
215 0 0 
213 0 0 
211 0 0 
211 0 0 
207 0 0 
213 0 0 
208 0 0 
213 0 0 
213 0 0 
213 0 0 
208 0 0 
216 0 0 
210 0 0 
210 0 0 
211 0 0 
214 0 0 
212 0 0 
212 0 0 
214 0 0 
216 0 0 
209 0 0 
210 0 0 
211 0 0 
210 0 0 
213 0 0 
213 0 0 
210 0 0 
212 0 0 
210 0 0 
211 0 0 
210 0 0 
0 0 255 
0 0 255 
0 0 255 
0 0 255 
0 0 255 
0 0 255 
0 0 255 
0 0 255 
0 0 255 
0 0 255 
0 0 255 
0 0 254 
0 0 255 
0 0 255 
0 0 255 
0 0 255 
0 0 254 
0 0 255 
0 0 255 
0 0 254 
0 0 254 
0 0 255 
0 0 255 
0 0 255 
0 0 255 
0 0 254 
0 0 254 
0 0 254 
0 0 254 
0 0 255 
0 0 254 
0 0 255 
0 0 255 
0 0 255 
0 0 254 
0 0 255 
0 0 255 
0 0 255 
0 0 254 
0 0 255 
0 0 253 
0 0 254 
0 0 254 
0 0 255 
0 0 254 
0 0 255 
0 0 254 
0 0 255 
0 0 254 
0 0 254 
0 0 254 
0 0 254 
0 0 255 
0 0 255 
0 0 253 
0 0 253 
0 0 254 
0 0 255 
0 0 255 
0 0 254 
0 0 255 
0 0 254 
0 0 255 
0 0 254 
0 0 255 
0 0 255 
0 0 255 
0 0 254 
0 0 255 
0 0 254 
0 0 255 
0 0 250 
0 0 253 
0 0 253 
0 0 254 
0 0 254 
0 0 250 
0 0 254 
0 0 252 
0 0 253 
0 0 254 
0 0 255 
0 0 253 
0 0 253 
0 0 253 
0 0 253 
0 0 249 
0 0 252 
0 0 252 
0 0 255 
0 0 255 
0 0 255 
0 0 253 
0 0 250 
0 0 252 
0 0 250 
0 0 254 
0 0 253 
0 0 255 
0 0 252 
0 0 253 
0 0 249 
0 0 250 
0 0 253 
0 0 252 
0 0 250 
0 0 253 
0 0 249 
0 0 252 
0 0 253 
0 0 252 
0 0 252 
0 0 252 
0 0 250 
0 0 250 
0 0 244 
0 0 249 
0 0 248 
0 0 246 
0 0 249 
0 0 248 
0 0 254 
0 0 248 
0 0 253 
0 0 248 
0 0 249 
0 0 245 
0 0 245 
0 0 250 
0 0 238 
0 0 242 
0 0 249 
0 0 250 
0 0 249 
0 0 249 
0 0 248 
0 0 245 
0 0 249 
0 0 249 
0 0 248 
0 0 242 
0 0 252 
0 0 253 
0 0 241 
0 0 244 
0 0 246 
0 0 249 
0 0 246 
0 0 238 
0 0 242 
0 0 250 
0 0 245 
116 130 246 
192 215 254 
200 224 255 
200 224 255 
200 224 255 
200 224 255 
200 224 255 
200 224 255 
200 224 255 
200 224 255 
199 224 255 
199 224 255 
199 224 255 
199 224 255 
199 223 255 
199 223 255 
199 223 255 
199 223 255 
199 223 255 
199 223 255 
199 223 255 
199 223 255 
199 223 255 
199 223 255 
199 223 255 
199 223 255 
199 223 255 
199 223 255 
199 223 255 
199 223 255 
199 223 255 
199 223 255 
199 223 255 
199 223 255 
199 223 255 
199 223 255 
199 223 255 
199 223 255 
199 223 255 
199 223 255 
199 223 255 
199 223 255 
199 223 255 
199 223 255 
199 223 255 
199 223 255 
199 223 255 
199 223 255 
199 223 255 
199 223 255 
199 223 255 
199 223 255 
199 223 255 
199 223 255 
199 223 255 
199 223 255 
199 223 255 
199 223 255 
199 223 255 
199 223 255 
199 223 255 
199 223 255 
199 223 255 
199 223 255 
199 223 255 
199 223 255 
199 223 255 
199 223 255 
199 223 255 
199 223 255 
199 223 255 
199 223 255 
199 223 255 
199 223 255 
199 223 255 
199 223 255 
199 223 255 
199 223 255 
199 223 255 
199 223 255 
199 223 255 
199 223 255 
199 224 255 
199 224 255 
199 224 255 
199 224 255 
200 224 255 
200 224 255 
200 224 255 
200 224 255 
200 224 255 
200 224 255 
200 224 255 
200 224 255 
200 209 238 
197 128 147 
198 0 0 
191 0 0 
193 0 0 
198 0 0 
188 0 0 
188 0 0 
193 0 0 
198 0 0 
201 0 0 
192 0 0 
198 0 0 
196 0 0 
198 0 0 
201 0 0 
197 0 0 
200 0 0 
197 0 0 
196 0 0 
202 0 0 
198 0 0 
200 0 0 
204 0 0 
200 0 0 
205 0 0 
201 0 0 
196 0 0 
202 0 0 
205 0 0 
203 0 0 
205 0 0 
200 0 0 
203 0 0 
199 0 0 
206 0 0 
197 0 0 
205 0 0 
205 0 0 
205 0 0 
202 0 0 
208 0 0 
205 0 0 
207 0 0 
206 0 0 
202 0 0 
208 0 0 
201 0 0 
211 0 0 
206 0 0 
207 0 0 
208 0 0 
207 0 0 
202 0 0 
206 0 0 
208 0 0 
210 0 0 
205 0 0 
207 0 0 
206 0 0 
209 0 0 
207 0 0 
211 0 0 
207 0 0 
208 0 0 
204 0 0 
203 0 0 
209 0 0 
209 0 0 
208 0 0 
204 0 0 
211 0 0 
207 0 0 
208 0 0 
210 0 0 
207 0 0 
212 0 0 
207 0 0 
208 0 0 
211 0 0 
210 0 0 
206 0 0 
209 0 0 
210 0 0 
211 0 0 
210 0 0 
211 0 0 
210 0 0 
211 0 0 
209 0 0 
212 0 0 
208 0 0 
212 0 0 
211 0 0 
210 0 0 
213 0 0 
210 0 0 
207 0 0 
207 0 0 
209 0 0 
216 0 0 
210 0 0 
212 0 0 
213 0 0 
213 0 0 
208 0 0 
210 0 0 
214 0 0 
209 0 0 
213 0 0 
209 0 0 
210 0 0 
214 0 0 
210 0 0 
211 0 0 
214 0 0 
209 0 0 
211 0 0 
213 0 0 
213 0 0 
212 0 0 
213 0 0 
212 0 0 
210 0 0 
213 0 0 
213 0 0 
209 0 0 
213 0 0 
212 0 0 
213 0 0 
212 0 0 
213 0 0 
210 0 0 
209 0 0 
211 0 0 
213 0 0 
211 0 0 
211 0 0 
213 0 0 
208 0 0 
214 0 0 
212 0 0 
217 0 0 
210 0 0 
215 0 0 
214 0 0 
213 0 0 
215 0 0 
213 0 0 
212 0 0 
212 0 0 
215 0 0 
212 0 0 
214 0 0 
0 0 255 
0 0 255 
0 0 254 
0 0 255 
0 0 254 
0 0 255 
0 0 254 
0 0 255 
0 0 255 
0 0 255 
0 0 255 
0 0 255 
0 0 254 
0 0 255 
0 0 255 
0 0 255 
0 0 254 
0 0 255 
0 0 255 
0 0 255 
0 0 255 
0 0 254 
0 0 254 
0 0 254 
0 0 255 
0 0 254 
0 0 255 
0 0 254 
0 0 255 
0 0 255 
0 0 255 
0 0 255 
0 0 255 
0 0 255 
0 0 255 
0 0 255 
0 0 254 
0 0 255 
0 0 254 
0 0 255 
0 0 254 
0 0 255 
0 0 254 
0 0 255 
0 0 253 
0 0 254 
0 0 254 
0 0 254 
0 0 255 
0 0 254 
0 0 255 
0 0 255 
0 0 255 
0 0 255 
0 0 253 
0 0 254 
0 0 252 
0 0 255 
0 0 255 
0 0 255 
0 0 253 
0 0 254 
0 0 253 
0 0 250 
0 0 252 
0 0 255 
0 0 253 
0 0 254 
0 0 254 
0 0 255 
0 0 255 
0 0 254 
0 0 253 
0 0 253 
0 0 254 
0 0 252 
0 0 255 
0 0 255 
0 0 254 
0 0 254 
0 0 254 
0 0 253 
0 0 254 
0 0 249 
0 0 255 
0 0 252 
0 0 255 
0 0 253 
0 0 253 
0 0 249 
0 0 250 
0 0 250 
0 0 254 
0 0 254 
0 0 254 
0 0 254 
0 0 255 
0 0 250 
0 0 249 
0 0 250 
0 0 249 
0 0 250 
0 0 252 
0 0 249 
0 0 255 
0 0 254 
0 0 253 
0 0 253 
0 0 249 
0 0 250 
0 0 246 
0 0 253 
0 0 244 
0 0 250 
0 0 252 
0 0 252 
0 0 248 
0 0 250 
0 0 250 
0 0 248 
0 0 245 
0 0 249 
0 0 246 
0 0 246 
0 0 250 
0 0 245 
0 0 249 
0 0 249 
0 0 250 
0 0 254 
0 0 249 
0 0 248 
0 0 249 
0 0 248 
0 0 246 
0 0 242 
0 0 249 
0 0 246 
0 0 249 
0 0 246 
0 0 245 
0 0 249 
0 0 248 
0 0 244 
0 0 250 
0 0 249 
0 0 248 
0 0 249 
0 0 249 
0 0 248 
0 0 249 
0 0 248 
0 0 237 
56 63 245 
160 179 254 
200 224 255 
200 224 255 
200 224 255 
200 224 255 
200 224 255 
200 224 255 
200 224 255 
200 224 255 
200 224 255 
200 224 255 
200 224 255 
200 224 255 
199 224 255 
199 224 255 
199 224 255 
199 224 255 
199 223 255 
199 223 255 
199 223 255 
199 223 255 
199 223 255 
199 223 255 
199 223 255 
199 223 255 
199 223 255 
199 223 255 
199 223 255 
199 223 255 
199 223 255 
199 223 255 
199 223 255 
199 223 255 
199 223 255 
199 223 255 
199 223 255 
199 223 255 
199 223 255 
199 223 255 
199 223 255 
199 223 255 
199 223 255 
199 223 255 
199 223 255 
199 223 255 
199 223 255 
199 223 255 
199 223 255 
199 223 255 
199 223 255 
199 223 255 
199 223 255 
199 223 255 
199 223 255 
199 223 255 
199 223 255 
199 223 255 
199 223 255 
199 223 255 
199 223 255 
199 223 255 
199 223 255 
199 223 255 
199 223 255 
199 223 255 
199 223 255 
199 223 255 
199 223 255 
199 223 255 
199 223 255 
199 223 255 
199 223 255 
199 223 255 
199 223 255 
199 223 255 
199 224 255 
199 224 255 
199 224 255 
199 224 255 
200 224 255 
200 224 255 
200 224 255 
200 224 255 
200 224 255 
200 224 255 
200 224 255 
200 224 255 
200 224 255 
200 224 255 
200 224 255 
200 224 255 
197 185 211 
190 63 72 
190 0 0 
193 0 0 
194 0 0 
196 0 0 
189 0 0 
197 0 0 
194 0 0 
199 0 0 
196 0 0 
199 0 0 
194 0 0 
200 0 0 
194 0 0 
198 0 0 
195 0 0 
197 0 0 
197 0 0 
202 0 0 
199 0 0 
200 0 0 
196 0 0 
201 0 0 
205 0 0 
202 0 0 
205 0 0 
207 0 0 
206 0 0 
202 0 0 
204 0 0 
202 0 0 
202 0 0 
201 0 0 
198 0 0 
201 0 0 
207 0 0 
204 0 0 
200 0 0 
201 0 0 
201 0 0 
200 0 0 
203 0 0 
203 0 0 
209 0 0 
203 0 0 
207 0 0 
202 0 0 
207 0 0 
201 0 0 
206 0 0 
202 0 0 
202 0 0 
209 0 0 
207 0 0 
203 0 0 
201 0 0 
209 0 0 
208 0 0 
201 0 0 
205 0 0 
207 0 0 
205 0 0 
209 0 0 
210 0 0 
208 0 0 
211 0 0 
211 0 0 
210 0 0 
209 0 0 
210 0 0 
212 0 0 
208 0 0 
208 0 0 
204 0 0 
212 0 0 
211 0 0 
205 0 0 
209 0 0 
210 0 0 
209 0 0 
212 0 0 
213 0 0 
208 0 0 
212 0 0 
205 0 0 
211 0 0 
209 0 0 
210 0 0 
214 0 0 
213 0 0 
211 0 0 
208 0 0 
211 0 0 
211 0 0 
211 0 0 
213 0 0 
209 0 0 
210 0 0 
208 0 0 
210 0 0 
212 0 0 
211 0 0 
214 0 0 
211 0 0 
211 0 0 
210 0 0 
214 0 0 
211 0 0 
211 0 0 
211 0 0 
209 0 0 
209 0 0 
211 0 0 
210 0 0 
211 0 0 
212 0 0 
210 0 0 
211 0 0 
211 0 0 
214 0 0 
208 0 0 
215 0 0 
209 0 0 
213 0 0 
211 0 0 
208 0 0 
212 0 0 
211 0 0 
211 0 0 
210 0 0 
216 0 0 
214 0 0 
213 0 0 
211 0 0 
214 0 0 
209 0 0 
210 0 0 
214 0 0 
212 0 0 
211 0 0 
212 0 0 
212 0 0 
214 0 0 
214 0 0 
213 0 0 
211 0 0 
214 0 0 
215 0 0 
216 0 0 
210 0 0 
212 0 0 
212 0 0 
212 0 0 
213 0 0 
0 0 255 
0 0 255 
0 0 255 
0 0 255 
0 0 255 
0 0 255 
0 0 255 
0 0 255 
0 0 255 
0 0 255 
0 0 255 
0 0 255 
0 0 254 
0 0 255 
0 0 255 
0 0 255 
0 0 255 
0 0 254 
0 0 255 
0 0 255 
0 0 255 
0 0 255 
0 0 255 
0 0 253 
0 0 255 
0 0 255 
0 0 255 
0 0 254 
0 0 255 
0 0 255 
0 0 254 
0 0 254 
0 0 254 
0 0 254 
0 0 255 
0 0 255 
0 0 255 
0 0 255 
0 0 255 
0 0 254 
0 0 254 
0 0 253 
0 0 254 
0 0 255 
0 0 255 
0 0 254 
0 0 253 
0 0 253 
0 0 255 
0 0 255 
0 0 255 
0 0 254 
0 0 255 
0 0 253 
0 0 255 
0 0 253 
0 0 255 
0 0 255 
0 0 255 
0 0 254 
0 0 255 
0 0 255 
0 0 253 
0 0 252 
0 0 254 
0 0 255 
0 0 253 
0 0 255 
0 0 253 
0 0 252 
0 0 255 
0 0 254 
0 0 254 
0 0 254 
0 0 252 
0 0 253 
0 0 255 
0 0 255 
0 0 254 
0 0 254 
0 0 254 
0 0 254 
0 0 254 
0 0 249 
0 0 254 
0 0 254 
0 0 253 
0 0 255 
0 0 250 
0 0 253 
0 0 248 
0 0 254 
0 0 254 
0 0 252 
0 0 249 
0 0 253 
0 0 250 
0 0 249 
0 0 253 
0 0 254 
0 0 249 
0 0 254 
0 0 255 
0 0 253 
0 0 248 
0 0 254 
0 0 249 
0 0 248 
0 0 253 
0 0 249 
0 0 252 
0 0 250 
0 0 250 
0 0 250 
0 0 253 
0 0 249 
0 0 250 
0 0 246 
0 0 253 
0 0 252 
0 0 252 
0 0 252 
0 0 248 
0 0 248 
0 0 252 
0 0 250 
0 0 246 
0 0 250 
0 0 248 
0 0 249 
0 0 249 
0 0 245 
0 0 248 
0 0 242 
0 0 246 
0 0 244 
0 0 248 
0 0 249 
0 0 249 
0 0 244 
0 0 240 
0 0 250 
0 0 242 
0 0 250 
0 0 246 
0 0 246 
0 0 245 
0 0 242 
0 0 246 
0 0 248 
0 0 249 
0 0 248 
0 0 246 
0 0 242 
20 22 246 
136 152 253 
199 223 255 
200 224 255 
200 224 255 
200 224 255 
200 224 255 
200 224 255 
200 224 255 
200 224 255 
200 224 255 
200 224 255 
200 224 255 
200 224 255 
200 224 255 
200 224 255 
200 224 255 
200 224 255 
199 224 255 
199 224 255 
199 224 255 
199 224 255 
199 224 255 
199 224 255 
199 223 255 
199 223 255 
199 223 255 
199 223 255 
199 223 255 
199 223 255 
199 223 255 
199 223 255 
199 223 255 
199 223 255 
199 223 255 
199 223 255 
199 223 255 
199 223 255 
199 223 255 
199 223 255 
199 223 255 
199 223 255 
199 223 255 
199 223 255 
199 223 255 
199 223 255 
199 223 255 
199 223 255 
199 223 255 
199 223 255 
199 223 255 
199 223 255 
199 223 255 
199 223 255 
199 223 255 
199 223 255 
199 223 255 
199 223 255 
199 223 255 
199 223 255 
199 223 255 
199 223 255 
199 223 255 
199 223 255 
199 223 255 
199 223 255 
199 223 255 
199 223 255 
199 224 255 
199 224 255 
199 224 255 
199 224 255 
199 224 255 
199 224 255 
200 224 255 
200 224 255 
200 224 255 
200 224 255 
200 224 255 
200 224 255 
200 224 255 
200 224 255 
200 224 255 
200 224 255 
200 224 255 
200 224 255 
200 224 255 
200 224 255 
200 224 255 
200 224 255 
193 147 167 
198 0 0 
197 0 0 
188 0 0 
196 0 0 
195 0 0 
200 0 0 
191 0 0 
199 0 0 
195 0 0 
195 0 0 
195 0 0 
199 0 0 
201 0 0 
203 0 0 
201 0 0 
202 0 0 
200 0 0 
198 0 0 
197 0 0 
204 0 0 
202 0 0 
198 0 0 
204 0 0 
203 0 0 
197 0 0 
201 0 0 
200 0 0 
202 0 0 
202 0 0 
200 0 0 
203 0 0 
202 0 0 
201 0 0 
203 0 0 
201 0 0 
205 0 0 
203 0 0 
205 0 0 
207 0 0 
205 0 0 
205 0 0 
204 0 0 
209 0 0 
204 0 0 
205 0 0 
200 0 0 
204 0 0 
206 0 0 
203 0 0 
204 0 0 
203 0 0 
204 0 0 
208 0 0 
207 0 0 
207 0 0 
206 0 0 
207 0 0 
203 0 0 
204 0 0 
206 0 0 
202 0 0 
206 0 0 
207 0 0 
202 0 0 
210 0 0 
208 0 0 
201 0 0 
213 0 0 
207 0 0 
212 0 0 
207 0 0 
206 0 0 
208 0 0 
202 0 0 
208 0 0 
206 0 0 
208 0 0 
211 0 0 
211 0 0 
211 0 0 
208 0 0 
212 0 0 
209 0 0 
211 0 0 
210 0 0 
211 0 0 
212 0 0 
207 0 0 
211 0 0 
208 0 0 
207 0 0 
210 0 0 
212 0 0 
210 0 0 
212 0 0 
214 0 0 
211 0 0 
208 0 0 
213 0 0 
208 0 0 
210 0 0 
211 0 0 
211 0 0 
213 0 0 
211 0 0 
212 0 0 
212 0 0 
212 0 0 
214 0 0 
211 0 0 
213 0 0 
210 0 0 
208 0 0 
210 0 0 
211 0 0 
213 0 0 
212 0 0 
211 0 0 
213 0 0 
208 0 0 
213 0 0 
211 0 0 
214 0 0 
213 0 0 
212 0 0 
212 0 0 
208 0 0 
215 0 0 
209 0 0 
212 0 0 
212 0 0 
211 0 0 
213 0 0 
210 0 0 
212 0 0 
213 0 0 
211 0 0 
212 0 0 
210 0 0 
213 0 0 
215 0 0 
215 0 0 
213 0 0 
213 0 0 
215 0 0 
211 0 0 
210 0 0 
214 0 0 
214 0 0 
214 0 0 
214 0 0 
208 0 0 
212 0 0 
216 0 0 
210 0 0 
0 0 255 
0 0 255 
0 0 255 
0 0 254 
0 0 255 
0 0 255 
0 0 255 
0 0 255 
0 0 255 
0 0 255 
0 0 255 
0 0 255 
0 0 255 
0 0 254 
0 0 255 
0 0 254 
0 0 255 
0 0 255 
0 0 255 
0 0 255 
0 0 255 
0 0 255 
0 0 255 
0 0 255 
0 0 255 
0 0 254 
0 0 255 
0 0 253 
0 0 253 
0 0 255 
0 0 254 
0 0 254 
0 0 255 
0 0 255 
0 0 255 
0 0 255 
0 0 255 
0 0 254 
0 0 254 
0 0 255 
0 0 254 
0 0 254 
0 0 254 
0 0 253 
0 0 255 
0 0 255 
0 0 254 
0 0 254 
0 0 254 
0 0 253 
0 0 255 
0 0 253 
0 0 254 
0 0 254 
0 0 254 
0 0 255 
0 0 253 
0 0 253 
0 0 253 
0 0 254 
0 0 253 
0 0 254 
0 0 250 
0 0 254 
0 0 254 
0 0 253 
0 0 255 
0 0 254 
0 0 255 
0 0 255 
0 0 253 
0 0 254 
0 0 252 
0 0 253 
0 0 252 
0 0 254 
0 0 250 
0 0 253 
0 0 255 
0 0 250 
0 0 250 
0 0 253 
0 0 252 
0 0 255 
0 0 253 
0 0 252 
0 0 252 
0 0 254 
0 0 253 
0 0 254 
0 0 253 
0 0 246 
0 0 250 
0 0 250 
0 0 253 
0 0 250 
0 0 250 
0 0 250 
0 0 253 
0 0 254 
0 0 252 
0 0 252 
0 0 253 
0 0 252 
0 0 249 
0 0 246 
0 0 246 
0 0 253 
0 0 253 
0 0 249 
0 0 248 
0 0 250 
0 0 253 
0 0 253 
0 0 252 
0 0 249 
0 0 253 
0 0 255 
0 0 245 
0 0 249 
0 0 248 
0 0 250 
0 0 249 
0 0 248 
0 0 250 
0 0 249 
0 0 253 
0 0 244 
0 0 254 
0 0 248 
0 0 248 
0 0 249 
0 0 249 
0 0 248 
0 0 252 
0 0 250 
0 0 245 
0 0 250 
0 0 248 
0 0 240 
0 0 245 
0 0 245 
0 0 242 
0 0 241 
0 0 248 
0 0 246 
0 0 248 
0 0 246 
0 0 248 
0 0 240 
0 0 250 
0 0 244 
0 0 244 
0 0 240 
0 0 245 
0 0 245 
91 102 250 
186 208 254 
200 224 255 
200 224 255 
200 224 255 
200 224 255 
200 224 255 
200 224 255 
200 224 255 
200 224 255 
200 224 255 
200 224 255 
200 224 255 
200 224 255 
200 224 255 
200 224 255 
200 224 255 
200 224 255 
200 224 255 
200 224 255 
200 224 255 
200 224 255 
200 224 255 
199 224 255 
199 224 255 
199 224 255 
199 224 255 
199 224 255 
199 224 255 
199 224 255 
199 224 255 
199 223 255 
199 223 255 
199 223 255 
199 223 255 
199 223 255 
199 223 255 
199 223 255 
199 223 255 
199 223 255 
199 223 255 
199 223 255 
199 223 255 
199 223 255 
199 223 255 
199 223 255 
199 223 255 
199 223 255 
199 223 255 
199 223 255 
199 223 255 
199 223 255 
199 223 255 
199 223 255 
199 223 255 
199 223 255 
199 223 255 
199 224 255 
199 224 255 
199 224 255 
199 224 255 
199 224 255 
199 224 255 
199 224 255 
200 224 255 
200 224 255 
200 224 255 
200 224 255 
200 224 255 
200 224 255 
200 224 255 
200 224 255 
200 224 255 
200 224 255 
200 224 255 
200 224 255 
200 224 255 
200 224 255 
200 224 255 
200 224 255 
200 224 255 
200 224 255 
200 224 255 
200 224 255 
200 224 255 
200 224 255 
199 214 244 
190 102 117 
189 0 0 
193 0 0 
193 0 0 
190 0 0 
196 0 0 
190 0 0 
191 0 0 
194 0 0 
193 0 0 
194 0 0 
201 0 0 
196 0 0 
198 0 0 
188 0 0 
198 0 0 
200 0 0 
200 0 0 
196 0 0 
197 0 0 
199 0 0 
196 0 0 
200 0 0 
200 0 0 
195 0 0 
202 0 0 
206 0 0 
199 0 0 
199 0 0 
203 0 0 
208 0 0 
204 0 0 
205 0 0 
201 0 0 
204 0 0 
203 0 0 
207 0 0 
206 0 0 
194 0 0 
199 0 0 
207 0 0 
197 0 0 
203 0 0 
205 0 0 
204 0 0 
204 0 0 
207 0 0 
203 0 0 
207 0 0 
202 0 0 
204 0 0 
206 0 0 
205 0 0 
206 0 0 
210 0 0 
210 0 0 
206 0 0 
206 0 0 
206 0 0 
208 0 0 
209 0 0 
205 0 0 
206 0 0 
211 0 0 
206 0 0 
205 0 0 
209 0 0 
210 0 0 
205 0 0 
208 0 0 
209 0 0 
205 0 0 
210 0 0 
206 0 0 
208 0 0 
211 0 0 
214 0 0 
209 0 0 
207 0 0 
208 0 0 
214 0 0 
210 0 0 
208 0 0 
208 0 0 
209 0 0 
209 0 0 
206 0 0 
211 0 0 
209 0 0 
209 0 0 
212 0 0 
212 0 0 
210 0 0 
209 0 0 
216 0 0 
211 0 0 
210 0 0 
209 0 0 
214 0 0 
213 0 0 
212 0 0 
213 0 0 
213 0 0 
212 0 0 
209 0 0 
212 0 0 
215 0 0 
210 0 0 
208 0 0 
212 0 0 
211 0 0 
211 0 0 
210 0 0 
211 0 0 
212 0 0 
213 0 0 
207 0 0 
213 0 0 
210 0 0 
207 0 0 
211 0 0 
211 0 0 
215 0 0 
212 0 0 
214 0 0 
214 0 0 
208 0 0 
211 0 0 
215 0 0 
210 0 0 
214 0 0 
210 0 0 
213 0 0 
212 0 0 
209 0 0 
210 0 0 
206 0 0 
212 0 0 
211 0 0 
211 0 0 
214 0 0 
216 0 0 
214 0 0 
213 0 0 
211 0 0 
217 0 0 
215 0 0 
215 0 0 
213 0 0 
212 0 0 
212 0 0 
214 0 0 
212 0 0 
211 0 0 
213 0 0 
211 0 0 
214 0 0 
0 0 255 
0 0 254 
0 0 255 
0 0 255 
0 0 255 
0 0 255 
0 0 255 
0 0 255 
0 0 255 
0 0 255 
0 0 255 
0 0 255 
0 0 255 
0 0 254 
0 0 255 
0 0 255 
0 0 255 
0 0 255 
0 0 255 
0 0 255 
0 0 255 
0 0 254 
0 0 255 
0 0 254 
0 0 255 
0 0 253 
0 0 255 
0 0 255 
0 0 254 
0 0 255 
0 0 254 
0 0 255 
0 0 255 
0 0 253 
0 0 255 
0 0 255 
0 0 255 
0 0 253 
0 0 253 
0 0 254 
0 0 255 
0 0 255 
0 0 253 
0 0 253 
0 0 255 
0 0 255 
0 0 255 
0 0 253 
0 0 253 
0 0 253 
0 0 255 
0 0 255 
0 0 250 
0 0 255 
0 0 255 
0 0 253 
0 0 254 
0 0 255 
0 0 253 
0 0 252 
0 0 250 
0 0 254 
0 0 254 
0 0 253 
0 0 253 
0 0 253 
0 0 254 
0 0 254 
0 0 254 
0 0 255 
0 0 254 
0 0 249 
0 0 252 
0 0 250 
0 0 255 
0 0 253 
0 0 254 
0 0 255 
0 0 254 
0 0 253 
0 0 254 
0 0 252 
0 0 252 
0 0 254 
0 0 252 
0 0 253 
0 0 253 
0 0 253 
0 0 248 
0 0 253 
0 0 250 
0 0 253 
0 0 250 
0 0 252 
0 0 253 
0 0 252 
0 0 252 
0 0 254 
0 0 253 
0 0 250 
0 0 253 
0 0 252 
0 0 253 
0 0 250 
0 0 252 
0 0 250 
0 0 253 
0 0 249 
0 0 254 
0 0 249 
0 0 252 
0 0 246 
0 0 249 
0 0 249 
0 0 255 
0 0 248 
0 0 245 
0 0 246 
0 0 254 
0 0 250 
0 0 249 
0 0 252 
0 0 249 
0 0 254 
0 0 248 
0 0 245 
0 0 248 
0 0 248 
0 0 244 
0 0 248 
0 0 246 
0 0 253 
0 0 250 
0 0 244 
0 0 248 
0 0 248 
0 0 245 
0 0 249 
0 0 246 
0 0 248 
0 0 240 
0 0 246 
0 0 242 
0 0 241 
0 0 245 
0 0 244 
0 0 244 
0 0 245 
0 0 246 
0 0 244 
0 0 245 
0 0 248 
0 0 241 
0 0 242 
0 0 246 
0 0 242 
0 0 236 
53 59 252 
170 190 254 
200 224 255 
200 224 255 
200 224 255 
200 224 255 
200 224 255 
200 224 255 
200 224 255 
200 224 255 
200 224 255 
200 224 255 
200 224 255 
200 224 255 
200 224 255 
200 224 255 
200 224 255 
200 224 255 
200 224 255 
200 224 255 
200 224 255 
200 224 255 
200 224 255 
200 224 255 
200 224 255 
200 224 255 
200 224 255 
200 224 255 
200 224 255 
200 224 255 
200 224 255 
200 224 255 
200 224 255 
200 224 255 
199 224 255 
199 224 255 
199 224 255 
199 224 255 
199 224 255 
199 224 255 
199 224 255 
199 224 255 
199 224 255 
199 224 255 
199 224 255 
199 224 255 
199 224 255 
199 224 255 
199 224 255 
199 224 255 
199 224 255 
199 224 255 
200 224 255 
200 224 255 
200 224 255 
200 224 255 
200 224 255 
200 224 255 
200 224 255 
200 224 255 
200 224 255 
200 224 255 
200 224 255 
200 224 255 
200 224 255 
200 224 255 
200 224 255 
200 224 255 
200 224 255 
200 224 255 
200 224 255 
200 224 255 
200 224 255 
200 224 255 
200 224 255 
200 224 255 
200 224 255 
200 224 255 
200 224 255 
200 224 255 
200 224 255 
200 224 255 
200 224 255 
200 224 255 
199 199 227 
193 74 84 
195 0 0 
192 0 0 
194 0 0 
193 0 0 
198 0 0 
190 0 0 
199 0 0 
191 0 0 
196 0 0 
199 0 0 
196 0 0 
198 0 0 
193 0 0 
198 0 0 
201 0 0 
197 0 0 
199 0 0 
200 0 0 
194 0 0 
204 0 0 
204 0 0 
200 0 0 
203 0 0 
200 0 0 
204 0 0 
198 0 0 
201 0 0 
200 0 0 
207 0 0 
206 0 0 
206 0 0 
203 0 0 
203 0 0 
200 0 0 
201 0 0 
206 0 0 
197 0 0 
201 0 0 
207 0 0 
205 0 0 
207 0 0 
208 0 0 
203 0 0 
205 0 0 
208 0 0 
207 0 0 
205 0 0 
205 0 0 
207 0 0 
201 0 0 
210 0 0 
203 0 0 
206 0 0 
210 0 0 
207 0 0 
206 0 0 
205 0 0 
207 0 0 
205 0 0 
209 0 0 
204 0 0 
203 0 0 
211 0 0 
209 0 0 
205 0 0 
204 0 0 
211 0 0 
210 0 0 
207 0 0 
208 0 0 
209 0 0 
207 0 0 
210 0 0 
206 0 0 
208 0 0 
206 0 0 
210 0 0 
205 0 0 
208 0 0 
206 0 0 
212 0 0 
205 0 0 
206 0 0 
210 0 0 
207 0 0 
210 0 0 
211 0 0 
206 0 0 
209 0 0 
211 0 0 
211 0 0 
207 0 0 
210 0 0 
211 0 0 
209 0 0 
215 0 0 
212 0 0 
207 0 0 
211 0 0 
213 0 0 
208 0 0 
205 0 0 
208 0 0 
211 0 0 
211 0 0 
211 0 0 
215 0 0 
210 0 0 
210 0 0 
213 0 0 
211 0 0 
211 0 0 
213 0 0 
210 0 0 
214 0 0 
214 0 0 
208 0 0 
211 0 0 
215 0 0 
211 0 0 
212 0 0 
214 0 0 
212 0 0 
212 0 0 
213 0 0 
210 0 0 
213 0 0 
211 0 0 
215 0 0 
211 0 0 
211 0 0 
213 0 0 
213 0 0 
215 0 0 
213 0 0 
214 0 0 
210 0 0 
212 0 0 
215 0 0 
212 0 0 
208 0 0 
211 0 0 
213 0 0 
210 0 0 
212 0 0 
215 0 0 
212 0 0 
214 0 0 
213 0 0 
215 0 0 
215 0 0 
214 0 0 
212 0 0 
213 0 0 
213 0 0 
211 0 0 
215 0 0 
0 0 255 
0 0 255 
0 0 255 
0 0 255 
0 0 255 
0 0 255 
0 0 255 
0 0 254 
0 0 255 
0 0 255 
0 0 255 
0 0 255 
0 0 255 
0 0 255 
0 0 254 
0 0 252 
0 0 255 
0 0 255 
0 0 254 
0 0 255 
0 0 255 
0 0 255 
0 0 255 
0 0 255 
0 0 254 
0 0 255 
0 0 255 
0 0 255 
0 0 255 
0 0 255 
0 0 254 
0 0 255 
0 0 255 
0 0 254 
0 0 253 
0 0 255 
0 0 254 
0 0 255 
0 0 254 
0 0 255 
0 0 254 
0 0 254 
0 0 255 
0 0 255 
0 0 252 
0 0 254 
0 0 255 
0 0 254 
0 0 255 
0 0 255 
0 0 255 
0 0 255 
0 0 253 
0 0 254 
0 0 254 
0 0 255 
0 0 254 
0 0 253 
0 0 253 
0 0 255 
0 0 255 
0 0 253 
0 0 253 
0 0 252 
0 0 253 
0 0 255 
0 0 255 
0 0 254 
0 0 252 
0 0 254 
0 0 253 
0 0 255 
0 0 246 
0 0 253 
0 0 252 
0 0 255 
0 0 249 
0 0 250 
0 0 254 
0 0 252 
0 0 255 
0 0 253 
0 0 252 
0 0 252 
0 0 253 
0 0 254 
0 0 250 
0 0 254 
0 0 253 
0 0 254 
0 0 250 
0 0 253 
0 0 252 
0 0 255 
0 0 254 
0 0 252 
0 0 249 
0 0 250 
0 0 253 
0 0 250 
0 0 250 
0 0 252 
0 0 249 
0 0 252 
0 0 253 
0 0 252 
0 0 254 
0 0 252 
0 0 249 
0 0 252 
0 0 252 
0 0 252 
0 0 250 
0 0 249 
0 0 249 
0 0 248 
0 0 253 
0 0 245 
0 0 248 
0 0 252 
0 0 248 
0 0 252 
0 0 249 
0 0 249 
0 0 253 
0 0 249 
0 0 253 
0 0 252 
0 0 249 
0 0 248 
0 0 244 
0 0 244 
0 0 242 
0 0 245 
0 0 248 
0 0 248 
0 0 241 
0 0 249 
0 0 244 
0 0 240 
0 0 248 
0 0 250 
0 0 241 
0 0 240 
0 0 241 
0 0 244 
0 0 246 
0 0 248 
0 0 248 
0 0 245 
0 0 242 
0 0 244 
0 0 244 
0 0 245 
0 0 246 
0 0 244 
0 0 236 
0 0 245 
0 0 242 
150 168 250 
200 223 255 
201 224 255 
200 224 255 
200 224 255 
200 224 255 
200 224 255 
200 224 255 
200 224 255 
200 224 255 
200 224 255 
200 224 255 
200 224 255 
200 224 255 
200 224 255 
200 224 255 
200 224 255 
200 224 255 
200 224 255 
200 224 255 
200 224 255 
200 224 255 
200 224 255 
200 224 255 
200 224 255 
200 224 255 
200 224 255 
200 224 255 
200 224 255 
200 224 255 
200 224 255 
200 224 255 
200 224 255 
200 224 255 
200 224 255 
200 224 255 
200 224 255 
200 224 255 
200 224 255 
200 224 255 
200 224 255 
200 224 255 
200 224 255 
200 224 255 
200 224 255 
200 224 255 
200 224 255 
200 224 255 
200 224 255 
200 224 255 
200 224 255 
200 224 255 
200 224 255 
200 224 255 
200 224 255 
200 224 255 
200 224 255 
200 224 255 
200 224 255 
200 224 255 
200 224 255 
200 224 255 
200 224 255 
200 224 255 
200 224 255 
200 224 255 
200 224 255 
200 224 255 
200 224 255 
200 224 255 
200 224 255 
200 224 255 
200 224 255 
200 224 255 
200 224 255 
200 224 255 
200 224 255 
200 224 255 
200 224 255 
201 224 255 
201 224 255 
198 163 186 
189 31 36 
191 0 0 
192 0 0 
183 0 0 
188 0 0 
195 0 0 
199 0 0 
191 0 0 
196 0 0 
198 0 0 
192 0 0 
199 0 0 
197 0 0 
199 0 0 
195 0 0 
197 0 0 
198 0 0 
196 0 0 
198 0 0 
200 0 0 
198 0 0 
204 0 0 
201 0 0 
206 0 0 
201 0 0 
198 0 0 
194 0 0 
199 0 0 
195 0 0 
198 0 0 
207 0 0 
203 0 0 
198 0 0 
205 0 0 
199 0 0 
204 0 0 
208 0 0 
206 0 0 
200 0 0 
208 0 0 
200 0 0 
206 0 0 
207 0 0 
203 0 0 
203 0 0 
205 0 0 
200 0 0 
207 0 0 
200 0 0 
211 0 0 
209 0 0 
210 0 0 
207 0 0 
210 0 0 
205 0 0 
206 0 0 
203 0 0 
208 0 0 
210 0 0 
209 0 0 
208 0 0 
201 0 0 
204 0 0 
208 0 0 
209 0 0 
205 0 0 
207 0 0 
208 0 0 
213 0 0 
210 0 0 
212 0 0 
207 0 0 
205 0 0 
204 0 0 
211 0 0 
209 0 0 
207 0 0 
207 0 0 
216 0 0 
211 0 0 
209 0 0 
208 0 0 
211 0 0 
212 0 0 
204 0 0 
209 0 0 
209 0 0 
207 0 0 
209 0 0 
212 0 0 
215 0 0 
205 0 0 
210 0 0 
207 0 0 
212 0 0 
212 0 0 
210 0 0 
212 0 0 
208 0 0 
217 0 0 
209 0 0 
213 0 0 
209 0 0 
208 0 0 
209 0 0 
214 0 0 
211 0 0 
210 0 0 
213 0 0 
211 0 0 
212 0 0 
211 0 0 
214 0 0 
212 0 0 
212 0 0 
212 0 0 
210 0 0 
212 0 0 
215 0 0 
212 0 0 
210 0 0 
211 0 0 
211 0 0 
211 0 0 
212 0 0 
213 0 0 
214 0 0 
216 0 0 
213 0 0 
213 0 0 
210 0 0 
213 0 0 
214 0 0 
206 0 0 
214 0 0 
211 0 0 
213 0 0 
214 0 0 
212 0 0 
214 0 0 
212 0 0 
211 0 0 
214 0 0 
208 0 0 
216 0 0 
213 0 0 
213 0 0 
212 0 0 
215 0 0 
211 0 0 
212 0 0 
213 0 0 
212 0 0 
215 0 0 
214 0 0 
212 0 0 
210 0 0 
212 0 0 
210 0 0 
0 0 255 
0 0 255 
0 0 255 
0 0 255 
0 0 255 
0 0 255 
0 0 255 
0 0 255 
0 0 255 
0 0 255 
0 0 254 
0 0 254 
0 0 255 
0 0 255 
0 0 255 
0 0 254 
0 0 255 
0 0 255 
0 0 255 
0 0 255 
0 0 255 
0 0 253 
0 0 254 
0 0 255 
0 0 254 
0 0 254 
0 0 255 
0 0 255 
0 0 254 
0 0 255 
0 0 254 
0 0 252 
0 0 255 
0 0 254 
0 0 254 
0 0 255 
0 0 254 
0 0 254 
0 0 255 
0 0 254 
0 0 254 
0 0 254 
0 0 254 
0 0 253 
0 0 254 
0 0 255 
0 0 253 
0 0 254 
0 0 254 
0 0 254 
0 0 254 
0 0 255 
0 0 255 
0 0 253 
0 0 254 
0 0 254 
0 0 254 
0 0 253 
0 0 254 
0 0 255 
0 0 253 
0 0 255 
0 0 252 
0 0 254 
0 0 253 
0 0 255 
0 0 253 
0 0 253 
0 0 253 
0 0 254 
0 0 250 
0 0 254 
0 0 250 
0 0 255 
0 0 254 
0 0 250 
0 0 255 
0 0 253 
0 0 253 
0 0 255 
0 0 253 
0 0 254 
0 0 252 
0 0 250 
0 0 253 
0 0 255 
0 0 253 
0 0 254 
0 0 252 
0 0 248 
0 0 253 
0 0 252 
0 0 252 
0 0 252 
0 0 252 
0 0 250 
0 0 250 
0 0 253 
0 0 249 
0 0 250 
0 0 248 
0 0 250 
0 0 253 
0 0 250 
0 0 252 
0 0 252 
0 0 250 
0 0 246 
0 0 252 
0 0 250 
0 0 246 
0 0 254 
0 0 250 
0 0 250 
0 0 252 
0 0 250 
0 0 249 
0 0 245 
0 0 250 
0 0 248 
0 0 248 
0 0 246 
0 0 246 
0 0 248 
0 0 249 
0 0 255 
0 0 252 
0 0 252 
0 0 245 
0 0 250 
0 0 248 
0 0 250 
0 0 249 
0 0 242 
0 0 249 
0 0 242 
0 0 248 
0 0 250 
0 0 241 
0 0 252 
0 0 249 
0 0 252 
0 0 250 
0 0 252 
0 0 244 
0 0 245 
0 0 238 
0 0 246 
0 0 240 
0 0 245 
0 0 252 
0 0 246 
0 0 237 
0 0 238 
0 0 234 
0 0 244 
0 0 249 
0 0 236 
0 0 244 
0 0 244 
122 136 248 
195 217 255 
201 224 255 
201 224 255 
201 224 255 
201 224 255 
201 224 255 
201 224 255 
200 224 255 
200 224 255 
200 224 255 
200 224 255 
200 224 255 
200 224 255 
200 224 255 
200 224 255 
200 224 255 
200 224 255 
200 224 255 
200 224 255 
200 224 255 
200 224 255 
200 224 255 
200 224 255 
200 224 255 
200 224 255 
200 224 255 
200 224 255 
200 224 255 
200 224 255 
200 224 255 
200 224 255 
200 224 255 
200 224 255 
200 224 255 
200 224 255 
200 224 255 
200 224 255 
200 224 255 
200 224 255 
200 224 255 
200 224 255 
200 224 255 
200 224 255 
200 224 255 
200 224 255 
200 224 255 
200 224 255 
200 224 255 
200 224 255 
200 224 255 
200 224 255 
200 224 255 
200 224 255 
200 224 255 
200 224 255 
200 224 255 
200 224 255 
200 224 255 
200 224 255 
200 224 255 
200 224 255 
200 224 255 
200 224 255 
200 224 255 
200 224 255 
200 224 255 
200 224 255 
200 224 255 
200 224 255 
200 224 255 
200 224 255 
200 224 255 
201 224 255 
201 224 255 
201 224 255 
201 224 255 
201 224 255 
201 220 250 
196 125 142 
189 0 0 
194 0 0 
200 0 0 
193 0 0 
197 0 0 
194 0 0 
193 0 0 
191 0 0 
196 0 0 
192 0 0 
195 0 0 
197 0 0 
201 0 0 
192 0 0 
198 0 0 
203 0 0 
195 0 0 
197 0 0 
199 0 0 
193 0 0 
188 0 0 
204 0 0 
201 0 0 
200 0 0 
204 0 0 
202 0 0 
200 0 0 
204 0 0 
203 0 0 
202 0 0 
202 0 0 
200 0 0 
200 0 0 
200 0 0 
200 0 0 
193 0 0 
206 0 0 
202 0 0 
198 0 0 
203 0 0 
200 0 0 
200 0 0 
202 0 0 
204 0 0 
205 0 0 
210 0 0 
206 0 0 
203 0 0 
206 0 0 
201 0 0 
205 0 0 
204 0 0 
202 0 0 
205 0 0 
208 0 0 
205 0 0 
211 0 0 
208 0 0 
202 0 0 
207 0 0 
208 0 0 
208 0 0 
206 0 0 
209 0 0 
208 0 0 
214 0 0 
210 0 0 
197 0 0 
208 0 0 
208 0 0 
212 0 0 
211 0 0 
208 0 0 
208 0 0 
211 0 0 
209 0 0 
210 0 0 
206 0 0 
210 0 0 
205 0 0 
210 0 0 
205 0 0 
205 0 0 
212 0 0 
207 0 0 
209 0 0 
214 0 0 
211 0 0 
209 0 0 
203 0 0 
214 0 0 
212 0 0 
209 0 0 
207 0 0 
213 0 0 
211 0 0 
212 0 0 
212 0 0 
208 0 0 
211 0 0 
209 0 0 
212 0 0 
214 0 0 
209 0 0 
209 0 0 
214 0 0 
213 0 0 
211 0 0 
210 0 0 
214 0 0 
211 0 0 
216 0 0 
213 0 0 
212 0 0 
211 0 0 
211 0 0 
214 0 0 
213 0 0 
215 0 0 
212 0 0 
208 0 0 
210 0 0 
208 0 0 
211 0 0 
209 0 0 
208 0 0 
211 0 0 
214 0 0 
211 0 0 
209 0 0 
213 0 0 
213 0 0 
212 0 0 
211 0 0 
213 0 0 
210 0 0 
210 0 0 
213 0 0 
211 0 0 
212 0 0 
216 0 0 
216 0 0 
215 0 0 
214 0 0 
212 0 0 
214 0 0 
214 0 0 
211 0 0 
213 0 0 
215 0 0 
213 0 0 
211 0 0 
213 0 0 
214 0 0 
215 0 0 
212 0 0 
211 0 0 
215 0 0 
211 0 0 
217 0 0 
0 0 255 
0 0 255 
0 0 255 
0 0 255 
0 0 255 
0 0 255 
0 0 255 
0 0 255 
0 0 255 
0 0 255 
0 0 255 
0 0 255 
0 0 255 
0 0 255 
0 0 254 
0 0 255 
0 0 255 
0 0 255 
0 0 255 
0 0 254 
0 0 255 
0 0 255 
0 0 255 
0 0 255 
0 0 254 
0 0 254 
0 0 254 
0 0 255 
0 0 254 
0 0 255 
0 0 254 
0 0 255 
0 0 255 
0 0 255 
0 0 254 
0 0 254 
0 0 255 
0 0 255 
0 0 254 
0 0 255 
0 0 254 
0 0 255 
0 0 252 
0 0 253 
0 0 255 
0 0 254 
0 0 255 
0 0 255 
0 0 255 
0 0 254 
0 0 253 
0 0 253 
0 0 255 
0 0 254 
0 0 254 
0 0 252 
0 0 255 
0 0 253 
0 0 255 
0 0 255 
0 0 252 
0 0 254 
0 0 255 
0 0 253 
0 0 254 
0 0 253 
0 0 254 
0 0 254 
0 0 254 
0 0 255 
0 0 249 
0 0 252 
0 0 253 
0 0 255 
0 0 253 
0 0 248 
0 0 255 
0 0 254 
0 0 249 
0 0 254 
0 0 250 
0 0 254 
0 0 252 
0 0 254 
0 0 249 
0 0 254 
0 0 252 
0 0 254 
0 0 250 
0 0 254 
0 0 253 
0 0 252 
0 0 252 
0 0 253 
0 0 254 
0 0 252 
0 0 252 
0 0 249 
0 0 250 
0 0 246 
0 0 252 
0 0 254 
0 0 254 
0 0 253 
0 0 250 
0 0 250 
0 0 249 
0 0 249 
0 0 248 
0 0 253 
0 0 253 
0 0 249 
0 0 245 
0 0 248 
0 0 250 
0 0 252 
0 0 250 
0 0 245 
0 0 249 
0 0 248 
0 0 248 
0 0 245 
0 0 245 
0 0 248 
0 0 249 
0 0 250 
0 0 246 
0 0 248 
0 0 245 
0 0 245 
0 0 250 
0 0 249 
0 0 242 
0 0 241 
0 0 244 
0 0 249 
0 0 246 
0 0 246 
0 0 241 
0 0 242 
0 0 242 
0 0 246 
0 0 245 
0 0 246 
0 0 250 
0 0 237 
0 0 241 
0 0 242 
0 0 246 
0 0 246 
0 0 242 
0 0 245 
0 0 244 
0 0 248 
0 0 244 
0 0 245 
0 0 237 
0 0 250 
0 0 241 
0 0 240 
0 0 241 
63 71 248 
188 210 254 
201 224 255 
201 224 255 
201 224 255 
201 224 255 
201 224 255 
201 224 255 
201 224 255 
201 224 255 
201 224 255 
201 224 255 
200 224 255 
200 224 255 
200 224 255 
200 224 255 
200 224 255 
200 224 255 
200 224 255 
200 224 255 
200 224 255 
200 224 255 
200 224 255 
200 224 255 
200 224 255 
200 224 255 
200 224 255 
200 224 255 
200 224 255 
200 224 255 
200 224 255 
200 224 255 
200 224 255 
200 224 255 
200 224 255 
200 224 255 
200 224 255 
200 224 255 
200 224 255 
200 224 255 
200 224 255 
200 224 255 
200 224 255 
200 224 255 
200 224 255 
200 224 255 
200 224 255 
200 224 255 
200 224 255 
200 224 255 
200 224 255 
200 224 255 
200 224 255 
200 224 255 
200 224 255 
200 224 255 
200 224 255 
200 224 255 
200 224 255 
200 224 255 
200 224 255 
200 224 255 
200 224 255 
200 224 255 
200 224 255 
201 224 255 
201 224 255 
201 224 255 
201 224 255 
201 224 255 
201 224 255 
201 224 255 
201 224 255 
201 224 255 
201 224 255 
201 224 255 
202 210 240 
193 97 111 
188 0 0 
191 0 0 
199 0 0 
189 0 0 
192 0 0 
193 0 0 
192 0 0 
192 0 0 
192 0 0 
197 0 0 
196 0 0 
189 0 0 
194 0 0 
206 0 0 
196 0 0 
200 0 0 
199 0 0 
198 0 0 
201 0 0 
197 0 0 
198 0 0 
197 0 0 
200 0 0 
201 0 0 
201 0 0 
197 0 0 
201 0 0 
197 0 0 
197 0 0 
208 0 0 
204 0 0 
205 0 0 
203 0 0 
202 0 0 
203 0 0 
202 0 0 
203 0 0 
205 0 0 
199 0 0 
207 0 0 
206 0 0 
200 0 0 
201 0 0 
200 0 0 
199 0 0 
207 0 0 
210 0 0 
206 0 0 
203 0 0 
204 0 0 
204 0 0 
209 0 0 
209 0 0 
210 0 0 
207 0 0 
207 0 0 
204 0 0 
207 0 0 
206 0 0 
210 0 0 
204 0 0 
206 0 0 
209 0 0 
209 0 0 
208 0 0 
200 0 0 
205 0 0 
207 0 0 
210 0 0 
204 0 0 
206 0 0 
206 0 0 
209 0 0 
210 0 0 
214 0 0 
203 0 0 
213 0 0 
204 0 0 
207 0 0 
209 0 0 
207 0 0 
208 0 0 
209 0 0 
209 0 0 
206 0 0 
207 0 0 
211 0 0 
209 0 0 
209 0 0 
207 0 0 
211 0 0 
209 0 0 
210 0 0 
206 0 0 
211 0 0 
209 0 0 
209 0 0 
207 0 0 
209 0 0 
211 0 0 
207 0 0 
209 0 0 
212 0 0 
212 0 0 
214 0 0 
212 0 0 
214 0 0 
214 0 0 
210 0 0 
211 0 0 
212 0 0 
211 0 0 
213 0 0 
209 0 0 
212 0 0 
213 0 0 
213 0 0 
209 0 0 
215 0 0 
214 0 0 
212 0 0 
212 0 0 
212 0 0 
209 0 0 
213 0 0 
214 0 0 
215 0 0 
210 0 0 
215 0 0 
210 0 0 
212 0 0 
213 0 0 
214 0 0 
211 0 0 
214 0 0 
212 0 0 
212 0 0 
210 0 0 
212 0 0 
213 0 0 
210 0 0 
211 0 0 
211 0 0 
213 0 0 
211 0 0 
211 0 0 
212 0 0 
214 0 0 
211 0 0 
213 0 0 
211 0 0 
210 0 0 
216 0 0 
215 0 0 
218 0 0 
215 0 0 
209 0 0 
213 0 0 
215 0 0 
211 0 0 
214 0 0 
0 0 255 
0 0 255 
0 0 255 
0 0 255 
0 0 255 
0 0 255 
0 0 255 
0 0 255 
0 0 255 
0 0 255 
0 0 255 
0 0 255 
0 0 255 
0 0 253 
0 0 255 
0 0 255 
0 0 253 
0 0 255 
0 0 255 
0 0 254 
0 0 255 
0 0 255 
0 0 255 
0 0 255 
0 0 255 
0 0 255 
0 0 254 
0 0 255 
0 0 252 
0 0 254 
0 0 254 
0 0 255 
0 0 255 
0 0 255 
0 0 255 
0 0 254 
0 0 255 
0 0 253 
0 0 255 
0 0 254 
0 0 255 
0 0 255 
0 0 254 
0 0 252 
0 0 255 
0 0 254 
0 0 253 
0 0 254 
0 0 253 
0 0 255 
0 0 255 
0 0 252 
0 0 255 
0 0 253 
0 0 255 
0 0 254 
0 0 253 
0 0 254 
0 0 253 
0 0 252 
0 0 255 
0 0 254 
0 0 254 
0 0 255 
0 0 255 
0 0 254 
0 0 252 
0 0 254 
0 0 255 
0 0 255 
0 0 250 
0 0 253 
0 0 255 
0 0 254 
0 0 252 
0 0 252 
0 0 254 
0 0 254 
0 0 254 
0 0 254 
0 0 252 
0 0 250 
0 0 252 
0 0 253 
0 0 253 
0 0 254 
0 0 255 
0 0 248 
0 0 253 
0 0 254 
0 0 252 
0 0 250 
0 0 252 
0 0 249 
0 0 252 
0 0 249 
0 0 254 
0 0 250 
0 0 250 
0 0 253 
0 0 252 
0 0 252 
0 0 253 
0 0 253 
0 0 254 
0 0 245 
0 0 250 
0 0 252 
0 0 248 
0 0 246 
0 0 252 
0 0 246 
0 0 249 
0 0 248 
0 0 255 
0 0 244 
0 0 250 
0 0 246 
0 0 250 
0 0 253 
0 0 248 
0 0 252 
0 0 248 
0 0 244 
0 0 249 
0 0 248 
0 0 250 
0 0 242 
0 0 246 
0 0 242 
0 0 248 
0 0 244 
0 0 249 
0 0 246 
0 0 246 
0 0 245 
0 0 248 
0 0 246 
0 0 238 
0 0 245 
0 0 242 
0 0 245 
0 0 245 
0 0 248 
0 0 240 
0 0 246 
0 0 241 
0 0 244 
0 0 237 
0 0 246 
0 0 248 
0 0 240 
0 0 237 
0 0 244 
0 0 241 
0 0 245 
0 0 238 
0 0 241 
0 0 241 
0 0 241 
0 0 238 
0 0 245 
56 63 242 
184 206 253 
201 224 255 
201 224 255 
201 224 255 
201 224 255 
201 224 255 
201 224 255 
201 224 255 
201 224 255 
201 224 255 
201 224 255 
201 224 255 
201 224 255 
201 224 255 
201 224 255 
201 224 255 
201 224 255 
201 224 255 
201 224 255 
200 224 255 
200 224 255 
200 224 255 
200 224 255 
200 224 255 
200 224 255 
200 224 255 
200 224 255 
200 224 255 
200 224 255 
200 224 255 
200 224 255 
200 224 255 
200 224 255 
200 224 255 
200 224 255 
200 224 255 
200 224 255 
200 224 255 
200 224 255 
200 224 255 
200 224 255 
200 224 255 
200 224 255 
200 224 255 
200 224 255 
200 224 255 
200 224 255 
200 224 255 
200 224 255 
200 224 255 
200 224 255 
200 224 255 
200 224 255 
200 224 255 
200 224 255 
201 224 255 
201 224 255 
201 224 255 
201 224 255 
201 224 255 
201 224 255 
201 224 255 
201 224 255 
201 224 255 
201 224 255 
201 224 255 
201 224 255 
201 224 255 
201 224 255 
201 224 255 
201 224 255 
201 224 255 
201 224 255 
197 199 227 
189 44 51 
191 0 0 
190 0 0 
191 0 0 
182 0 0 
194 0 0 
194 0 0 
192 0 0 
194 0 0 
193 0 0 
183 0 0 
197 0 0 
193 0 0 
192 0 0 
194 0 0 
195 0 0 
191 0 0 
196 0 0 
195 0 0 
200 0 0 
201 0 0 
197 0 0 
195 0 0 
194 0 0 
199 0 0 
201 0 0 
200 0 0 
198 0 0 
203 0 0 
197 0 0 
197 0 0 
198 0 0 
201 0 0 
203 0 0 
208 0 0 
210 0 0 
207 0 0 
205 0 0 
199 0 0 
200 0 0 
202 0 0 
204 0 0 
206 0 0 
204 0 0 
205 0 0 
207 0 0 
208 0 0 
208 0 0 
210 0 0 
203 0 0 
202 0 0 
206 0 0 
206 0 0 
206 0 0 
207 0 0 
206 0 0 
202 0 0 
203 0 0 
207 0 0 
210 0 0 
204 0 0 
210 0 0 
209 0 0 
204 0 0 
208 0 0 
206 0 0 
209 0 0 
211 0 0 
207 0 0 
206 0 0 
210 0 0 
205 0 0 
208 0 0 
211 0 0 
208 0 0 
205 0 0 
210 0 0 
209 0 0 
206 0 0 
208 0 0 
211 0 0 
208 0 0 
205 0 0 
208 0 0 
212 0 0 
210 0 0 
209 0 0 
209 0 0 
204 0 0 
211 0 0 
213 0 0 
212 0 0 
213 0 0 
211 0 0 
213 0 0 
211 0 0 
214 0 0 
215 0 0 
210 0 0 
214 0 0 
214 0 0 
207 0 0 
206 0 0 
207 0 0 
208 0 0 
209 0 0 
209 0 0 
211 0 0 
211 0 0 
209 0 0 
208 0 0 
210 0 0 
208 0 0 
213 0 0 
208 0 0 
210 0 0 
212 0 0 
215 0 0 
210 0 0 
211 0 0 
212 0 0 
213 0 0 
212 0 0 
217 0 0 
214 0 0 
216 0 0 
210 0 0 
211 0 0 
212 0 0 
211 0 0 
215 0 0 
207 0 0 
215 0 0 
213 0 0 
212 0 0 
216 0 0 
214 0 0 
213 0 0 
210 0 0 
214 0 0 
213 0 0 
213 0 0 
213 0 0 
215 0 0 
213 0 0 
216 0 0 
210 0 0 
211 0 0 
211 0 0 
215 0 0 
214 0 0 
214 0 0 
212 0 0 
215 0 0 
214 0 0 
212 0 0 
214 0 0 
212 0 0 
215 0 0 
210 0 0 
215 0 0 
212 0 0 
214 0 0 
0 0 254 
0 0 253 
0 0 255 
0 0 255 
0 0 254 
0 0 255 
0 0 254 
0 0 255 
0 0 254 
0 0 255 
0 0 254 
0 0 255 
0 0 255 
0 0 255 
0 0 252 
0 0 255 
0 0 255 
0 0 254 
0 0 255 
0 0 255 
0 0 255 
0 0 253 
0 0 255 
0 0 255 
0 0 255 
0 0 255 
0 0 255 
0 0 255 
0 0 255 
0 0 254 
0 0 255 
0 0 255 
0 0 254 
0 0 254 
0 0 255 
0 0 254 
0 0 255 
0 0 255 
0 0 254 
0 0 255 
0 0 255 
0 0 253 
0 0 254 
0 0 254 
0 0 253 
0 0 253 
0 0 254 
0 0 254 
0 0 255 
0 0 255 
0 0 255 
0 0 255 
0 0 255 
0 0 254 
0 0 253 
0 0 253 
0 0 254 
0 0 255 
0 0 254 
0 0 254 
0 0 254 
0 0 252 
0 0 254 
0 0 253 
0 0 252 
0 0 253 
0 0 253 
0 0 254 
0 0 253 
0 0 255 
0 0 254 
0 0 253 
0 0 254 
0 0 254 
0 0 254 
0 0 253 
0 0 254 
0 0 253 
0 0 252 
0 0 252 
0 0 250 
0 0 252 
0 0 253 
0 0 255 
0 0 253 
0 0 250 
0 0 253 
0 0 253 
0 0 254 
0 0 253 
0 0 254 
0 0 254 
0 0 253 
0 0 254 
0 0 253 
0 0 254 
0 0 250 
0 0 249 
0 0 253 
0 0 254 
0 0 252 
0 0 250 
0 0 252 
0 0 252 
0 0 254 
0 0 246 
0 0 253 
0 0 246 
0 0 248 
0 0 250 
0 0 249 
0 0 249 
0 0 253 
0 0 246 
0 0 252 
0 0 253 
0 0 250 
0 0 249 
0 0 244 
0 0 252 
0 0 248 
0 0 242 
0 0 245 
0 0 249 
0 0 253 
0 0 252 
0 0 238 
0 0 252 
0 0 252 
0 0 248 
0 0 248 
0 0 246 
0 0 245 
0 0 250 
0 0 241 
0 0 244 
0 0 246 
0 0 245 
0 0 249 
0 0 248 
0 0 248 
0 0 248 
0 0 242 
0 0 249 
0 0 248 
0 0 244 
0 0 240 
0 0 242 
0 0 246 
0 0 242 
0 0 242 
0 0 244 
0 0 246 
0 0 248 
0 0 244 
0 0 245 
0 0 234 
0 0 241 
0 0 240 
0 0 252 
0 0 234 
0 0 238 
0 0 241 
28 31 237 
162 181 254 
201 225 255 
201 224 255 
201 224 255 
201 224 255 
201 224 255 
201 224 255 
201 224 255 
201 224 255 
201 224 255 
201 224 255 
201 224 255 
201 224 255 
201 224 255 
201 224 255 
201 224 255 
201 224 255 
201 224 255 
201 224 255 
201 224 255 
201 224 255 
201 224 255 
201 224 255 
201 224 255 
201 224 255 
201 224 255 
201 224 255 
201 224 255 
201 224 255 
201 224 255 
201 224 255 
201 224 255 
201 224 255 
201 224 255 
201 224 255 
201 224 255 
201 224 255 
201 224 255 
201 224 255 
201 224 255 
201 224 255 
201 224 255 
201 224 255 
201 224 255 
201 224 255 
201 224 255 
201 224 255 
201 224 255 
201 224 255 
201 224 255 
201 224 255 
201 224 255 
201 224 255 
201 224 255 
201 224 255 
201 224 255 
201 224 255 
201 224 255 
201 224 255 
201 224 255 
201 224 255 
201 224 255 
201 224 255 
201 224 255 
201 224 255 
201 224 255 
201 224 255 
201 224 255 
201 224 255 
201 224 255 
201 225 255 
199 186 212 
194 31 36 
189 0 0 
187 0 0 
196 0 0 
187 0 0 
191 0 0 
195 0 0 
197 0 0 
194 0 0 
189 0 0 
197 0 0 
193 0 0 
190 0 0 
194 0 0 
200 0 0 
195 0 0 
191 0 0 
201 0 0 
195 0 0 
192 0 0 
202 0 0 
190 0 0 
199 0 0 
205 0 0 
199 0 0 
198 0 0 
200 0 0 
203 0 0 
198 0 0 
198 0 0 
204 0 0 
202 0 0 
210 0 0 
206 0 0 
203 0 0 
208 0 0 
205 0 0 
203 0 0 
200 0 0 
198 0 0 
204 0 0 
205 0 0 
202 0 0 
202 0 0 
203 0 0 
206 0 0 
211 0 0 
200 0 0 
205 0 0 
206 0 0 
202 0 0 
207 0 0 
210 0 0 
208 0 0 
207 0 0 
203 0 0 
203 0 0 
205 0 0 
206 0 0 
207 0 0 
204 0 0 
210 0 0 
209 0 0 
205 0 0 
208 0 0 
207 0 0 
206 0 0 
206 0 0 
209 0 0 
213 0 0 
210 0 0 
209 0 0 
205 0 0 
207 0 0 
212 0 0 
207 0 0 
206 0 0 
208 0 0 
209 0 0 
205 0 0 
210 0 0 
209 0 0 
205 0 0 
211 0 0 
209 0 0 
214 0 0 
213 0 0 
211 0 0 
210 0 0 
209 0 0 
212 0 0 
210 0 0 
211 0 0 
210 0 0 
208 0 0 
210 0 0 
213 0 0 
212 0 0 
211 0 0 
208 0 0 
215 0 0 
206 0 0 
207 0 0 
211 0 0 
207 0 0 
214 0 0 
213 0 0 
213 0 0 
212 0 0 
210 0 0 
213 0 0 
210 0 0 
211 0 0 
210 0 0 
211 0 0 
211 0 0 
211 0 0 
212 0 0 
209 0 0 
213 0 0 
212 0 0 
211 0 0 
212 0 0 
214 0 0 
214 0 0 
212 0 0 
211 0 0 
215 0 0 
213 0 0 
215 0 0 
212 0 0 
212 0 0 
212 0 0 
214 0 0 
212 0 0 
210 0 0 
209 0 0 
212 0 0 
215 0 0 
213 0 0 
213 0 0 
213 0 0 
214 0 0 
212 0 0 
213 0 0 
215 0 0 
214 0 0 
210 0 0 
208 0 0 
214 0 0 
216 0 0 
214 0 0 
215 0 0 
217 0 0 
215 0 0 
214 0 0 
214 0 0 
215 0 0 
216 0 0 
214 0 0 
212 0 0 
215 0 0 
210 0 0 
213 0 0 
0 0 255 
0 0 254 
0 0 255 
0 0 255 
0 0 255 
0 0 255 
0 0 255 
0 0 255 
0 0 255 
0 0 255 
0 0 254 
0 0 255 
0 0 253 
0 0 255 
0 0 255 
0 0 255 
0 0 255 
0 0 254 
0 0 255 
0 0 255 
0 0 255 
0 0 252 
0 0 254 
0 0 255 
0 0 254 
0 0 255 
0 0 253 
0 0 254 
0 0 255 
0 0 255 
0 0 255 
0 0 254 
0 0 255 
0 0 255 
0 0 255 
0 0 250 
0 0 254 
0 0 255 
0 0 254 
0 0 254 
0 0 255 
0 0 254 
0 0 254 
0 0 254 
0 0 255 
0 0 254 
0 0 254 
0 0 255 
0 0 254 
0 0 255 
0 0 253 
0 0 254 
0 0 255 
0 0 254 
0 0 255 
0 0 254 
0 0 253 
0 0 255 
0 0 250 
0 0 254 
0 0 254 
0 0 253 
0 0 255 
0 0 254 
0 0 253 
0 0 254 
0 0 253 
0 0 254 
0 0 253 
0 0 253 
0 0 255 
0 0 253 
0 0 254 
0 0 255 
0 0 253 
0 0 253 
0 0 254 
0 0 253 
0 0 253 
0 0 254 
0 0 252 
0 0 254 
0 0 250 
0 0 254 
0 0 255 
0 0 253 
0 0 253 
0 0 249 
0 0 252 
0 0 252 
0 0 252 
0 0 255 
0 0 253 
0 0 252 
0 0 250 
0 0 253 
0 0 252 
0 0 249 
0 0 254 
0 0 246 
0 0 254 
0 0 252 
0 0 249 
0 0 254 
0 0 250 
0 0 252 
0 0 250 
0 0 253 
0 0 250 
0 0 250 
0 0 248 
0 0 242 
0 0 250 
0 0 248 
0 0 249 
0 0 245 
0 0 248 
0 0 252 
0 0 250 
0 0 244 
0 0 248 
0 0 248 
0 0 254 
0 0 249 
0 0 248 
0 0 244 
0 0 248 
0 0 245 
0 0 248 
0 0 250 
0 0 252 
0 0 245 
0 0 242 
0 0 252 
0 0 246 
0 0 241 
0 0 246 
0 0 244 
0 0 246 
0 0 246 
0 0 244 
0 0 246 
0 0 248 
0 0 244 
0 0 244 
0 0 245 
0 0 242 
0 0 245 
0 0 246 
0 0 230 
0 0 241 
0 0 242 
0 0 242 
0 0 244 
0 0 238 
0 0 245 
0 0 233 
0 0 240 
0 0 240 
0 0 240 
0 0 242 
0 0 240 
0 0 237 
0 0 234 
20 22 241 
146 163 242 
201 225 255 
201 225 255 
201 225 255 
201 225 255 
201 225 255 
201 225 255 
201 224 255 
201 224 255 
201 224 255 
201 224 255 
201 224 255 
201 224 255 
201 224 255 
201 224 255 
201 224 255 
201 224 255 
201 224 255 
201 224 255 
201 224 255 
201 224 255 
201 224 255 
201 224 255 
201 224 255 
201 224 255 
201 224 255 
201 224 255 
201 224 255 
201 224 255 
201 224 255 
201 224 255 
201 224 255 
201 224 255 
201 224 255 
201 224 255 
201 224 255 
201 224 255 
201 224 255 
201 224 255 
201 224 255 
201 224 255 
201 224 255 
201 224 255 
201 224 255 
201 224 255 
201 224 255 
201 224 255 
201 224 255 
201 224 255 
201 224 255 
201 224 255 
201 224 255 
201 224 255 
201 224 255 
201 224 255 
201 224 255 
201 224 255 
201 224 255 
201 224 255 
201 224 255 
201 224 255 
201 224 255 
201 224 255 
201 224 255 
201 225 255 
201 225 255 
201 225 255 
201 225 255 
201 225 255 
196 177 201 
191 22 25 
189 0 0 
191 0 0 
194 0 0 
192 0 0 
192 0 0 
190 0 0 
189 0 0 
190 0 0 
193 0 0 
190 0 0 
194 0 0 
196 0 0 
190 0 0 
196 0 0 
191 0 0 
194 0 0 
200 0 0 
199 0 0 
199 0 0 
197 0 0 
195 0 0 
206 0 0 
201 0 0 
198 0 0 
194 0 0 
204 0 0 
199 0 0 
207 0 0 
199 0 0 
200 0 0 
205 0 0 
205 0 0 
203 0 0 
203 0 0 
196 0 0 
202 0 0 
199 0 0 
204 0 0 
208 0 0 
206 0 0 
205 0 0 
204 0 0 
204 0 0 
202 0 0 
203 0 0 
205 0 0 
207 0 0 
207 0 0 
200 0 0 
206 0 0 
212 0 0 
205 0 0 
209 0 0 
198 0 0 
210 0 0 
205 0 0 
204 0 0 
207 0 0 
208 0 0 
202 0 0 
208 0 0 
210 0 0 
208 0 0 
207 0 0 
207 0 0 
210 0 0 
209 0 0 
212 0 0 
210 0 0 
209 0 0 
208 0 0 
208 0 0 
210 0 0 
212 0 0 
211 0 0 
209 0 0 
205 0 0 
211 0 0 
211 0 0 
213 0 0 
212 0 0 
213 0 0 
208 0 0 
212 0 0 
207 0 0 
209 0 0 
212 0 0 
207 0 0 
214 0 0 
212 0 0 
212 0 0 
208 0 0 
211 0 0 
211 0 0 
208 0 0 
209 0 0 
210 0 0 
212 0 0 
212 0 0 
213 0 0 
214 0 0 
212 0 0 
212 0 0 
214 0 0 
211 0 0 
209 0 0 
209 0 0 
209 0 0 
212 0 0 
210 0 0 
210 0 0 
215 0 0 
215 0 0 
213 0 0 
211 0 0 
210 0 0 
211 0 0 
211 0 0 
210 0 0 
213 0 0 
210 0 0 
215 0 0 
211 0 0 
212 0 0 
211 0 0 
212 0 0 
213 0 0 
213 0 0 
216 0 0 
209 0 0 
212 0 0 
213 0 0 
212 0 0 
213 0 0 
204 0 0 
213 0 0 
212 0 0 
215 0 0 
209 0 0 
213 0 0 
214 0 0 
212 0 0 
214 0 0 
214 0 0 
209 0 0 
214 0 0 
215 0 0 
211 0 0 
212 0 0 
217 0 0 
213 0 0 
213 0 0 
213 0 0 
214 0 0 
212 0 0 
215 0 0 
211 0 0 
216 0 0 
209 0 0 
213 0 0 
212 0 0 
216 0 0 
214 0 0 
213 0 0 
0 0 254 
0 0 255 
0 0 255 
0 0 255 
0 0 255 
0 0 255 
0 0 255 
0 0 255 
0 0 254 
0 0 255 
0 0 255 
0 0 255 
0 0 255 
0 0 255 
0 0 255 
0 0 255 
0 0 255 
0 0 255 
0 0 255 
0 0 255 
0 0 255 
0 0 255 
0 0 254 
0 0 255 
0 0 255 
0 0 255 
0 0 255 
0 0 254 
0 0 255 
0 0 255 
0 0 255 
0 0 255 
0 0 254 
0 0 255 
0 0 255 
0 0 254 
0 0 254 
0 0 255 
0 0 253 
0 0 254 
0 0 254 
0 0 255 
0 0 255 
0 0 255 
0 0 255 
0 0 254 
0 0 254 
0 0 252 
0 0 254 
0 0 253 
0 0 255 
0 0 254 
0 0 255 
0 0 255 
0 0 250 
0 0 255 
0 0 254 
0 0 254 
0 0 255 
0 0 254 
0 0 254 
0 0 254 
0 0 254 
0 0 255 
0 0 252 
0 0 254 
0 0 252 
0 0 255 
0 0 254 
0 0 253 
0 0 254 
0 0 254 
0 0 252 
0 0 255 
0 0 255 
0 0 252 
0 0 253 
0 0 252 
0 0 250 
0 0 252 
0 0 253 
0 0 250 
0 0 254 
0 0 254 
0 0 254 
0 0 253 
0 0 248 
0 0 255 
0 0 250 
0 0 254 
0 0 252 
0 0 254 
0 0 254 
0 0 249 
0 0 254 
0 0 252 
0 0 246 
0 0 249 
0 0 253 
0 0 253 
0 0 252 
0 0 249 
0 0 254 
0 0 250 
0 0 253 
0 0 250 
0 0 253 
0 0 249 
0 0 246 
0 0 254 
0 0 252 
0 0 250 
0 0 250 
0 0 250 
0 0 252 
0 0 253 
0 0 253 
0 0 254 
0 0 249 
0 0 255 
0 0 250 
0 0 249 
0 0 249 
0 0 250 
0 0 253 
0 0 246 
0 0 250 
0 0 246 
0 0 245 
0 0 249 
0 0 244 
0 0 249 
0 0 237 
0 0 248 
0 0 246 
0 0 248 
0 0 242 
0 0 246 
0 0 246 
0 0 238 
0 0 244 
0 0 245 
0 0 244 
0 0 246 
0 0 241 
0 0 246 
0 0 241 
0 0 240 
0 0 245 
0 0 241 
0 0 248 
0 0 242 
0 0 245 
0 0 240 
0 0 245 
0 0 230 
0 0 241 
0 0 234 
0 0 238 
0 0 238 
0 0 236 
0 0 241 
0 0 242 
0 0 236 
0 0 240 
0 0 230 
145 162 253 
202 225 255 
202 225 255 
202 225 255 
201 225 255 
201 225 255 
201 225 255 
201 225 255 
201 225 255 
201 225 255 
201 225 255 
201 225 255 
201 225 255 
201 225 255 
201 224 255 
201 224 255 
201 224 255 
201 224 255 
201 224 255 
201 224 255 
201 224 255 
201 224 255 
201 224 255 
201 224 255 
201 224 255 
201 224 255 
201 224 255 
201 224 255 
201 224 255 
201 224 255 
201 224 255 
201 224 255 
201 224 255 
201 224 255 
201 224 255 
201 224 255 
201 224 255 
201 224 255 
201 224 255 
201 224 255 
201 224 255 
201 224 255 
201 224 255 
201 224 255 
201 224 255 
201 224 255 
201 224 255 
201 224 255 
201 224 255 
201 224 255 
201 224 255 
201 224 255 
201 224 255 
201 224 255 
201 224 255 
201 225 255 
201 225 255 
201 225 255 
201 225 255 
201 225 255 
201 225 255 
201 225 255 
201 225 255 
201 225 255 
202 225 255 
202 225 255 
201 224 254 
197 156 177 
187 0 0 
187 0 0 
186 0 0 
189 0 0 
181 0 0 
192 0 0 
189 0 0 
195 0 0 
191 0 0 
189 0 0 
196 0 0 
194 0 0 
188 0 0 
202 0 0 
194 0 0 
191 0 0 
196 0 0 
192 0 0 
198 0 0 
194 0 0 
192 0 0 
196 0 0 
198 0 0 
194 0 0 
198 0 0 
196 0 0 
202 0 0 
202 0 0 
198 0 0 
199 0 0 
202 0 0 
203 0 0 
204 0 0 
201 0 0 
196 0 0 
201 0 0 
197 0 0 
196 0 0 
203 0 0 
201 0 0 
204 0 0 
197 0 0 
202 0 0 
212 0 0 
206 0 0 
204 0 0 
206 0 0 
207 0 0 
199 0 0 
206 0 0 
205 0 0 
204 0 0 
206 0 0 
204 0 0 
206 0 0 
208 0 0 
208 0 0 
204 0 0 
207 0 0 
206 0 0 
207 0 0 
205 0 0 
207 0 0 
209 0 0 
212 0 0 
209 0 0 
206 0 0 
207 0 0 
203 0 0 
209 0 0 
208 0 0 
205 0 0 
202 0 0 
206 0 0 
208 0 0 
211 0 0 
205 0 0 
203 0 0 
215 0 0 
210 0 0 
210 0 0 
211 0 0 
214 0 0 
211 0 0 
211 0 0 
207 0 0 
212 0 0 
209 0 0 
211 0 0 
209 0 0 
210 0 0 
211 0 0 
210 0 0 
210 0 0 
208 0 0 
208 0 0 
212 0 0 
212 0 0 
212 0 0 
211 0 0 
208 0 0 
209 0 0 
210 0 0 
210 0 0 
213 0 0 
211 0 0 
214 0 0 
212 0 0 
209 0 0 
212 0 0 
211 0 0 
209 0 0 
212 0 0 
214 0 0 
205 0 0 
211 0 0 
211 0 0 
210 0 0 
210 0 0 
211 0 0 
214 0 0 
210 0 0 
215 0 0 
214 0 0 
212 0 0 
209 0 0 
214 0 0 
211 0 0 
210 0 0 
214 0 0 
211 0 0 
210 0 0 
210 0 0 
213 0 0 
213 0 0 
211 0 0 
213 0 0 
215 0 0 
212 0 0 
216 0 0 
210 0 0 
213 0 0 
213 0 0 
212 0 0 
216 0 0 
211 0 0 
211 0 0 
214 0 0 
213 0 0 
213 0 0 
215 0 0 
214 0 0 
214 0 0 
213 0 0 
215 0 0 
213 0 0 
213 0 0 
216 0 0 
210 0 0 
209 0 0 
212 0 0 
211 0 0 
217 0 0 
217 0 0 
216 0 0 
216 0 0 
0 0 255 
0 0 255 
0 0 255 
0 0 255 
0 0 255 
0 0 255 
0 0 255 
0 0 255 
0 0 252 
0 0 253 
0 0 255 
0 0 255 
0 0 255 
0 0 255 
0 0 255 
0 0 254 
0 0 255 
0 0 255 
0 0 255 
0 0 255 
0 0 255 
0 0 254 
0 0 255 
0 0 253 
0 0 254 
0 0 255 
0 0 254 
0 0 254 
0 0 255 
0 0 255 
0 0 254 
0 0 254 
0 0 255 
0 0 253 
0 0 254 
0 0 255 
0 0 254 
0 0 252 
0 0 254 
0 0 254 
0 0 255 
0 0 254 
0 0 253 
0 0 255 
0 0 255 
0 0 253 
0 0 253 
0 0 255 
0 0 254 
0 0 254 
0 0 255 
0 0 252 
0 0 254 
0 0 254 
0 0 252 
0 0 254 
0 0 254 
0 0 249 
0 0 254 
0 0 253 
0 0 253 
0 0 255 
0 0 255 
0 0 255 
0 0 253 
0 0 252 
0 0 252 
0 0 254 
0 0 253 
0 0 250 
0 0 250 
0 0 253 
0 0 253 
0 0 254 
0 0 254 
0 0 254 
0 0 253 
0 0 254 
0 0 254 
0 0 252 
0 0 252 
0 0 253 
0 0 253 
0 0 250 
0 0 250 
0 0 249 
0 0 252 
0 0 253 
0 0 254 
0 0 254 
0 0 254 
0 0 253 
0 0 249 
0 0 252 
0 0 252 
0 0 245 
0 0 253 
0 0 252 
0 0 250 
0 0 253 
0 0 250 
0 0 252 
0 0 252 
0 0 250 
0 0 252 
0 0 250 
0 0 245 
0 0 253 
0 0 249 
0 0 252 
0 0 253 
0 0 249 
0 0 250 
0 0 250 
0 0 245 
0 0 248 
0 0 250 
0 0 246 
0 0 244 
0 0 250 
0 0 245 
0 0 245 
0 0 246 
0 0 246 
0 0 244 
0 0 240 
0 0 248 
0 0 244 
0 0 252 
0 0 250 
0 0 246 
0 0 252 
0 0 252 
0 0 248 
0 0 249 
0 0 253 
0 0 245 
0 0 244 
0 0 246 
0 0 244 
0 0 245 
0 0 242 
0 0 249 
0 0 234 
0 0 244 
0 0 248 
0 0 242 
0 0 237 
0 0 244 
0 0 234 
0 0 238 
0 0 237 
0 0 245 
0 0 241 
0 0 240 
0 0 248 
0 0 245 
0 0 242 
0 0 238 
0 0 224 
0 0 238 
0 0 241 
0 0 242 
0 0 237 
0 0 233 
0 0 234 
0 0 237 
119 133 240 
202 225 255 
202 225 255 
202 225 255 
202 225 255 
202 225 255 
202 225 255 
202 225 255 
202 225 255 
202 225 255 
201 225 255 
201 225 255 
201 225 255 
201 225 255 
201 225 255 
201 225 255 
201 225 255 
201 225 255 
201 225 255 
201 225 255 
201 225 255 
201 225 255 
201 225 255 
201 225 255 
201 225 255 
201 225 255 
201 225 255 
201 224 255 
201 224 255 
201 224 255 
201 224 255 
201 224 255 
201 224 255 
201 224 255 
201 224 255 
201 224 255 
201 224 255 
201 224 255 
201 224 255 
201 225 255 
201 225 255 
201 225 255 
201 225 255 
201 225 255 
201 225 255 
201 225 255 
201 225 255 
201 225 255 
201 225 255 
201 225 255 
201 225 255 
201 225 255 
201 225 255 
201 225 255 
201 225 255 
201 225 255 
202 225 255 
202 225 255 
202 225 255 
202 225 255 
202 225 255 
202 225 255 
202 225 255 
202 225 255 
201 221 252 
184 127 144 
185 0 0 
177 0 0 
187 0 0 
188 0 0 
188 0 0 
184 0 0 
189 0 0 
189 0 0 
190 0 0 
195 0 0 
195 0 0 
193 0 0 
192 0 0 
198 0 0 
198 0 0 
193 0 0 
195 0 0 
199 0 0 
198 0 0 
192 0 0 
192 0 0 
192 0 0 
197 0 0 
200 0 0 
200 0 0 
196 0 0 
197 0 0 
196 0 0 
204 0 0 
202 0 0 
200 0 0 
202 0 0 
197 0 0 
202 0 0 
201 0 0 
202 0 0 
201 0 0 
202 0 0 
207 0 0 
201 0 0 
203 0 0 
198 0 0 
208 0 0 
204 0 0 
205 0 0 
202 0 0 
207 0 0 
204 0 0 
199 0 0 
204 0 0 
208 0 0 
205 0 0 
212 0 0 
201 0 0 
211 0 0 
211 0 0 
206 0 0 
208 0 0 
203 0 0 
208 0 0 
210 0 0 
206 0 0 
210 0 0 
213 0 0 
209 0 0 
208 0 0 
205 0 0 
212 0 0 
212 0 0 
208 0 0 
210 0 0 
213 0 0 
205 0 0 
211 0 0 
205 0 0 
205 0 0 
209 0 0 
207 0 0 
210 0 0 
206 0 0 
208 0 0 
209 0 0 
210 0 0 
213 0 0 
207 0 0 
210 0 0 
209 0 0 
213 0 0 
212 0 0 
212 0 0 
210 0 0 
209 0 0 
210 0 0 
211 0 0 
214 0 0 
211 0 0 
209 0 0 
204 0 0 
211 0 0 
206 0 0 
212 0 0 
210 0 0 
213 0 0 
216 0 0 
211 0 0 
211 0 0 
209 0 0 
210 0 0 
213 0 0 
214 0 0 
214 0 0 
211 0 0 
212 0 0 
212 0 0 
213 0 0 
213 0 0 
211 0 0 
214 0 0 
213 0 0 
212 0 0 
214 0 0 
215 0 0 
211 0 0 
212 0 0 
212 0 0 
212 0 0 
210 0 0 
215 0 0 
214 0 0 
214 0 0 
214 0 0 
214 0 0 
215 0 0 
209 0 0 
214 0 0 
210 0 0 
213 0 0 
215 0 0 
212 0 0 
212 0 0 
216 0 0 
213 0 0 
211 0 0 
213 0 0 
213 0 0 
215 0 0 
217 0 0 
214 0 0 
214 0 0 
209 0 0 
213 0 0 
217 0 0 
214 0 0 
209 0 0 
212 0 0 
215 0 0 
214 0 0 
213 0 0 
215 0 0 
213 0 0 
215 0 0 
211 0 0 
213 0 0 
213 0 0 
215 0 0 
213 0 0 
213 0 0 
0 0 255 
0 0 255 
0 0 255 
0 0 254 
0 0 255 
0 0 255 
0 0 255 
0 0 255 
0 0 255 
0 0 254 
0 0 255 
0 0 255 
0 0 253 
0 0 255 
0 0 255 
0 0 254 
0 0 255 
0 0 254 
0 0 255 
0 0 255 
0 0 254 
0 0 254 
0 0 254 
0 0 254 
0 0 255 
0 0 255 
0 0 255 
0 0 254 
0 0 255 
0 0 254 
0 0 254 
0 0 253 
0 0 252 
0 0 252 
0 0 255 
0 0 254 
0 0 253 
0 0 255 
0 0 255 
0 0 255 
0 0 255 
0 0 253 
0 0 253 
0 0 254 
0 0 255 
0 0 253 
0 0 253 
0 0 254 
0 0 255 
0 0 253 
0 0 253 
0 0 255 
0 0 254 
0 0 253 
0 0 253 
0 0 254 
0 0 255 
0 0 254 
0 0 254 
0 0 253 
0 0 252 
0 0 250 
0 0 255 
0 0 254 
0 0 253 
0 0 254 
0 0 252 
0 0 252 
0 0 253 
0 0 254 
0 0 255 
0 0 254 
0 0 255 
0 0 254 
0 0 254 
0 0 253 
0 0 255 
0 0 250 
0 0 252 
0 0 253 
0 0 249 
0 0 255 
0 0 255 
0 0 253 
0 0 250 
0 0 252 
0 0 255 
0 0 252 
0 0 252 
0 0 252 
0 0 253 
0 0 254 
0 0 254 
0 0 250 
0 0 250 
0 0 250 
0 0 249 
0 0 252 
0 0 250 
0 0 253 
0 0 246 
0 0 252 
0 0 245 
0 0 250 
0 0 248 
0 0 250 
0 0 249 
0 0 250 
0 0 248 
0 0 250 
0 0 244 
0 0 248 
0 0 255 
0 0 245 
0 0 246 
0 0 250 
0 0 252 
0 0 245 
0 0 249 
0 0 248 
0 0 252 
0 0 252 
0 0 242 
0 0 250 
0 0 244 
0 0 244 
0 0 245 
0 0 250 
0 0 240 
0 0 250 
0 0 246 
0 0 249 
0 0 248 
0 0 240 
0 0 245 
0 0 241 
0 0 241 
0 0 249 
0 0 241 
0 0 242 
0 0 246 
0 0 246 
0 0 242 
0 0 244 
0 0 248 
0 0 237 
0 0 237 
0 0 241 
0 0 250 
0 0 241 
0 0 244 
0 0 242 
0 0 234 
0 0 234 
0 0 249 
0 0 238 
0 0 242 
0 0 240 
0 0 241 
0 0 237 
0 0 230 
0 0 234 
0 0 242 
0 0 237 
0 0 241 
0 0 234 
0 0 244 
0 0 236 
105 117 244 
200 223 255 
202 225 255 
202 225 255 
202 225 255 
202 225 255 
202 225 255 
202 225 255 
202 225 255 
202 225 255 
202 225 255 
202 225 255 
202 225 255 
202 225 255 
202 225 255 
202 225 255 
202 225 255 
202 225 255 
202 225 255 
202 225 255 
201 225 255 
201 225 255 
201 225 255 
201 225 255 
201 225 255 
201 225 255 
201 225 255 
201 225 255 
201 225 255 
201 225 255 
201 225 255 
201 225 255 
201 225 255 
201 225 255 
201 225 255 
201 225 255 
201 225 255 
201 225 255 
201 225 255 
201 225 255 
201 225 255 
201 225 255 
201 225 255 
202 225 255 
202 225 255 
202 225 255 
202 225 255 
202 225 255 
202 225 255 
202 225 255 
202 225 255 
202 225 255 
202 225 255 
202 225 255 
202 225 255 
202 225 255 
202 225 255 
202 225 255 
202 225 255 
202 225 255 
202 225 255 
202 225 255 
201 223 253 
191 125 142 
181 0 0 
182 0 0 
184 0 0 
187 0 0 
192 0 0 
192 0 0 
182 0 0 
192 0 0 
197 0 0 
202 0 0 
191 0 0 
190 0 0 
192 0 0 
195 0 0 
187 0 0 
197 0 0 
196 0 0 
202 0 0 
193 0 0 
202 0 0 
194 0 0 
196 0 0 
197 0 0 
201 0 0 
204 0 0 
198 0 0 
195 0 0 
194 0 0 
197 0 0 
200 0 0 
204 0 0 
203 0 0 
202 0 0 
200 0 0 
203 0 0 
206 0 0 
197 0 0 
203 0 0 
201 0 0 
202 0 0 
204 0 0 
207 0 0 
201 0 0 
206 0 0 
208 0 0 
205 0 0 
205 0 0 
202 0 0 
203 0 0 
201 0 0 
205 0 0 
205 0 0 
207 0 0 
210 0 0 
208 0 0 
207 0 0 
201 0 0 
205 0 0 
207 0 0 
209 0 0 
204 0 0 
206 0 0 
210 0 0 
209 0 0 
212 0 0 
206 0 0 
207 0 0 
210 0 0 
208 0 0 
207 0 0 
210 0 0 
203 0 0 
208 0 0 
206 0 0 
209 0 0 
208 0 0 
210 0 0 
206 0 0 
210 0 0 
212 0 0 
208 0 0 
211 0 0 
211 0 0 
205 0 0 
212 0 0 
211 0 0 
214 0 0 
214 0 0 
208 0 0 
209 0 0 
214 0 0 
211 0 0 
210 0 0 
211 0 0 
212 0 0 
209 0 0 
207 0 0 
211 0 0 
215 0 0 
212 0 0 
207 0 0 
210 0 0 
211 0 0 
211 0 0 
211 0 0 
212 0 0 
212 0 0 
211 0 0 
214 0 0 
209 0 0 
211 0 0 
210 0 0 
211 0 0 
214 0 0 
214 0 0 
211 0 0 
214 0 0 
213 0 0 
208 0 0 
214 0 0 
212 0 0 
210 0 0 
210 0 0 
213 0 0 
212 0 0 
206 0 0 
212 0 0 
212 0 0 
213 0 0 
214 0 0 
213 0 0 
215 0 0 
210 0 0 
211 0 0 
213 0 0 
214 0 0 
209 0 0 
212 0 0 
213 0 0 
215 0 0 
214 0 0 
212 0 0 
214 0 0 
211 0 0 
213 0 0 
209 0 0 
218 0 0 
216 0 0 
212 0 0 
213 0 0 
213 0 0 
213 0 0 
214 0 0 
212 0 0 
212 0 0 
216 0 0 
212 0 0 
218 0 0 
212 0 0 
214 0 0 
214 0 0 
213 0 0 
216 0 0 
213 0 0 
215 0 0 
213 0 0 
212 0 0 
216 0 0 
0 0 255 
0 0 255 
0 0 255 
0 0 255 
0 0 253 
0 0 255 
0 0 254 
0 0 254 
0 0 255 
0 0 255 
0 0 255 
0 0 254 
0 0 254 
0 0 255 
0 0 255 
0 0 255 
0 0 255 
0 0 255 
0 0 255 
0 0 255 
0 0 252 
0 0 255 
0 0 255 
0 0 255 
0 0 255 
0 0 255 
0 0 255 
0 0 255 
0 0 254 
0 0 254 
0 0 254 
0 0 255 
0 0 255 
0 0 255 
0 0 254 
0 0 254 
0 0 254 
0 0 253 
0 0 255 
0 0 252 
0 0 254 
0 0 253 
0 0 255 
0 0 254 
0 0 254 
0 0 254 
0 0 254 
0 0 254 
0 0 252 
0 0 255 
0 0 254 
0 0 255 
0 0 255 
0 0 254 
0 0 254 
0 0 250 
0 0 253 
0 0 252 
0 0 253 
0 0 253 
0 0 254 
0 0 253 
0 0 253 
0 0 253 
0 0 254 
0 0 254 
0 0 249 
0 0 255 
0 0 254 
0 0 255 
0 0 253 
0 0 254 
0 0 252 
0 0 253 
0 0 254 
0 0 254 
0 0 254 
0 0 250 
0 0 253 
0 0 249 
0 0 255 
0 0 250 
0 0 255 
0 0 250 
0 0 255 
0 0 253 
0 0 249 
0 0 254 
0 0 254 
0 0 254 
0 0 252 
0 0 249 
0 0 252 
0 0 254 
0 0 246 
0 0 246 
0 0 253 
0 0 249 
0 0 253 
0 0 254 
0 0 252 
0 0 255 
0 0 252 
0 0 253 
0 0 249 
0 0 253 
0 0 253 
0 0 250 
0 0 254 
0 0 249 
0 0 252 
0 0 250 
0 0 250 
0 0 249 
0 0 250 
0 0 250 
0 0 246 
0 0 250 
0 0 249 
0 0 250 
0 0 249 
0 0 245 
0 0 245 
0 0 248 
0 0 248 
0 0 242 
0 0 246 
0 0 248 
0 0 241 
0 0 252 
0 0 246 
0 0 244 
0 0 245 
0 0 252 
0 0 244 
0 0 244 
0 0 240 
0 0 245 
0 0 248 
0 0 242 
0 0 241 
0 0 248 
0 0 246 
0 0 248 
0 0 245 
0 0 242 
0 0 248 
0 0 245 
0 0 241 
0 0 246 
0 0 245 
0 0 245 
0 0 244 
0 0 241 
0 0 237 
0 0 248 
0 0 238 
0 0 238 
0 0 245 
0 0 236 
0 0 234 
0 0 244 
0 0 236 
0 0 240 
0 0 228 
0 0 236 
0 0 236 
0 0 230 
0 0 233 
116 129 245 
199 222 252 
202 225 255 
202 225 255 
202 225 255 
202 225 255 
202 225 255 
202 225 255 
202 225 255 
202 225 255 
202 225 255 
202 225 255 
202 225 255 
202 225 255 
202 225 255 
202 225 255 
202 225 255 
202 225 255 
202 225 255 
202 225 255 
202 225 255 
202 225 255 
202 225 255 
202 225 255 
202 225 255 
202 225 255 
202 225 255 
202 225 255 
202 225 255 
202 225 255 
202 225 255 
202 225 255 
202 225 255 
202 225 255 
202 225 255 
202 225 255 
202 225 255 
202 225 255 
202 225 255 
202 225 255 
202 225 255 
202 225 255 
202 225 255 
202 225 255 
202 225 255 
202 225 255 
202 225 255 
202 225 255 
202 225 255 
202 225 255 
202 225 255 
202 225 255 
202 225 255 
202 225 255 
202 225 255 
202 225 255 
202 225 255 
202 225 255 
202 225 255 
202 225 255 
202 223 253 
198 125 142 
188 0 0 
177 0 0 
186 0 0 
183 0 0 
188 0 0 
191 0 0 
191 0 0 
187 0 0 
196 0 0 
190 0 0 
189 0 0 
185 0 0 
181 0 0 
193 0 0 
196 0 0 
197 0 0 
190 0 0 
192 0 0 
195 0 0 
199 0 0 
192 0 0 
197 0 0 
193 0 0 
201 0 0 
199 0 0 
202 0 0 
196 0 0 
204 0 0 
203 0 0 
195 0 0 
200 0 0 
203 0 0 
200 0 0 
205 0 0 
198 0 0 
200 0 0 
204 0 0 
200 0 0 
203 0 0 
203 0 0 
209 0 0 
203 0 0 
197 0 0 
203 0 0 
208 0 0 
210 0 0 
202 0 0 
200 0 0 
204 0 0 
206 0 0 
206 0 0 
202 0 0 
205 0 0 
205 0 0 
213 0 0 
206 0 0 
206 0 0 
208 0 0 
207 0 0 
206 0 0 
204 0 0 
210 0 0 
213 0 0 
202 0 0 
207 0 0 
211 0 0 
211 0 0 
213 0 0 
208 0 0 
210 0 0 
207 0 0 
208 0 0 
208 0 0 
207 0 0 
210 0 0 
207 0 0 
207 0 0 
207 0 0 
210 0 0 
213 0 0 
210 0 0 
214 0 0 
209 0 0 
210 0 0 
213 0 0 
211 0 0 
210 0 0 
209 0 0 
207 0 0 
206 0 0 
214 0 0 
211 0 0 
208 0 0 
211 0 0 
212 0 0 
212 0 0 
215 0 0 
206 0 0 
208 0 0 
212 0 0 
211 0 0 
214 0 0 
212 0 0 
211 0 0 
213 0 0 
211 0 0 
214 0 0 
215 0 0 
207 0 0 
213 0 0 
211 0 0 
209 0 0 
215 0 0 
211 0 0 
214 0 0 
213 0 0 
212 0 0 
211 0 0 
211 0 0 
213 0 0 
211 0 0 
206 0 0 
215 0 0 
213 0 0 
213 0 0 
214 0 0 
214 0 0 
213 0 0 
211 0 0 
213 0 0 
216 0 0 
216 0 0 
216 0 0 
215 0 0 
214 0 0 
212 0 0 
212 0 0 
213 0 0 
211 0 0 
214 0 0 
210 0 0 
209 0 0 
212 0 0 
211 0 0 
212 0 0 
214 0 0 
211 0 0 
212 0 0 
214 0 0 
211 0 0 
215 0 0 
211 0 0 
213 0 0 
215 0 0 
213 0 0 
210 0 0 
213 0 0 
215 0 0 
215 0 0 
214 0 0 
215 0 0 
212 0 0 
214 0 0 
213 0 0 
214 0 0 
216 0 0 
212 0 0 
214 0 0 
213 0 0 
0 0 254 
0 0 253 
0 0 255 
0 0 255 
0 0 255 
0 0 254 
0 0 255 
0 0 255 
0 0 255 
0 0 254 
0 0 255 
0 0 254 
0 0 254 
0 0 255 
0 0 254 
0 0 254 
0 0 254 
0 0 253 
0 0 255 
0 0 253 
0 0 255 
0 0 255 
0 0 255 
0 0 254 
0 0 255 
0 0 254 
0 0 255 
0 0 255 
0 0 253 
0 0 255 
0 0 254 
0 0 255 
0 0 253 
0 0 255 
0 0 255 
0 0 254 
0 0 255 
0 0 253 
0 0 255 
0 0 254 
0 0 253 
0 0 254 
0 0 253 
0 0 253 
0 0 254 
0 0 254 
0 0 255 
0 0 252 
0 0 252 
0 0 254 
0 0 254 
0 0 254 
0 0 253 
0 0 255 
0 0 253 
0 0 254 
0 0 254 
0 0 254 
0 0 254 
0 0 253 
0 0 253 
0 0 254 
0 0 255 
0 0 253 
0 0 253 
0 0 249 
0 0 254 
0 0 253 
0 0 253 
0 0 254 
0 0 249 
0 0 254 
0 0 248 
0 0 254 
0 0 250 
0 0 253 
0 0 253 
0 0 252 
0 0 249 
0 0 253 
0 0 254 
0 0 253 
0 0 253 
0 0 249 
0 0 252 
0 0 254 
0 0 250 
0 0 250 
0 0 249 
0 0 250 
0 0 249 
0 0 254 
0 0 249 
0 0 250 
0 0 252 
0 0 253 
0 0 252 
0 0 250 
0 0 252 
0 0 253 
0 0 252 
0 0 253 
0 0 252 
0 0 248 
0 0 248 
0 0 253 
0 0 246 
0 0 250 
0 0 250 
0 0 250 
0 0 254 
0 0 249 
0 0 254 
0 0 249 
0 0 253 
0 0 253 
0 0 245 
0 0 250 
0 0 254 
0 0 248 
0 0 250 
0 0 249 
0 0 244 
0 0 250 
0 0 250 
0 0 248 
0 0 241 
0 0 242 
0 0 248 
0 0 249 
0 0 253 
0 0 244 
0 0 248 
0 0 245 
0 0 245 
0 0 245 
0 0 244 
0 0 250 
0 0 249 
0 0 249 
0 0 240 
0 0 244 
0 0 241 
0 0 238 
0 0 242 
0 0 242 
0 0 240 
0 0 242 
0 0 241 
0 0 240 
0 0 237 
0 0 233 
0 0 241 
0 0 248 
0 0 237 
0 0 236 
0 0 245 
0 0 246 
0 0 238 
0 0 238 
0 0 237 
0 0 240 
0 0 244 
0 0 238 
0 0 233 
0 0 236 
0 0 233 
0 0 231 
0 0 227 
0 0 237 
111 123 246 
202 225 255 
202 225 255 
202 225 255 
202 225 255 
202 225 255 
202 225 255 
202 225 255 
202 225 255 
202 225 255 
202 225 255 
202 225 255 
202 225 255 
202 225 255 
202 225 255 
202 225 255 
202 225 255 
202 225 255 
202 225 255 
202 225 255 
202 225 255 
202 225 255 
202 225 255 
202 225 255 
202 225 255 
202 225 255 
202 225 255 
202 225 255 
202 225 255 
202 225 255 
202 225 255 
202 225 255 
202 225 255 
202 225 255 
202 225 255 
202 225 255 
202 225 255 
202 225 255 
202 225 255 
202 225 255 
202 225 255 
202 225 255 
202 225 255 
202 225 255 
202 225 255 
202 225 255 
202 225 255 
202 225 255 
202 225 255 
202 225 255 
202 225 255 
202 225 255 
202 225 255 
202 225 255 
202 225 255 
202 225 255 
202 225 255 
202 225 255 
202 222 252 
190 125 142 
187 0 0 
189 0 0 
177 0 0 
191 0 0 
188 0 0 
187 0 0 
192 0 0 
194 0 0 
192 0 0 
186 0 0 
193 0 0 
191 0 0 
184 0 0 
189 0 0 
195 0 0 
196 0 0 
194 0 0 
188 0 0 
198 0 0 
198 0 0 
193 0 0 
197 0 0 
193 0 0 
198 0 0 
195 0 0 
198 0 0 
199 0 0 
197 0 0 
202 0 0 
200 0 0 
203 0 0 
198 0 0 
202 0 0 
202 0 0 
198 0 0 
206 0 0 
200 0 0 
209 0 0 
209 0 0 
200 0 0 
205 0 0 
195 0 0 
202 0 0 
205 0 0 
203 0 0 
204 0 0 
201 0 0 
202 0 0 
207 0 0 
202 0 0 
201 0 0 
206 0 0 
198 0 0 
203 0 0 
203 0 0 
206 0 0 
208 0 0 
206 0 0 
206 0 0 
205 0 0 
210 0 0 
207 0 0 
205 0 0 
208 0 0 
207 0 0 
204 0 0 
208 0 0 
207 0 0 
208 0 0 
202 0 0 
206 0 0 
205 0 0 
208 0 0 
207 0 0 
209 0 0 
207 0 0 
210 0 0 
210 0 0 
207 0 0 
208 0 0 
207 0 0 
212 0 0 
211 0 0 
204 0 0 
209 0 0 
211 0 0 
208 0 0 
210 0 0 
212 0 0 
213 0 0 
213 0 0 
211 0 0 
207 0 0 
210 0 0 
212 0 0 
210 0 0 
209 0 0 
209 0 0 
209 0 0 
211 0 0 
211 0 0 
213 0 0 
214 0 0 
206 0 0 
213 0 0 
214 0 0 
214 0 0 
207 0 0 
210 0 0 
213 0 0 
212 0 0 
208 0 0 
212 0 0 
213 0 0 
214 0 0 
206 0 0 
215 0 0 
212 0 0 
212 0 0 
214 0 0 
213 0 0 
214 0 0 
213 0 0 
212 0 0 
210 0 0 
213 0 0 
213 0 0 
212 0 0 
214 0 0 
214 0 0 
215 0 0 
211 0 0 
216 0 0 
212 0 0 
209 0 0 
213 0 0 
216 0 0 
213 0 0 
214 0 0 
213 0 0 
216 0 0 
212 0 0 
212 0 0 
214 0 0 
211 0 0 
211 0 0 
214 0 0 
209 0 0 
213 0 0 
214 0 0 
215 0 0 
214 0 0 
213 0 0 
210 0 0 
212 0 0 
209 0 0 
217 0 0 
213 0 0 
210 0 0 
214 0 0 
213 0 0 
217 0 0 
215 0 0 
212 0 0 
213 0 0 
214 0 0 
212 0 0 
216 0 0 
215 0 0 
214 0 0 
0 0 254 
0 0 255 
0 0 254 
0 0 254 
0 0 255 
0 0 255 
0 0 255 
0 0 255 
0 0 255 
0 0 255 
0 0 255 
0 0 254 
0 0 255 
0 0 255 
0 0 254 
0 0 255 
0 0 255 
0 0 253 
0 0 254 
0 0 255 
0 0 255 
0 0 255 
0 0 255 
0 0 254 
0 0 250 
0 0 254 
0 0 254 
0 0 255 
0 0 255 
0 0 255 
0 0 254 
0 0 254 
0 0 255 
0 0 255 
0 0 253 
0 0 255 
0 0 255 
0 0 254 
0 0 253 
0 0 255 
0 0 252 
0 0 255 
0 0 254 
0 0 253 
0 0 254 
0 0 253 
0 0 255 
0 0 253 
0 0 253 
0 0 253 
0 0 253 
0 0 254 
0 0 255 
0 0 255 
0 0 255 
0 0 254 
0 0 254 
0 0 254 
0 0 254 
0 0 254 
0 0 255 
0 0 253 
0 0 254 
0 0 254 
0 0 250 
0 0 254 
0 0 254 
0 0 250 
0 0 254 
0 0 255 
0 0 255 
0 0 252 
0 0 252 
0 0 255 
0 0 253 
0 0 253 
0 0 254 
0 0 249 
0 0 254 
0 0 254 
0 0 250 
0 0 254 
0 0 248 
0 0 253 
0 0 250 
0 0 254 
0 0 254 
0 0 252 
0 0 253 
0 0 248 
0 0 253 
0 0 254 
0 0 254 
0 0 253 
0 0 254 
0 0 249 
0 0 255 
0 0 250 
0 0 250 
0 0 250 
0 0 248 
0 0 252 
0 0 248 
0 0 254 
0 0 249 
0 0 253 
0 0 250 
0 0 250 
0 0 250 
0 0 253 
0 0 244 
0 0 253 
0 0 246 
0 0 252 
0 0 252 
0 0 252 
0 0 253 
0 0 246 
0 0 242 
0 0 252 
0 0 246 
0 0 244 
0 0 249 
0 0 250 
0 0 253 
0 0 244 
0 0 242 
0 0 250 
0 0 242 
0 0 241 
0 0 241 
0 0 245 
0 0 249 
0 0 242 
0 0 250 
0 0 238 
0 0 244 
0 0 246 
0 0 244 
0 0 244 
0 0 238 
0 0 246 
0 0 238 
0 0 245 
0 0 240 
0 0 237 
0 0 245 
0 0 244 
0 0 240 
0 0 231 
0 0 240 
0 0 245 
0 0 240 
0 0 244 
0 0 234 
0 0 240 
0 0 233 
0 0 238 
0 0 233 
0 0 241 
0 0 228 
0 0 238 
0 0 233 
0 0 234 
0 0 236 
0 0 226 
0 0 227 
0 0 233 
0 0 226 
0 0 228 
0 0 228 
99 110 233 
195 217 254 
203 225 255 
202 225 255 
202 225 255 
202 225 255 
202 225 255 
202 225 255 
202 225 255 
202 225 255 
202 225 255 
202 225 255 
202 225 255 
202 225 255 
202 225 255 
202 225 255 
202 225 255 
202 225 255 
202 225 255 
202 225 255 
202 225 255 
202 225 255 
202 225 255 
202 225 255 
202 225 255 
202 225 255 
202 225 255 
202 225 255 
202 225 255 
202 225 255 
202 225 255 
202 225 255 
202 225 255 
202 225 255 
202 225 255 
202 225 255 
202 225 255 
202 225 255 
202 225 255 
202 225 255 
202 225 255 
202 225 255 
202 225 255 
202 225 255 
202 225 255 
202 225 255 
202 225 255 
202 225 255 
202 225 255 
202 225 255 
202 225 255 
202 225 255 
202 225 255 
202 225 255 
202 225 255 
203 225 255 
201 218 248 
190 119 135 
186 0 0 
178 0 0 
191 0 0 
189 0 0 
190 0 0 
193 0 0 
198 0 0 
187 0 0 
194 0 0 
181 0 0 
189 0 0 
194 0 0 
190 0 0 
194 0 0 
191 0 0 
199 0 0 
194 0 0 
192 0 0 
202 0 0 
193 0 0 
199 0 0 
198 0 0 
194 0 0 
198 0 0 
196 0 0 
190 0 0 
201 0 0 
194 0 0 
193 0 0 
194 0 0 
202 0 0 
195 0 0 
204 0 0 
203 0 0 
201 0 0 
203 0 0 
203 0 0 
202 0 0 
202 0 0 
200 0 0 
197 0 0 
206 0 0 
205 0 0 
204 0 0 
200 0 0 
206 0 0 
203 0 0 
207 0 0 
199 0 0 
199 0 0 
205 0 0 
205 0 0 
206 0 0 
208 0 0 
208 0 0 
211 0 0 
205 0 0 
203 0 0 
206 0 0 
206 0 0 
209 0 0 
202 0 0 
208 0 0 
208 0 0 
208 0 0 
208 0 0 
205 0 0 
205 0 0 
207 0 0 
204 0 0 
210 0 0 
212 0 0 
211 0 0 
208 0 0 
211 0 0 
210 0 0 
209 0 0 
207 0 0 
206 0 0 
214 0 0 
209 0 0 
212 0 0 
207 0 0 
204 0 0 
213 0 0 
209 0 0 
210 0 0 
208 0 0 
212 0 0 
212 0 0 
211 0 0 
210 0 0 
209 0 0 
215 0 0 
212 0 0 
213 0 0 
204 0 0 
210 0 0 
215 0 0 
214 0 0 
204 0 0 
211 0 0 
211 0 0 
213 0 0 
209 0 0 
209 0 0 
211 0 0 
213 0 0 
214 0 0 
212 0 0 
212 0 0 
214 0 0 
208 0 0 
214 0 0 
209 0 0 
211 0 0 
211 0 0 
213 0 0 
215 0 0 
213 0 0 
215 0 0 
209 0 0 
215 0 0 
214 0 0 
215 0 0 
212 0 0 
215 0 0 
217 0 0 
214 0 0 
216 0 0 
211 0 0 
217 0 0 
212 0 0 
217 0 0 
214 0 0 
216 0 0 
210 0 0 
217 0 0 
215 0 0 
213 0 0 
213 0 0 
214 0 0 
215 0 0 
216 0 0 
211 0 0 
213 0 0 
215 0 0 
215 0 0 
213 0 0 
212 0 0 
213 0 0 
214 0 0 
215 0 0 
213 0 0 
218 0 0 
214 0 0 
214 0 0 
214 0 0 
212 0 0 
217 0 0 
216 0 0 
214 0 0 
215 0 0 
213 0 0 
214 0 0 
210 0 0 
210 0 0 
215 0 0 
214 0 0 
214 0 0 
217 0 0 
0 0 255 
0 0 254 
0 0 255 
0 0 253 
0 0 255 
0 0 255 
0 0 255 
0 0 255 
0 0 255 
0 0 255 
0 0 254 
0 0 255 
0 0 255 
0 0 255 
0 0 255 
0 0 255 
0 0 255 
0 0 254 
0 0 255 
0 0 255 
0 0 255 
0 0 255 
0 0 255 
0 0 253 
0 0 255 
0 0 255 
0 0 255 
0 0 255 
0 0 253 
0 0 255 
0 0 254 
0 0 255 
0 0 254 
0 0 255 
0 0 254 
0 0 255 
0 0 254 
0 0 255 
0 0 255 
0 0 253 
0 0 253 
0 0 255 
0 0 255 
0 0 254 
0 0 255 
0 0 252 
0 0 255 
0 0 254 
0 0 254 
0 0 254 
0 0 255 
0 0 255 
0 0 254 
0 0 254 
0 0 255 
0 0 254 
0 0 255 
0 0 255 
0 0 255 
0 0 255 
0 0 253 
0 0 255 
0 0 255 
0 0 254 
0 0 254 
0 0 254 
0 0 254 
0 0 252 
0 0 254 
0 0 252 
0 0 254 
0 0 253 
0 0 254 
0 0 255 
0 0 253 
0 0 250 
0 0 253 
0 0 254 
0 0 255 
0 0 255 
0 0 255 
0 0 253 
0 0 249 
0 0 254 
0 0 252 
0 0 248 
0 0 250 
0 0 253 
0 0 254 
0 0 248 
0 0 254 
0 0 249 
0 0 249 
0 0 250 
0 0 252 
0 0 250 
0 0 255 
0 0 252 
0 0 246 
0 0 253 
0 0 253 
0 0 246 
0 0 249 
0 0 249 
0 0 249 
0 0 250 
0 0 252 
0 0 249 
0 0 255 
0 0 246 
0 0 250 
0 0 246 
0 0 252 
0 0 252 
0 0 248 
0 0 250 
0 0 250 
0 0 250 
0 0 245 
0 0 254 
0 0 248 
0 0 244 
0 0 244 
0 0 245 
0 0 249 
0 0 234 
0 0 242 
0 0 249 
0 0 246 
0 0 242 
0 0 248 
0 0 246 
0 0 248 
0 0 248 
0 0 252 
0 0 238 
0 0 245 
0 0 252 
0 0 249 
0 0 248 
0 0 242 
0 0 248 
0 0 244 
0 0 238 
0 0 242 
0 0 244 
0 0 246 
0 0 240 
0 0 246 
0 0 248 
0 0 244 
0 0 234 
0 0 240 
0 0 242 
0 0 240 
0 0 237 
0 0 238 
0 0 228 
0 0 241 
0 0 238 
0 0 236 
0 0 240 
0 0 234 
0 0 224 
0 0 236 
0 0 237 
0 0 234 
0 0 233 
0 0 230 
0 0 234 
0 0 234 
0 0 215 
114 127 248 
202 224 254 
203 225 255 
203 225 255 
203 225 255 
203 225 255 
203 225 255 
203 225 255 
203 225 255 
203 225 255 
203 225 255 
203 225 255 
202 225 255 
202 225 255 
202 225 255 
202 225 255 
202 225 255 
202 225 255 
202 225 255 
202 225 255 
202 225 255 
202 225 255 
202 225 255 
202 225 255 
202 225 255 
202 225 255 
202 225 255 
202 225 255 
202 225 255 
202 225 255 
202 225 255 
202 225 255 
202 225 255 
202 225 255 
202 225 255 
202 225 255 
202 225 255 
202 225 255 
202 225 255 
202 225 255 
202 225 255 
202 225 255 
202 225 255 
202 225 255 
203 225 255 
203 225 255 
203 225 255 
203 225 255 
203 225 255 
203 225 255 
203 225 255 
203 225 255 
203 225 255 
203 225 255 
202 223 253 
189 135 153 
178 0 0 
185 0 0 
181 0 0 
177 0 0 
187 0 0 
184 0 0 
181 0 0 
186 0 0 
190 0 0 
190 0 0 
195 0 0 
187 0 0 
198 0 0 
182 0 0 
192 0 0 
190 0 0 
196 0 0 
195 0 0 
196 0 0 
196 0 0 
195 0 0 
195 0 0 
198 0 0 
193 0 0 
197 0 0 
198 0 0 
200 0 0 
196 0 0 
200 0 0 
198 0 0 
201 0 0 
196 0 0 
197 0 0 
206 0 0 
202 0 0 
205 0 0 
200 0 0 
200 0 0 
204 0 0 
203 0 0 
198 0 0 
198 0 0 
203 0 0 
206 0 0 
205 0 0 
202 0 0 
195 0 0 
204 0 0 
208 0 0 
201 0 0 
200 0 0 
209 0 0 
201 0 0 
211 0 0 
208 0 0 
203 0 0 
206 0 0 
210 0 0 
211 0 0 
205 0 0 
206 0 0 
211 0 0 
210 0 0 
204 0 0 
205 0 0 
207 0 0 
210 0 0 
208 0 0 
209 0 0 
209 0 0 
206 0 0 
208 0 0 
211 0 0 
213 0 0 
214 0 0 
202 0 0 
210 0 0 
205 0 0 
211 0 0 
205 0 0 
212 0 0 
210 0 0 
207 0 0 
211 0 0 
213 0 0 
215 0 0 
211 0 0 
208 0 0 
205 0 0 
212 0 0 
213 0 0 
205 0 0 
212 0 0 
207 0 0 
212 0 0 
213 0 0 
210 0 0 
209 0 0 
212 0 0 
212 0 0 
214 0 0 
210 0 0 
214 0 0 
215 0 0 
209 0 0 
214 0 0 
214 0 0 
214 0 0 
212 0 0 
211 0 0 
210 0 0 
215 0 0 
210 0 0 
215 0 0 
209 0 0 
214 0 0 
210 0 0 
209 0 0 
214 0 0 
212 0 0 
213 0 0 
212 0 0 
215 0 0 
212 0 0 
213 0 0 
215 0 0 
216 0 0 
209 0 0 
213 0 0 
212 0 0 
214 0 0 
215 0 0 
212 0 0 
213 0 0 
212 0 0 
217 0 0 
214 0 0 
212 0 0 
211 0 0 
215 0 0 
214 0 0 
217 0 0 
211 0 0 
214 0 0 
216 0 0 
212 0 0 
216 0 0 
215 0 0 
212 0 0 
214 0 0 
214 0 0 
212 0 0 
208 0 0 
215 0 0 
215 0 0 
212 0 0 
213 0 0 
216 0 0 
215 0 0 
214 0 0 
214 0 0 
213 0 0 
215 0 0 
213 0 0 
214 0 0 
216 0 0 
213 0 0 
213 0 0 
216 0 0 
215 0 0 
217 0 0 
214 0 0 
0 0 253 
0 0 255 
0 0 255 
0 0 255 
0 0 254 
0 0 255 
0 0 255 
0 0 255 
0 0 255 
0 0 254 
0 0 253 
0 0 254 
0 0 254 
0 0 255 
0 0 255 
0 0 254 
0 0 255 
0 0 255 
0 0 255 
0 0 255 
0 0 255 
0 0 255 
0 0 254 
0 0 255 
0 0 254 
0 0 255 
0 0 253 
0 0 253 
0 0 254 
0 0 254 
0 0 254 
0 0 254 
0 0 255 
0 0 254 
0 0 254 
0 0 254 
0 0 255 
0 0 255 
0 0 254 
0 0 255 
0 0 253 
0 0 250 
0 0 254 
0 0 255 
0 0 254 
0 0 254 
0 0 253 
0 0 254 
0 0 255 
0 0 255 
0 0 254 
0 0 254 
0 0 255 
0 0 254 
0 0 254 
0 0 249 
0 0 252 
0 0 254 
0 0 254 
0 0 255 
0 0 248 
0 0 255 
0 0 253 
0 0 250 
0 0 255 
0 0 255 
0 0 253 
0 0 253 
0 0 249 
0 0 254 
0 0 254 
0 0 253 
0 0 254 
0 0 253 
0 0 254 
0 0 255 
0 0 252 
0 0 248 
0 0 252 
0 0 253 
0 0 250 
0 0 254 
0 0 253 
0 0 254 
0 0 250 
0 0 249 
0 0 254 
0 0 255 
0 0 250 
0 0 250 
0 0 252 
0 0 254 
0 0 252 
0 0 252 
0 0 255 
0 0 252 
0 0 250 
0 0 253 
0 0 249 
0 0 248 
0 0 253 
0 0 248 
0 0 253 
0 0 254 
0 0 245 
0 0 252 
0 0 253 
0 0 252 
0 0 246 
0 0 253 
0 0 254 
0 0 248 
0 0 246 
0 0 248 
0 0 250 
0 0 248 
0 0 248 
0 0 249 
0 0 248 
0 0 252 
0 0 248 
0 0 252 
0 0 248 
0 0 242 
0 0 246 
0 0 250 
0 0 248 
0 0 245 
0 0 248 
0 0 245 
0 0 244 
0 0 242 
0 0 245 
0 0 250 
0 0 245 
0 0 242 
0 0 248 
0 0 249 
0 0 250 
0 0 245 
0 0 242 
0 0 238 
0 0 245 
0 0 245 
0 0 246 
0 0 241 
0 0 240 
0 0 244 
0 0 241 
0 0 240 
0 0 241 
0 0 238 
0 0 240 
0 0 242 
0 0 242 
0 0 236 
0 0 238 
0 0 242 
0 0 238 
0 0 233 
0 0 241 
0 0 236 
0 0 234 
0 0 233 
0 0 234 
0 0 234 
0 0 231 
0 0 226 
0 0 226 
0 0 242 
0 0 227 
0 0 236 
0 0 234 
120 133 242 
201 223 255 
203 225 255 
203 225 255 
203 225 255 
203 225 255 
203 225 255 
203 225 255 
203 225 255 
203 225 255 
203 225 255 
203 225 255 
203 225 255 
203 225 255 
203 225 255 
203 225 255 
203 225 255 
203 225 255 
203 225 255 
203 225 255 
203 225 255 
203 225 255 
203 225 255 
203 225 255 
203 225 255 
203 225 255 
203 225 255 
203 225 255 
203 225 255 
203 225 255 
203 225 255 
203 225 255 
203 225 255 
203 225 255 
203 225 255 
203 225 255 
203 225 255 
203 225 255 
203 225 255 
203 225 255 
203 225 255 
203 225 255 
203 225 255 
203 225 255 
203 225 255 
203 225 255 
203 225 255 
203 225 255 
203 225 255 
203 225 255 
203 225 255 
203 225 255 
203 224 254 
188 139 157 
175 0 0 
175 0 0 
182 0 0 
184 0 0 
188 0 0 
186 0 0 
188 0 0 
192 0 0 
189 0 0 
189 0 0 
197 0 0 
184 0 0 
190 0 0 
193 0 0 
192 0 0 
193 0 0 
188 0 0 
192 0 0 
191 0 0 
195 0 0 
191 0 0 
199 0 0 
186 0 0 
197 0 0 
199 0 0 
193 0 0 
193 0 0 
194 0 0 
200 0 0 
194 0 0 
197 0 0 
194 0 0 
205 0 0 
196 0 0 
192 0 0 
202 0 0 
198 0 0 
208 0 0 
202 0 0 
203 0 0 
205 0 0 
200 0 0 
203 0 0 
206 0 0 
200 0 0 
200 0 0 
207 0 0 
209 0 0 
206 0 0 
203 0 0 
205 0 0 
199 0 0 
205 0 0 
211 0 0 
204 0 0 
204 0 0 
208 0 0 
209 0 0 
206 0 0 
206 0 0 
209 0 0 
208 0 0 
211 0 0 
203 0 0 
205 0 0 
206 0 0 
210 0 0 
205 0 0 
210 0 0 
207 0 0 
206 0 0 
210 0 0 
204 0 0 
208 0 0 
207 0 0 
202 0 0 
212 0 0 
208 0 0 
212 0 0 
214 0 0 
212 0 0 
211 0 0 
208 0 0 
212 0 0 
206 0 0 
213 0 0 
213 0 0 
206 0 0 
211 0 0 
215 0 0 
212 0 0 
214 0 0 
208 0 0 
216 0 0 
209 0 0 
212 0 0 
209 0 0 
211 0 0 
211 0 0 
212 0 0 
213 0 0 
214 0 0 
213 0 0 
211 0 0 
209 0 0 
207 0 0 
213 0 0 
210 0 0 
213 0 0 
212 0 0 
215 0 0 
213 0 0 
211 0 0 
214 0 0 
214 0 0 
211 0 0 
213 0 0 
212 0 0 
211 0 0 
215 0 0 
210 0 0 
211 0 0 
209 0 0 
213 0 0 
215 0 0 
215 0 0 
212 0 0 
215 0 0 
216 0 0 
214 0 0 
213 0 0 
213 0 0 
210 0 0 
211 0 0 
214 0 0 
214 0 0 
214 0 0 
217 0 0 
215 0 0 
212 0 0 
214 0 0 
217 0 0 
217 0 0 
217 0 0 
215 0 0 
216 0 0 
218 0 0 
216 0 0 
212 0 0 
213 0 0 
213 0 0 
215 0 0 
214 0 0 
216 0 0 
216 0 0 
215 0 0 
217 0 0 
216 0 0 
216 0 0 
214 0 0 
212 0 0 
217 0 0 
215 0 0 
216 0 0 
213 0 0 
212 0 0 
213 0 0 
213 0 0 
217 0 0 
212 0 0 
215 0 0 
217 0 0 
214 0 0 
0 0 254 
0 0 255 
0 0 253 
0 0 255 
0 0 254 
0 0 255 
0 0 255 
0 0 255 
0 0 255 
0 0 254 
0 0 254 
0 0 254 
0 0 255 
0 0 255 
0 0 255 
0 0 253 
0 0 254 
0 0 255 
0 0 253 
0 0 255 
0 0 255 
0 0 254 
0 0 255 
0 0 254 
0 0 254 
0 0 254 
0 0 254 
0 0 254 
0 0 255 
0 0 254 
0 0 254 
0 0 253 
0 0 255 
0 0 253 
0 0 255 
0 0 254 
0 0 255 
0 0 255 
0 0 253 
0 0 254 
0 0 254 
0 0 254 
0 0 252 
0 0 255 
0 0 255 
0 0 252 
0 0 253 
0 0 254 
0 0 254 
0 0 254 
0 0 252 
0 0 254 
0 0 255 
0 0 252 
0 0 254 
0 0 254 
0 0 252 
0 0 252 
0 0 253 
0 0 250 
0 0 253 
0 0 254 
0 0 254 
0 0 254 
0 0 250 
0 0 250 
0 0 254 
0 0 253 
0 0 253 
0 0 250 
0 0 255 
0 0 253 
0 0 252 
0 0 250 
0 0 248 
0 0 253 
0 0 252 
0 0 253 
0 0 248 
0 0 250 
0 0 249 
0 0 248 
0 0 252 
0 0 253 
0 0 252 
0 0 252 
0 0 254 
0 0 255 
0 0 252 
0 0 252 
0 0 250 
0 0 252 
0 0 254 
0 0 252 
0 0 246 
0 0 252 
0 0 248 
0 0 250 
0 0 253 
0 0 253 
0 0 249 
0 0 253 
0 0 249 
0 0 249 
0 0 249 
0 0 252 
0 0 252 
0 0 252 
0 0 249 
0 0 253 
0 0 248 
0 0 250 
0 0 252 
0 0 244 
0 0 248 
0 0 248 
0 0 249 
0 0 250 
0 0 253 
0 0 252 
0 0 252 
0 0 245 
0 0 246 
0 0 245 
0 0 248 
0 0 246 
0 0 249 
0 0 254 
0 0 242 
0 0 242 
0 0 246 
0 0 249 
0 0 244 
0 0 241 
0 0 242 
0 0 242 
0 0 244 
0 0 242 
0 0 249 
0 0 249 
0 0 241 
0 0 237 
0 0 253 
0 0 241 
0 0 245 
0 0 242 
0 0 240 
0 0 241 
0 0 237 
0 0 244 
0 0 241 
0 0 238 
0 0 237 
0 0 236 
0 0 227 
0 0 245 
0 0 244 
0 0 233 
0 0 236 
0 0 244 
0 0 236 
0 0 237 
0 0 244 
0 0 236 
0 0 231 
0 0 237 
0 0 236 
0 0 227 
0 0 231 
0 0 224 
0 0 223 
0 0 227 
0 0 233 
0 0 230 
146 163 246 
203 226 255 
203 226 255 
203 226 255 
203 226 255 
203 226 255 
203 225 255 
203 225 255 
203 225 255 
203 225 255 
203 225 255 
203 225 255 
203 225 255 
203 225 255 
203 225 255 
203 225 255 
203 225 255 
203 225 255 
203 225 255 
203 225 255 
203 225 255 
203 225 255 
203 225 255 
203 225 255 
203 225 255 
203 225 255 
203 225 255 
203 225 255 
203 225 255 
203 225 255 
203 225 255 
203 225 255 
203 225 255 
203 225 255 
203 225 255 
203 225 255 
203 225 255 
203 225 255 
203 225 255 
203 225 255 
203 225 255 
203 225 255 
203 225 255 
203 225 255 
203 225 255 
203 225 255 
203 226 255 
203 226 255 
203 226 255 
203 226 255 
203 226 255 
195 146 165 
185 0 0 
185 0 0 
188 0 0 
187 0 0 
184 0 0 
183 0 0 
182 0 0 
187 0 0 
191 0 0 
194 0 0 
192 0 0 
187 0 0 
185 0 0 
189 0 0 
194 0 0 
191 0 0 
185 0 0 
192 0 0 
190 0 0 
194 0 0 
194 0 0 
196 0 0 
191 0 0 
196 0 0 
196 0 0 
198 0 0 
193 0 0 
194 0 0 
199 0 0 
207 0 0 
204 0 0 
195 0 0 
201 0 0 
197 0 0 
201 0 0 
198 0 0 
203 0 0 
205 0 0 
203 0 0 
194 0 0 
200 0 0 
204 0 0 
204 0 0 
202 0 0 
197 0 0 
200 0 0 
204 0 0 
207 0 0 
201 0 0 
209 0 0 
203 0 0 
207 0 0 
209 0 0 
205 0 0 
204 0 0 
206 0 0 
205 0 0 
200 0 0 
203 0 0 
202 0 0 
208 0 0 
203 0 0 
205 0 0 
208 0 0 
211 0 0 
208 0 0 
204 0 0 
207 0 0 
206 0 0 
212 0 0 
214 0 0 
205 0 0 
211 0 0 
205 0 0 
204 0 0 
212 0 0 
205 0 0 
204 0 0 
211 0 0 
208 0 0 
209 0 0 
210 0 0 
205 0 0 
210 0 0 
211 0 0 
207 0 0 
208 0 0 
206 0 0 
216 0 0 
213 0 0 
213 0 0 
213 0 0 
216 0 0 
207 0 0 
211 0 0 
211 0 0 
206 0 0 
212 0 0 
208 0 0 
215 0 0 
211 0 0 
211 0 0 
213 0 0 
214 0 0 
210 0 0 
211 0 0 
214 0 0 
214 0 0 
213 0 0 
215 0 0 
210 0 0 
215 0 0 
212 0 0 
213 0 0 
215 0 0 
214 0 0 
213 0 0 
209 0 0 
216 0 0 
212 0 0 
214 0 0 
213 0 0 
216 0 0 
216 0 0 
214 0 0 
210 0 0 
217 0 0 
213 0 0 
214 0 0 
211 0 0 
211 0 0 
214 0 0 
215 0 0 
216 0 0 
215 0 0 
212 0 0 
216 0 0 
216 0 0 
212 0 0 
211 0 0 
214 0 0 
217 0 0 
214 0 0 
214 0 0 
214 0 0 
213 0 0 
212 0 0 
213 0 0 
214 0 0 
216 0 0 
214 0 0 
214 0 0 
215 0 0 
214 0 0 
212 0 0 
215 0 0 
212 0 0 
214 0 0 
217 0 0 
216 0 0 
212 0 0 
215 0 0 
215 0 0 
213 0 0 
213 0 0 
214 0 0 
213 0 0 
215 0 0 
219 0 0 
215 0 0 
217 0 0 
215 0 0 
215 0 0 
216 0 0 
0 0 255 
0 0 254 
0 0 254 
0 0 255 
0 0 254 
0 0 255 
0 0 254 
0 0 255 
0 0 253 
0 0 255 
0 0 255 
0 0 255 
0 0 254 
0 0 255 
0 0 255 
0 0 254 
0 0 255 
0 0 255 
0 0 254 
0 0 255 
0 0 255 
0 0 254 
0 0 255 
0 0 254 
0 0 254 
0 0 253 
0 0 255 
0 0 254 
0 0 255 
0 0 254 
0 0 254 
0 0 255 
0 0 255 
0 0 254 
0 0 253 
0 0 253 
0 0 254 
0 0 255 
0 0 255 
0 0 254 
0 0 253 
0 0 252 
0 0 253 
0 0 255 
0 0 253 
0 0 253 
0 0 255 
0 0 255 
0 0 255 
0 0 255 
0 0 253 
0 0 255 
0 0 253 
0 0 253 
0 0 252 
0 0 253 
0 0 250 
0 0 250 
0 0 254 
0 0 255 
0 0 253 
0 0 252 
0 0 254 
0 0 253 
0 0 252 
0 0 254 
0 0 254 
0 0 252 
0 0 253 
0 0 253 
0 0 255 
0 0 248 
0 0 252 
0 0 254 
0 0 254 
0 0 255 
0 0 254 
0 0 254 
0 0 252 
0 0 254 
0 0 255 
0 0 255 
0 0 250 
0 0 252 
0 0 249 
0 0 250 
0 0 254 
0 0 253 
0 0 253 
0 0 250 
0 0 249 
0 0 248 
0 0 252 
0 0 253 
0 0 252 
0 0 249 
0 0 250 
0 0 249 
0 0 248 
0 0 253 
0 0 252 
0 0 250 
0 0 248 
0 0 252 
0 0 255 
0 0 249 
0 0 249 
0 0 244 
0 0 250 
0 0 249 
0 0 246 
0 0 246 
0 0 250 
0 0 253 
0 0 246 
0 0 248 
0 0 248 
0 0 252 
0 0 246 
0 0 249 
0 0 250 
0 0 249 
0 0 250 
0 0 250 
0 0 240 
0 0 246 
0 0 248 
0 0 253 
0 0 254 
0 0 249 
0 0 245 
0 0 246 
0 0 242 
0 0 246 
0 0 248 
0 0 248 
0 0 241 
0 0 248 
0 0 245 
0 0 245 
0 0 249 
0 0 240 
0 0 238 
0 0 249 
0 0 248 
0 0 238 
0 0 240 
0 0 227 
0 0 237 
0 0 246 
0 0 238 
0 0 245 
0 0 233 
0 0 240 
0 0 245 
0 0 242 
0 0 237 
0 0 240 
0 0 242 
0 0 241 
0 0 233 
0 0 230 
0 0 236 
0 0 231 
0 0 230 
0 0 233 
0 0 238 
0 0 236 
0 0 230 
0 0 234 
0 0 228 
0 0 234 
0 0 231 
0 0 233 
0 0 228 
153 170 244 
203 226 255 
203 226 255 
203 226 255 
203 226 255 
203 226 255 
203 226 255 
203 226 255 
203 226 255 
203 226 255 
203 226 255 
203 226 255 
203 226 255 
203 226 255 
203 226 255 
203 226 255 
203 226 255 
203 226 255 
203 226 255 
203 226 255 
203 226 255 
203 226 255 
203 226 255 
203 226 255 
203 226 255 
203 226 255 
203 226 255 
203 226 255 
203 226 255 
203 226 255 
203 226 255 
203 226 255 
203 226 255 
203 226 255 
203 226 255 
203 226 255 
203 226 255 
203 226 255 
203 226 255 
203 226 255 
203 226 255 
203 226 255 
203 226 255 
203 226 255 
203 226 255 
203 226 255 
203 226 255 
203 226 255 
203 226 255 
187 161 182 
186 0 0 
181 0 0 
179 0 0 
177 0 0 
182 0 0 
179 0 0 
191 0 0 
191 0 0 
187 0 0 
186 0 0 
192 0 0 
189 0 0 
185 0 0 
191 0 0 
191 0 0 
194 0 0 
193 0 0 
195 0 0 
198 0 0 
185 0 0 
199 0 0 
192 0 0 
196 0 0 
195 0 0 
202 0 0 
201 0 0 
195 0 0 
197 0 0 
198 0 0 
199 0 0 
197 0 0 
198 0 0 
194 0 0 
200 0 0 
199 0 0 
199 0 0 
198 0 0 
200 0 0 
204 0 0 
202 0 0 
202 0 0 
204 0 0 
208 0 0 
206 0 0 
206 0 0 
198 0 0 
202 0 0 
200 0 0 
203 0 0 
212 0 0 
208 0 0 
206 0 0 
202 0 0 
202 0 0 
203 0 0 
206 0 0 
211 0 0 
210 0 0 
205 0 0 
209 0 0 
207 0 0 
207 0 0 
205 0 0 
204 0 0 
210 0 0 
204 0 0 
208 0 0 
211 0 0 
211 0 0 
206 0 0 
210 0 0 
208 0 0 
209 0 0 
206 0 0 
213 0 0 
212 0 0 
205 0 0 
209 0 0 
209 0 0 
209 0 0 
212 0 0 
213 0 0 
209 0 0 
211 0 0 
211 0 0 
212 0 0 
211 0 0 
211 0 0 
209 0 0 
207 0 0 
210 0 0 
210 0 0 
211 0 0 
213 0 0 
214 0 0 
205 0 0 
212 0 0 
210 0 0 
209 0 0 
207 0 0 
210 0 0 
213 0 0 
211 0 0 
215 0 0 
210 0 0 
215 0 0 
212 0 0 
214 0 0 
215 0 0 
208 0 0 
211 0 0 
208 0 0 
213 0 0 
211 0 0 
213 0 0 
215 0 0 
214 0 0 
213 0 0 
215 0 0 
215 0 0 
214 0 0 
212 0 0 
213 0 0 
213 0 0 
216 0 0 
213 0 0 
210 0 0 
216 0 0 
212 0 0 
217 0 0 
209 0 0 
216 0 0 
210 0 0 
213 0 0 
215 0 0 
215 0 0 
216 0 0 
214 0 0 
216 0 0 
217 0 0 
216 0 0 
214 0 0 
213 0 0 
211 0 0 
208 0 0 
214 0 0 
215 0 0 
211 0 0 
212 0 0 
212 0 0 
213 0 0 
214 0 0 
213 0 0 
218 0 0 
215 0 0 
215 0 0 
217 0 0 
218 0 0 
216 0 0 
211 0 0 
217 0 0 
208 0 0 
216 0 0 
216 0 0 
213 0 0 
216 0 0 
214 0 0 
216 0 0 
216 0 0 
214 0 0 
217 0 0 
217 0 0 
215 0 0 
215 0 0 
215 0 0 
0 0 255 
0 0 255 
0 0 255 
0 0 255 
0 0 255 
0 0 254 
0 0 255 
0 0 254 
0 0 255 
0 0 255 
0 0 255 
0 0 255 
0 0 255 
0 0 255 
0 0 255 
0 0 254 
0 0 255 
0 0 255 
0 0 254 
0 0 255 
0 0 255 
0 0 255 
0 0 254 
0 0 255 
0 0 254 
0 0 255 
0 0 254 
0 0 255 
0 0 255 
0 0 253 
0 0 255 
0 0 254 
0 0 255 
0 0 253 
0 0 255 
0 0 253 
0 0 254 
0 0 255 
0 0 255 
0 0 255 
0 0 253 
0 0 255 
0 0 254 
0 0 250 
0 0 254 
0 0 255 
0 0 255 
0 0 254 
0 0 254 
0 0 254 
0 0 252 
0 0 254 
0 0 253 
0 0 252 
0 0 253 
0 0 254 
0 0 254 
0 0 253 
0 0 255 
0 0 255 
0 0 253 
0 0 253 
0 0 254 
0 0 253 
0 0 250 
0 0 252 
0 0 250 
0 0 255 
0 0 254 
0 0 252 
0 0 253 
0 0 253 
0 0 254 
0 0 249 
0 0 253 
0 0 252 
0 0 254 
0 0 250 
0 0 254 
0 0 254 
0 0 252 
0 0 255 
0 0 250 
0 0 253 
0 0 250 
0 0 253 
0 0 252 
0 0 253 
0 0 250 
0 0 246 
0 0 253 
0 0 250 
0 0 250 
0 0 252 
0 0 249 
0 0 249 
0 0 250 
0 0 253 
0 0 253 
0 0 252 
0 0 254 
0 0 253 
0 0 246 
0 0 250 
0 0 252 
0 0 249 
0 0 252 
0 0 248 
0 0 242 
0 0 254 
0 0 249 
0 0 249 
0 0 248 
0 0 249 
0 0 246 
0 0 246 
0 0 248 
0 0 245 
0 0 252 
0 0 242 
0 0 248 
0 0 249 
0 0 250 
0 0 246 
0 0 248 
0 0 248 
0 0 250 
0 0 248 
0 0 244 
0 0 248 
0 0 245 
0 0 250 
0 0 241 
0 0 241 
0 0 244 
0 0 241 
0 0 241 
0 0 240 
0 0 240 
0 0 241 
0 0 245 
0 0 237 
0 0 245 
0 0 248 
0 0 248 
0 0 240 
0 0 248 
0 0 249 
0 0 237 
0 0 242 
0 0 245 
0 0 238 
0 0 241 
0 0 240 
0 0 240 
0 0 237 
0 0 237 
0 0 230 
0 0 238 
0 0 233 
0 0 233 
0 0 240 
0 0 228 
0 0 237 
0 0 234 
0 0 226 
0 0 233 
0 0 224 
0 0 223 
0 0 217 
0 0 234 
0 0 226 
0 0 226 
0 0 226 
0 0 227 
0 0 223 
156 173 248 
204 226 255 
204 226 255 
204 226 255 
204 226 255 
204 226 255 
203 226 255 
203 226 255 
203 226 255 
203 226 255 
203 226 255 
203 226 255 
203 226 255 
203 226 255 
203 226 255 
203 226 255 
203 226 255 
203 226 255 
203 226 255 
203 226 255 
203 226 255 
203 226 255 
203 226 255 
203 226 255 
203 226 255 
203 226 255 
203 226 255 
203 226 255 
203 226 255 
203 226 255 
203 226 255 
203 226 255 
203 226 255 
203 226 255 
203 226 255 
203 226 255 
203 226 255 
203 226 255 
203 226 255 
203 226 255 
203 226 255 
204 226 255 
204 226 255 
204 226 255 
204 226 255 
204 226 255 
204 226 255 
193 164 186 
178 0 0 
175 0 0 
179 0 0 
184 0 0 
181 0 0 
188 0 0 
188 0 0 
183 0 0 
189 0 0 
184 0 0 
188 0 0 
186 0 0 
188 0 0 
186 0 0 
194 0 0 
199 0 0 
197 0 0 
187 0 0 
195 0 0 
186 0 0 
193 0 0 
200 0 0 
192 0 0 
194 0 0 
198 0 0 
193 0 0 
205 0 0 
195 0 0 
198 0 0 
199 0 0 
197 0 0 
198 0 0 
201 0 0 
192 0 0 
203 0 0 
202 0 0 
197 0 0 
200 0 0 
198 0 0 
201 0 0 
202 0 0 
205 0 0 
204 0 0 
193 0 0 
200 0 0 
207 0 0 
194 0 0 
205 0 0 
206 0 0 
205 0 0 
208 0 0 
212 0 0 
207 0 0 
204 0 0 
202 0 0 
201 0 0 
205 0 0 
206 0 0 
206 0 0 
201 0 0 
208 0 0 
208 0 0 
207 0 0 
202 0 0 
206 0 0 
208 0 0 
206 0 0 
214 0 0 
202 0 0 
206 0 0 
212 0 0 
211 0 0 
209 0 0 
210 0 0 
214 0 0 
212 0 0 
212 0 0 
215 0 0 
206 0 0 
205 0 0 
204 0 0 
209 0 0 
211 0 0 
208 0 0 
214 0 0 
208 0 0 
207 0 0 
211 0 0 
210 0 0 
215 0 0 
209 0 0 
206 0 0 
214 0 0 
212 0 0 
209 0 0 
208 0 0 
211 0 0 
209 0 0 
211 0 0 
206 0 0 
211 0 0 
214 0 0 
212 0 0 
212 0 0 
211 0 0 
213 0 0 
212 0 0 
212 0 0 
207 0 0 
211 0 0 
212 0 0 
211 0 0 
211 0 0 
213 0 0 
215 0 0 
213 0 0 
214 0 0 
211 0 0 
213 0 0 
213 0 0 
210 0 0 
214 0 0 
212 0 0 
212 0 0 
212 0 0 
211 0 0 
210 0 0 
214 0 0 
211 0 0 
213 0 0 
211 0 0 
215 0 0 
213 0 0 
217 0 0 
216 0 0 
215 0 0 
213 0 0 
216 0 0 
216 0 0 
213 0 0 
213 0 0 
212 0 0 
217 0 0 
217 0 0 
213 0 0 
211 0 0 
214 0 0 
215 0 0 
217 0 0 
212 0 0 
216 0 0 
217 0 0 
213 0 0 
216 0 0 
211 0 0 
215 0 0 
216 0 0 
216 0 0 
214 0 0 
213 0 0 
215 0 0 
213 0 0 
215 0 0 
214 0 0 
215 0 0 
216 0 0 
215 0 0 
212 0 0 
212 0 0 
210 0 0 
214 0 0 
210 0 0 
214 0 0 
218 0 0 
215 0 0 
215 0 0 
0 0 255 
0 0 255 
0 0 253 
0 0 255 
0 0 255 
0 0 255 
0 0 254 
0 0 255 
0 0 255 
0 0 255 
0 0 255 
0 0 255 
0 0 254 
0 0 255 
0 0 255 
0 0 254 
0 0 255 
0 0 254 
0 0 254 
0 0 255 
0 0 254 
0 0 255 
0 0 255 
0 0 254 
0 0 255 
0 0 254 
0 0 254 
0 0 255 
0 0 255 
0 0 253 
0 0 254 
0 0 255 
0 0 254 
0 0 254 
0 0 252 
0 0 254 
0 0 253 
0 0 254 
0 0 254 
0 0 255 
0 0 255 
0 0 255 
0 0 254 
0 0 253 
0 0 253 
0 0 255 
0 0 253 
0 0 252 
0 0 254 
0 0 254 
0 0 254 
0 0 254 
0 0 252 
0 0 254 
0 0 253 
0 0 254 
0 0 255 
0 0 252 
0 0 253 
0 0 255 
0 0 253 
0 0 253 
0 0 253 
0 0 254 
0 0 252 
0 0 253 
0 0 255 
0 0 252 
0 0 254 
0 0 255 
0 0 253 
0 0 253 
0 0 252 
0 0 254 
0 0 254 
0 0 249 
0 0 252 
0 0 254 
0 0 252 
0 0 252 
0 0 249 
0 0 253 
0 0 250 
0 0 253 
0 0 252 
0 0 250 
0 0 252 
0 0 249 
0 0 253 
0 0 253 
0 0 254 
0 0 253 
0 0 248 
0 0 253 
0 0 252 
0 0 249 
0 0 253 
0 0 245 
0 0 249 
0 0 250 
0 0 253 
0 0 246 
0 0 248 
0 0 252 
0 0 244 
0 0 249 
0 0 253 
0 0 245 
0 0 249 
0 0 244 
0 0 248 
0 0 250 
0 0 250 
0 0 249 
0 0 249 
0 0 249 
0 0 249 
0 0 245 
0 0 248 
0 0 249 
0 0 248 
0 0 242 
0 0 249 
0 0 253 
0 0 245 
0 0 241 
0 0 245 
0 0 248 
0 0 249 
0 0 244 
0 0 238 
0 0 242 
0 0 245 
0 0 252 
0 0 245 
0 0 245 
0 0 245 
0 0 244 
0 0 246 
0 0 237 
0 0 244 
0 0 237 
0 0 242 
0 0 231 
0 0 241 
0 0 241 
0 0 245 
0 0 241 
0 0 245 
0 0 240 
0 0 237 
0 0 241 
0 0 233 
0 0 240 
0 0 230 
0 0 234 
0 0 238 
0 0 241 
0 0 234 
0 0 233 
0 0 223 
0 0 237 
0 0 236 
0 0 230 
0 0 238 
0 0 230 
0 0 236 
0 0 231 
0 0 231 
0 0 231 
0 0 236 
0 0 234 
0 0 237 
0 0 237 
0 0 233 
0 0 224 
20 22 227 
178 197 248 
204 226 255 
204 226 255 
204 226 255 
204 226 255 
204 226 255 
204 226 255 
204 226 255 
204 226 255 
204 226 255 
204 226 255 
204 226 255 
204 226 255 
204 226 255 
204 226 255 
204 226 255 
204 226 255 
204 226 255 
204 226 255 
204 226 255 
204 226 255 
204 226 255 
204 226 255 
204 226 255 
204 226 255 
204 226 255 
204 226 255 
204 226 255 
204 226 255 
204 226 255 
204 226 255 
204 226 255 
204 226 255 
204 226 255 
204 226 255 
204 226 255 
204 226 255 
204 226 255 
204 226 255 
204 226 255 
204 226 255 
204 226 255 
204 226 255 
204 226 255 
204 226 255 
200 197 223 
177 22 25 
179 0 0 
178 0 0 
174 0 0 
172 0 0 
183 0 0 
184 0 0 
178 0 0 
186 0 0 
184 0 0 
185 0 0 
184 0 0 
190 0 0 
184 0 0 
182 0 0 
193 0 0 
191 0 0 
187 0 0 
195 0 0 
191 0 0 
186 0 0 
186 0 0 
187 0 0 
190 0 0 
195 0 0 
194 0 0 
197 0 0 
194 0 0 
196 0 0 
203 0 0 
201 0 0 
202 0 0 
204 0 0 
207 0 0 
201 0 0 
206 0 0 
203 0 0 
197 0 0 
200 0 0 
204 0 0 
191 0 0 
202 0 0 
201 0 0 
200 0 0 
203 0 0 
206 0 0 
207 0 0 
208 0 0 
199 0 0 
207 0 0 
206 0 0 
203 0 0 
206 0 0 
208 0 0 
212 0 0 
211 0 0 
197 0 0 
212 0 0 
209 0 0 
208 0 0 
203 0 0 
207 0 0 
212 0 0 
211 0 0 
210 0 0 
211 0 0 
205 0 0 
210 0 0 
209 0 0 
206 0 0 
204 0 0 
210 0 0 
205 0 0 
212 0 0 
208 0 0 
204 0 0 
207 0 0 
211 0 0 
207 0 0 
207 0 0 
207 0 0 
216 0 0 
206 0 0 
208 0 0 
213 0 0 
211 0 0 
210 0 0 
207 0 0 
207 0 0 
214 0 0 
208 0 0 
210 0 0 
209 0 0 
214 0 0 
211 0 0 
209 0 0 
214 0 0 
215 0 0 
214 0 0 
210 0 0 
210 0 0 
208 0 0 
213 0 0 
216 0 0 
204 0 0 
213 0 0 
215 0 0 
215 0 0 
215 0 0 
208 0 0 
209 0 0 
214 0 0 
208 0 0 
213 0 0 
215 0 0 
217 0 0 
213 0 0 
216 0 0 
214 0 0 
214 0 0 
214 0 0 
208 0 0 
215 0 0 
212 0 0 
212 0 0 
213 0 0 
217 0 0 
215 0 0 
213 0 0 
216 0 0 
216 0 0 
212 0 0 
211 0 0 
211 0 0 
217 0 0 
211 0 0 
212 0 0 
211 0 0 
214 0 0 
213 0 0 
215 0 0 
215 0 0 
216 0 0 
213 0 0 
214 0 0 
213 0 0 
215 0 0 
210 0 0 
218 0 0 
215 0 0 
211 0 0 
218 0 0 
217 0 0 
214 0 0 
214 0 0 
214 0 0 
212 0 0 
211 0 0 
213 0 0 
214 0 0 
218 0 0 
216 0 0 
214 0 0 
215 0 0 
216 0 0 
214 0 0 
214 0 0 
217 0 0 
215 0 0 
214 0 0 
214 0 0 
216 0 0 
214 0 0 
213 0 0 
214 0 0 
214 0 0 
218 0 0 
0 0 255 
0 0 255 
0 0 255 
0 0 255 
0 0 255 
0 0 254 
0 0 255 
0 0 255 
0 0 255 
0 0 252 
0 0 255 
0 0 254 
0 0 254 
0 0 255 
0 0 254 
0 0 255 
0 0 255 
0 0 254 
0 0 255 
0 0 255 
0 0 255 
0 0 255 
0 0 255 
0 0 254 
0 0 255 
0 0 254 
0 0 255 
0 0 250 
0 0 255 
0 0 255 
0 0 255 
0 0 253 
0 0 255 
0 0 254 
0 0 255 
0 0 255 
0 0 254 
0 0 254 
0 0 255 
0 0 255 
0 0 255 
0 0 255 
0 0 254 
0 0 254 
0 0 255 
0 0 255 
0 0 254 
0 0 252 
0 0 254 
0 0 250 
0 0 253 
0 0 253 
0 0 254 
0 0 253 
0 0 254 
0 0 254 
0 0 252 
0 0 253 
0 0 255 
0 0 252 
0 0 253 
0 0 255 
0 0 253 
0 0 254 
0 0 255 
0 0 252 
0 0 250 
0 0 253 
0 0 254 
0 0 253 
0 0 253 
0 0 253 
0 0 252 
0 0 250 
0 0 249 
0 0 253 
0 0 254 
0 0 254 
0 0 253 
0 0 250 
0 0 249 
0 0 252 
0 0 254 
0 0 249 
0 0 254 
0 0 250 
0 0 253 
0 0 254 
0 0 245 
0 0 255 
0 0 255 
0 0 248 
0 0 250 
0 0 250 
0 0 249 
0 0 252 
0 0 252 
0 0 245 
0 0 252 
0 0 254 
0 0 254 
0 0 249 
0 0 244 
0 0 249 
0 0 248 
0 0 249 
0 0 254 
0 0 252 
0 0 249 
0 0 246 
0 0 248 
0 0 244 
0 0 249 
0 0 248 
0 0 246 
0 0 246 
0 0 248 
0 0 248 
0 0 252 
0 0 254 
0 0 249 
0 0 252 
0 0 249 
0 0 250 
0 0 249 
0 0 252 
0 0 250 
0 0 240 
0 0 241 
0 0 252 
0 0 244 
0 0 252 
0 0 238 
0 0 242 
0 0 242 
0 0 244 
0 0 250 
0 0 240 
0 0 249 
0 0 244 
0 0 240 
0 0 246 
0 0 249 
0 0 238 
0 0 242 
0 0 237 
0 0 238 
0 0 242 
0 0 238 
0 0 248 
0 0 242 
0 0 242 
0 0 244 
0 0 241 
0 0 234 
0 0 234 
0 0 240 
0 0 234 
0 0 230 
0 0 234 
0 0 237 
0 0 228 
0 0 236 
0 0 238 
0 0 240 
0 0 237 
0 0 238 
0 0 220 
0 0 241 
0 0 224 
0 0 224 
0 0 223 
0 0 233 
0 0 221 
0 0 233 
0 0 228 
0 0 233 
57 64 223 
189 210 250 
204 226 255 
204 226 255 
204 226 255 
204 226 255 
204 226 255 
204 226 255 
204 226 255 
204 226 255 
204 226 255 
204 226 255 
204 226 255 
204 226 255 
204 226 255 
204 226 255 
204 226 255 
204 226 255 
204 226 255 
204 226 255 
204 226 255 
204 226 255 
204 226 255 
204 226 255 
204 226 255 
204 226 255 
204 226 255 
204 226 255 
204 226 255 
204 226 255 
204 226 255 
204 226 255 
204 226 255 
204 226 255 
204 226 255 
204 226 255 
204 226 255 
204 226 255 
204 226 255 
204 226 255 
204 226 255 
204 226 255 
204 226 255 
204 226 255 
199 205 231 
178 71 80 
182 0 0 
173 0 0 
182 0 0 
183 0 0 
188 0 0 
186 0 0 
183 0 0 
191 0 0 
184 0 0 
193 0 0 
189 0 0 
188 0 0 
184 0 0 
185 0 0 
189 0 0 
199 0 0 
186 0 0 
195 0 0 
191 0 0 
194 0 0 
191 0 0 
195 0 0 
193 0 0 
200 0 0 
191 0 0 
200 0 0 
196 0 0 
203 0 0 
196 0 0 
205 0 0 
194 0 0 
200 0 0 
203 0 0 
197 0 0 
203 0 0 
201 0 0 
206 0 0 
199 0 0 
197 0 0 
202 0 0 
201 0 0 
201 0 0 
204 0 0 
203 0 0 
200 0 0 
203 0 0 
203 0 0 
208 0 0 
198 0 0 
200 0 0 
202 0 0 
199 0 0 
209 0 0 
203 0 0 
209 0 0 
203 0 0 
211 0 0 
202 0 0 
206 0 0 
207 0 0 
204 0 0 
205 0 0 
207 0 0 
207 0 0 
205 0 0 
206 0 0 
204 0 0 
207 0 0 
205 0 0 
213 0 0 
203 0 0 
203 0 0 
211 0 0 
204 0 0 
208 0 0 
205 0 0 
208 0 0 
203 0 0 
214 0 0 
209 0 0 
208 0 0 
209 0 0 
211 0 0 
207 0 0 
207 0 0 
208 0 0 
208 0 0 
211 0 0 
212 0 0 
212 0 0 
216 0 0 
207 0 0 
211 0 0 
214 0 0 
211 0 0 
213 0 0 
209 0 0 
211 0 0 
213 0 0 
208 0 0 
209 0 0 
212 0 0 
210 0 0 
208 0 0 
213 0 0 
208 0 0 
215 0 0 
213 0 0 
217 0 0 
213 0 0 
216 0 0 
208 0 0 
212 0 0 
215 0 0 
211 0 0 
210 0 0 
214 0 0 
211 0 0 
213 0 0 
211 0 0 
211 0 0 
212 0 0 
214 0 0 
213 0 0 
214 0 0 
215 0 0 
209 0 0 
214 0 0 
216 0 0 
214 0 0 
214 0 0 
216 0 0 
213 0 0 
214 0 0 
209 0 0 
213 0 0 
210 0 0 
214 0 0 
209 0 0 
215 0 0 
214 0 0 
206 0 0 
213 0 0 
214 0 0 
214 0 0 
211 0 0 
217 0 0 
216 0 0 
214 0 0 
216 0 0 
217 0 0 
215 0 0 
214 0 0 
216 0 0 
212 0 0 
212 0 0 
213 0 0 
215 0 0 
213 0 0 
216 0 0 
216 0 0 
214 0 0 
212 0 0 
218 0 0 
216 0 0 
217 0 0 
216 0 0 
218 0 0 
214 0 0 
214 0 0 
216 0 0 
215 0 0 
217 0 0 
214 0 0 
218 0 0 
214 0 0 
217 0 0 
0 0 255 
0 0 255 
0 0 255 
0 0 254 
0 0 253 
0 0 254 
0 0 255 
0 0 255 
0 0 255 
0 0 255 
0 0 253 
0 0 255 
0 0 254 
0 0 255 
0 0 255 
0 0 255 
0 0 255 
0 0 254 
0 0 255 
0 0 255 
0 0 255 
0 0 252 
0 0 253 
0 0 255 
0 0 255 
0 0 254 
0 0 255 
0 0 255 
0 0 254 
0 0 255 
0 0 254 
0 0 255 
0 0 254 
0 0 255 
0 0 255 
0 0 254 
0 0 255 
0 0 252 
0 0 255 
0 0 253 
0 0 254 
0 0 254 
0 0 254 
0 0 254 
0 0 253 
0 0 254 
0 0 254 
0 0 254 
0 0 252 
0 0 252 
0 0 255 
0 0 252 
0 0 253 
0 0 255 
0 0 255 
0 0 255 
0 0 254 
0 0 254 
0 0 254 
0 0 253 
0 0 254 
0 0 254 
0 0 250 
0 0 249 
0 0 254 
0 0 254 
0 0 254 
0 0 253 
0 0 249 
0 0 253 
0 0 253 
0 0 255 
0 0 255 
0 0 253 
0 0 254 
0 0 252 
0 0 254 
0 0 252 
0 0 252 
0 0 252 
0 0 253 
0 0 249 
0 0 250 
0 0 253 
0 0 250 
0 0 254 
0 0 249 
0 0 254 
0 0 252 
0 0 252 
0 0 248 
0 0 254 
0 0 253 
0 0 248 
0 0 253 
0 0 253 
0 0 244 
0 0 248 
0 0 254 
0 0 250 
0 0 248 
0 0 249 
0 0 249 
0 0 252 
0 0 252 
0 0 253 
0 0 252 
0 0 250 
0 0 254 
0 0 246 
0 0 252 
0 0 252 
0 0 250 
0 0 249 
0 0 248 
0 0 253 
0 0 246 
0 0 248 
0 0 245 
0 0 248 
0 0 249 
0 0 246 
0 0 248 
0 0 252 
0 0 246 
0 0 244 
0 0 244 
0 0 248 
0 0 244 
0 0 244 
0 0 248 
0 0 241 
0 0 249 
0 0 249 
0 0 246 
0 0 249 
0 0 241 
0 0 245 
0 0 245 
0 0 245 
0 0 240 
0 0 240 
0 0 244 
0 0 237 
0 0 234 
0 0 242 
0 0 240 
0 0 241 
0 0 234 
0 0 236 
0 0 233 
0 0 241 
0 0 240 
0 0 242 
0 0 233 
0 0 230 
0 0 236 
0 0 227 
0 0 238 
0 0 234 
0 0 230 
0 0 231 
0 0 237 
0 0 242 
0 0 231 
0 0 241 
0 0 240 
0 0 234 
0 0 227 
0 0 233 
0 0 241 
0 0 218 
0 0 226 
0 0 218 
0 0 241 
0 0 230 
0 0 226 
0 0 233 
79 87 226 
202 224 255 
204 226 255 
204 226 255 
204 226 255 
204 226 255 
204 226 255 
204 226 255 
204 226 255 
204 226 255 
204 226 255 
204 226 255 
204 226 255 
204 226 255 
204 226 255 
204 226 255 
204 226 255 
204 226 255 
204 226 255 
204 226 255 
204 226 255 
204 226 255 
204 226 255 
204 226 255 
204 226 255 
204 226 255 
204 226 255 
204 226 255 
204 226 255 
204 226 255 
204 226 255 
204 226 255 
204 226 255 
204 226 255 
204 226 255 
204 226 255 
204 226 255 
204 226 255 
204 226 255 
204 226 255 
204 226 255 
204 226 255 
204 224 253 
179 84 95 
169 0 0 
180 0 0 
181 0 0 
179 0 0 
173 0 0 
179 0 0 
186 0 0 
186 0 0 
186 0 0 
183 0 0 
192 0 0 
186 0 0 
190 0 0 
194 0 0 
193 0 0 
194 0 0 
180 0 0 
190 0 0 
194 0 0 
185 0 0 
202 0 0 
194 0 0 
197 0 0 
195 0 0 
199 0 0 
196 0 0 
196 0 0 
192 0 0 
197 0 0 
200 0 0 
197 0 0 
201 0 0 
203 0 0 
199 0 0 
202 0 0 
203 0 0 
199 0 0 
203 0 0 
207 0 0 
201 0 0 
204 0 0 
202 0 0 
202 0 0 
201 0 0 
206 0 0 
209 0 0 
207 0 0 
210 0 0 
202 0 0 
207 0 0 
205 0 0 
203 0 0 
200 0 0 
201 0 0 
202 0 0 
212 0 0 
209 0 0 
202 0 0 
205 0 0 
207 0 0 
207 0 0 
203 0 0 
204 0 0 
207 0 0 
212 0 0 
202 0 0 
208 0 0 
207 0 0 
210 0 0 
212 0 0 
210 0 0 
212 0 0 
211 0 0 
214 0 0 
205 0 0 
206 0 0 
207 0 0 
212 0 0 
209 0 0 
212 0 0 
205 0 0 
207 0 0 
209 0 0 
209 0 0 
204 0 0 
210 0 0 
207 0 0 
213 0 0 
212 0 0 
211 0 0 
209 0 0 
211 0 0 
214 0 0 
211 0 0 
213 0 0 
206 0 0 
211 0 0 
210 0 0 
207 0 0 
212 0 0 
211 0 0 
212 0 0 
209 0 0 
207 0 0 
209 0 0 
209 0 0 
213 0 0 
213 0 0 
216 0 0 
214 0 0 
216 0 0 
212 0 0 
212 0 0 
216 0 0 
211 0 0 
213 0 0 
215 0 0 
213 0 0 
212 0 0 
213 0 0 
212 0 0 
211 0 0 
213 0 0 
212 0 0 
211 0 0 
214 0 0 
206 0 0 
216 0 0 
218 0 0 
213 0 0 
215 0 0 
210 0 0 
210 0 0 
215 0 0 
208 0 0 
215 0 0 
214 0 0 
213 0 0 
217 0 0 
213 0 0 
214 0 0 
214 0 0 
217 0 0 
213 0 0 
216 0 0 
214 0 0 
213 0 0 
212 0 0 
215 0 0 
212 0 0 
215 0 0 
216 0 0 
214 0 0 
217 0 0 
214 0 0 
217 0 0 
214 0 0 
214 0 0 
213 0 0 
213 0 0 
213 0 0 
215 0 0 
214 0 0 
213 0 0 
215 0 0 
212 0 0 
217 0 0 
212 0 0 
214 0 0 
212 0 0 
215 0 0 
215 0 0 
214 0 0 
214 0 0 
217 0 0 
216 0 0 
213 0 0 
216 0 0 
0 0 255 
0 0 255 
0 0 255 
0 0 254 
0 0 255 
0 0 255 
0 0 255 
0 0 254 
0 0 254 
0 0 254 
0 0 255 
0 0 254 
0 0 255 
0 0 253 
0 0 253 
0 0 255 
0 0 255 
0 0 254 
0 0 255 
0 0 254 
0 0 254 
0 0 255 
0 0 253 
0 0 254 
0 0 255 
0 0 254 
0 0 253 
0 0 253 
0 0 253 
0 0 254 
0 0 254 
0 0 254 
0 0 254 
0 0 255 
0 0 254 
0 0 254 
0 0 253 
0 0 253 
0 0 252 
0 0 253 
0 0 253 
0 0 254 
0 0 254 
0 0 252 
0 0 254 
0 0 255 
0 0 253 
0 0 252 
0 0 254 
0 0 253 
0 0 254 
0 0 254 
0 0 255 
0 0 254 
0 0 254 
0 0 255 
0 0 254 
0 0 254 
0 0 253 
0 0 253 
0 0 252 
0 0 253 
0 0 255 
0 0 254 
0 0 254 
0 0 253 
0 0 254 
0 0 252 
0 0 252 
0 0 252 
0 0 250 
0 0 253 
0 0 255 
0 0 254 
0 0 246 
0 0 254 
0 0 252 
0 0 250 
0 0 252 
0 0 252 
0 0 253 
0 0 250 
0 0 253 
0 0 250 
0 0 254 
0 0 254 
0 0 248 
0 0 252 
0 0 249 
0 0 252 
0 0 248 
0 0 252 
0 0 253 
0 0 248 
0 0 253 
0 0 252 
0 0 250 
0 0 252 
0 0 248 
0 0 253 
0 0 250 
0 0 252 
0 0 248 
0 0 248 
0 0 248 
0 0 249 
0 0 253 
0 0 244 
0 0 250 
0 0 248 
0 0 250 
0 0 248 
0 0 245 
0 0 249 
0 0 249 
0 0 245 
0 0 245 
0 0 249 
0 0 244 
0 0 248 
0 0 250 
0 0 248 
0 0 249 
0 0 250 
0 0 250 
0 0 248 
0 0 246 
0 0 245 
0 0 245 
0 0 250 
0 0 246 
0 0 245 
0 0 245 
0 0 246 
0 0 248 
0 0 248 
0 0 249 
0 0 244 
0 0 245 
0 0 241 
0 0 242 
0 0 242 
0 0 245 
0 0 241 
0 0 236 
0 0 241 
0 0 241 
0 0 240 
0 0 238 
0 0 240 
0 0 240 
0 0 240 
0 0 240 
0 0 242 
0 0 240 
0 0 237 
0 0 233 
0 0 238 
0 0 237 
0 0 234 
0 0 238 
0 0 246 
0 0 236 
0 0 241 
0 0 228 
0 0 237 
0 0 230 
0 0 233 
0 0 221 
0 0 237 
0 0 227 
0 0 227 
0 0 217 
0 0 221 
0 0 228 
0 0 217 
0 0 214 
0 0 220 
0 0 221 
108 120 230 
205 226 255 
205 226 255 
204 226 255 
204 226 255 
204 226 255 
204 226 255 
204 226 255 
204 226 255 
204 226 255 
204 226 255 
204 226 255 
204 226 255 
204 226 255 
204 226 255 
204 226 255 
204 226 255 
204 226 255 
204 226 255 
204 226 255 
204 226 255 
204 226 255 
204 226 255 
204 226 255 
204 226 255 
204 226 255 
204 226 255 
204 226 255 
204 226 255 
204 226 255 
204 226 255 
204 226 255 
204 226 255 
204 226 255 
204 226 255 
204 226 255 
204 226 255 
204 226 255 
205 226 255 
205 226 255 
205 226 255 
184 119 135 
172 0 0 
172 0 0 
178 0 0 
171 0 0 
180 0 0 
180 0 0 
180 0 0 
176 0 0 
180 0 0 
181 0 0 
189 0 0 
188 0 0 
182 0 0 
183 0 0 
192 0 0 
198 0 0 
185 0 0 
190 0 0 
195 0 0 
197 0 0 
197 0 0 
195 0 0 
195 0 0 
192 0 0 
193 0 0 
195 0 0 
197 0 0 
196 0 0 
195 0 0 
198 0 0 
196 0 0 
204 0 0 
193 0 0 
197 0 0 
201 0 0 
197 0 0 
196 0 0 
202 0 0 
191 0 0 
207 0 0 
194 0 0 
197 0 0 
205 0 0 
204 0 0 
197 0 0 
203 0 0 
200 0 0 
206 0 0 
200 0 0 
205 0 0 
201 0 0 
203 0 0 
208 0 0 
207 0 0 
201 0 0 
207 0 0 
207 0 0 
208 0 0 
210 0 0 
210 0 0 
208 0 0 
207 0 0 
207 0 0 
205 0 0 
203 0 0 
202 0 0 
211 0 0 
210 0 0 
203 0 0 
210 0 0 
206 0 0 
211 0 0 
210 0 0 
213 0 0 
204 0 0 
206 0 0 
206 0 0 
210 0 0 
207 0 0 
212 0 0 
206 0 0 
212 0 0 
209 0 0 
213 0 0 
209 0 0 
209 0 0 
213 0 0 
208 0 0 
208 0 0 
210 0 0 
209 0 0 
210 0 0 
212 0 0 
213 0 0 
213 0 0 
215 0 0 
214 0 0 
209 0 0 
213 0 0 
211 0 0 
212 0 0 
211 0 0 
211 0 0 
211 0 0 
211 0 0 
213 0 0 
212 0 0 
214 0 0 
216 0 0 
213 0 0 
214 0 0 
210 0 0 
208 0 0 
216 0 0 
214 0 0 
214 0 0 
212 0 0 
216 0 0 
213 0 0 
211 0 0 
211 0 0 
217 0 0 
211 0 0 
213 0 0 
214 0 0 
215 0 0 
216 0 0 
217 0 0 
216 0 0 
214 0 0 
211 0 0 
214 0 0 
215 0 0 
212 0 0 
212 0 0 
214 0 0 
212 0 0 
216 0 0 
216 0 0 
212 0 0 
215 0 0 
216 0 0 
214 0 0 
217 0 0 
214 0 0 
213 0 0 
210 0 0 
214 0 0 
217 0 0 
212 0 0 
219 0 0 
210 0 0 
214 0 0 
212 0 0 
217 0 0 
213 0 0 
217 0 0 
215 0 0 
216 0 0 
216 0 0 
219 0 0 
216 0 0 
215 0 0 
216 0 0 
217 0 0 
215 0 0 
214 0 0 
217 0 0 
214 0 0 
217 0 0 
218 0 0 
218 0 0 
213 0 0 
216 0 0 
215 0 0 
212 0 0 
218 0 0 
214 0 0 
214 0 0 
0 0 255 
0 0 254 
0 0 255 
0 0 255 
0 0 255 
0 0 255 
0 0 255 
0 0 255 
0 0 255 
0 0 254 
0 0 254 
0 0 255 
0 0 255 
0 0 253 
0 0 255 
0 0 255 
0 0 254 
0 0 255 
0 0 255 
0 0 255 
0 0 255 
0 0 254 
0 0 254 
0 0 254 
0 0 255 
0 0 254 
0 0 254 
0 0 255 
0 0 253 
0 0 255 
0 0 253 
0 0 255 
0 0 255 
0 0 254 
0 0 255 
0 0 255 
0 0 253 
0 0 253 
0 0 253 
0 0 255 
0 0 253 
0 0 255 
0 0 255 
0 0 255 
0 0 255 
0 0 254 
0 0 255 
0 0 253 
0 0 254 
0 0 253 
0 0 255 
0 0 254 
0 0 255 
0 0 254 
0 0 255 
0 0 254 
0 0 255 
0 0 253 
0 0 255 
0 0 253 
0 0 254 
0 0 250 
0 0 252 
0 0 252 
0 0 250 
0 0 254 
0 0 253 
0 0 254 
0 0 255 
0 0 252 
0 0 255 
0 0 253 
0 0 252 
0 0 254 
0 0 250 
0 0 254 
0 0 253 
0 0 254 
0 0 255 
0 0 253 
0 0 248 
0 0 248 
0 0 250 
0 0 255 
0 0 254 
0 0 253 
0 0 253 
0 0 255 
0 0 252 
0 0 250 
0 0 253 
0 0 252 
0 0 253 
0 0 253 
0 0 252 
0 0 246 
0 0 248 
0 0 252 
0 0 253 
0 0 246 
0 0 246 
0 0 249 
0 0 252 
0 0 246 
0 0 252 
0 0 252 
0 0 252 
0 0 250 
0 0 248 
0 0 246 
0 0 252 
0 0 253 
0 0 253 
0 0 252 
0 0 246 
0 0 246 
0 0 252 
0 0 250 
0 0 248 
0 0 246 
0 0 246 
0 0 250 
0 0 246 
0 0 249 
0 0 249 
0 0 248 
0 0 242 
0 0 246 
0 0 244 
0 0 249 
0 0 246 
0 0 240 
0 0 253 
0 0 249 
0 0 245 
0 0 240 
0 0 242 
0 0 238 
0 0 238 
0 0 245 
0 0 241 
0 0 242 
0 0 241 
0 0 244 
0 0 245 
0 0 240 
0 0 238 
0 0 240 
0 0 242 
0 0 248 
0 0 238 
0 0 241 
0 0 231 
0 0 245 
0 0 240 
0 0 227 
0 0 234 
0 0 233 
0 0 242 
0 0 227 
0 0 236 
0 0 231 
0 0 231 
0 0 231 
0 0 237 
0 0 228 
0 0 227 
0 0 230 
0 0 224 
0 0 215 
0 0 228 
0 0 236 
0 0 221 
0 0 234 
0 0 226 
0 0 212 
0 0 220 
0 0 223 
0 0 218 
0 0 223 
137 152 236 
205 226 255 
205 226 255 
205 226 255 
205 226 255 
205 226 255 
205 226 255 
205 226 255 
205 226 255 
205 226 255 
205 226 255 
205 226 255 
205 226 255 
205 226 255 
205 226 255 
205 226 255 
205 226 255 
205 226 255 
205 226 255 
205 226 255 
205 226 255 
205 226 255 
205 226 255 
205 226 255 
205 226 255 
205 226 255 
205 226 255 
205 226 255 
205 226 255 
205 226 255 
205 226 255 
205 226 255 
205 226 255 
205 226 255 
205 226 255 
205 226 255 
205 226 255 
205 226 255 
205 226 255 
196 165 186 
172 0 0 
170 0 0 
178 0 0 
174 0 0 
183 0 0 
173 0 0 
185 0 0 
182 0 0 
185 0 0 
176 0 0 
189 0 0 
190 0 0 
192 0 0 
188 0 0 
184 0 0 
194 0 0 
191 0 0 
192 0 0 
183 0 0 
188 0 0 
194 0 0 
193 0 0 
186 0 0 
190 0 0 
197 0 0 
197 0 0 
202 0 0 
197 0 0 
203 0 0 
201 0 0 
199 0 0 
196 0 0 
192 0 0 
196 0 0 
186 0 0 
197 0 0 
205 0 0 
199 0 0 
203 0 0 
199 0 0 
196 0 0 
196 0 0 
196 0 0 
200 0 0 
206 0 0 
207 0 0 
200 0 0 
199 0 0 
201 0 0 
199 0 0 
207 0 0 
205 0 0 
203 0 0 
208 0 0 
206 0 0 
205 0 0 
207 0 0 
206 0 0 
206 0 0 
210 0 0 
204 0 0 
206 0 0 
203 0 0 
209 0 0 
209 0 0 
205 0 0 
202 0 0 
206 0 0 
209 0 0 
211 0 0 
207 0 0 
205 0 0 
207 0 0 
208 0 0 
205 0 0 
213 0 0 
212 0 0 
208 0 0 
206 0 0 
208 0 0 
214 0 0 
209 0 0 
207 0 0 
212 0 0 
211 0 0 
214 0 0 
213 0 0 
212 0 0 
212 0 0 
205 0 0 
209 0 0 
211 0 0 
209 0 0 
212 0 0 
214 0 0 
212 0 0 
213 0 0 
210 0 0 
208 0 0 
212 0 0 
212 0 0 
211 0 0 
209 0 0 
215 0 0 
216 0 0 
206 0 0 
214 0 0 
215 0 0 
213 0 0 
217 0 0 
212 0 0 
209 0 0 
210 0 0 
217 0 0 
210 0 0 
216 0 0 
215 0 0 
215 0 0 
206 0 0 
215 0 0 
214 0 0 
216 0 0 
213 0 0 
215 0 0 
209 0 0 
217 0 0 
215 0 0 
211 0 0 
215 0 0 
218 0 0 
212 0 0 
213 0 0 
212 0 0 
213 0 0 
213 0 0 
215 0 0 
208 0 0 
217 0 0 
213 0 0 
213 0 0 
211 0 0 
218 0 0 
214 0 0 
214 0 0 
212 0 0 
209 0 0 
214 0 0 
212 0 0 
215 0 0 
214 0 0 
213 0 0 
215 0 0 
215 0 0 
216 0 0 
214 0 0 
211 0 0 
217 0 0 
215 0 0 
217 0 0 
215 0 0 
216 0 0 
211 0 0 
215 0 0 
216 0 0 
217 0 0 
216 0 0 
214 0 0 
217 0 0 
215 0 0 
214 0 0 
216 0 0 
214 0 0 
214 0 0 
217 0 0 
216 0 0 
214 0 0 
214 0 0 
215 0 0 
217 0 0 
213 0 0 
0 0 254 
0 0 255 
0 0 255 
0 0 255 
0 0 255 
0 0 255 
0 0 255 
0 0 254 
0 0 254 
0 0 255 
0 0 255 
0 0 254 
0 0 255 
0 0 255 
0 0 254 
0 0 255 
0 0 255 
0 0 254 
0 0 255 
0 0 254 
0 0 254 
0 0 254 
0 0 254 
0 0 254 
0 0 254 
0 0 255 
0 0 255 
0 0 255 
0 0 254 
0 0 254 
0 0 254 
0 0 255 
0 0 254 
0 0 254 
0 0 255 
0 0 255 
0 0 253 
0 0 255 
0 0 252 
0 0 252 
0 0 254 
0 0 252 
0 0 254 
0 0 255 
0 0 253 
0 0 254 
0 0 253 
0 0 253 
0 0 255 
0 0 255 
0 0 252 
0 0 250 
0 0 254 
0 0 255 
0 0 252 
0 0 252 
0 0 254 
0 0 252 
0 0 254 
0 0 253 
0 0 255 
0 0 252 
0 0 254 
0 0 253 
0 0 255 
0 0 253 
0 0 255 
0 0 253 
0 0 253 
0 0 252 
0 0 250 
0 0 254 
0 0 253 
0 0 249 
0 0 252 
0 0 255 
0 0 255 
0 0 250 
0 0 249 
0 0 248 
0 0 250 
0 0 248 
0 0 246 
0 0 250 
0 0 254 
0 0 255 
0 0 250 
0 0 246 
0 0 249 
0 0 253 
0 0 249 
0 0 248 
0 0 254 
0 0 253 
0 0 253 
0 0 248 
0 0 250 
0 0 248 
0 0 250 
0 0 250 
0 0 249 
0 0 250 
0 0 253 
0 0 246 
0 0 248 
0 0 250 
0 0 245 
0 0 254 
0 0 252 
0 0 245 
0 0 248 
0 0 245 
0 0 248 
0 0 250 
0 0 250 
0 0 248 
0 0 250 
0 0 242 
0 0 246 
0 0 252 
0 0 248 
0 0 244 
0 0 245 
0 0 249 
0 0 248 
0 0 246 
0 0 245 
0 0 244 
0 0 246 
0 0 242 
0 0 246 
0 0 246 
0 0 244 
0 0 246 
0 0 250 
0 0 249 
0 0 248 
0 0 244 
0 0 246 
0 0 246 
0 0 238 
0 0 242 
0 0 237 
0 0 254 
0 0 237 
0 0 242 
0 0 242 
0 0 242 
0 0 240 
0 0 236 
0 0 240 
0 0 231 
0 0 237 
0 0 244 
0 0 237 
0 0 230 
0 0 241 
0 0 245 
0 0 240 
0 0 234 
0 0 234 
0 0 231 
0 0 238 
0 0 237 
0 0 226 
0 0 236 
0 0 228 
0 0 237 
0 0 221 
0 0 231 
0 0 227 
0 0 234 
0 0 228 
0 0 231 
0 0 221 
0 0 228 
0 0 221 
0 0 228 
0 0 224 
0 0 223 
0 0 231 
176 195 242 
205 227 255 
205 227 255 
205 227 255 
205 227 255 
205 227 255 
205 227 255 
205 227 255 
205 227 255 
205 226 255 
205 226 255 
205 226 255 
205 226 255 
205 226 255 
205 226 255 
205 226 255 
205 226 255 
205 226 255 
205 226 255 
205 226 255 
205 226 255 
205 226 255 
205 226 255 
205 226 255 
205 226 255 
205 226 255 
205 226 255 
205 226 255 
205 226 255 
205 226 255 
205 227 255 
205 227 255 
205 227 255 
205 227 255 
205 227 255 
205 227 255 
205 227 255 
198 197 223 
172 0 0 
174 0 0 
179 0 0 
169 0 0 
175 0 0 
176 0 0 
185 0 0 
175 0 0 
181 0 0 
173 0 0 
180 0 0 
190 0 0 
191 0 0 
184 0 0 
190 0 0 
193 0 0 
197 0 0 
176 0 0 
192 0 0 
191 0 0 
191 0 0 
190 0 0 
200 0 0 
185 0 0 
194 0 0 
195 0 0 
195 0 0 
194 0 0 
195 0 0 
192 0 0 
193 0 0 
198 0 0 
202 0 0 
195 0 0 
205 0 0 
199 0 0 
202 0 0 
189 0 0 
197 0 0 
201 0 0 
194 0 0 
206 0 0 
202 0 0 
196 0 0 
201 0 0 
201 0 0 
205 0 0 
199 0 0 
202 0 0 
205 0 0 
204 0 0 
208 0 0 
204 0 0 
204 0 0 
200 0 0 
200 0 0 
209 0 0 
205 0 0 
208 0 0 
206 0 0 
203 0 0 
204 0 0 
208 0 0 
213 0 0 
201 0 0 
206 0 0 
212 0 0 
208 0 0 
205 0 0 
212 0 0 
205 0 0 
210 0 0 
204 0 0 
208 0 0 
209 0 0 
211 0 0 
212 0 0 
206 0 0 
205 0 0 
208 0 0 
207 0 0 
208 0 0 
210 0 0 
212 0 0 
210 0 0 
206 0 0 
211 0 0 
209 0 0 
209 0 0 
208 0 0 
209 0 0 
207 0 0 
214 0 0 
214 0 0 
210 0 0 
207 0 0 
212 0 0 
212 0 0 
215 0 0 
212 0 0 
217 0 0 
215 0 0 
216 0 0 
213 0 0 
212 0 0 
211 0 0 
212 0 0 
207 0 0 
210 0 0 
212 0 0 
213 0 0 
210 0 0 
209 0 0 
214 0 0 
210 0 0 
213 0 0 
218 0 0 
213 0 0 
216 0 0 
213 0 0 
212 0 0 
214 0 0 
211 0 0 
215 0 0 
205 0 0 
208 0 0 
212 0 0 
217 0 0 
214 0 0 
215 0 0 
214 0 0 
215 0 0 
215 0 0 
214 0 0 
215 0 0 
210 0 0 
211 0 0 
216 0 0 
218 0 0 
214 0 0 
211 0 0 
215 0 0 
215 0 0 
217 0 0 
214 0 0 
212 0 0 
213 0 0 
214 0 0 
214 0 0 
213 0 0 
216 0 0 
212 0 0 
213 0 0 
216 0 0 
218 0 0 
218 0 0 
215 0 0 
213 0 0 
217 0 0 
213 0 0 
215 0 0 
216 0 0 
215 0 0 
216 0 0 
212 0 0 
214 0 0 
216 0 0 
213 0 0 
218 0 0 
215 0 0 
218 0 0 
216 0 0 
215 0 0 
215 0 0 
216 0 0 
212 0 0 
216 0 0 
214 0 0 
214 0 0 
215 0 0 
216 0 0 
0 0 254 
0 0 254 
0 0 254 
0 0 255 
0 0 255 
0 0 255 
0 0 255 
0 0 255 
0 0 252 
0 0 254 
0 0 255 
0 0 255 
0 0 252 
0 0 255 
0 0 255 
0 0 254 
0 0 255 
0 0 255 
0 0 255 
0 0 255 
0 0 253 
0 0 254 
0 0 255 
0 0 254 
0 0 253 
0 0 255 
0 0 254 
0 0 254 
0 0 255 
0 0 255 
0 0 254 
0 0 254 
0 0 255 
0 0 255 
0 0 255 
0 0 255 
0 0 255 
0 0 253 
0 0 255 
0 0 255 
0 0 255 
0 0 253 
0 0 255 
0 0 254 
0 0 254 
0 0 255 
0 0 254 
0 0 255 
0 0 254 
0 0 255 
0 0 254 
0 0 255 
0 0 254 
0 0 250 
0 0 254 
0 0 255 
0 0 255 
0 0 252 
0 0 252 
0 0 246 
0 0 253 
0 0 253 
0 0 254 
0 0 255 
0 0 252 
0 0 253 
0 0 255 
0 0 253 
0 0 250 
0 0 252 
0 0 253 
0 0 252 
0 0 249 
0 0 250 
0 0 252 
0 0 250 
0 0 252 
0 0 254 
0 0 254 
0 0 253 
0 0 248 
0 0 250 
0 0 250 
0 0 252 
0 0 253 
0 0 254 
0 0 249 
0 0 253 
0 0 248 
0 0 252 
0 0 250 
0 0 252 
0 0 253 
0 0 252 
0 0 246 
0 0 249 
0 0 252 
0 0 248 
0 0 253 
0 0 246 
0 0 252 
0 0 255 
0 0 254 
0 0 248 
0 0 248 
0 0 252 
0 0 248 
0 0 249 
0 0 248 
0 0 250 
0 0 252 
0 0 248 
0 0 252 
0 0 250 
0 0 252 
0 0 250 
0 0 242 
0 0 245 
0 0 246 
0 0 244 
0 0 249 
0 0 246 
0 0 248 
0 0 245 
0 0 249 
0 0 248 
0 0 246 
0 0 250 
0 0 242 
0 0 248 
0 0 248 
0 0 248 
0 0 250 
0 0 249 
0 0 237 
0 0 245 
0 0 244 
0 0 248 
0 0 241 
0 0 240 
0 0 242 
0 0 231 
0 0 248 
0 0 237 
0 0 240 
0 0 244 
0 0 233 
0 0 240 
0 0 242 
0 0 233 
0 0 241 
0 0 245 
0 0 233 
0 0 234 
0 0 233 
0 0 231 
0 0 234 
0 0 241 
0 0 237 
0 0 228 
0 0 233 
0 0 231 
0 0 233 
0 0 240 
0 0 231 
0 0 218 
0 0 238 
0 0 226 
0 0 231 
0 0 215 
0 0 230 
0 0 230 
0 0 218 
0 0 228 
0 0 220 
0 0 223 
0 0 228 
0 0 214 
0 0 212 
0 0 223 
0 0 227 
50 55 228 
198 219 252 
205 227 255 
205 227 255 
205 227 255 
205 227 255 
205 227 255 
205 227 255 
205 227 255 
205 227 255 
205 227 255 
205 227 255 
205 227 255 
205 227 255 
205 227 255 
205 227 255 
205 227 255 
205 227 255 
205 227 255 
205 227 255 
205 227 255 
205 227 255 
205 227 255 
205 227 255 
205 227 255 
205 227 255 
205 227 255 
205 227 255 
205 227 255 
205 227 255 
205 227 255 
205 227 255 
205 227 255 
205 227 255 
205 227 255 
205 227 255 
203 215 242 
183 81 92 
177 0 0 
174 0 0 
170 0 0 
184 0 0 
165 0 0 
180 0 0 
174 0 0 
175 0 0 
177 0 0 
183 0 0 
190 0 0 
180 0 0 
186 0 0 
195 0 0 
186 0 0 
189 0 0 
193 0 0 
196 0 0 
198 0 0 
194 0 0 
196 0 0 
188 0 0 
198 0 0 
195 0 0 
192 0 0 
202 0 0 
194 0 0 
195 0 0 
198 0 0 
202 0 0 
192 0 0 
189 0 0 
203 0 0 
195 0 0 
203 0 0 
201 0 0 
200 0 0 
204 0 0 
199 0 0 
204 0 0 
201 0 0 
197 0 0 
203 0 0 
201 0 0 
206 0 0 
207 0 0 
205 0 0 
209 0 0 
199 0 0 
200 0 0 
205 0 0 
203 0 0 
204 0 0 
207 0 0 
211 0 0 
213 0 0 
209 0 0 
208 0 0 
205 0 0 
203 0 0 
204 0 0 
207 0 0 
212 0 0 
208 0 0 
205 0 0 
200 0 0 
207 0 0 
206 0 0 
205 0 0 
214 0 0 
214 0 0 
204 0 0 
208 0 0 
210 0 0 
210 0 0 
211 0 0 
206 0 0 
216 0 0 
215 0 0 
211 0 0 
213 0 0 
211 0 0 
209 0 0 
212 0 0 
208 0 0 
202 0 0 
203 0 0 
212 0 0 
212 0 0 
206 0 0 
217 0 0 
214 0 0 
209 0 0 
208 0 0 
213 0 0 
213 0 0 
211 0 0 
208 0 0 
212 0 0 
210 0 0 
213 0 0 
215 0 0 
215 0 0 
215 0 0 
216 0 0 
212 0 0 
215 0 0 
209 0 0 
212 0 0 
211 0 0 
216 0 0 
213 0 0 
212 0 0 
212 0 0 
213 0 0 
209 0 0 
211 0 0 
213 0 0 
217 0 0 
211 0 0 
215 0 0 
211 0 0 
211 0 0 
216 0 0 
215 0 0 
212 0 0 
220 0 0 
208 0 0 
211 0 0 
214 0 0 
212 0 0 
214 0 0 
214 0 0 
215 0 0 
217 0 0 
213 0 0 
215 0 0 
212 0 0 
217 0 0 
212 0 0 
213 0 0 
219 0 0 
211 0 0 
215 0 0 
216 0 0 
212 0 0 
218 0 0 
213 0 0 
214 0 0 
213 0 0 
215 0 0 
215 0 0 
216 0 0 
215 0 0 
213 0 0 
211 0 0 
215 0 0 
215 0 0 
216 0 0 
218 0 0 
214 0 0 
214 0 0 
217 0 0 
217 0 0 
217 0 0 
216 0 0 
215 0 0 
214 0 0 
219 0 0 
212 0 0 
215 0 0 
215 0 0 
213 0 0 
215 0 0 
212 0 0 
214 0 0 
218 0 0 
217 0 0 
218 0 0 
216 0 0 
213 0 0 
0 0 255 
0 0 255 
0 0 254 
0 0 253 
0 0 255 
0 0 254 
0 0 254 
0 0 254 
0 0 254 
0 0 254 
0 0 255 
0 0 255 
0 0 255 
0 0 254 
0 0 255 
0 0 255 
0 0 255 
0 0 254 
0 0 254 
0 0 254 
0 0 253 
0 0 255 
0 0 253 
0 0 254 
0 0 255 
0 0 252 
0 0 255 
0 0 254 
0 0 254 
0 0 254 
0 0 255 
0 0 254 
0 0 254 
0 0 253 
0 0 254 
0 0 254 
0 0 254 
0 0 255 
0 0 254 
0 0 255 
0 0 254 
0 0 255 
0 0 255 
0 0 253 
0 0 255 
0 0 252 
0 0 255 
0 0 254 
0 0 255 
0 0 255 
0 0 252 
0 0 255 
0 0 254 
0 0 254 
0 0 255 
0 0 254 
0 0 252 
0 0 254 
0 0 255 
0 0 255 
0 0 253 
0 0 254 
0 0 252 
0 0 249 
0 0 253 
0 0 255 
0 0 254 
0 0 253 
0 0 255 
0 0 253 
0 0 250 
0 0 250 
0 0 249 
0 0 255 
0 0 252 
0 0 250 
0 0 249 
0 0 253 
0 0 252 
0 0 252 
0 0 252 
0 0 253 
0 0 254 
0 0 254 
0 0 255 
0 0 252 
0 0 249 
0 0 254 
0 0 249 
0 0 249 
0 0 253 
0 0 252 
0 0 248 
0 0 250 
0 0 254 
0 0 250 
0 0 252 
0 0 254 
0 0 253 
0 0 255 
0 0 248 
0 0 252 
0 0 244 
0 0 253 
0 0 250 
0 0 252 
0 0 248 
0 0 252 
0 0 248 
0 0 246 
0 0 250 
0 0 245 
0 0 248 
0 0 246 
0 0 252 
0 0 253 
0 0 248 
0 0 252 
0 0 246 
0 0 250 
0 0 246 
0 0 248 
0 0 246 
0 0 236 
0 0 241 
0 0 244 
0 0 246 
0 0 249 
0 0 246 
0 0 249 
0 0 244 
0 0 249 
0 0 244 
0 0 242 
0 0 249 
0 0 246 
0 0 238 
0 0 246 
0 0 244 
0 0 244 
0 0 241 
0 0 241 
0 0 238 
0 0 242 
0 0 237 
0 0 236 
0 0 241 
0 0 240 
0 0 237 
0 0 244 
0 0 240 
0 0 238 
0 0 240 
0 0 238 
0 0 236 
0 0 234 
0 0 237 
0 0 230 
0 0 237 
0 0 236 
0 0 231 
0 0 237 
0 0 237 
0 0 238 
0 0 227 
0 0 227 
0 0 228 
0 0 238 
0 0 228 
0 0 220 
0 0 236 
0 0 221 
0 0 228 
0 0 214 
0 0 227 
0 0 227 
0 0 227 
0 0 224 
0 0 211 
0 0 220 
0 0 214 
0 0 214 
118 130 221 
203 225 255 
206 227 255 
205 227 255 
205 227 255 
205 227 255 
205 227 255 
205 227 255 
205 227 255 
205 227 255 
205 227 255 
205 227 255 
205 227 255 
205 227 255 
205 227 255 
205 227 255 
205 227 255 
205 227 255 
205 227 255 
205 227 255 
205 227 255 
205 227 255 
205 227 255 
205 227 255 
205 227 255 
205 227 255 
205 227 255 
205 227 255 
205 227 255 
205 227 255 
205 227 255 
205 227 255 
205 227 255 
206 227 255 
205 226 254 
179 118 133 
174 0 0 
176 0 0 
168 0 0 
180 0 0 
170 0 0 
173 0 0 
181 0 0 
176 0 0 
178 0 0 
180 0 0 
184 0 0 
183 0 0 
181 0 0 
183 0 0 
190 0 0 
189 0 0 
196 0 0 
191 0 0 
188 0 0 
191 0 0 
191 0 0 
200 0 0 
196 0 0 
191 0 0 
191 0 0 
197 0 0 
198 0 0 
200 0 0 
194 0 0 
197 0 0 
195 0 0 
199 0 0 
205 0 0 
197 0 0 
199 0 0 
196 0 0 
194 0 0 
202 0 0 
199 0 0 
198 0 0 
193 0 0 
204 0 0 
206 0 0 
198 0 0 
202 0 0 
197 0 0 
198 0 0 
202 0 0 
206 0 0 
208 0 0 
205 0 0 
203 0 0 
205 0 0 
210 0 0 
205 0 0 
204 0 0 
200 0 0 
206 0 0 
200 0 0 
211 0 0 
204 0 0 
205 0 0 
201 0 0 
206 0 0 
208 0 0 
205 0 0 
208 0 0 
208 0 0 
202 0 0 
205 0 0 
204 0 0 
214 0 0 
211 0 0 
212 0 0 
209 0 0 
206 0 0 
206 0 0 
208 0 0 
212 0 0 
216 0 0 
212 0 0 
210 0 0 
204 0 0 
209 0 0 
212 0 0 
212 0 0 
213 0 0 
210 0 0 
211 0 0 
212 0 0 
213 0 0 
210 0 0 
209 0 0 
206 0 0 
210 0 0 
208 0 0 
210 0 0 
207 0 0 
210 0 0 
212 0 0 
208 0 0 
211 0 0 
205 0 0 
211 0 0 
217 0 0 
211 0 0 
209 0 0 
210 0 0 
211 0 0 
216 0 0 
212 0 0 
211 0 0 
208 0 0 
212 0 0 
215 0 0 
212 0 0 
208 0 0 
213 0 0 
217 0 0 
214 0 0 
211 0 0 
214 0 0 
214 0 0 
214 0 0 
211 0 0 
217 0 0 
215 0 0 
212 0 0 
216 0 0 
213 0 0 
213 0 0 
217 0 0 
208 0 0 
214 0 0 
217 0 0 
212 0 0 
211 0 0 
218 0 0 
214 0 0 
214 0 0 
219 0 0 
215 0 0 
214 0 0 
214 0 0 
216 0 0 
214 0 0 
214 0 0 
214 0 0 
212 0 0 
215 0 0 
215 0 0 
215 0 0 
212 0 0 
214 0 0 
219 0 0 
214 0 0 
215 0 0 
217 0 0 
217 0 0 
213 0 0 
215 0 0 
214 0 0 
213 0 0 
213 0 0 
216 0 0 
214 0 0 
217 0 0 
213 0 0 
217 0 0 
218 0 0 
216 0 0 
215 0 0 
214 0 0 
216 0 0 
214 0 0 
217 0 0 
213 0 0 
217 0 0 
214 0 0 
214 0 0 
217 0 0 
218 0 0 
0 0 255 
0 0 255 
0 0 254 
0 0 255 
0 0 254 
0 0 254 
0 0 255 
0 0 255 
0 0 255 
0 0 255 
0 0 255 
0 0 255 
0 0 254 
0 0 255 
0 0 255 
0 0 254 
0 0 253 
0 0 254 
0 0 255 
0 0 254 
0 0 255 
0 0 255 
0 0 255 
0 0 255 
0 0 255 
0 0 255 
0 0 254 
0 0 254 
0 0 253 
0 0 255 
0 0 252 
0 0 255 
0 0 253 
0 0 255 
0 0 254 
0 0 255 
0 0 255 
0 0 254 
0 0 253 
0 0 255 
0 0 252 
0 0 253 
0 0 253 
0 0 255 
0 0 255 
0 0 254 
0 0 253 
0 0 253 
0 0 255 
0 0 253 
0 0 253 
0 0 254 
0 0 252 
0 0 250 
0 0 248 
0 0 249 
0 0 252 
0 0 254 
0 0 254 
0 0 253 
0 0 250 
0 0 255 
0 0 253 
0 0 255 
0 0 253 
0 0 249 
0 0 252 
0 0 253 
0 0 253 
0 0 253 
0 0 255 
0 0 253 
0 0 252 
0 0 250 
0 0 252 
0 0 253 
0 0 250 
0 0 252 
0 0 254 
0 0 252 
0 0 252 
0 0 254 
0 0 250 
0 0 254 
0 0 249 
0 0 249 
0 0 253 
0 0 249 
0 0 250 
0 0 253 
0 0 253 
0 0 249 
0 0 245 
0 0 255 
0 0 246 
0 0 250 
0 0 246 
0 0 252 
0 0 250 
0 0 248 
0 0 253 
0 0 248 
0 0 249 
0 0 252 
0 0 253 
0 0 248 
0 0 252 
0 0 252 
0 0 252 
0 0 242 
0 0 249 
0 0 248 
0 0 250 
0 0 248 
0 0 246 
0 0 248 
0 0 248 
0 0 245 
0 0 248 
0 0 241 
0 0 246 
0 0 254 
0 0 249 
0 0 244 
0 0 246 
0 0 246 
0 0 246 
0 0 246 
0 0 252 
0 0 248 
0 0 246 
0 0 241 
0 0 244 
0 0 246 
0 0 248 
0 0 244 
0 0 241 
0 0 241 
0 0 244 
0 0 240 
0 0 250 
0 0 249 
0 0 241 
0 0 246 
0 0 249 
0 0 237 
0 0 245 
0 0 238 
0 0 248 
0 0 231 
0 0 230 
0 0 244 
0 0 241 
0 0 241 
0 0 231 
0 0 233 
0 0 238 
0 0 230 
0 0 231 
0 0 223 
0 0 236 
0 0 234 
0 0 227 
0 0 238 
0 0 236 
0 0 242 
0 0 234 
0 0 228 
0 0 231 
0 0 227 
0 0 230 
0 0 236 
0 0 233 
0 0 209 
0 0 227 
0 0 228 
0 0 220 
0 0 223 
0 0 224 
0 0 209 
0 0 220 
0 0 214 
0 0 204 
148 164 237 
206 227 255 
206 227 255 
206 227 255 
206 227 255 
206 227 255 
206 227 255 
206 227 255 
206 227 255 
206 227 255 
206 227 255 
206 227 255 
206 227 255 
206 227 255 
206 227 255 
206 227 255 
206 227 255 
206 227 255 
206 227 255 
206 227 255 
206 227 255 
206 227 255 
206 227 255 
206 227 255 
206 227 255 
206 227 255 
206 227 255 
206 227 255 
206 227 255 
206 227 255 
206 227 255 
206 227 255 
206 227 255 
192 173 194 
161 0 0 
169 0 0 
176 0 0 
179 0 0 
175 0 0 
173 0 0 
186 0 0 
182 0 0 
180 0 0 
184 0 0 
186 0 0 
185 0 0 
192 0 0 
192 0 0 
194 0 0 
189 0 0 
190 0 0 
184 0 0 
188 0 0 
182 0 0 
194 0 0 
199 0 0 
200 0 0 
204 0 0 
189 0 0 
199 0 0 
195 0 0 
193 0 0 
194 0 0 
198 0 0 
198 0 0 
202 0 0 
191 0 0 
189 0 0 
198 0 0 
203 0 0 
193 0 0 
192 0 0 
205 0 0 
205 0 0 
196 0 0 
205 0 0 
200 0 0 
207 0 0 
203 0 0 
201 0 0 
203 0 0 
208 0 0 
202 0 0 
200 0 0 
205 0 0 
196 0 0 
204 0 0 
205 0 0 
203 0 0 
210 0 0 
205 0 0 
200 0 0 
205 0 0 
207 0 0 
198 0 0 
204 0 0 
201 0 0 
206 0 0 
212 0 0 
205 0 0 
203 0 0 
208 0 0 
200 0 0 
203 0 0 
206 0 0 
207 0 0 
213 0 0 
208 0 0 
212 0 0 
214 0 0 
215 0 0 
210 0 0 
205 0 0 
211 0 0 
210 0 0 
203 0 0 
210 0 0 
212 0 0 
208 0 0 
208 0 0 
219 0 0 
209 0 0 
202 0 0 
204 0 0 
212 0 0 
215 0 0 
213 0 0 
213 0 0 
213 0 0 
211 0 0 
213 0 0 
214 0 0 
205 0 0 
213 0 0 
210 0 0 
213 0 0 
212 0 0 
208 0 0 
208 0 0 
213 0 0 
213 0 0 
215 0 0 
215 0 0 
214 0 0 
209 0 0 
212 0 0 
210 0 0 
212 0 0 
211 0 0 
211 0 0 
210 0 0 
213 0 0 
214 0 0 
212 0 0 
212 0 0 
215 0 0 
212 0 0 
212 0 0 
216 0 0 
214 0 0 
217 0 0 
211 0 0 
215 0 0 
211 0 0 
211 0 0 
214 0 0 
213 0 0 
216 0 0 
214 0 0 
215 0 0 
214 0 0 
208 0 0 
213 0 0 
216 0 0 
215 0 0 
217 0 0 
209 0 0 
211 0 0 
213 0 0 
217 0 0 
218 0 0 
219 0 0 
213 0 0 
214 0 0 
216 0 0 
218 0 0 
214 0 0 
213 0 0 
218 0 0 
216 0 0 
216 0 0 
217 0 0 
213 0 0 
215 0 0 
220 0 0 
214 0 0 
214 0 0 
217 0 0 
215 0 0 
216 0 0 
217 0 0 
217 0 0 
212 0 0 
216 0 0 
216 0 0 
213 0 0 
217 0 0 
215 0 0 
217 0 0 
216 0 0 
217 0 0 
215 0 0 
215 0 0 
212 0 0 
216 0 0 
217 0 0 
214 0 0 
0 0 255 
0 0 254 
0 0 255 
0 0 255 
0 0 255 
0 0 255 
0 0 255 
0 0 255 
0 0 255 
0 0 255 
0 0 254 
0 0 254 
0 0 254 
0 0 255 
0 0 255 
0 0 254 
0 0 255 
0 0 254 
0 0 254 
0 0 250 
0 0 255 
0 0 254 
0 0 255 
0 0 255 
0 0 254 
0 0 254 
0 0 253 
0 0 254 
0 0 255 
0 0 255 
0 0 255 
0 0 253 
0 0 254 
0 0 253 
0 0 255 
0 0 255 
0 0 254 
0 0 254 
0 0 253 
0 0 253 
0 0 254 
0 0 253 
0 0 255 
0 0 253 
0 0 253 
0 0 253 
0 0 250 
0 0 255 
0 0 255 
0 0 253 
0 0 254 
0 0 252 
0 0 254 
0 0 254 
0 0 254 
0 0 253 
0 0 253 
0 0 255 
0 0 255 
0 0 255 
0 0 249 
0 0 253 
0 0 255 
0 0 252 
0 0 255 
0 0 254 
0 0 255 
0 0 250 
0 0 255 
0 0 253 
0 0 253 
0 0 254 
0 0 249 
0 0 248 
0 0 254 
0 0 249 
0 0 255 
0 0 252 
0 0 245 
0 0 254 
0 0 253 
0 0 253 
0 0 252 
0 0 253 
0 0 252 
0 0 253 
0 0 252 
0 0 253 
0 0 250 
0 0 253 
0 0 253 
0 0 253 
0 0 248 
0 0 253 
0 0 250 
0 0 250 
0 0 250 
0 0 252 
0 0 248 
0 0 249 
0 0 252 
0 0 252 
0 0 254 
0 0 252 
0 0 248 
0 0 248 
0 0 253 
0 0 250 
0 0 250 
0 0 250 
0 0 254 
0 0 249 
0 0 250 
0 0 252 
0 0 244 
0 0 253 
0 0 246 
0 0 252 
0 0 244 
0 0 244 
0 0 244 
0 0 245 
0 0 249 
0 0 248 
0 0 240 
0 0 246 
0 0 248 
0 0 244 
0 0 242 
0 0 242 
0 0 248 
0 0 250 
0 0 245 
0 0 245 
0 0 246 
0 0 249 
0 0 237 
0 0 245 
0 0 245 
0 0 246 
0 0 242 
0 0 241 
0 0 242 
0 0 245 
0 0 246 
0 0 240 
0 0 240 
0 0 244 
0 0 236 
0 0 241 
0 0 231 
0 0 245 
0 0 233 
0 0 245 
0 0 224 
0 0 244 
0 0 227 
0 0 234 
0 0 236 
0 0 231 
0 0 241 
0 0 237 
0 0 237 
0 0 240 
0 0 227 
0 0 240 
0 0 230 
0 0 221 
0 0 217 
0 0 228 
0 0 220 
0 0 223 
0 0 217 
0 0 220 
0 0 228 
0 0 218 
0 0 206 
0 0 218 
0 0 223 
0 0 218 
0 0 214 
0 0 221 
0 0 215 
54 60 212 
187 206 249 
206 227 255 
206 227 255 
206 227 255 
206 227 255 
206 227 255 
206 227 255 
206 227 255 
206 227 255 
206 227 255 
206 227 255 
206 227 255 
206 227 255 
206 227 255 
206 227 255 
206 227 255 
206 227 255 
206 227 255 
206 227 255 
206 227 255 
206 227 255 
206 227 255 
206 227 255 
206 227 255 
206 227 255 
206 227 255 
206 227 255 
206 227 255 
206 227 255 
206 227 255 
206 227 255 
202 211 237 
166 22 25 
168 0 0 
169 0 0 
168 0 0 
173 0 0 
170 0 0 
182 0 0 
177 0 0 
184 0 0 
187 0 0 
173 0 0 
178 0 0 
183 0 0 
176 0 0 
190 0 0 
185 0 0 
174 0 0 
194 0 0 
198 0 0 
183 0 0 
196 0 0 
188 0 0 
196 0 0 
177 0 0 
196 0 0 
192 0 0 
195 0 0 
205 0 0 
187 0 0 
198 0 0 
190 0 0 
189 0 0 
199 0 0 
205 0 0 
200 0 0 
194 0 0 
206 0 0 
195 0 0 
200 0 0 
196 0 0 
202 0 0 
199 0 0 
206 0 0 
201 0 0 
196 0 0 
199 0 0 
208 0 0 
197 0 0 
201 0 0 
195 0 0 
205 0 0 
205 0 0 
200 0 0 
206 0 0 
205 0 0 
204 0 0 
203 0 0 
205 0 0 
203 0 0 
203 0 0 
202 0 0 
208 0 0 
202 0 0 
205 0 0 
210 0 0 
204 0 0 
211 0 0 
207 0 0 
207 0 0 
204 0 0 
207 0 0 
208 0 0 
210 0 0 
210 0 0 
210 0 0 
208 0 0 
209 0 0 
214 0 0 
210 0 0 
211 0 0 
210 0 0 
210 0 0 
210 0 0 
210 0 0 
208 0 0 
211 0 0 
214 0 0 
210 0 0 
213 0 0 
212 0 0 
207 0 0 
212 0 0 
217 0 0 
210 0 0 
211 0 0 
212 0 0 
215 0 0 
209 0 0 
217 0 0 
212 0 0 
210 0 0 
213 0 0 
211 0 0 
208 0 0 
210 0 0 
215 0 0 
213 0 0 
210 0 0 
214 0 0 
212 0 0 
217 0 0 
216 0 0 
212 0 0 
215 0 0 
214 0 0 
212 0 0 
215 0 0 
216 0 0 
214 0 0 
210 0 0 
214 0 0 
212 0 0 
215 0 0 
210 0 0 
215 0 0 
215 0 0 
215 0 0 
213 0 0 
215 0 0 
214 0 0 
214 0 0 
209 0 0 
211 0 0 
213 0 0 
211 0 0 
213 0 0 
215 0 0 
215 0 0 
211 0 0 
214 0 0 
213 0 0 
211 0 0 
215 0 0 
216 0 0 
216 0 0 
215 0 0 
212 0 0 
215 0 0 
210 0 0 
213 0 0 
213 0 0 
215 0 0 
213 0 0 
216 0 0 
217 0 0 
219 0 0 
215 0 0 
217 0 0 
214 0 0 
214 0 0 
217 0 0 
219 0 0 
213 0 0 
219 0 0 
214 0 0 
216 0 0 
221 0 0 
216 0 0 
219 0 0 
220 0 0 
213 0 0 
214 0 0 
217 0 0 
215 0 0 
216 0 0 
213 0 0 
214 0 0 
217 0 0 
214 0 0 
216 0 0 
213 0 0 
216 0 0 
215 0 0 
214 0 0 
0 0 254 
0 0 255 
0 0 254 
0 0 254 
0 0 254 
0 0 255 
0 0 255 
0 0 255 
0 0 255 
0 0 255 
0 0 254 
0 0 254 
0 0 255 
0 0 255 
0 0 254 
0 0 255 
0 0 254 
0 0 255 
0 0 255 
0 0 254 
0 0 254 
0 0 253 
0 0 254 
0 0 254 
0 0 254 
0 0 255 
0 0 255 
0 0 254 
0 0 254 
0 0 254 
0 0 255 
0 0 253 
0 0 255 
0 0 254 
0 0 254 
0 0 254 
0 0 255 
0 0 253 
0 0 254 
0 0 254 
0 0 253 
0 0 255 
0 0 253 
0 0 254 
0 0 255 
0 0 254 
0 0 253 
0 0 255 
0 0 253 
0 0 255 
0 0 255 
0 0 254 
0 0 255 
0 0 255 
0 0 253 
0 0 255 
0 0 255 
0 0 252 
0 0 255 
0 0 253 
0 0 252 
0 0 255 
0 0 254 
0 0 252 
0 0 254 
0 0 252 
0 0 253 
0 0 253 
0 0 249 
0 0 254 
0 0 254 
0 0 253 
0 0 252 
0 0 254 
0 0 250 
0 0 255 
0 0 254 
0 0 249 
0 0 254 
0 0 248 
0 0 253 
0 0 254 
0 0 252 
0 0 249 
0 0 248 
0 0 252 
0 0 253 
0 0 254 
0 0 253 
0 0 249 
0 0 254 
0 0 252 
0 0 250 
0 0 252 
0 0 245 
0 0 252 
0 0 250 
0 0 252 
0 0 246 
0 0 253 
0 0 252 
0 0 242 
0 0 241 
0 0 253 
0 0 248 
0 0 253 
0 0 250 
0 0 250 
0 0 250 
0 0 248 
0 0 249 
0 0 252 
0 0 242 
0 0 244 
0 0 249 
0 0 246 
0 0 250 
0 0 246 
0 0 250 
0 0 246 
0 0 248 
0 0 246 
0 0 240 
0 0 245 
0 0 245 
0 0 248 
0 0 241 
0 0 250 
0 0 240 
0 0 237 
0 0 242 
0 0 248 
0 0 242 
0 0 244 
0 0 242 
0 0 241 
0 0 241 
0 0 242 
0 0 244 
0 0 242 
0 0 241 
0 0 246 
0 0 241 
0 0 237 
0 0 242 
0 0 245 
0 0 241 
0 0 242 
0 0 236 
0 0 246 
0 0 240 
0 0 231 
0 0 228 
0 0 237 
0 0 238 
0 0 240 
0 0 230 
0 0 242 
0 0 233 
0 0 238 
0 0 233 
0 0 237 
0 0 233 
0 0 236 
0 0 224 
0 0 242 
0 0 234 
0 0 231 
0 0 226 
0 0 226 
0 0 220 
0 0 228 
0 0 215 
0 0 214 
0 0 220 
0 0 212 
0 0 223 
0 0 209 
0 0 217 
0 0 228 
0 0 218 
0 0 211 
0 0 214 
0 0 201 
94 104 214 
206 227 255 
206 227 255 
206 227 255 
206 227 255 
206 227 255 
206 227 255 
206 227 255 
206 227 255 
206 227 255 
206 227 255 
206 227 255 
206 227 255 
206 227 255 
206 227 255 
206 227 255 
206 227 255 
206 227 255 
206 227 255 
206 227 255 
206 227 255 
206 227 255 
206 227 255 
206 227 255 
206 227 255 
206 227 255 
206 227 255 
206 227 255 
206 227 255 
206 227 255 
206 227 255 
174 109 122 
167 0 0 
163 0 0 
168 0 0 
174 0 0 
177 0 0 
178 0 0 
168 0 0 
181 0 0 
175 0 0 
179 0 0 
169 0 0 
180 0 0 
184 0 0 
176 0 0 
183 0 0 
185 0 0 
184 0 0 
191 0 0 
186 0 0 
178 0 0 
188 0 0 
191 0 0 
190 0 0 
189 0 0 
188 0 0 
196 0 0 
194 0 0 
192 0 0 
198 0 0 
201 0 0 
194 0 0 
200 0 0 
202 0 0 
203 0 0 
199 0 0 
196 0 0 
200 0 0 
197 0 0 
203 0 0 
201 0 0 
196 0 0 
203 0 0 
194 0 0 
202 0 0 
199 0 0 
206 0 0 
200 0 0 
199 0 0 
206 0 0 
202 0 0 
201 0 0 
205 0 0 
209 0 0 
208 0 0 
206 0 0 
212 0 0 
209 0 0 
201 0 0 
209 0 0 
208 0 0 
201 0 0 
209 0 0 
209 0 0 
210 0 0 
205 0 0 
205 0 0 
209 0 0 
209 0 0 
206 0 0 
210 0 0 
204 0 0 
213 0 0 
210 0 0 
213 0 0 
210 0 0 
212 0 0 
208 0 0 
209 0 0 
212 0 0 
211 0 0 
207 0 0 
214 0 0 
207 0 0 
211 0 0 
217 0 0 
208 0 0 
214 0 0 
211 0 0 
211 0 0 
211 0 0 
212 0 0 
207 0 0 
210 0 0 
215 0 0 
205 0 0 
207 0 0 
209 0 0 
213 0 0 
212 0 0 
214 0 0 
208 0 0 
214 0 0 
211 0 0 
209 0 0 
215 0 0 
211 0 0 
215 0 0 
213 0 0 
213 0 0 
216 0 0 
219 0 0 
216 0 0 
213 0 0 
208 0 0 
216 0 0 
215 0 0 
212 0 0 
217 0 0 
211 0 0 
208 0 0 
214 0 0 
216 0 0 
214 0 0 
213 0 0 
217 0 0 
213 0 0 
212 0 0 
216 0 0 
217 0 0 
214 0 0 
218 0 0 
216 0 0 
209 0 0 
212 0 0 
216 0 0 
212 0 0 
216 0 0 
213 0 0 
213 0 0 
216 0 0 
216 0 0 
218 0 0 
213 0 0 
216 0 0 
215 0 0 
211 0 0 
218 0 0 
216 0 0 
215 0 0 
217 0 0 
213 0 0 
215 0 0 
211 0 0 
215 0 0 
211 0 0 
211 0 0 
213 0 0 
211 0 0 
217 0 0 
209 0 0 
214 0 0 
215 0 0 
215 0 0 
217 0 0 
216 0 0 
218 0 0 
214 0 0 
214 0 0 
217 0 0 
214 0 0 
217 0 0 
215 0 0 
216 0 0 
215 0 0 
214 0 0 
216 0 0 
217 0 0 
217 0 0 
216 0 0 
213 0 0 
216 0 0 
213 0 0 
216 0 0 
218 0 0 
0 0 255 
0 0 255 
0 0 255 
0 0 255 
0 0 254 
0 0 254 
0 0 253 
0 0 255 
0 0 255 
0 0 255 
0 0 255 
0 0 255 
0 0 252 
0 0 255 
0 0 255 
0 0 255 
0 0 255 
0 0 255 
0 0 254 
0 0 255 
0 0 254 
0 0 255 
0 0 255 
0 0 255 
0 0 253 
0 0 255 
0 0 255 
0 0 255 
0 0 254 
0 0 254 
0 0 255 
0 0 254 
0 0 254 
0 0 253 
0 0 255 
0 0 253 
0 0 255 
0 0 253 
0 0 253 
0 0 255 
0 0 255 
0 0 253 
0 0 253 
0 0 255 
0 0 254 
0 0 254 
0 0 250 
0 0 255 
0 0 255 
0 0 253 
0 0 253 
0 0 253 
0 0 252 
0 0 254 
0 0 254 
0 0 252 
0 0 254 
0 0 255 
0 0 252 
0 0 254 
0 0 253 
0 0 253 
0 0 253 
0 0 252 
0 0 253 
0 0 250 
0 0 254 
0 0 254 
0 0 253 
0 0 250 
0 0 255 
0 0 253 
0 0 250 
0 0 253 
0 0 242 
0 0 253 
0 0 254 
0 0 254 
0 0 249 
0 0 245 
0 0 254 
0 0 250 
0 0 253 
0 0 255 
0 0 255 
0 0 252 
0 0 254 
0 0 252 
0 0 249 
0 0 253 
0 0 250 
0 0 249 
0 0 250 
0 0 248 
0 0 248 
0 0 250 
0 0 253 
0 0 248 
0 0 252 
0 0 250 
0 0 252 
0 0 249 
0 0 254 
0 0 248 
0 0 253 
0 0 248 
0 0 250 
0 0 249 
0 0 253 
0 0 248 
0 0 248 
0 0 245 
0 0 250 
0 0 249 
0 0 252 
0 0 248 
0 0 246 
0 0 249 
0 0 252 
0 0 248 
0 0 246 
0 0 245 
0 0 245 
0 0 246 
0 0 248 
0 0 245 
0 0 249 
0 0 248 
0 0 254 
0 0 246 
0 0 234 
0 0 252 
0 0 241 
0 0 242 
0 0 250 
0 0 241 
0 0 241 
0 0 236 
0 0 242 
0 0 242 
0 0 241 
0 0 236 
0 0 244 
0 0 234 
0 0 249 
0 0 242 
0 0 242 
0 0 238 
0 0 231 
0 0 236 
0 0 245 
0 0 238 
0 0 241 
0 0 230 
0 0 237 
0 0 237 
0 0 231 
0 0 230 
0 0 234 
0 0 234 
0 0 227 
0 0 234 
0 0 234 
0 0 228 
0 0 241 
0 0 230 
0 0 224 
0 0 224 
0 0 226 
0 0 224 
0 0 236 
0 0 215 
0 0 230 
0 0 226 
0 0 227 
0 0 228 
0 0 215 
0 0 211 
0 0 201 
0 0 203 
0 0 217 
0 0 224 
0 0 212 
0 0 203 
0 0 207 
140 154 221 
207 227 255 
207 227 255 
207 227 255 
207 227 255 
207 227 255 
207 227 255 
206 227 255 
207 227 255 
206 227 255 
206 227 255 
206 227 255 
206 227 255 
206 227 255 
206 227 255 
206 227 255 
206 227 255 
206 227 255 
206 227 255 
206 227 255 
206 227 255 
206 227 255 
206 227 255 
207 227 255 
207 227 255 
207 227 255 
207 227 255 
207 227 255 
207 227 255 
189 152 171 
163 0 0 
165 0 0 
172 0 0 
168 0 0 
172 0 0 
165 0 0 
183 0 0 
186 0 0 
173 0 0 
181 0 0 
183 0 0 
178 0 0 
180 0 0 
184 0 0 
172 0 0 
189 0 0 
187 0 0 
180 0 0 
181 0 0 
184 0 0 
198 0 0 
190 0 0 
180 0 0 
187 0 0 
193 0 0 
196 0 0 
199 0 0 
198 0 0 
196 0 0 
198 0 0 
195 0 0 
193 0 0 
202 0 0 
196 0 0 
197 0 0 
194 0 0 
200 0 0 
202 0 0 
205 0 0 
195 0 0 
196 0 0 
190 0 0 
199 0 0 
199 0 0 
206 0 0 
198 0 0 
209 0 0 
200 0 0 
206 0 0 
201 0 0 
206 0 0 
204 0 0 
205 0 0 
209 0 0 
204 0 0 
206 0 0 
205 0 0 
203 0 0 
206 0 0 
203 0 0 
212 0 0 
212 0 0 
210 0 0 
208 0 0 
209 0 0 
211 0 0 
208 0 0 
206 0 0 
211 0 0 
208 0 0 
208 0 0 
205 0 0 
205 0 0 
215 0 0 
201 0 0 
212 0 0 
210 0 0 
209 0 0 
215 0 0 
212 0 0 
211 0 0 
210 0 0 
208 0 0 
207 0 0 
205 0 0 
209 0 0 
210 0 0 
210 0 0 
213 0 0 
209 0 0 
209 0 0 
213 0 0 
211 0 0 
213 0 0 
203 0 0 
207 0 0 
209 0 0 
211 0 0 
213 0 0 
213 0 0 
211 0 0 
214 0 0 
216 0 0 
209 0 0 
209 0 0 
213 0 0 
217 0 0 
212 0 0 
214 0 0 
209 0 0 
215 0 0 
215 0 0 
216 0 0 
213 0 0 
213 0 0 
212 0 0 
212 0 0 
217 0 0 
213 0 0 
213 0 0 
212 0 0 
212 0 0 
211 0 0 
211 0 0 
208 0 0 
215 0 0 
217 0 0 
215 0 0 
209 0 0 
215 0 0 
215 0 0 
213 0 0 
212 0 0 
212 0 0 
215 0 0 
219 0 0 
213 0 0 
215 0 0 
214 0 0 
215 0 0 
220 0 0 
216 0 0 
215 0 0 
211 0 0 
216 0 0 
214 0 0 
216 0 0 
218 0 0 
216 0 0 
216 0 0 
215 0 0 
219 0 0 
216 0 0 
216 0 0 
214 0 0 
218 0 0 
213 0 0 
218 0 0 
217 0 0 
214 0 0 
211 0 0 
214 0 0 
212 0 0 
214 0 0 
213 0 0 
217 0 0 
215 0 0 
215 0 0 
213 0 0 
214 0 0 
217 0 0 
217 0 0 
215 0 0 
216 0 0 
216 0 0 
214 0 0 
215 0 0 
217 0 0 
213 0 0 
216 0 0 
219 0 0 
217 0 0 
216 0 0 
216 0 0 
218 0 0 
0 0 255 
0 0 255 
0 0 254 
0 0 254 
0 0 255 
0 0 254 
0 0 254 
0 0 254 
0 0 255 
0 0 255 
0 0 255 
0 0 253 
0 0 255 
0 0 254 
0 0 253 
0 0 255 
0 0 254 
0 0 255 
0 0 254 
0 0 254 
0 0 254 
0 0 254 
0 0 253 
0 0 254 
0 0 255 
0 0 255 
0 0 255 
0 0 254 
0 0 254 
0 0 253 
0 0 253 
0 0 255 
0 0 253 
0 0 255 
0 0 255 
0 0 254 
0 0 255 
0 0 253 
0 0 254 
0 0 255 
0 0 254 
0 0 254 
0 0 254 
0 0 255 
0 0 254 
0 0 255 
0 0 254 
0 0 254 
0 0 254 
0 0 255 
0 0 254 
0 0 253 
0 0 255 
0 0 254 
0 0 254 
0 0 253 
0 0 253 
0 0 250 
0 0 254 
0 0 249 
0 0 252 
0 0 250 
0 0 253 
0 0 255 
0 0 255 
0 0 255 
0 0 252 
0 0 249 
0 0 253 
0 0 255 
0 0 252 
0 0 254 
0 0 252 
0 0 250 
0 0 253 
0 0 254 
0 0 249 
0 0 253 
0 0 250 
0 0 253 
0 0 249 
0 0 253 
0 0 252 
0 0 254 
0 0 253 
0 0 252 
0 0 254 
0 0 254 
0 0 249 
0 0 252 
0 0 253 
0 0 250 
0 0 249 
0 0 248 
0 0 250 
0 0 250 
0 0 245 
0 0 249 
0 0 252 
0 0 250 
0 0 252 
0 0 249 
0 0 249 
0 0 248 
0 0 252 
0 0 250 
0 0 250 
0 0 241 
0 0 249 
0 0 246 
0 0 248 
0 0 250 
0 0 246 
0 0 244 
0 0 250 
0 0 250 
0 0 250 
0 0 252 
0 0 249 
0 0 246 
0 0 245 
0 0 238 
0 0 245 
0 0 249 
0 0 244 
0 0 242 
0 0 244 
0 0 246 
0 0 242 
0 0 249 
0 0 244 
0 0 245 
0 0 246 
0 0 245 
0 0 240 
0 0 242 
0 0 238 
0 0 245 
0 0 246 
0 0 246 
0 0 237 
0 0 246 
0 0 246 
0 0 233 
0 0 248 
0 0 240 
0 0 240 
0 0 241 
0 0 238 
0 0 234 
0 0 241 
0 0 234 
0 0 242 
0 0 236 
0 0 230 
0 0 237 
0 0 240 
0 0 230 
0 0 231 
0 0 234 
0 0 230 
0 0 233 
0 0 233 
0 0 240 
0 0 230 
0 0 230 
0 0 234 
0 0 227 
0 0 230 
0 0 218 
0 0 230 
0 0 228 
0 0 224 
0 0 221 
0 0 226 
0 0 220 
0 0 218 
0 0 206 
0 0 206 
0 0 215 
0 0 207 
0 0 212 
0 0 211 
0 0 218 
0 0 204 
41 45 206 
196 216 249 
207 228 255 
207 228 255 
207 228 255 
207 228 255 
207 228 255 
207 228 255 
207 228 255 
207 228 255 
207 228 255 
207 228 255 
207 228 255 
207 228 255 
207 228 255 
207 227 255 
207 227 255 
207 228 255 
207 228 255 
207 228 255 
207 228 255 
207 228 255 
207 228 255 
207 228 255 
207 228 255 
207 228 255 
207 228 255 
207 228 255 
202 212 238 
152 22 25 
159 0 0 
161 0 0 
161 0 0 
174 0 0 
179 0 0 
177 0 0 
175 0 0 
174 0 0 
186 0 0 
182 0 0 
181 0 0 
171 0 0 
176 0 0 
185 0 0 
181 0 0 
191 0 0 
196 0 0 
180 0 0 
188 0 0 
191 0 0 
184 0 0 
180 0 0 
195 0 0 
187 0 0 
196 0 0 
194 0 0 
196 0 0 
193 0 0 
206 0 0 
200 0 0 
200 0 0 
195 0 0 
202 0 0 
200 0 0 
199 0 0 
195 0 0 
196 0 0 
200 0 0 
209 0 0 
202 0 0 
198 0 0 
201 0 0 
198 0 0 
209 0 0 
197 0 0 
207 0 0 
194 0 0 
206 0 0 
203 0 0 
199 0 0 
204 0 0 
207 0 0 
205 0 0 
208 0 0 
201 0 0 
203 0 0 
210 0 0 
202 0 0 
208 0 0 
209 0 0 
207 0 0 
202 0 0 
209 0 0 
210 0 0 
208 0 0 
212 0 0 
210 0 0 
205 0 0 
208 0 0 
207 0 0 
210 0 0 
201 0 0 
211 0 0 
207 0 0 
208 0 0 
206 0 0 
214 0 0 
211 0 0 
206 0 0 
209 0 0 
208 0 0 
207 0 0 
209 0 0 
213 0 0 
214 0 0 
212 0 0 
197 0 0 
209 0 0 
215 0 0 
207 0 0 
210 0 0 
211 0 0 
213 0 0 
206 0 0 
213 0 0 
215 0 0 
208 0 0 
218 0 0 
213 0 0 
217 0 0 
213 0 0 
213 0 0 
212 0 0 
212 0 0 
215 0 0 
213 0 0 
215 0 0 
212 0 0 
210 0 0 
210 0 0 
207 0 0 
210 0 0 
209 0 0 
212 0 0 
214 0 0 
210 0 0 
216 0 0 
216 0 0 
212 0 0 
212 0 0 
212 0 0 
212 0 0 
212 0 0 
215 0 0 
213 0 0 
214 0 0 
216 0 0 
215 0 0 
213 0 0 
211 0 0 
213 0 0 
218 0 0 
214 0 0 
215 0 0 
211 0 0 
216 0 0 
215 0 0 
213 0 0 
215 0 0 
215 0 0 
214 0 0 
211 0 0 
215 0 0 
217 0 0 
216 0 0 
217 0 0 
211 0 0 
217 0 0 
212 0 0 
217 0 0 
215 0 0 
215 0 0 
214 0 0 
215 0 0 
215 0 0 
214 0 0 
215 0 0 
217 0 0 
216 0 0 
215 0 0 
214 0 0 
216 0 0 
212 0 0 
217 0 0 
214 0 0 
214 0 0 
215 0 0 
212 0 0 
215 0 0 
215 0 0 
216 0 0 
216 0 0 
218 0 0 
216 0 0 
215 0 0 
214 0 0 
216 0 0 
219 0 0 
215 0 0 
222 0 0 
213 0 0 
216 0 0 
217 0 0 
217 0 0 
218 0 0 
0 0 255 
0 0 255 
0 0 255 
0 0 252 
0 0 255 
0 0 255 
0 0 254 
0 0 254 
0 0 255 
0 0 254 
0 0 255 
0 0 255 
0 0 254 
0 0 253 
0 0 255 
0 0 255 
0 0 255 
0 0 255 
0 0 249 
0 0 255 
0 0 254 
0 0 252 
0 0 255 
0 0 254 
0 0 255 
0 0 255 
0 0 255 
0 0 254 
0 0 254 
0 0 252 
0 0 254 
0 0 253 
0 0 253 
0 0 255 
0 0 253 
0 0 255 
0 0 255 
0 0 254 
0 0 255 
0 0 255 
0 0 255 
0 0 255 
0 0 254 
0 0 254 
0 0 253 
0 0 255 
0 0 252 
0 0 254 
0 0 250 
0 0 250 
0 0 252 
0 0 252 
0 0 253 
0 0 252 
0 0 254 
0 0 253 
0 0 253 
0 0 255 
0 0 252 
0 0 254 
0 0 252 
0 0 255 
0 0 255 
0 0 250 
0 0 249 
0 0 250 
0 0 253 
0 0 254 
0 0 255 
0 0 248 
0 0 252 
0 0 252 
0 0 252 
0 0 253 
0 0 250 
0 0 254 
0 0 250 
0 0 252 
0 0 253 
0 0 250 
0 0 253 
0 0 253 
0 0 253 
0 0 252 
0 0 248 
0 0 250 
0 0 249 
0 0 250 
0 0 253 
0 0 250 
0 0 250 
0 0 252 
0 0 254 
0 0 250 
0 0 252 
0 0 250 
0 0 249 
0 0 252 
0 0 248 
0 0 249 
0 0 253 
0 0 248 
0 0 253 
0 0 253 
0 0 245 
0 0 245 
0 0 249 
0 0 244 
0 0 252 
0 0 252 
0 0 250 
0 0 248 
0 0 245 
0 0 244 
0 0 252 
0 0 248 
0 0 246 
0 0 249 
0 0 245 
0 0 248 
0 0 253 
0 0 249 
0 0 245 
0 0 249 
0 0 244 
0 0 245 
0 0 244 
0 0 242 
0 0 248 
0 0 244 
0 0 246 
0 0 241 
0 0 245 
0 0 246 
0 0 248 
0 0 249 
0 0 246 
0 0 240 
0 0 245 
0 0 242 
0 0 244 
0 0 240 
0 0 241 
0 0 248 
0 0 240 
0 0 236 
0 0 237 
0 0 240 
0 0 238 
0 0 240 
0 0 234 
0 0 237 
0 0 228 
0 0 234 
0 0 245 
0 0 237 
0 0 233 
0 0 237 
0 0 224 
0 0 237 
0 0 231 
0 0 237 
0 0 233 
0 0 220 
0 0 227 
0 0 223 
0 0 228 
0 0 236 
0 0 234 
0 0 230 
0 0 230 
0 0 233 
0 0 224 
0 0 201 
0 0 214 
0 0 220 
0 0 212 
0 0 217 
0 0 215 
0 0 206 
0 0 218 
0 0 209 
0 0 198 
0 0 215 
0 0 191 
0 0 214 
115 127 227 
207 228 255 
207 228 255 
207 228 255 
207 228 255 
207 228 255 
207 228 255 
207 228 255 
207 228 255 
207 228 255 
207 228 255 
207 228 255 
207 228 255 
207 228 255 
207 228 255 
207 228 255 
207 228 255 
207 228 255 
207 228 255 
207 228 255 
207 228 255 
207 228 255 
207 228 255 
207 228 255 
207 228 255 
207 228 255 
207 227 254 
177 120 135 
164 0 0 
169 0 0 
161 0 0 
175 0 0 
168 0 0 
174 0 0 
173 0 0 
169 0 0 
180 0 0 
179 0 0 
180 0 0 
178 0 0 
183 0 0 
193 0 0 
178 0 0 
195 0 0 
192 0 0 
180 0 0 
189 0 0 
186 0 0 
188 0 0 
191 0 0 
189 0 0 
189 0 0 
196 0 0 
190 0 0 
196 0 0 
193 0 0 
195 0 0 
194 0 0 
196 0 0 
198 0 0 
196 0 0 
200 0 0 
195 0 0 
200 0 0 
196 0 0 
202 0 0 
196 0 0 
200 0 0 
198 0 0 
199 0 0 
197 0 0 
198 0 0 
203 0 0 
206 0 0 
206 0 0 
202 0 0 
203 0 0 
206 0 0 
201 0 0 
208 0 0 
201 0 0 
207 0 0 
209 0 0 
207 0 0 
202 0 0 
204 0 0 
207 0 0 
205 0 0 
207 0 0 
207 0 0 
210 0 0 
208 0 0 
206 0 0 
213 0 0 
208 0 0 
208 0 0 
214 0 0 
204 0 0 
206 0 0 
207 0 0 
205 0 0 
207 0 0 
208 0 0 
207 0 0 
214 0 0 
208 0 0 
204 0 0 
211 0 0 
214 0 0 
211 0 0 
214 0 0 
208 0 0 
214 0 0 
205 0 0 
210 0 0 
207 0 0 
205 0 0 
213 0 0 
211 0 0 
212 0 0 
213 0 0 
213 0 0 
211 0 0 
205 0 0 
208 0 0 
215 0 0 
211 0 0 
212 0 0 
211 0 0 
211 0 0 
217 0 0 
212 0 0 
212 0 0 
208 0 0 
213 0 0 
211 0 0 
212 0 0 
210 0 0 
215 0 0 
211 0 0 
216 0 0 
214 0 0 
211 0 0 
210 0 0 
214 0 0 
218 0 0 
216 0 0 
212 0 0 
215 0 0 
215 0 0 
209 0 0 
213 0 0 
213 0 0 
216 0 0 
215 0 0 
212 0 0 
215 0 0 
216 0 0 
210 0 0 
212 0 0 
211 0 0 
214 0 0 
210 0 0 
214 0 0 
215 0 0 
215 0 0 
216 0 0 
216 0 0 
219 0 0 
219 0 0 
217 0 0 
214 0 0 
216 0 0 
217 0 0 
218 0 0 
213 0 0 
214 0 0 
216 0 0 
213 0 0 
217 0 0 
214 0 0 
212 0 0 
217 0 0 
219 0 0 
213 0 0 
217 0 0 
215 0 0 
213 0 0 
213 0 0 
213 0 0 
216 0 0 
215 0 0 
217 0 0 
217 0 0 
215 0 0 
215 0 0 
213 0 0 
216 0 0 
214 0 0 
217 0 0 
214 0 0 
215 0 0 
220 0 0 
216 0 0 
215 0 0 
218 0 0 
218 0 0 
217 0 0 
220 0 0 
216 0 0 
219 0 0 
218 0 0 
216 0 0 
217 0 0 
0 0 255 
0 0 254 
0 0 255 
0 0 255 
0 0 254 
0 0 255 
0 0 254 
0 0 255 
0 0 255 
0 0 255 
0 0 255 
0 0 254 
0 0 255 
0 0 255 
0 0 253 
0 0 254 
0 0 255 
0 0 253 
0 0 253 
0 0 255 
0 0 255 
0 0 253 
0 0 255 
0 0 255 
0 0 255 
0 0 255 
0 0 254 
0 0 255 
0 0 255 
0 0 254 
0 0 254 
0 0 253 
0 0 255 
0 0 255 
0 0 254 
0 0 254 
0 0 255 
0 0 255 
0 0 254 
0 0 255 
0 0 254 
0 0 255 
0 0 255 
0 0 254 
0 0 253 
0 0 254 
0 0 255 
0 0 255 
0 0 250 
0 0 252 
0 0 253 
0 0 254 
0 0 254 
0 0 252 
0 0 252 
0 0 254 
0 0 254 
0 0 254 
0 0 254 
0 0 253 
0 0 250 
0 0 255 
0 0 253 
0 0 254 
0 0 255 
0 0 250 
0 0 253 
0 0 250 
0 0 253 
0 0 253 
0 0 254 
0 0 252 
0 0 253 
0 0 253 
0 0 254 
0 0 250 
0 0 252 
0 0 254 
0 0 253 
0 0 249 
0 0 255 
0 0 254 
0 0 249 
0 0 255 
0 0 249 
0 0 252 
0 0 252 
0 0 246 
0 0 248 
0 0 253 
0 0 252 
0 0 252 
0 0 244 
0 0 250 
0 0 246 
0 0 252 
0 0 254 
0 0 249 
0 0 250 
0 0 250 
0 0 248 
0 0 252 
0 0 246 
0 0 245 
0 0 246 
0 0 250 
0 0 252 
0 0 248 
0 0 253 
0 0 252 
0 0 248 
0 0 252 
0 0 248 
0 0 246 
0 0 253 
0 0 248 
0 0 248 
0 0 242 
0 0 246 
0 0 249 
0 0 242 
0 0 248 
0 0 242 
0 0 246 
0 0 248 
0 0 252 
0 0 246 
0 0 245 
0 0 240 
0 0 244 
0 0 250 
0 0 244 
0 0 244 
0 0 244 
0 0 238 
0 0 230 
0 0 246 
0 0 241 
0 0 237 
0 0 249 
0 0 240 
0 0 238 
0 0 248 
0 0 241 
0 0 240 
0 0 241 
0 0 240 
0 0 230 
0 0 241 
0 0 242 
0 0 240 
0 0 240 
0 0 250 
0 0 245 
0 0 236 
0 0 236 
0 0 231 
0 0 228 
0 0 228 
0 0 231 
0 0 236 
0 0 233 
0 0 231 
0 0 227 
0 0 231 
0 0 230 
0 0 227 
0 0 233 
0 0 224 
0 0 227 
0 0 227 
0 0 211 
0 0 227 
0 0 224 
0 0 224 
0 0 224 
0 0 215 
0 0 224 
0 0 215 
0 0 218 
0 0 204 
0 0 215 
0 0 199 
0 0 215 
0 0 201 
0 0 194 
0 0 193 
176 193 244 
207 228 255 
207 228 255 
207 228 255 
207 228 255 
207 228 255 
207 228 255 
207 228 255 
207 228 255 
207 228 255 
207 228 255 
207 228 255 
207 228 255 
207 228 255 
207 228 255 
207 228 255 
207 228 255 
207 228 255 
207 228 255 
207 228 255 
207 228 255 
207 228 255 
207 228 255 
207 228 255 
207 228 255 
197 195 218 
166 0 0 
161 0 0 
152 0 0 
166 0 0 
178 0 0 
168 0 0 
171 0 0 
175 0 0 
169 0 0 
186 0 0 
180 0 0 
175 0 0 
178 0 0 
173 0 0 
187 0 0 
190 0 0 
190 0 0 
182 0 0 
176 0 0 
189 0 0 
192 0 0 
187 0 0 
203 0 0 
196 0 0 
197 0 0 
183 0 0 
199 0 0 
188 0 0 
196 0 0 
196 0 0 
201 0 0 
191 0 0 
197 0 0 
194 0 0 
199 0 0 
201 0 0 
203 0 0 
204 0 0 
189 0 0 
204 0 0 
196 0 0 
193 0 0 
201 0 0 
204 0 0 
206 0 0 
202 0 0 
203 0 0 
209 0 0 
203 0 0 
207 0 0 
208 0 0 
205 0 0 
205 0 0 
208 0 0 
206 0 0 
209 0 0 
207 0 0 
204 0 0 
201 0 0 
204 0 0 
205 0 0 
206 0 0 
207 0 0 
208 0 0 
201 0 0 
210 0 0 
209 0 0 
207 0 0 
209 0 0 
213 0 0 
202 0 0 
201 0 0 
206 0 0 
212 0 0 
209 0 0 
201 0 0 
212 0 0 
207 0 0 
209 0 0 
204 0 0 
212 0 0 
217 0 0 
213 0 0 
206 0 0 
212 0 0 
209 0 0 
212 0 0 
214 0 0 
214 0 0 
205 0 0 
211 0 0 
210 0 0 
214 0 0 
213 0 0 
209 0 0 
211 0 0 
212 0 0 
211 0 0 
209 0 0 
215 0 0 
213 0 0 
217 0 0 
213 0 0 
211 0 0 
216 0 0 
210 0 0 
212 0 0 
215 0 0 
212 0 0 
216 0 0 
210 0 0 
217 0 0 
217 0 0 
213 0 0 
216 0 0 
215 0 0 
215 0 0 
212 0 0 
212 0 0 
210 0 0 
215 0 0 
208 0 0 
215 0 0 
214 0 0 
214 0 0 
215 0 0 
210 0 0 
216 0 0 
214 0 0 
216 0 0 
219 0 0 
214 0 0 
213 0 0 
218 0 0 
212 0 0 
217 0 0 
211 0 0 
217 0 0 
213 0 0 
219 0 0 
215 0 0 
213 0 0 
217 0 0 
217 0 0 
214 0 0 
217 0 0 
216 0 0 
211 0 0 
215 0 0 
214 0 0 
216 0 0 
217 0 0 
218 0 0 
217 0 0 
215 0 0 
217 0 0 
218 0 0 
218 0 0 
215 0 0 
215 0 0 
213 0 0 
218 0 0 
214 0 0 
216 0 0 
218 0 0 
220 0 0 
216 0 0 
216 0 0 
218 0 0 
213 0 0 
215 0 0 
218 0 0 
218 0 0 
218 0 0 
216 0 0 
218 0 0 
214 0 0 
215 0 0 
218 0 0 
220 0 0 
220 0 0 
219 0 0 
216 0 0 
216 0 0 
216 0 0 
213 0 0 
217 0 0 
0 0 255 
0 0 255 
0 0 254 
0 0 255 
0 0 255 
0 0 252 
0 0 255 
0 0 255 
0 0 255 
0 0 250 
0 0 254 
0 0 254 
0 0 254 
0 0 255 
0 0 255 
0 0 255 
0 0 254 
0 0 254 
0 0 254 
0 0 254 
0 0 254 
0 0 255 
0 0 255 
0 0 253 
0 0 255 
0 0 255 
0 0 254 
0 0 254 
0 0 254 
0 0 254 
0 0 254 
0 0 255 
0 0 253 
0 0 254 
0 0 255 
0 0 254 
0 0 253 
0 0 254 
0 0 254 
0 0 253 
0 0 254 
0 0 254 
0 0 253 
0 0 253 
0 0 254 
0 0 254 
0 0 250 
0 0 253 
0 0 253 
0 0 252 
0 0 254 
0 0 253 
0 0 255 
0 0 255 
0 0 254 
0 0 254 
0 0 254 
0 0 250 
0 0 250 
0 0 253 
0 0 252 
0 0 254 
0 0 250 
0 0 254 
0 0 254 
0 0 252 
0 0 254 
0 0 252 
0 0 254 
0 0 253 
0 0 255 
0 0 254 
0 0 254 
0 0 253 
0 0 252 
0 0 255 
0 0 254 
0 0 245 
0 0 250 
0 0 252 
0 0 253 
0 0 249 
0 0 249 
0 0 249 
0 0 245 
0 0 249 
0 0 248 
0 0 249 
0 0 249 
0 0 254 
0 0 255 
0 0 250 
0 0 252 
0 0 246 
0 0 252 
0 0 249 
0 0 249 
0 0 252 
0 0 250 
0 0 249 
0 0 249 
0 0 248 
0 0 244 
0 0 248 
0 0 248 
0 0 246 
0 0 249 
0 0 253 
0 0 248 
0 0 249 
0 0 241 
0 0 248 
0 0 250 
0 0 252 
0 0 250 
0 0 248 
0 0 248 
0 0 248 
0 0 250 
0 0 248 
0 0 248 
0 0 250 
0 0 249 
0 0 246 
0 0 245 
0 0 238 
0 0 242 
0 0 245 
0 0 240 
0 0 245 
0 0 242 
0 0 240 
0 0 244 
0 0 246 
0 0 238 
0 0 244 
0 0 242 
0 0 242 
0 0 240 
0 0 244 
0 0 234 
0 0 244 
0 0 237 
0 0 242 
0 0 237 
0 0 237 
0 0 230 
0 0 242 
0 0 241 
0 0 237 
0 0 241 
0 0 246 
0 0 231 
0 0 231 
0 0 230 
0 0 238 
0 0 234 
0 0 228 
0 0 237 
0 0 227 
0 0 227 
0 0 228 
0 0 236 
0 0 234 
0 0 227 
0 0 227 
0 0 228 
0 0 230 
0 0 236 
0 0 227 
0 0 233 
0 0 217 
0 0 224 
0 0 226 
0 0 221 
0 0 218 
0 0 223 
0 0 207 
0 0 211 
0 0 211 
0 0 215 
0 0 215 
0 0 206 
0 0 206 
0 0 198 
0 0 198 
0 0 206 
58 64 207 
202 222 253 
208 228 255 
208 228 255 
208 228 255 
208 228 255 
208 228 255 
208 228 255 
208 228 255 
208 228 255 
208 228 255 
208 228 255 
208 228 255 
208 228 255 
208 228 255 
208 228 255 
208 228 255 
208 228 255 
208 228 255 
208 228 255 
208 228 255 
208 228 255 
208 228 255 
208 228 255 
206 222 249 
161 88 99 
157 0 0 
161 0 0 
160 0 0 
159 0 0 
169 0 0 
168 0 0 
161 0 0 
183 0 0 
179 0 0 
176 0 0 
180 0 0 
177 0 0 
183 0 0 
177 0 0 
188 0 0 
182 0 0 
182 0 0 
189 0 0 
191 0 0 
180 0 0 
196 0 0 
184 0 0 
183 0 0 
187 0 0 
184 0 0 
193 0 0 
182 0 0 
193 0 0 
191 0 0 
195 0 0 
198 0 0 
195 0 0 
194 0 0 
201 0 0 
201 0 0 
198 0 0 
194 0 0 
197 0 0 
195 0 0 
197 0 0 
201 0 0 
206 0 0 
206 0 0 
204 0 0 
201 0 0 
201 0 0 
208 0 0 
208 0 0 
208 0 0 
199 0 0 
204 0 0 
204 0 0 
202 0 0 
206 0 0 
202 0 0 
208 0 0 
208 0 0 
210 0 0 
210 0 0 
205 0 0 
200 0 0 
206 0 0 
204 0 0 
208 0 0 
210 0 0 
205 0 0 
209 0 0 
199 0 0 
214 0 0 
206 0 0 
206 0 0 
204 0 0 
209 0 0 
209 0 0 
214 0 0 
210 0 0 
210 0 0 
209 0 0 
209 0 0 
207 0 0 
211 0 0 
211 0 0 
210 0 0 
212 0 0 
210 0 0 
211 0 0 
210 0 0 
214 0 0 
207 0 0 
214 0 0 
205 0 0 
206 0 0 
210 0 0 
207 0 0 
213 0 0 
212 0 0 
210 0 0 
210 0 0 
210 0 0 
205 0 0 
213 0 0 
213 0 0 
213 0 0 
209 0 0 
213 0 0 
209 0 0 
213 0 0 
214 0 0 
215 0 0 
220 0 0 
209 0 0 
212 0 0 
216 0 0 
209 0 0 
213 0 0 
215 0 0 
218 0 0 
210 0 0 
216 0 0 
206 0 0 
214 0 0 
211 0 0 
214 0 0 
214 0 0 
212 0 0 
213 0 0 
214 0 0 
215 0 0 
211 0 0 
212 0 0 
218 0 0 
217 0 0 
215 0 0 
214 0 0 
216 0 0 
216 0 0 
215 0 0 
213 0 0 
218 0 0 
214 0 0 
219 0 0 
218 0 0 
214 0 0 
212 0 0 
213 0 0 
215 0 0 
215 0 0 
215 0 0 
219 0 0 
212 0 0 
221 0 0 
213 0 0 
213 0 0 
216 0 0 
212 0 0 
214 0 0 
212 0 0 
216 0 0 
215 0 0 
216 0 0 
214 0 0 
218 0 0 
211 0 0 
213 0 0 
216 0 0 
213 0 0 
218 0 0 
217 0 0 
217 0 0 
219 0 0 
220 0 0 
218 0 0 
219 0 0 
218 0 0 
220 0 0 
217 0 0 
216 0 0 
214 0 0 
217 0 0 
216 0 0 
218 0 0 
213 0 0 
217 0 0 
217 0 0 
216 0 0 
216 0 0 
218 0 0 
0 0 255 
0 0 255 
0 0 254 
0 0 255 
0 0 255 
0 0 255 
0 0 255 
0 0 254 
0 0 255 
0 0 254 
0 0 255 
0 0 255 
0 0 255 
0 0 254 
0 0 255 
0 0 253 
0 0 254 
0 0 254 
0 0 254 
0 0 254 
0 0 255 
0 0 253 
0 0 255 
0 0 255 
0 0 254 
0 0 255 
0 0 254 
0 0 254 
0 0 255 
0 0 255 
0 0 254 
0 0 255 
0 0 255 
0 0 255 
0 0 253 
0 0 254 
0 0 254 
0 0 253 
0 0 255 
0 0 255 
0 0 252 
0 0 252 
0 0 253 
0 0 253 
0 0 254 
0 0 255 
0 0 252 
0 0 253 
0 0 253 
0 0 252 
0 0 253 
0 0 254 
0 0 254 
0 0 252 
0 0 252 
0 0 252 
0 0 255 
0 0 253 
0 0 252 
0 0 252 
0 0 254 
0 0 252 
0 0 254 
0 0 254 
0 0 253 
0 0 250 
0 0 253 
0 0 254 
0 0 253 
0 0 253 
0 0 253 
0 0 253 
0 0 253 
0 0 255 
0 0 254 
0 0 254 
0 0 253 
0 0 253 
0 0 253 
0 0 252 
0 0 250 
0 0 254 
0 0 250 
0 0 254 
0 0 252 
0 0 253 
0 0 252 
0 0 254 
0 0 249 
0 0 254 
0 0 253 
0 0 253 
0 0 249 
0 0 253 
0 0 250 
0 0 246 
0 0 252 
0 0 248 
0 0 250 
0 0 248 
0 0 249 
0 0 249 
0 0 249 
0 0 244 
0 0 250 
0 0 252 
0 0 246 
0 0 246 
0 0 242 
0 0 250 
0 0 252 
0 0 250 
0 0 244 
0 0 237 
0 0 252 
0 0 254 
0 0 248 
0 0 252 
0 0 246 
0 0 249 
0 0 238 
0 0 244 
0 0 249 
0 0 244 
0 0 248 
0 0 245 
0 0 246 
0 0 246 
0 0 242 
0 0 246 
0 0 246 
0 0 237 
0 0 241 
0 0 248 
0 0 246 
0 0 242 
0 0 246 
0 0 234 
0 0 244 
0 0 237 
0 0 241 
0 0 242 
0 0 242 
0 0 249 
0 0 242 
0 0 241 
0 0 240 
0 0 234 
0 0 237 
0 0 240 
0 0 233 
0 0 233 
0 0 233 
0 0 248 
0 0 226 
0 0 240 
0 0 237 
0 0 227 
0 0 242 
0 0 233 
0 0 230 
0 0 234 
0 0 228 
0 0 221 
0 0 245 
0 0 233 
0 0 214 
0 0 227 
0 0 228 
0 0 215 
0 0 224 
0 0 224 
0 0 227 
0 0 223 
0 0 217 
0 0 217 
0 0 228 
0 0 212 
0 0 217 
0 0 220 
0 0 212 
0 0 214 
0 0 209 
0 0 212 
0 0 194 
0 0 203 
0 0 189 
0 0 203 
148 163 226 
208 228 255 
208 228 255 
208 228 255 
208 228 255 
208 228 255 
208 228 255 
208 228 255 
208 228 255 
208 228 255 
208 228 255 
208 228 255 
208 228 255 
208 228 255 
208 228 255 
208 228 255 
208 228 255 
208 228 255 
208 228 255 
208 228 255 
208 228 255 
208 228 255 
208 228 255 
184 163 182 
156 0 0 
150 0 0 
160 0 0 
162 0 0 
164 0 0 
168 0 0 
164 0 0 
173 0 0 
173 0 0 
180 0 0 
180 0 0 
176 0 0 
179 0 0 
164 0 0 
184 0 0 
185 0 0 
168 0 0 
182 0 0 
182 0 0 
196 0 0 
189 0 0 
185 0 0 
192 0 0 
190 0 0 
188 0 0 
190 0 0 
195 0 0 
195 0 0 
187 0 0 
184 0 0 
193 0 0 
196 0 0 
196 0 0 
199 0 0 
193 0 0 
193 0 0 
201 0 0 
195 0 0 
203 0 0 
201 0 0 
190 0 0 
203 0 0 
205 0 0 
203 0 0 
208 0 0 
203 0 0 
200 0 0 
203 0 0 
209 0 0 
198 0 0 
200 0 0 
206 0 0 
202 0 0 
203 0 0 
202 0 0 
198 0 0 
205 0 0 
210 0 0 
201 0 0 
212 0 0 
204 0 0 
205 0 0 
207 0 0 
204 0 0 
206 0 0 
206 0 0 
201 0 0 
211 0 0 
207 0 0 
205 0 0 
206 0 0 
205 0 0 
210 0 0 
210 0 0 
212 0 0 
210 0 0 
210 0 0 
212 0 0 
211 0 0 
215 0 0 
212 0 0 
207 0 0 
210 0 0 
208 0 0 
211 0 0 
214 0 0 
209 0 0 
208 0 0 
214 0 0 
213 0 0 
209 0 0 
214 0 0 
216 0 0 
210 0 0 
208 0 0 
211 0 0 
209 0 0 
210 0 0 
214 0 0 
212 0 0 
212 0 0 
215 0 0 
213 0 0 
213 0 0 
215 0 0 
215 0 0 
210 0 0 
213 0 0 
214 0 0 
213 0 0 
214 0 0 
218 0 0 
211 0 0 
214 0 0 
216 0 0 
212 0 0 
212 0 0 
211 0 0 
217 0 0 
214 0 0 
212 0 0 
211 0 0 
215 0 0 
216 0 0 
215 0 0 
214 0 0 
215 0 0 
211 0 0 
211 0 0 
214 0 0 
212 0 0 
210 0 0 
212 0 0 
214 0 0 
215 0 0 
217 0 0 
214 0 0 
214 0 0 
210 0 0 
217 0 0 
212 0 0 
213 0 0 
217 0 0 
214 0 0 
218 0 0 
214 0 0 
214 0 0 
215 0 0 
216 0 0 
215 0 0 
218 0 0 
216 0 0 
219 0 0 
218 0 0 
218 0 0 
218 0 0 
216 0 0 
214 0 0 
216 0 0 
215 0 0 
216 0 0 
216 0 0 
213 0 0 
216 0 0 
218 0 0 
215 0 0 
217 0 0 
216 0 0 
216 0 0 
216 0 0 
217 0 0 
219 0 0 
216 0 0 
216 0 0 
218 0 0 
216 0 0 
217 0 0 
217 0 0 
220 0 0 
217 0 0 
214 0 0 
221 0 0 
217 0 0 
218 0 0 
218 0 0 
217 0 0 
218 0 0 
216 0 0 
0 0 252 
0 0 254 
0 0 255 
0 0 254 
0 0 255 
0 0 255 
0 0 254 
0 0 255 
0 0 255 
0 0 255 
0 0 255 
0 0 254 
0 0 253 
0 0 255 
0 0 253 
0 0 254 
0 0 255 
0 0 255 
0 0 255 
0 0 254 
0 0 252 
0 0 255 
0 0 254 
0 0 255 
0 0 255 
0 0 255 
0 0 254 
0 0 255 
0 0 255 
0 0 255 
0 0 254 
0 0 253 
0 0 255 
0 0 254 
0 0 253 
0 0 255 
0 0 255 
0 0 253 
0 0 253 
0 0 255 
0 0 255 
0 0 255 
0 0 252 
0 0 253 
0 0 254 
0 0 253 
0 0 250 
0 0 255 
0 0 253 
0 0 255 
0 0 255 
0 0 254 
0 0 254 
0 0 254 
0 0 253 
0 0 252 
0 0 252 
0 0 255 
0 0 254 
0 0 249 
0 0 254 
0 0 254 
0 0 252 
0 0 253 
0 0 253 
0 0 253 
0 0 252 
0 0 253 
0 0 253 
0 0 255 
0 0 252 
0 0 252 
0 0 254 
0 0 255 
0 0 249 
0 0 252 
0 0 252 
0 0 250 
0 0 250 
0 0 249 
0 0 253 
0 0 253 
0 0 245 
0 0 255 
0 0 250 
0 0 253 
0 0 245 
0 0 250 
0 0 249 
0 0 252 
0 0 249 
0 0 255 
0 0 254 
0 0 253 
0 0 250 
0 0 253 
0 0 253 
0 0 246 
0 0 244 
0 0 250 
0 0 252 
0 0 253 
0 0 250 
0 0 249 
0 0 248 
0 0 253 
0 0 250 
0 0 249 
0 0 250 
0 0 252 
0 0 248 
0 0 252 
0 0 249 
0 0 249 
0 0 250 
0 0 246 
0 0 244 
0 0 246 
0 0 252 
0 0 246 
0 0 246 
0 0 245 
0 0 242 
0 0 244 
0 0 244 
0 0 244 
0 0 249 
0 0 249 
0 0 246 
0 0 248 
0 0 250 
0 0 241 
0 0 241 
0 0 245 
0 0 249 
0 0 246 
0 0 241 
0 0 246 
0 0 246 
0 0 245 
0 0 242 
0 0 238 
0 0 245 
0 0 241 
0 0 248 
0 0 238 
0 0 240 
0 0 238 
0 0 236 
0 0 245 
0 0 234 
0 0 240 
0 0 237 
0 0 231 
0 0 234 
0 0 238 
0 0 230 
0 0 230 
0 0 234 
0 0 230 
0 0 237 
0 0 226 
0 0 227 
0 0 230 
0 0 240 
0 0 226 
0 0 231 
0 0 236 
0 0 212 
0 0 215 
0 0 230 
0 0 220 
0 0 227 
0 0 220 
0 0 224 
0 0 226 
0 0 207 
0 0 220 
0 0 220 
0 0 204 
0 0 211 
0 0 215 
0 0 214 
0 0 207 
0 0 203 
0 0 209 
0 0 211 
0 0 196 
41 45 198 
200 219 253 
208 228 255 
208 228 255 
208 228 255 
208 228 255 
208 228 255 
208 228 255 
208 228 255 
208 228 255 
208 228 255 
208 228 255 
208 228 255 
208 228 255 
208 228 255 
208 228 255 
208 228 255 
208 228 255 
208 228 255 
208 228 255 
208 228 255 
208 228 255 
202 209 234 
147 60 67 
152 0 0 
163 0 0 
157 0 0 
158 0 0 
172 0 0 
163 0 0 
170 0 0 
174 0 0 
176 0 0 
173 0 0 
182 0 0 
172 0 0 
181 0 0 
176 0 0 
185 0 0 
181 0 0 
189 0 0 
197 0 0 
181 0 0 
173 0 0 
194 0 0 
184 0 0 
188 0 0 
194 0 0 
187 0 0 
189 0 0 
193 0 0 
192 0 0 
191 0 0 
196 0 0 
190 0 0 
196 0 0 
192 0 0 
199 0 0 
202 0 0 
188 0 0 
201 0 0 
206 0 0 
204 0 0 
210 0 0 
192 0 0 
206 0 0 
201 0 0 
208 0 0 
196 0 0 
207 0 0 
199 0 0 
210 0 0 
205 0 0 
203 0 0 
203 0 0 
204 0 0 
207 0 0 
203 0 0 
205 0 0 
202 0 0 
208 0 0 
202 0 0 
199 0 0 
208 0 0 
209 0 0 
208 0 0 
209 0 0 
206 0 0 
209 0 0 
199 0 0 
209 0 0 
204 0 0 
202 0 0 
208 0 0 
206 0 0 
210 0 0 
214 0 0 
205 0 0 
207 0 0 
212 0 0 
209 0 0 
209 0 0 
213 0 0 
212 0 0 
214 0 0 
213 0 0 
213 0 0 
209 0 0 
212 0 0 
217 0 0 
213 0 0 
208 0 0 
213 0 0 
211 0 0 
215 0 0 
214 0 0 
213 0 0 
209 0 0 
214 0 0 
211 0 0 
212 0 0 
208 0 0 
213 0 0 
214 0 0 
210 0 0 
213 0 0 
209 0 0 
212 0 0 
217 0 0 
211 0 0 
209 0 0 
210 0 0 
214 0 0 
210 0 0 
214 0 0 
208 0 0 
215 0 0 
212 0 0 
214 0 0 
213 0 0 
208 0 0 
216 0 0 
214 0 0 
217 0 0 
213 0 0 
216 0 0 
210 0 0 
215 0 0 
214 0 0 
213 0 0 
214 0 0 
217 0 0 
214 0 0 
211 0 0 
215 0 0 
213 0 0 
215 0 0 
213 0 0 
218 0 0 
216 0 0 
215 0 0 
213 0 0 
217 0 0 
218 0 0 
217 0 0 
217 0 0 
216 0 0 
215 0 0 
214 0 0 
214 0 0 
212 0 0 
217 0 0 
215 0 0 
216 0 0 
218 0 0 
216 0 0 
215 0 0 
217 0 0 
216 0 0 
212 0 0 
216 0 0 
215 0 0 
214 0 0 
217 0 0 
221 0 0 
216 0 0 
214 0 0 
220 0 0 
211 0 0 
219 0 0 
215 0 0 
215 0 0 
213 0 0 
214 0 0 
215 0 0 
215 0 0 
217 0 0 
216 0 0 
218 0 0 
217 0 0 
218 0 0 
215 0 0 
217 0 0 
218 0 0 
216 0 0 
217 0 0 
216 0 0 
218 0 0 
219 0 0 
214 0 0 
215 0 0 
219 0 0 
0 0 255 
0 0 255 
0 0 255 
0 0 255 
0 0 255 
0 0 254 
0 0 254 
0 0 253 
0 0 255 
0 0 255 
0 0 255 
0 0 254 
0 0 255 
0 0 255 
0 0 255 
0 0 255 
0 0 254 
0 0 255 
0 0 255 
0 0 255 
0 0 255 
0 0 255 
0 0 255 
0 0 254 
0 0 255 
0 0 254 
0 0 252 
0 0 255 
0 0 254 
0 0 254 
0 0 254 
0 0 253 
0 0 253 
0 0 254 
0 0 250 
0 0 255 
0 0 255 
0 0 252 
0 0 252 
0 0 250 
0 0 253 
0 0 255 
0 0 255 
0 0 255 
0 0 254 
0 0 254 
0 0 253 
0 0 253 
0 0 253 
0 0 253 
0 0 253 
0 0 250 
0 0 254 
0 0 253 
0 0 254 
0 0 252 
0 0 253 
0 0 255 
0 0 253 
0 0 254 
0 0 252 
0 0 249 
0 0 254 
0 0 255 
0 0 255 
0 0 254 
0 0 252 
0 0 252 
0 0 253 
0 0 254 
0 0 253 
0 0 254 
0 0 250 
0 0 252 
0 0 249 
0 0 250 
0 0 249 
0 0 249 
0 0 249 
0 0 250 
0 0 252 
0 0 252 
0 0 255 
0 0 249 
0 0 250 
0 0 248 
0 0 250 
0 0 250 
0 0 255 
0 0 250 
0 0 249 
0 0 252 
0 0 249 
0 0 252 
0 0 252 
0 0 255 
0 0 250 
0 0 249 
0 0 250 
0 0 249 
0 0 250 
0 0 252 
0 0 249 
0 0 253 
0 0 250 
0 0 248 
0 0 249 
0 0 249 
0 0 246 
0 0 248 
0 0 249 
0 0 246 
0 0 252 
0 0 244 
0 0 250 
0 0 246 
0 0 244 
0 0 244 
0 0 250 
0 0 246 
0 0 248 
0 0 242 
0 0 249 
0 0 244 
0 0 246 
0 0 242 
0 0 242 
0 0 245 
0 0 248 
0 0 241 
0 0 242 
0 0 248 
0 0 248 
0 0 241 
0 0 246 
0 0 246 
0 0 241 
0 0 244 
0 0 245 
0 0 248 
0 0 245 
0 0 238 
0 0 241 
0 0 240 
0 0 241 
0 0 252 
0 0 244 
0 0 244 
0 0 238 
0 0 241 
0 0 238 
0 0 241 
0 0 242 
0 0 224 
0 0 244 
0 0 236 
0 0 234 
0 0 236 
0 0 226 
0 0 231 
0 0 224 
0 0 236 
0 0 234 
0 0 240 
0 0 231 
0 0 231 
0 0 234 
0 0 228 
0 0 227 
0 0 230 
0 0 221 
0 0 226 
0 0 220 
0 0 223 
0 0 221 
0 0 220 
0 0 212 
0 0 206 
0 0 214 
0 0 203 
0 0 203 
0 0 203 
0 0 203 
0 0 201 
0 0 203 
0 0 204 
0 0 204 
0 0 201 
0 0 198 
135 148 226 
209 228 255 
208 228 255 
208 228 255 
208 228 255 
208 228 255 
208 228 255 
208 228 255 
208 228 255 
208 228 255 
208 228 255 
208 228 255 
208 228 255 
208 228 255 
208 228 255 
208 228 255 
208 228 255 
208 228 255 
208 228 255 
208 228 255 
209 228 255 
171 151 169 
165 0 0 
149 0 0 
163 0 0 
154 0 0 
160 0 0 
164 0 0 
167 0 0 
175 0 0 
170 0 0 
179 0 0 
170 0 0 
176 0 0 
188 0 0 
188 0 0 
178 0 0 
172 0 0 
177 0 0 
190 0 0 
183 0 0 
197 0 0 
191 0 0 
191 0 0 
191 0 0 
193 0 0 
187 0 0 
187 0 0 
194 0 0 
198 0 0 
184 0 0 
196 0 0 
198 0 0 
198 0 0 
195 0 0 
197 0 0 
198 0 0 
196 0 0 
199 0 0 
200 0 0 
198 0 0 
206 0 0 
201 0 0 
207 0 0 
196 0 0 
202 0 0 
204 0 0 
200 0 0 
202 0 0 
207 0 0 
206 0 0 
208 0 0 
203 0 0 
207 0 0 
205 0 0 
207 0 0 
205 0 0 
200 0 0 
201 0 0 
205 0 0 
201 0 0 
208 0 0 
201 0 0 
209 0 0 
209 0 0 
206 0 0 
202 0 0 
211 0 0 
208 0 0 
211 0 0 
206 0 0 
214 0 0 
208 0 0 
207 0 0 
208 0 0 
213 0 0 
205 0 0 
211 0 0 
214 0 0 
207 0 0 
210 0 0 
205 0 0 
210 0 0 
211 0 0 
208 0 0 
210 0 0 
211 0 0 
207 0 0 
214 0 0 
211 0 0 
211 0 0 
216 0 0 
211 0 0 
207 0 0 
210 0 0 
213 0 0 
211 0 0 
209 0 0 
214 0 0 
203 0 0 
210 0 0 
212 0 0 
210 0 0 
212 0 0 
213 0 0 
212 0 0 
218 0 0 
212 0 0 
214 0 0 
211 0 0 
207 0 0 
213 0 0 
212 0 0 
210 0 0 
214 0 0 
217 0 0 
209 0 0 
214 0 0 
216 0 0 
214 0 0 
213 0 0 
213 0 0 
210 0 0 
219 0 0 
217 0 0 
214 0 0 
214 0 0 
217 0 0 
214 0 0 
217 0 0 
219 0 0 
215 0 0 
215 0 0 
217 0 0 
213 0 0 
214 0 0 
216 0 0 
215 0 0 
219 0 0 
216 0 0 
217 0 0 
215 0 0 
218 0 0 
213 0 0 
214 0 0 
214 0 0 
216 0 0 
215 0 0 
219 0 0 
215 0 0 
214 0 0 
216 0 0 
215 0 0 
212 0 0 
215 0 0 
213 0 0 
212 0 0 
218 0 0 
216 0 0 
217 0 0 
218 0 0 
217 0 0 
216 0 0 
218 0 0 
221 0 0 
219 0 0 
218 0 0 
213 0 0 
215 0 0 
219 0 0 
219 0 0 
213 0 0 
219 0 0 
215 0 0 
216 0 0 
215 0 0 
217 0 0 
217 0 0 
211 0 0 
219 0 0 
218 0 0 
216 0 0 
216 0 0 
216 0 0 
218 0 0 
215 0 0 
216 0 0 
216 0 0 
218 0 0 
217 0 0 
217 0 0 
0 0 255 
0 0 255 
0 0 255 
0 0 255 
0 0 255 
0 0 255 
0 0 255 
0 0 254 
0 0 255 
0 0 255 
0 0 255 
0 0 255 
0 0 253 
0 0 254 
0 0 254 
0 0 255 
0 0 255 
0 0 255 
0 0 255 
0 0 253 
0 0 255 
0 0 254 
0 0 254 
0 0 254 
0 0 253 
0 0 253 
0 0 255 
0 0 254 
0 0 255 
0 0 250 
0 0 254 
0 0 253 
0 0 254 
0 0 254 
0 0 254 
0 0 255 
0 0 255 
0 0 254 
0 0 253 
0 0 254 
0 0 255 
0 0 255 
0 0 253 
0 0 254 
0 0 253 
0 0 254 
0 0 253 
0 0 252 
0 0 254 
0 0 254 
0 0 254 
0 0 252 
0 0 254 
0 0 253 
0 0 252 
0 0 255 
0 0 249 
0 0 254 
0 0 254 
0 0 254 
0 0 254 
0 0 255 
0 0 252 
0 0 253 
0 0 253 
0 0 255 
0 0 253 
0 0 255 
0 0 248 
0 0 252 
0 0 254 
0 0 252 
0 0 254 
0 0 254 
0 0 254 
0 0 252 
0 0 253 
0 0 254 
0 0 254 
0 0 253 
0 0 253 
0 0 250 
0 0 253 
0 0 248 
0 0 250 
0 0 249 
0 0 250 
0 0 248 
0 0 249 
0 0 254 
0 0 253 
0 0 252 
0 0 249 
0 0 252 
0 0 254 
0 0 254 
0 0 250 
0 0 252 
0 0 250 
0 0 249 
0 0 250 
0 0 250 
0 0 246 
0 0 248 
0 0 253 
0 0 248 
0 0 252 
0 0 250 
0 0 250 
0 0 245 
0 0 253 
0 0 250 
0 0 248 
0 0 249 
0 0 246 
0 0 245 
0 0 250 
0 0 249 
0 0 246 
0 0 252 
0 0 240 
0 0 245 
0 0 242 
0 0 248 
0 0 248 
0 0 238 
0 0 245 
0 0 246 
0 0 252 
0 0 244 
0 0 244 
0 0 246 
0 0 244 
0 0 250 
0 0 241 
0 0 242 
0 0 236 
0 0 244 
0 0 244 
0 0 241 
0 0 244 
0 0 245 
0 0 230 
0 0 245 
0 0 236 
0 0 249 
0 0 242 
0 0 240 
0 0 237 
0 0 233 
0 0 234 
0 0 231 
0 0 236 
0 0 234 
0 0 240 
0 0 240 
0 0 234 
0 0 231 
0 0 242 
0 0 234 
0 0 231 
0 0 233 
0 0 233 
0 0 231 
0 0 227 
0 0 220 
0 0 224 
0 0 223 
0 0 224 
0 0 226 
0 0 214 
0 0 224 
0 0 221 
0 0 224 
0 0 199 
0 0 217 
0 0 220 
0 0 217 
0 0 209 
0 0 207 
0 0 209 
0 0 204 
0 0 198 
0 0 191 
0 0 217 
0 0 194 
0 0 198 
0 0 194 
0 0 189 
0 0 203 
185 203 246 
209 229 255 
209 229 255 
209 229 255 
209 229 255 
209 229 255 
209 229 255 
209 229 255 
209 229 255 
209 229 255 
209 229 255 
209 229 255 
209 229 255 
209 229 255 
209 229 255 
209 229 255 
209 229 255 
209 229 255 
209 229 255 
204 218 244 
154 22 25 
151 0 0 
148 0 0 
157 0 0 
171 0 0 
163 0 0 
159 0 0 
172 0 0 
158 0 0 
169 0 0 
163 0 0 
181 0 0 
174 0 0 
179 0 0 
172 0 0 
189 0 0 
179 0 0 
183 0 0 
186 0 0 
179 0 0 
178 0 0 
183 0 0 
181 0 0 
194 0 0 
187 0 0 
180 0 0 
190 0 0 
193 0 0 
201 0 0 
199 0 0 
199 0 0 
197 0 0 
194 0 0 
197 0 0 
198 0 0 
200 0 0 
193 0 0 
198 0 0 
205 0 0 
193 0 0 
197 0 0 
202 0 0 
197 0 0 
197 0 0 
199 0 0 
200 0 0 
203 0 0 
206 0 0 
209 0 0 
205 0 0 
210 0 0 
205 0 0 
200 0 0 
206 0 0 
208 0 0 
205 0 0 
204 0 0 
208 0 0 
211 0 0 
210 0 0 
208 0 0 
204 0 0 
209 0 0 
206 0 0 
212 0 0 
210 0 0 
209 0 0 
206 0 0 
207 0 0 
207 0 0 
210 0 0 
213 0 0 
196 0 0 
213 0 0 
210 0 0 
210 0 0 
207 0 0 
210 0 0 
208 0 0 
208 0 0 
211 0 0 
219 0 0 
214 0 0 
212 0 0 
208 0 0 
209 0 0 
204 0 0 
212 0 0 
211 0 0 
213 0 0 
212 0 0 
208 0 0 
211 0 0 
214 0 0 
215 0 0 
219 0 0 
214 0 0 
212 0 0 
212 0 0 
208 0 0 
215 0 0 
209 0 0 
213 0 0 
218 0 0 
210 0 0 
216 0 0 
209 0 0 
213 0 0 
213 0 0 
210 0 0 
211 0 0 
213 0 0 
214 0 0 
216 0 0 
217 0 0 
217 0 0 
217 0 0 
204 0 0 
212 0 0 
215 0 0 
215 0 0 
215 0 0 
211 0 0 
218 0 0 
214 0 0 
215 0 0 
213 0 0 
217 0 0 
212 0 0 
213 0 0 
214 0 0 
218 0 0 
214 0 0 
220 0 0 
215 0 0 
216 0 0 
213 0 0 
212 0 0 
219 0 0 
213 0 0 
212 0 0 
214 0 0 
214 0 0 
215 0 0 
219 0 0 
211 0 0 
217 0 0 
217 0 0 
212 0 0 
212 0 0 
214 0 0 
220 0 0 
216 0 0 
215 0 0 
217 0 0 
218 0 0 
214 0 0 
213 0 0 
219 0 0 
218 0 0 
215 0 0 
212 0 0 
216 0 0 
219 0 0 
217 0 0 
218 0 0 
218 0 0 
215 0 0 
211 0 0 
219 0 0 
218 0 0 
216 0 0 
218 0 0 
216 0 0 
214 0 0 
215 0 0 
213 0 0 
216 0 0 
217 0 0 
214 0 0 
220 0 0 
217 0 0 
216 0 0 
219 0 0 
217 0 0 
219 0 0 
216 0 0 
218 0 0 
218 0 0 
220 0 0 
0 0 255 
0 0 255 
0 0 255 
0 0 255 
0 0 255 
0 0 255 
0 0 254 
0 0 255 
0 0 255 
0 0 255 
0 0 255 
0 0 255 
0 0 253 
0 0 255 
0 0 254 
0 0 255 
0 0 253 
0 0 254 
0 0 254 
0 0 255 
0 0 253 
0 0 255 
0 0 253 
0 0 255 
0 0 254 
0 0 254 
0 0 254 
0 0 252 
0 0 255 
0 0 254 
0 0 255 
0 0 254 
0 0 254 
0 0 255 
0 0 254 
0 0 253 
0 0 253 
0 0 255 
0 0 254 
0 0 253 
0 0 252 
0 0 254 
0 0 253 
0 0 254 
0 0 253 
0 0 252 
0 0 254 
0 0 255 
0 0 250 
0 0 252 
0 0 253 
0 0 254 
0 0 254 
0 0 250 
0 0 254 
0 0 254 
0 0 253 
0 0 253 
0 0 253 
0 0 252 
0 0 255 
0 0 253 
0 0 252 
0 0 254 
0 0 252 
0 0 254 
0 0 252 
0 0 253 
0 0 253 
0 0 252 
0 0 254 
0 0 253 
0 0 250 
0 0 254 
0 0 252 
0 0 248 
0 0 253 
0 0 250 
0 0 254 
0 0 250 
0 0 250 
0 0 249 
0 0 250 
0 0 254 
0 0 246 
0 0 253 
0 0 249 
0 0 250 
0 0 253 
0 0 246 
0 0 252 
0 0 252 
0 0 253 
0 0 252 
0 0 253 
0 0 248 
0 0 246 
0 0 246 
0 0 253 
0 0 249 
0 0 248 
0 0 245 
0 0 252 
0 0 250 
0 0 248 
0 0 252 
0 0 248 
0 0 250 
0 0 246 
0 0 253 
0 0 244 
0 0 240 
0 0 246 
0 0 253 
0 0 249 
0 0 252 
0 0 252 
0 0 244 
0 0 245 
0 0 250 
0 0 246 
0 0 246 
0 0 241 
0 0 250 
0 0 245 
0 0 245 
0 0 241 
0 0 248 
0 0 249 
0 0 245 
0 0 245 
0 0 241 
0 0 246 
0 0 242 
0 0 237 
0 0 238 
0 0 238 
0 0 242 
0 0 248 
0 0 241 
0 0 248 
0 0 240 
0 0 245 
0 0 237 
0 0 240 
0 0 240 
0 0 238 
0 0 236 
0 0 236 
0 0 236 
0 0 248 
0 0 238 
0 0 231 
0 0 241 
0 0 233 
0 0 240 
0 0 237 
0 0 237 
0 0 226 
0 0 240 
0 0 236 
0 0 227 
0 0 236 
0 0 231 
0 0 223 
0 0 228 
0 0 217 
0 0 218 
0 0 221 
0 0 220 
0 0 226 
0 0 221 
0 0 223 
0 0 226 
0 0 217 
0 0 220 
0 0 214 
0 0 204 
0 0 218 
0 0 215 
0 0 215 
0 0 211 
0 0 212 
0 0 194 
0 0 201 
0 0 203 
0 0 196 
0 0 193 
0 0 177 
0 0 181 
122 133 203 
209 229 255 
209 229 255 
209 229 255 
209 229 255 
209 229 255 
209 229 255 
209 229 255 
209 229 255 
209 229 255 
209 229 255 
209 229 255 
209 229 255 
209 229 255 
209 229 255 
209 229 255 
209 229 255 
209 229 255 
209 229 255 
175 146 163 
145 0 0 
145 0 0 
147 0 0 
160 0 0 
155 0 0 
163 0 0 
173 0 0 
165 0 0 
181 0 0 
153 0 0 
171 0 0 
172 0 0 
175 0 0 
176 0 0 
171 0 0 
168 0 0 
187 0 0 
194 0 0 
186 0 0 
189 0 0 
175 0 0 
190 0 0 
191 0 0 
200 0 0 
193 0 0 
189 0 0 
190 0 0 
196 0 0 
195 0 0 
194 0 0 
199 0 0 
196 0 0 
190 0 0 
199 0 0 
200 0 0 
207 0 0 
197 0 0 
198 0 0 
195 0 0 
204 0 0 
198 0 0 
198 0 0 
199 0 0 
203 0 0 
197 0 0 
198 0 0 
194 0 0 
206 0 0 
203 0 0 
206 0 0 
203 0 0 
202 0 0 
206 0 0 
204 0 0 
205 0 0 
211 0 0 
209 0 0 
206 0 0 
208 0 0 
201 0 0 
210 0 0 
206 0 0 
208 0 0 
209 0 0 
208 0 0 
203 0 0 
202 0 0 
209 0 0 
207 0 0 
214 0 0 
210 0 0 
207 0 0 
210 0 0 
207 0 0 
209 0 0 
209 0 0 
212 0 0 
210 0 0 
210 0 0 
209 0 0 
208 0 0 
211 0 0 
204 0 0 
209 0 0 
210 0 0 
213 0 0 
211 0 0 
213 0 0 
214 0 0 
213 0 0 
219 0 0 
211 0 0 
214 0 0 
203 0 0 
212 0 0 
215 0 0 
214 0 0 
206 0 0 
211 0 0 
208 0 0 
214 0 0 
212 0 0 
211 0 0 
208 0 0 
211 0 0 
214 0 0 
209 0 0 
213 0 0 
212 0 0 
211 0 0 
212 0 0 
212 0 0 
211 0 0 
215 0 0 
215 0 0 
216 0 0 
213 0 0 
215 0 0 
211 0 0 
220 0 0 
212 0 0 
213 0 0 
216 0 0 
211 0 0 
210 0 0 
219 0 0 
216 0 0 
219 0 0 
215 0 0 
211 0 0 
216 0 0 
215 0 0 
213 0 0 
214 0 0 
219 0 0 
216 0 0 
216 0 0 
214 0 0 
215 0 0 
214 0 0 
215 0 0 
216 0 0 
214 0 0 
217 0 0 
214 0 0 
216 0 0 
214 0 0 
217 0 0 
215 0 0 
219 0 0 
217 0 0 
221 0 0 
217 0 0 
218 0 0 
215 0 0 
217 0 0 
218 0 0 
214 0 0 
219 0 0 
217 0 0 
215 0 0 
219 0 0 
216 0 0 
218 0 0 
218 0 0 
216 0 0 
213 0 0 
217 0 0 
216 0 0 
219 0 0 
223 0 0 
214 0 0 
217 0 0 
217 0 0 
216 0 0 
220 0 0 
211 0 0 
215 0 0 
220 0 0 
215 0 0 
217 0 0 
218 0 0 
216 0 0 
217 0 0 
218 0 0 
215 0 0 
216 0 0 
217 0 0 
219 0 0 
214 0 0 
0 0 255 
0 0 254 
0 0 255 
0 0 254 
0 0 253 
0 0 254 
0 0 255 
0 0 255 
0 0 254 
0 0 255 
0 0 255 
0 0 255 
0 0 255 
0 0 255 
0 0 253 
0 0 254 
0 0 254 
0 0 254 
0 0 252 
0 0 255 
0 0 255 
0 0 254 
0 0 254 
0 0 254 
0 0 255 
0 0 255 
0 0 255 
0 0 254 
0 0 255 
0 0 254 
0 0 254 
0 0 255 
0 0 255 
0 0 255 
0 0 255 
0 0 255 
0 0 255 
0 0 250 
0 0 254 
0 0 250 
0 0 253 
0 0 255 
0 0 254 
0 0 255 
0 0 252 
0 0 254 
0 0 249 
0 0 254 
0 0 255 
0 0 253 
0 0 252 
0 0 254 
0 0 254 
0 0 254 
0 0 253 
0 0 254 
0 0 254 
0 0 252 
0 0 252 
0 0 255 
0 0 253 
0 0 248 
0 0 254 
0 0 253 
0 0 250 
0 0 254 
0 0 253 
0 0 250 
0 0 254 
0 0 248 
0 0 253 
0 0 255 
0 0 253 
0 0 252 
0 0 248 
0 0 253 
0 0 252 
0 0 250 
0 0 252 
0 0 250 
0 0 248 
0 0 252 
0 0 253 
0 0 252 
0 0 248 
0 0 250 
0 0 252 
0 0 252 
0 0 253 
0 0 249 
0 0 252 
0 0 249 
0 0 253 
0 0 250 
0 0 245 
0 0 246 
0 0 249 
0 0 253 
0 0 250 
0 0 253 
0 0 252 
0 0 246 
0 0 253 
0 0 246 
0 0 246 
0 0 252 
0 0 249 
0 0 253 
0 0 249 
0 0 249 
0 0 249 
0 0 249 
0 0 249 
0 0 248 
0 0 250 
0 0 246 
0 0 250 
0 0 253 
0 0 253 
0 0 250 
0 0 249 
0 0 242 
0 0 246 
0 0 242 
0 0 242 
0 0 246 
0 0 244 
0 0 242 
0 0 244 
0 0 246 
0 0 248 
0 0 240 
0 0 241 
0 0 241 
0 0 244 
0 0 242 
0 0 241 
0 0 244 
0 0 241 
0 0 246 
0 0 246 
0 0 240 
0 0 246 
0 0 245 
0 0 249 
0 0 240 
0 0 244 
0 0 244 
0 0 230 
0 0 241 
0 0 238 
0 0 241 
0 0 226 
0 0 236 
0 0 237 
0 0 238 
0 0 240 
0 0 236 
0 0 230 
0 0 241 
0 0 228 
0 0 233 
0 0 234 
0 0 223 
0 0 218 
0 0 234 
0 0 240 
0 0 231 
0 0 217 
0 0 212 
0 0 212 
0 0 224 
0 0 224 
0 0 224 
0 0 220 
0 0 224 
0 0 214 
0 0 204 
0 0 221 
0 0 211 
0 0 214 
0 0 221 
0 0 214 
0 0 209 
0 0 215 
0 0 206 
0 0 211 
0 0 191 
0 0 188 
0 0 171 
36 39 184 
200 218 250 
209 229 255 
209 229 255 
209 229 255 
209 229 255 
209 229 255 
209 229 255 
209 229 255 
209 229 255 
209 229 255 
209 229 255 
209 229 255 
209 229 255 
209 229 255 
209 229 255 
209 229 255 
209 229 255 
202 210 234 
154 0 0 
146 0 0 
153 0 0 
151 0 0 
154 0 0 
163 0 0 
160 0 0 
169 0 0 
170 0 0 
174 0 0 
171 0 0 
163 0 0 
183 0 0 
183 0 0 
165 0 0 
180 0 0 
179 0 0 
180 0 0 
175 0 0 
185 0 0 
184 0 0 
187 0 0 
181 0 0 
189 0 0 
192 0 0 
187 0 0 
188 0 0 
181 0 0 
192 0 0 
191 0 0 
202 0 0 
194 0 0 
198 0 0 
196 0 0 
192 0 0 
194 0 0 
195 0 0 
189 0 0 
196 0 0 
192 0 0 
197 0 0 
200 0 0 
204 0 0 
202 0 0 
203 0 0 
197 0 0 
200 0 0 
204 0 0 
195 0 0 
204 0 0 
204 0 0 
208 0 0 
204 0 0 
208 0 0 
207 0 0 
205 0 0 
206 0 0 
208 0 0 
209 0 0 
200 0 0 
205 0 0 
204 0 0 
205 0 0 
206 0 0 
204 0 0 
207 0 0 
206 0 0 
211 0 0 
207 0 0 
205 0 0 
209 0 0 
206 0 0 
203 0 0 
206 0 0 
208 0 0 
203 0 0 
212 0 0 
212 0 0 
210 0 0 
215 0 0 
212 0 0 
212 0 0 
213 0 0 
203 0 0 
211 0 0 
207 0 0 
210 0 0 
210 0 0 
213 0 0 
213 0 0 
208 0 0 
211 0 0 
216 0 0 
206 0 0 
211 0 0 
214 0 0 
215 0 0 
199 0 0 
216 0 0 
210 0 0 
215 0 0 
210 0 0 
215 0 0 
213 0 0 
216 0 0 
215 0 0 
211 0 0 
209 0 0 
214 0 0 
210 0 0 
211 0 0 
210 0 0 
215 0 0 
215 0 0 
218 0 0 
217 0 0 
214 0 0 
221 0 0 
214 0 0 
214 0 0 
216 0 0 
211 0 0 
217 0 0 
216 0 0 
213 0 0 
216 0 0 
214 0 0 
213 0 0 
220 0 0 
214 0 0 
214 0 0 
215 0 0 
220 0 0 
217 0 0 
219 0 0 
210 0 0 
216 0 0 
216 0 0 
214 0 0 
217 0 0 
218 0 0 
218 0 0 
215 0 0 
216 0 0 
214 0 0 
217 0 0 
214 0 0 
214 0 0 
217 0 0 
215 0 0 
217 0 0 
215 0 0 
211 0 0 
216 0 0 
216 0 0 
213 0 0 
218 0 0 
216 0 0 
220 0 0 
216 0 0 
215 0 0 
217 0 0 
217 0 0 
217 0 0 
218 0 0 
214 0 0 
216 0 0 
218 0 0 
214 0 0 
218 0 0 
216 0 0 
214 0 0 
213 0 0 
216 0 0 
218 0 0 
218 0 0 
216 0 0 
218 0 0 
215 0 0 
217 0 0 
214 0 0 
217 0 0 
214 0 0 
221 0 0 
218 0 0 
215 0 0 
221 0 0 
219 0 0 
220 0 0 
215 0 0 
217 0 0 
0 0 254 
0 0 255 
0 0 254 
0 0 255 
0 0 255 
0 0 255 
0 0 255 
0 0 255 
0 0 254 
0 0 255 
0 0 255 
0 0 255 
0 0 255 
0 0 255 
0 0 255 
0 0 255 
0 0 254 
0 0 255 
0 0 255 
0 0 255 
0 0 255 
0 0 254 
0 0 254 
0 0 254 
0 0 254 
0 0 254 
0 0 254 
0 0 255 
0 0 254 
0 0 254 
0 0 254 
0 0 253 
0 0 254 
0 0 254 
0 0 253 
0 0 255 
0 0 254 
0 0 254 
0 0 253 
0 0 254 
0 0 255 
0 0 254 
0 0 254 
0 0 255 
0 0 253 
0 0 253 
0 0 254 
0 0 253 
0 0 253 
0 0 254 
0 0 255 
0 0 254 
0 0 252 
0 0 254 
0 0 255 
0 0 255 
0 0 253 
0 0 254 
0 0 249 
0 0 254 
0 0 252 
0 0 249 
0 0 254 
0 0 252 
0 0 254 
0 0 255 
0 0 252 
0 0 253 
0 0 254 
0 0 253 
0 0 255 
0 0 254 
0 0 254 
0 0 254 
0 0 253 
0 0 254 
0 0 254 
0 0 253 
0 0 250 
0 0 253 
0 0 255 
0 0 253 
0 0 254 
0 0 253 
0 0 254 
0 0 249 
0 0 255 
0 0 253 
0 0 252 
0 0 253 
0 0 255 
0 0 250 
0 0 249 
0 0 250 
0 0 250 
0 0 246 
0 0 250 
0 0 245 
0 0 250 
0 0 246 
0 0 250 
0 0 248 
0 0 254 
0 0 249 
0 0 246 
0 0 249 
0 0 250 
0 0 248 
0 0 245 
0 0 249 
0 0 249 
0 0 248 
0 0 245 
0 0 249 
0 0 242 
0 0 249 
0 0 246 
0 0 249 
0 0 246 
0 0 241 
0 0 249 
0 0 248 
0 0 246 
0 0 248 
0 0 237 
0 0 245 
0 0 244 
0 0 249 
0 0 248 
0 0 244 
0 0 240 
0 0 240 
0 0 237 
0 0 248 
0 0 244 
0 0 248 
0 0 242 
0 0 245 
0 0 236 
0 0 245 
0 0 242 
0 0 236 
0 0 248 
0 0 241 
0 0 234 
0 0 248 
0 0 237 
0 0 241 
0 0 244 
0 0 226 
0 0 242 
0 0 237 
0 0 242 
0 0 230 
0 0 230 
0 0 240 
0 0 237 
0 0 237 
0 0 234 
0 0 227 
0 0 231 
0 0 228 
0 0 223 
0 0 218 
0 0 227 
0 0 236 
0 0 227 
0 0 234 
0 0 230 
0 0 236 
0 0 223 
0 0 215 
0 0 224 
0 0 218 
0 0 215 
0 0 221 
0 0 218 
0 0 223 
0 0 198 
0 0 218 
0 0 218 
0 0 209 
0 0 196 
0 0 212 
0 0 212 
0 0 196 
0 0 201 
0 0 189 
0 0 198 
0 0 184 
0 0 181 
126 137 206 
210 229 255 
210 229 255 
210 229 255 
210 229 255 
210 229 255 
210 229 255 
210 229 255 
210 229 255 
210 229 255 
210 229 255 
210 229 255 
210 229 255 
210 229 255 
210 229 255 
210 229 255 
210 229 255 
165 141 157 
147 0 0 
160 0 0 
147 0 0 
143 0 0 
155 0 0 
183 0 0 
168 0 0 
158 0 0 
155 0 0 
168 0 0 
172 0 0 
179 0 0 
170 0 0 
172 0 0 
184 0 0 
181 0 0 
176 0 0 
191 0 0 
178 0 0 
182 0 0 
192 0 0 
179 0 0 
189 0 0 
196 0 0 
193 0 0 
187 0 0 
195 0 0 
203 0 0 
193 0 0 
187 0 0 
191 0 0 
204 0 0 
196 0 0 
195 0 0 
198 0 0 
200 0 0 
202 0 0 
203 0 0 
201 0 0 
203 0 0 
200 0 0 
204 0 0 
195 0 0 
200 0 0 
195 0 0 
201 0 0 
207 0 0 
200 0 0 
210 0 0 
201 0 0 
204 0 0 
206 0 0 
199 0 0 
205 0 0 
201 0 0 
208 0 0 
208 0 0 
200 0 0 
203 0 0 
206 0 0 
205 0 0 
205 0 0 
211 0 0 
203 0 0 
199 0 0 
210 0 0 
201 0 0 
202 0 0 
211 0 0 
210 0 0 
212 0 0 
204 0 0 
207 0 0 
213 0 0 
205 0 0 
208 0 0 
210 0 0 
216 0 0 
206 0 0 
207 0 0 
211 0 0 
211 0 0 
208 0 0 
215 0 0 
207 0 0 
212 0 0 
215 0 0 
209 0 0 
209 0 0 
204 0 0 
214 0 0 
213 0 0 
209 0 0 
210 0 0 
211 0 0 
209 0 0 
210 0 0 
209 0 0 
217 0 0 
211 0 0 
209 0 0 
215 0 0 
209 0 0 
207 0 0 
216 0 0 
208 0 0 
214 0 0 
214 0 0 
215 0 0 
216 0 0 
218 0 0 
213 0 0 
215 0 0 
213 0 0 
213 0 0 
219 0 0 
212 0 0 
214 0 0 
212 0 0 
215 0 0 
216 0 0 
209 0 0 
214 0 0 
208 0 0 
214 0 0 
212 0 0 
214 0 0 
218 0 0 
212 0 0 
211 0 0 
212 0 0 
218 0 0 
214 0 0 
214 0 0 
214 0 0 
216 0 0 
219 0 0 
217 0 0 
216 0 0 
218 0 0 
213 0 0 
214 0 0 
221 0 0 
217 0 0 
217 0 0 
217 0 0 
217 0 0 
217 0 0 
215 0 0 
220 0 0 
215 0 0 
220 0 0 
216 0 0 
217 0 0 
212 0 0 
214 0 0 
217 0 0 
219 0 0 
220 0 0 
215 0 0 
214 0 0 
216 0 0 
215 0 0 
218 0 0 
213 0 0 
218 0 0 
211 0 0 
213 0 0 
217 0 0 
220 0 0 
216 0 0 
217 0 0 
218 0 0 
220 0 0 
218 0 0 
220 0 0 
215 0 0 
217 0 0 
216 0 0 
215 0 0 
216 0 0 
217 0 0 
221 0 0 
215 0 0 
218 0 0 
219 0 0 
215 0 0 
212 0 0 
214 0 0 
217 0 0 
215 0 0 
0 0 252 
0 0 255 
0 0 255 
0 0 254 
0 0 255 
0 0 255 
0 0 254 
0 0 255 
0 0 254 
0 0 254 
0 0 255 
0 0 255 
0 0 252 
0 0 255 
0 0 255 
0 0 255 
0 0 254 
0 0 254 
0 0 255 
0 0 254 
0 0 255 
0 0 254 
0 0 255 
0 0 255 
0 0 255 
0 0 255 
0 0 255 
0 0 255 
0 0 253 
0 0 254 
0 0 254 
0 0 255 
0 0 253 
0 0 253 
0 0 254 
0 0 254 
0 0 255 
0 0 255 
0 0 254 
0 0 255 
0 0 253 
0 0 253 
0 0 254 
0 0 254 
0 0 254 
0 0 255 
0 0 254 
0 0 254 
0 0 253 
0 0 254 
0 0 253 
0 0 252 
0 0 253 
0 0 253 
0 0 253 
0 0 255 
0 0 254 
0 0 254 
0 0 253 
0 0 254 
0 0 254 
0 0 254 
0 0 249 
0 0 255 
0 0 254 
0 0 253 
0 0 252 
0 0 254 
0 0 252 
0 0 255 
0 0 250 
0 0 249 
0 0 253 
0 0 252 
0 0 250 
0 0 253 
0 0 255 
0 0 250 
0 0 252 
0 0 246 
0 0 252 
0 0 252 
0 0 255 
0 0 253 
0 0 252 
0 0 253 
0 0 253 
0 0 253 
0 0 250 
0 0 249 
0 0 246 
0 0 249 
0 0 252 
0 0 252 
0 0 249 
0 0 252 
0 0 254 
0 0 250 
0 0 250 
0 0 249 
0 0 252 
0 0 253 
0 0 248 
0 0 248 
0 0 252 
0 0 250 
0 0 245 
0 0 248 
0 0 252 
0 0 250 
0 0 248 
0 0 246 
0 0 245 
0 0 250 
0 0 248 
0 0 246 
0 0 249 
0 0 246 
0 0 249 
0 0 245 
0 0 244 
0 0 242 
0 0 242 
0 0 245 
0 0 246 
0 0 244 
0 0 246 
0 0 242 
0 0 246 
0 0 245 
0 0 242 
0 0 242 
0 0 245 
0 0 241 
0 0 237 
0 0 240 
0 0 240 
0 0 242 
0 0 244 
0 0 238 
0 0 245 
0 0 240 
0 0 240 
0 0 246 
0 0 237 
0 0 245 
0 0 244 
0 0 241 
0 0 240 
0 0 236 
0 0 240 
0 0 238 
0 0 238 
0 0 231 
0 0 233 
0 0 231 
0 0 238 
0 0 224 
0 0 238 
0 0 244 
0 0 226 
0 0 237 
0 0 233 
0 0 226 
0 0 237 
0 0 227 
0 0 230 
0 0 226 
0 0 220 
0 0 223 
0 0 234 
0 0 226 
0 0 227 
0 0 201 
0 0 217 
0 0 221 
0 0 215 
0 0 226 
0 0 211 
0 0 211 
0 0 209 
0 0 211 
0 0 220 
0 0 201 
0 0 203 
0 0 199 
0 0 191 
0 0 188 
0 0 191 
0 0 161 
0 0 179 
36 39 173 
200 219 249 
210 229 255 
210 229 255 
210 229 255 
210 229 255 
210 229 255 
210 229 255 
210 229 255 
210 229 255 
210 229 255 
210 229 255 
210 229 255 
210 229 255 
210 229 255 
210 229 255 
200 208 231 
143 32 36 
144 0 0 
156 0 0 
156 0 0 
146 0 0 
155 0 0 
162 0 0 
158 0 0 
175 0 0 
173 0 0 
160 0 0 
173 0 0 
176 0 0 
176 0 0 
177 0 0 
180 0 0 
178 0 0 
191 0 0 
181 0 0 
188 0 0 
182 0 0 
184 0 0 
186 0 0 
194 0 0 
188 0 0 
196 0 0 
187 0 0 
190 0 0 
194 0 0 
193 0 0 
197 0 0 
201 0 0 
186 0 0 
187 0 0 
191 0 0 
198 0 0 
203 0 0 
191 0 0 
193 0 0 
190 0 0 
200 0 0 
206 0 0 
193 0 0 
200 0 0 
196 0 0 
203 0 0 
199 0 0 
207 0 0 
208 0 0 
200 0 0 
201 0 0 
200 0 0 
207 0 0 
205 0 0 
209 0 0 
208 0 0 
213 0 0 
203 0 0 
202 0 0 
212 0 0 
205 0 0 
204 0 0 
206 0 0 
212 0 0 
212 0 0 
215 0 0 
206 0 0 
216 0 0 
211 0 0 
211 0 0 
205 0 0 
206 0 0 
210 0 0 
211 0 0 
210 0 0 
207 0 0 
209 0 0 
206 0 0 
211 0 0 
204 0 0 
212 0 0 
211 0 0 
205 0 0 
210 0 0 
212 0 0 
210 0 0 
215 0 0 
208 0 0 
206 0 0 
209 0 0 
216 0 0 
212 0 0 
211 0 0 
214 0 0 
216 0 0 
218 0 0 
219 0 0 
209 0 0 
214 0 0 
207 0 0 
216 0 0 
214 0 0 
208 0 0 
210 0 0 
215 0 0 
212 0 0 
216 0 0 
215 0 0 
207 0 0 
218 0 0 
205 0 0 
213 0 0 
215 0 0 
212 0 0 
216 0 0 
210 0 0 
214 0 0 
214 0 0 
218 0 0 
211 0 0 
215 0 0 
216 0 0 
214 0 0 
212 0 0 
216 0 0 
214 0 0 
213 0 0 
218 0 0 
210 0 0 
218 0 0 
216 0 0 
215 0 0 
218 0 0 
216 0 0 
217 0 0 
216 0 0 
213 0 0 
212 0 0 
210 0 0 
213 0 0 
216 0 0 
213 0 0 
214 0 0 
212 0 0 
216 0 0 
219 0 0 
213 0 0 
212 0 0 
218 0 0 
214 0 0 
214 0 0 
219 0 0 
213 0 0 
218 0 0 
219 0 0 
214 0 0 
217 0 0 
222 0 0 
216 0 0 
217 0 0 
215 0 0 
219 0 0 
217 0 0 
218 0 0 
220 0 0 
217 0 0 
216 0 0 
219 0 0 
220 0 0 
215 0 0 
217 0 0 
216 0 0 
217 0 0 
219 0 0 
211 0 0 
215 0 0 
217 0 0 
219 0 0 
218 0 0 
216 0 0 
216 0 0 
216 0 0 
217 0 0 
218 0 0 
220 0 0 
219 0 0 
219 0 0 
215 0 0 
215 0 0 
219 0 0 
221 0 0 
215 0 0 
0 0 253 
0 0 254 
0 0 255 
0 0 255 
0 0 255 
0 0 255 
0 0 254 
0 0 255 
0 0 254 
0 0 254 
0 0 255 
0 0 253 
0 0 254 
0 0 255 
0 0 253 
0 0 255 
0 0 255 
0 0 253 
0 0 255 
0 0 254 
0 0 253 
0 0 254 
0 0 254 
0 0 254 
0 0 255 
0 0 255 
0 0 255 
0 0 254 
0 0 255 
0 0 253 
0 0 254 
0 0 253 
0 0 254 
0 0 254 
0 0 255 
0 0 255 
0 0 253 
0 0 254 
0 0 255 
0 0 255 
0 0 255 
0 0 254 
0 0 253 
0 0 254 
0 0 254 
0 0 254 
0 0 253 
0 0 252 
0 0 254 
0 0 252 
0 0 253 
0 0 253 
0 0 250 
0 0 252 
0 0 252 
0 0 252 
0 0 250 
0 0 254 
0 0 254 
0 0 252 
0 0 255 
0 0 254 
0 0 255 
0 0 250 
0 0 250 
0 0 253 
0 0 255 
0 0 253 
0 0 250 
0 0 254 
0 0 253 
0 0 250 
0 0 255 
0 0 249 
0 0 253 
0 0 250 
0 0 252 
0 0 253 
0 0 250 
0 0 252 
0 0 248 
0 0 254 
0 0 252 
0 0 254 
0 0 250 
0 0 252 
0 0 254 
0 0 246 
0 0 250 
0 0 254 
0 0 253 
0 0 245 
0 0 250 
0 0 248 
0 0 246 
0 0 254 
0 0 252 
0 0 253 
0 0 242 
0 0 252 
0 0 253 
0 0 249 
0 0 250 
0 0 248 
0 0 246 
0 0 250 
0 0 254 
0 0 248 
0 0 252 
0 0 246 
0 0 245 
0 0 246 
0 0 248 
0 0 246 
0 0 245 
0 0 241 
0 0 249 
0 0 248 
0 0 248 
0 0 242 
0 0 252 
0 0 246 
0 0 241 
0 0 246 
0 0 244 
0 0 246 
0 0 250 
0 0 248 
0 0 244 
0 0 245 
0 0 245 
0 0 245 
0 0 246 
0 0 249 
0 0 241 
0 0 237 
0 0 241 
0 0 249 
0 0 230 
0 0 238 
0 0 238 
0 0 241 
0 0 244 
0 0 242 
0 0 240 
0 0 240 
0 0 237 
0 0 233 
0 0 234 
0 0 237 
0 0 244 
0 0 246 
0 0 237 
0 0 240 
0 0 230 
0 0 231 
0 0 242 
0 0 233 
0 0 223 
0 0 236 
0 0 240 
0 0 230 
0 0 226 
0 0 231 
0 0 226 
0 0 218 
0 0 227 
0 0 228 
0 0 234 
0 0 212 
0 0 231 
0 0 223 
0 0 224 
0 0 214 
0 0 215 
0 0 221 
0 0 218 
0 0 217 
0 0 211 
0 0 186 
0 0 203 
0 0 209 
0 0 201 
0 0 201 
0 0 211 
0 0 194 
0 0 191 
0 0 191 
0 0 199 
0 0 182 
0 0 182 
0 0 182 
136 148 212 
210 229 255 
210 229 255 
210 229 255 
210 229 255 
210 229 255 
210 229 255 
210 229 255 
210 229 255 
210 229 255 
210 229 255 
210 229 255 
210 229 255 
210 229 255 
210 229 255 
172 157 175 
128 0 0 
140 0 0 
146 0 0 
153 0 0 
145 0 0 
157 0 0 
143 0 0 
153 0 0 
159 0 0 
164 0 0 
177 0 0 
172 0 0 
179 0 0 
166 0 0 
173 0 0 
165 0 0 
175 0 0 
182 0 0 
189 0 0 
180 0 0 
182 0 0 
190 0 0 
192 0 0 
190 0 0 
183 0 0 
187 0 0 
182 0 0 
194 0 0 
192 0 0 
192 0 0 
201 0 0 
192 0 0 
197 0 0 
195 0 0 
189 0 0 
196 0 0 
199 0 0 
192 0 0 
200 0 0 
204 0 0 
191 0 0 
202 0 0 
201 0 0 
197 0 0 
200 0 0 
199 0 0 
198 0 0 
205 0 0 
200 0 0 
194 0 0 
199 0 0 
207 0 0 
202 0 0 
198 0 0 
209 0 0 
203 0 0 
211 0 0 
201 0 0 
207 0 0 
211 0 0 
200 0 0 
204 0 0 
207 0 0 
208 0 0 
206 0 0 
208 0 0 
212 0 0 
205 0 0 
209 0 0 
212 0 0 
209 0 0 
209 0 0 
210 0 0 
203 0 0 
203 0 0 
216 0 0 
213 0 0 
210 0 0 
210 0 0 
211 0 0 
213 0 0 
213 0 0 
216 0 0 
205 0 0 
205 0 0 
211 0 0 
210 0 0 
209 0 0 
210 0 0 
215 0 0 
207 0 0 
209 0 0 
207 0 0 
211 0 0 
211 0 0 
213 0 0 
215 0 0 
214 0 0 
212 0 0 
213 0 0 
211 0 0 
216 0 0 
211 0 0 
210 0 0 
212 0 0 
211 0 0 
214 0 0 
218 0 0 
217 0 0 
216 0 0 
213 0 0 
212 0 0 
214 0 0 
217 0 0 
208 0 0 
214 0 0 
212 0 0 
214 0 0 
215 0 0 
212 0 0 
211 0 0 
218 0 0 
218 0 0 
218 0 0 
216 0 0 
215 0 0 
213 0 0 
219 0 0 
214 0 0 
215 0 0 
211 0 0 
218 0 0 
214 0 0 
219 0 0 
216 0 0 
215 0 0 
208 0 0 
218 0 0 
214 0 0 
216 0 0 
214 0 0 
220 0 0 
214 0 0 
210 0 0 
218 0 0 
214 0 0 
216 0 0 
215 0 0 
212 0 0 
217 0 0 
215 0 0 
215 0 0 
216 0 0 
212 0 0 
211 0 0 
217 0 0 
217 0 0 
218 0 0 
218 0 0 
215 0 0 
219 0 0 
218 0 0 
216 0 0 
214 0 0 
219 0 0 
218 0 0 
217 0 0 
219 0 0 
216 0 0 
215 0 0 
216 0 0 
213 0 0 
219 0 0 
217 0 0 
217 0 0 
217 0 0 
216 0 0 
214 0 0 
218 0 0 
216 0 0 
217 0 0 
219 0 0 
218 0 0 
215 0 0 
214 0 0 
216 0 0 
219 0 0 
214 0 0 
217 0 0 
219 0 0 
216 0 0 
217 0 0 
0 0 255 
0 0 255 
0 0 255 
0 0 253 
0 0 254 
0 0 255 
0 0 255 
0 0 255 
0 0 255 
0 0 255 
0 0 252 
0 0 254 
0 0 255 
0 0 254 
0 0 254 
0 0 255 
0 0 255 
0 0 254 
0 0 255 
0 0 254 
0 0 255 
0 0 255 
0 0 252 
0 0 253 
0 0 254 
0 0 255 
0 0 255 
0 0 254 
0 0 255 
0 0 255 
0 0 255 
0 0 253 
0 0 253 
0 0 253 
0 0 254 
0 0 254 
0 0 254 
0 0 253 
0 0 255 
0 0 255 
0 0 254 
0 0 253 
0 0 253 
0 0 252 
0 0 254 
0 0 255 
0 0 255 
0 0 255 
0 0 254 
0 0 254 
0 0 253 
0 0 253 
0 0 254 
0 0 253 
0 0 255 
0 0 252 
0 0 254 
0 0 253 
0 0 252 
0 0 253 
0 0 254 
0 0 253 
0 0 255 
0 0 255 
0 0 252 
0 0 253 
0 0 254 
0 0 250 
0 0 252 
0 0 252 
0 0 253 
0 0 253 
0 0 250 
0 0 246 
0 0 252 
0 0 253 
0 0 250 
0 0 250 
0 0 253 
0 0 250 
0 0 253 
0 0 249 
0 0 249 
0 0 253 
0 0 250 
0 0 250 
0 0 252 
0 0 252 
0 0 252 
0 0 249 
0 0 253 
0 0 253 
0 0 250 
0 0 249 
0 0 253 
0 0 253 
0 0 250 
0 0 244 
0 0 250 
0 0 245 
0 0 252 
0 0 250 
0 0 249 
0 0 252 
0 0 252 
0 0 245 
0 0 244 
0 0 249 
0 0 248 
0 0 249 
0 0 249 
0 0 245 
0 0 245 
0 0 248 
0 0 245 
0 0 246 
0 0 249 
0 0 240 
0 0 244 
0 0 250 
0 0 246 
0 0 249 
0 0 240 
0 0 248 
0 0 246 
0 0 245 
0 0 248 
0 0 242 
0 0 249 
0 0 246 
0 0 242 
0 0 237 
0 0 242 
0 0 244 
0 0 233 
0 0 242 
0 0 241 
0 0 242 
0 0 246 
0 0 250 
0 0 245 
0 0 240 
0 0 231 
0 0 242 
0 0 248 
0 0 233 
0 0 240 
0 0 238 
0 0 241 
0 0 231 
0 0 237 
0 0 231 
0 0 236 
0 0 237 
0 0 223 
0 0 236 
0 0 236 
0 0 230 
0 0 236 
0 0 227 
0 0 228 
0 0 241 
0 0 231 
0 0 231 
0 0 227 
0 0 237 
0 0 228 
0 0 227 
0 0 233 
0 0 227 
0 0 223 
0 0 220 
0 0 227 
0 0 218 
0 0 221 
0 0 227 
0 0 220 
0 0 220 
0 0 217 
0 0 206 
0 0 218 
0 0 204 
0 0 196 
0 0 203 
0 0 196 
0 0 184 
0 0 191 
0 0 199 
0 0 201 
0 0 175 
0 0 191 
0 0 184 
51 56 184 
203 221 250 
211 230 255 
211 230 255 
211 230 255 
211 230 255 
211 230 255 
211 230 255 
211 230 255 
211 230 255 
211 230 255 
211 230 255 
211 230 255 
211 230 255 
203 218 242 
130 39 44 
145 0 0 
144 0 0 
149 0 0 
151 0 0 
163 0 0 
147 0 0 
165 0 0 
169 0 0 
160 0 0 
159 0 0 
174 0 0 
164 0 0 
175 0 0 
162 0 0 
175 0 0 
180 0 0 
182 0 0 
181 0 0 
185 0 0 
197 0 0 
180 0 0 
185 0 0 
185 0 0 
184 0 0 
189 0 0 
193 0 0 
193 0 0 
176 0 0 
185 0 0 
186 0 0 
188 0 0 
194 0 0 
192 0 0 
203 0 0 
191 0 0 
185 0 0 
198 0 0 
200 0 0 
196 0 0 
202 0 0 
205 0 0 
192 0 0 
203 0 0 
202 0 0 
205 0 0 
203 0 0 
210 0 0 
207 0 0 
210 0 0 
201 0 0 
203 0 0 
204 0 0 
204 0 0 
201 0 0 
202 0 0 
203 0 0 
203 0 0 
210 0 0 
208 0 0 
205 0 0 
208 0 0 
211 0 0 
213 0 0 
204 0 0 
203 0 0 
209 0 0 
202 0 0 
212 0 0 
213 0 0 
216 0 0 
215 0 0 
212 0 0 
218 0 0 
209 0 0 
208 0 0 
211 0 0 
209 0 0 
212 0 0 
215 0 0 
210 0 0 
209 0 0 
211 0 0 
213 0 0 
212 0 0 
210 0 0 
210 0 0 
210 0 0 
213 0 0 
210 0 0 
215 0 0 
210 0 0 
214 0 0 
214 0 0 
208 0 0 
213 0 0 
212 0 0 
215 0 0 
213 0 0 
213 0 0 
218 0 0 
214 0 0 
214 0 0 
212 0 0 
213 0 0 
217 0 0 
212 0 0 
213 0 0 
214 0 0 
215 0 0 
215 0 0 
216 0 0 
205 0 0 
216 0 0 
212 0 0 
218 0 0 
212 0 0 
218 0 0 
213 0 0 
215 0 0 
216 0 0 
213 0 0 
216 0 0 
215 0 0 
212 0 0 
210 0 0 
209 0 0 
217 0 0 
214 0 0 
210 0 0 
217 0 0 
215 0 0 
218 0 0 
217 0 0 
213 0 0 
212 0 0 
216 0 0 
214 0 0 
217 0 0 
217 0 0 
219 0 0 
221 0 0 
215 0 0 
217 0 0 
216 0 0 
210 0 0 
219 0 0 
218 0 0 
217 0 0 
214 0 0 
212 0 0 
220 0 0 
213 0 0 
217 0 0 
208 0 0 
214 0 0 
215 0 0 
215 0 0 
217 0 0 
218 0 0 
215 0 0 
220 0 0 
217 0 0 
219 0 0 
220 0 0 
218 0 0 
215 0 0 
220 0 0 
214 0 0 
214 0 0 
216 0 0 
218 0 0 
211 0 0 
217 0 0 
216 0 0 
216 0 0 
214 0 0 
217 0 0 
219 0 0 
217 0 0 
219 0 0 
215 0 0 
221 0 0 
218 0 0 
216 0 0 
218 0 0 
217 0 0 
219 0 0 
217 0 0 
216 0 0 
217 0 0 
222 0 0 
217 0 0 
0 0 255 
0 0 254 
0 0 255 
0 0 255 
0 0 255 
0 0 255 
0 0 254 
0 0 255 
0 0 255 
0 0 254 
0 0 254 
0 0 255 
0 0 254 
0 0 254 
0 0 255 
0 0 255 
0 0 254 
0 0 255 
0 0 255 
0 0 255 
0 0 254 
0 0 255 
0 0 255 
0 0 255 
0 0 255 
0 0 253 
0 0 253 
0 0 255 
0 0 254 
0 0 253 
0 0 254 
0 0 253 
0 0 254 
0 0 254 
0 0 254 
0 0 255 
0 0 254 
0 0 254 
0 0 254 
0 0 255 
0 0 253 
0 0 254 
0 0 254 
0 0 254 
0 0 254 
0 0 253 
0 0 254 
0 0 254 
0 0 253 
0 0 255 
0 0 254 
0 0 252 
0 0 254 
0 0 250 
0 0 254 
0 0 249 
0 0 254 
0 0 250 
0 0 255 
0 0 253 
0 0 254 
0 0 253 
0 0 253 
0 0 255 
0 0 254 
0 0 254 
0 0 253 
0 0 254 
0 0 249 
0 0 253 
0 0 253 
0 0 254 
0 0 252 
0 0 253 
0 0 250 
0 0 249 
0 0 250 
0 0 253 
0 0 253 
0 0 248 
0 0 250 
0 0 250 
0 0 253 
0 0 250 
0 0 252 
0 0 249 
0 0 248 
0 0 248 
0 0 253 
0 0 250 
0 0 250 
0 0 252 
0 0 250 
0 0 252 
0 0 246 
0 0 249 
0 0 253 
0 0 248 
0 0 246 
0 0 253 
0 0 250 
0 0 252 
0 0 252 
0 0 254 
0 0 252 
0 0 249 
0 0 253 
0 0 252 
0 0 249 
0 0 249 
0 0 245 
0 0 248 
0 0 250 
0 0 248 
0 0 248 
0 0 249 
0 0 248 
0 0 253 
0 0 244 
0 0 241 
0 0 249 
0 0 241 
0 0 244 
0 0 249 
0 0 246 
0 0 242 
0 0 248 
0 0 244 
0 0 237 
0 0 249 
0 0 249 
0 0 246 
0 0 236 
0 0 244 
0 0 238 
0 0 237 
0 0 245 
0 0 242 
0 0 238 
0 0 241 
0 0 234 
0 0 248 
0 0 240 
0 0 241 
0 0 238 
0 0 242 
0 0 240 
0 0 241 
0 0 236 
0 0 234 
0 0 241 
0 0 230 
0 0 240 
0 0 230 
0 0 230 
0 0 230 
0 0 227 
0 0 234 
0 0 234 
0 0 234 
0 0 220 
0 0 226 
0 0 234 
0 0 230 
0 0 227 
0 0 223 
0 0 223 
0 0 227 
0 0 223 
0 0 215 
0 0 220 
0 0 203 
0 0 215 
0 0 207 
0 0 221 
0 0 218 
0 0 221 
0 0 207 
0 0 211 
0 0 214 
0 0 204 
0 0 215 
0 0 193 
0 0 194 
0 0 196 
0 0 199 
0 0 207 
0 0 186 
0 0 188 
0 0 177 
0 0 175 
0 0 155 
0 0 175 
159 173 226 
211 230 255 
211 230 255 
211 230 255 
211 230 255 
211 230 255 
211 230 255 
211 230 255 
211 230 255 
211 230 255 
211 230 255 
211 230 255 
211 230 255 
182 182 203 
127 0 0 
138 0 0 
144 0 0 
140 0 0 
145 0 0 
148 0 0 
170 0 0 
158 0 0 
167 0 0 
165 0 0 
170 0 0 
168 0 0 
160 0 0 
169 0 0 
177 0 0 
176 0 0 
177 0 0 
175 0 0 
178 0 0 
188 0 0 
180 0 0 
181 0 0 
191 0 0 
198 0 0 
177 0 0 
189 0 0 
181 0 0 
194 0 0 
190 0 0 
184 0 0 
200 0 0 
197 0 0 
191 0 0 
196 0 0 
188 0 0 
202 0 0 
196 0 0 
198 0 0 
195 0 0 
192 0 0 
199 0 0 
200 0 0 
201 0 0 
199 0 0 
197 0 0 
200 0 0 
196 0 0 
198 0 0 
202 0 0 
205 0 0 
198 0 0 
211 0 0 
203 0 0 
206 0 0 
215 0 0 
202 0 0 
200 0 0 
205 0 0 
199 0 0 
207 0 0 
203 0 0 
210 0 0 
207 0 0 
202 0 0 
208 0 0 
213 0 0 
210 0 0 
214 0 0 
207 0 0 
207 0 0 
207 0 0 
208 0 0 
204 0 0 
211 0 0 
207 0 0 
208 0 0 
204 0 0 
207 0 0 
211 0 0 
205 0 0 
208 0 0 
214 0 0 
210 0 0 
215 0 0 
211 0 0 
209 0 0 
208 0 0 
209 0 0 
214 0 0 
211 0 0 
212 0 0 
208 0 0 
215 0 0 
212 0 0 
210 0 0 
210 0 0 
213 0 0 
217 0 0 
218 0 0 
205 0 0 
211 0 0 
214 0 0 
217 0 0 
217 0 0 
210 0 0 
213 0 0 
216 0 0 
213 0 0 
219 0 0 
212 0 0 
213 0 0 
214 0 0 
216 0 0 
215 0 0 
212 0 0 
216 0 0 
219 0 0 
213 0 0 
210 0 0 
217 0 0 
214 0 0 
216 0 0 
214 0 0 
212 0 0 
214 0 0 
220 0 0 
214 0 0 
217 0 0 
215 0 0 
212 0 0 
215 0 0 
215 0 0 
212 0 0 
219 0 0 
219 0 0 
216 0 0 
216 0 0 
214 0 0 
214 0 0 
217 0 0 
215 0 0 
214 0 0 
217 0 0 
220 0 0 
212 0 0 
219 0 0 
218 0 0 
214 0 0 
217 0 0 
217 0 0 
220 0 0 
217 0 0 
217 0 0 
214 0 0 
217 0 0 
220 0 0 
217 0 0 
220 0 0 
219 0 0 
219 0 0 
219 0 0 
215 0 0 
217 0 0 
216 0 0 
218 0 0 
217 0 0 
216 0 0 
217 0 0 
217 0 0 
219 0 0 
216 0 0 
218 0 0 
219 0 0 
218 0 0 
217 0 0 
216 0 0 
218 0 0 
216 0 0 
215 0 0 
220 0 0 
222 0 0 
217 0 0 
216 0 0 
217 0 0 
218 0 0 
219 0 0 
215 0 0 
221 0 0 
214 0 0 
220 0 0 
216 0 0 
221 0 0 
215 0 0 
0 0 254 
0 0 255 
0 0 254 
0 0 254 
0 0 253 
0 0 255 
0 0 255 
0 0 254 
0 0 254 
0 0 255 
0 0 255 
0 0 255 
0 0 255 
0 0 255 
0 0 253 
0 0 254 
0 0 255 
0 0 254 
0 0 255 
0 0 253 
0 0 253 
0 0 253 
0 0 254 
0 0 253 
0 0 255 
0 0 254 
0 0 255 
0 0 252 
0 0 253 
0 0 254 
0 0 253 
0 0 254 
0 0 254 
0 0 250 
0 0 254 
0 0 254 
0 0 254 
0 0 254 
0 0 252 
0 0 255 
0 0 252 
0 0 254 
0 0 255 
0 0 253 
0 0 254 
0 0 254 
0 0 255 
0 0 253 
0 0 254 
0 0 254 
0 0 248 
0 0 252 
0 0 253 
0 0 253 
0 0 252 
0 0 255 
0 0 249 
0 0 254 
0 0 250 
0 0 254 
0 0 249 
0 0 252 
0 0 254 
0 0 250 
0 0 253 
0 0 254 
0 0 254 
0 0 252 
0 0 250 
0 0 250 
0 0 253 
0 0 254 
0 0 254 
0 0 252 
0 0 249 
0 0 253 
0 0 252 
0 0 248 
0 0 253 
0 0 250 
0 0 253 
0 0 254 
0 0 254 
0 0 252 
0 0 252 
0 0 249 
0 0 252 
0 0 245 
0 0 253 
0 0 248 
0 0 253 
0 0 253 
0 0 249 
0 0 254 
0 0 250 
0 0 250 
0 0 245 
0 0 248 
0 0 249 
0 0 250 
0 0 252 
0 0 249 
0 0 253 
0 0 249 
0 0 248 
0 0 248 
0 0 253 
0 0 252 
0 0 248 
0 0 245 
0 0 240 
0 0 244 
0 0 248 
0 0 246 
0 0 246 
0 0 245 
0 0 248 
0 0 241 
0 0 249 
0 0 246 
0 0 250 
0 0 246 
0 0 249 
0 0 242 
0 0 242 
0 0 245 
0 0 245 
0 0 244 
0 0 250 
0 0 249 
0 0 248 
0 0 241 
0 0 241 
0 0 245 
0 0 245 
0 0 242 
0 0 246 
0 0 242 
0 0 240 
0 0 240 
0 0 246 
0 0 237 
0 0 245 
0 0 238 
0 0 237 
0 0 233 
0 0 238 
0 0 234 
0 0 237 
0 0 233 
0 0 241 
0 0 233 
0 0 240 
0 0 240 
0 0 220 
0 0 248 
0 0 240 
0 0 230 
0 0 223 
0 0 226 
0 0 233 
0 0 240 
0 0 237 
0 0 231 
0 0 228 
0 0 221 
0 0 231 
0 0 215 
0 0 223 
0 0 215 
0 0 218 
0 0 227 
0 0 223 
0 0 203 
0 0 226 
0 0 224 
0 0 206 
0 0 217 
0 0 221 
0 0 218 
0 0 214 
0 0 204 
0 0 206 
0 0 217 
0 0 189 
0 0 193 
0 0 193 
0 0 169 
0 0 194 
0 0 189 
0 0 186 
0 0 173 
0 0 177 
84 92 186 
211 230 255 
211 230 255 
211 230 255 
211 230 255 
211 230 255 
211 230 255 
211 230 255 
211 230 255 
211 230 255 
211 230 255 
211 230 255 
211 230 255 
142 108 120 
131 0 0 
145 0 0 
142 0 0 
148 0 0 
158 0 0 
154 0 0 
147 0 0 
173 0 0 
163 0 0 
164 0 0 
176 0 0 
169 0 0 
170 0 0 
175 0 0 
160 0 0 
158 0 0 
181 0 0 
174 0 0 
185 0 0 
196 0 0 
185 0 0 
174 0 0 
185 0 0 
188 0 0 
199 0 0 
193 0 0 
186 0 0 
185 0 0 
195 0 0 
195 0 0 
194 0 0 
188 0 0 
191 0 0 
197 0 0 
189 0 0 
207 0 0 
197 0 0 
203 0 0 
200 0 0 
206 0 0 
191 0 0 
195 0 0 
200 0 0 
200 0 0 
195 0 0 
205 0 0 
203 0 0 
203 0 0 
209 0 0 
198 0 0 
203 0 0 
205 0 0 
207 0 0 
198 0 0 
206 0 0 
206 0 0 
203 0 0 
206 0 0 
207 0 0 
207 0 0 
204 0 0 
204 0 0 
203 0 0 
204 0 0 
209 0 0 
199 0 0 
211 0 0 
207 0 0 
210 0 0 
209 0 0 
212 0 0 
209 0 0 
210 0 0 
209 0 0 
210 0 0 
213 0 0 
211 0 0 
209 0 0 
209 0 0 
214 0 0 
211 0 0 
207 0 0 
207 0 0 
205 0 0 
213 0 0 
218 0 0 
212 0 0 
212 0 0 
216 0 0 
212 0 0 
210 0 0 
207 0 0 
209 0 0 
208 0 0 
209 0 0 
210 0 0 
211 0 0 
212 0 0 
215 0 0 
213 0 0 
214 0 0 
216 0 0 
208 0 0 
212 0 0 
212 0 0 
217 0 0 
215 0 0 
211 0 0 
212 0 0 
207 0 0 
214 0 0 
211 0 0 
214 0 0 
215 0 0 
212 0 0 
220 0 0 
215 0 0 
213 0 0 
215 0 0 
214 0 0 
215 0 0 
217 0 0 
218 0 0 
216 0 0 
217 0 0 
218 0 0 
214 0 0 
212 0 0 
215 0 0 
214 0 0 
213 0 0 
214 0 0 
212 0 0 
219 0 0 
215 0 0 
212 0 0 
218 0 0 
218 0 0 
216 0 0 
218 0 0 
214 0 0 
214 0 0 
218 0 0 
222 0 0 
213 0 0 
213 0 0 
215 0 0 
215 0 0 
217 0 0 
215 0 0 
220 0 0 
220 0 0 
215 0 0 
214 0 0 
217 0 0 
216 0 0 
217 0 0 
217 0 0 
218 0 0 
214 0 0 
217 0 0 
216 0 0 
214 0 0 
218 0 0 
217 0 0 
217 0 0 
220 0 0 
214 0 0 
216 0 0 
222 0 0 
219 0 0 
217 0 0 
219 0 0 
219 0 0 
217 0 0 
218 0 0 
217 0 0 
219 0 0 
221 0 0 
220 0 0 
217 0 0 
217 0 0 
215 0 0 
217 0 0 
216 0 0 
220 0 0 
218 0 0 
220 0 0 
214 0 0 
215 0 0 
213 0 0 
217 0 0 
217 0 0 
0 0 254 
0 0 254 
0 0 255 
0 0 254 
0 0 255 
0 0 253 
0 0 255 
0 0 255 
0 0 255 
0 0 255 
0 0 254 
0 0 255 
0 0 255 
0 0 255 
0 0 255 
0 0 254 
0 0 255 
0 0 255 
0 0 253 
0 0 254 
0 0 255 
0 0 255 
0 0 255 
0 0 255 
0 0 255 
0 0 253 
0 0 255 
0 0 255 
0 0 255 
0 0 252 
0 0 254 
0 0 255 
0 0 253 
0 0 253 
0 0 255 
0 0 254 
0 0 255 
0 0 255 
0 0 254 
0 0 255 
0 0 253 
0 0 255 
0 0 254 
0 0 253 
0 0 255 
0 0 253 
0 0 254 
0 0 253 
0 0 254 
0 0 250 
0 0 253 
0 0 254 
0 0 252 
0 0 250 
0 0 255 
0 0 255 
0 0 252 
0 0 254 
0 0 254 
0 0 250 
0 0 255 
0 0 253 
0 0 254 
0 0 255 
0 0 254 
0 0 255 
0 0 253 
0 0 253 
0 0 250 
0 0 252 
0 0 250 
0 0 252 
0 0 250 
0 0 250 
0 0 250 
0 0 254 
0 0 250 
0 0 253 
0 0 249 
0 0 252 
0 0 250 
0 0 254 
0 0 254 
0 0 249 
0 0 249 
0 0 253 
0 0 248 
0 0 249 
0 0 250 
0 0 249 
0 0 252 
0 0 254 
0 0 252 
0 0 248 
0 0 248 
0 0 249 
0 0 252 
0 0 246 
0 0 248 
0 0 248 
0 0 248 
0 0 245 
0 0 248 
0 0 249 
0 0 253 
0 0 248 
0 0 252 
0 0 250 
0 0 245 
0 0 253 
0 0 244 
0 0 246 
0 0 248 
0 0 248 
0 0 250 
0 0 252 
0 0 249 
0 0 252 
0 0 244 
0 0 250 
0 0 240 
0 0 245 
0 0 246 
0 0 245 
0 0 246 
0 0 250 
0 0 242 
0 0 244 
0 0 252 
0 0 244 
0 0 242 
0 0 248 
0 0 242 
0 0 241 
0 0 238 
0 0 245 
0 0 245 
0 0 242 
0 0 238 
0 0 242 
0 0 241 
0 0 237 
0 0 245 
0 0 238 
0 0 238 
0 0 230 
0 0 233 
0 0 234 
0 0 237 
0 0 244 
0 0 238 
0 0 241 
0 0 240 
0 0 237 
0 0 227 
0 0 246 
0 0 238 
0 0 240 
0 0 233 
0 0 233 
0 0 231 
0 0 221 
0 0 234 
0 0 223 
0 0 221 
0 0 218 
0 0 230 
0 0 220 
0 0 231 
0 0 218 
0 0 224 
0 0 227 
0 0 218 
0 0 212 
0 0 224 
0 0 214 
0 0 211 
0 0 198 
0 0 211 
0 0 211 
0 0 211 
0 0 196 
0 0 196 
0 0 207 
0 0 201 
0 0 201 
0 0 175 
0 0 171 
0 0 201 
0 0 189 
0 0 177 
0 0 173 
0 0 179 
0 0 181 
189 206 240 
211 230 255 
211 230 255 
211 230 255 
211 230 255 
211 230 255 
211 230 255 
211 230 255 
211 230 255 
211 230 255 
211 230 255 
193 203 226 
126 0 0 
126 0 0 
148 0 0 
146 0 0 
140 0 0 
163 0 0 
158 0 0 
156 0 0 
164 0 0 
172 0 0 
160 0 0 
158 0 0 
185 0 0 
179 0 0 
171 0 0 
171 0 0 
174 0 0 
174 0 0 
180 0 0 
173 0 0 
186 0 0 
180 0 0 
200 0 0 
192 0 0 
188 0 0 
182 0 0 
188 0 0 
181 0 0 
201 0 0 
194 0 0 
199 0 0 
200 0 0 
201 0 0 
197 0 0 
197 0 0 
193 0 0 
201 0 0 
197 0 0 
201 0 0 
191 0 0 
194 0 0 
196 0 0 
196 0 0 
194 0 0 
198 0 0 
202 0 0 
206 0 0 
203 0 0 
205 0 0 
207 0 0 
205 0 0 
203 0 0 
204 0 0 
204 0 0 
200 0 0 
204 0 0 
204 0 0 
201 0 0 
205 0 0 
203 0 0 
209 0 0 
205 0 0 
207 0 0 
205 0 0 
210 0 0 
207 0 0 
205 0 0 
211 0 0 
208 0 0 
206 0 0 
212 0 0 
209 0 0 
204 0 0 
212 0 0 
215 0 0 
210 0 0 
208 0 0 
211 0 0 
209 0 0 
205 0 0 
209 0 0 
215 0 0 
210 0 0 
207 0 0 
210 0 0 
218 0 0 
212 0 0 
213 0 0 
215 0 0 
209 0 0 
207 0 0 
211 0 0 
213 0 0 
216 0 0 
213 0 0 
216 0 0 
210 0 0 
215 0 0 
212 0 0 
213 0 0 
218 0 0 
220 0 0 
214 0 0 
211 0 0 
214 0 0 
215 0 0 
213 0 0 
215 0 0 
217 0 0 
212 0 0 
214 0 0 
215 0 0 
214 0 0 
209 0 0 
211 0 0 
217 0 0 
211 0 0 
215 0 0 
214 0 0 
216 0 0 
215 0 0 
211 0 0 
215 0 0 
215 0 0 
217 0 0 
214 0 0 
213 0 0 
214 0 0 
217 0 0 
216 0 0 
214 0 0 
214 0 0 
220 0 0 
214 0 0 
217 0 0 
217 0 0 
216 0 0 
218 0 0 
213 0 0 
219 0 0 
214 0 0 
217 0 0 
214 0 0 
219 0 0 
217 0 0 
212 0 0 
215 0 0 
219 0 0 
219 0 0 
216 0 0 
219 0 0 
218 0 0 
218 0 0 
221 0 0 
219 0 0 
219 0 0 
215 0 0 
215 0 0 
220 0 0 
217 0 0 
216 0 0 
214 0 0 
218 0 0 
218 0 0 
216 0 0 
217 0 0 
219 0 0 
222 0 0 
217 0 0 
217 0 0 
215 0 0 
217 0 0 
226 0 0 
217 0 0 
219 0 0 
216 0 0 
217 0 0 
212 0 0 
218 0 0 
218 0 0 
219 0 0 
218 0 0 
218 0 0 
216 0 0 
218 0 0 
217 0 0 
219 0 0 
218 0 0 
218 0 0 
215 0 0 
217 0 0 
215 0 0 
220 0 0 
217 0 0 
0 0 253 
0 0 255 
0 0 255 
0 0 253 
0 0 255 
0 0 255 
0 0 255 
0 0 253 
0 0 255 
0 0 255 
0 0 255 
0 0 255 
0 0 255 
0 0 254 
0 0 255 
0 0 255 
0 0 255 
0 0 255 
0 0 255 
0 0 255 
0 0 250 
0 0 255 
0 0 253 
0 0 255 
0 0 254 
0 0 255 
0 0 253 
0 0 255 
0 0 255 
0 0 255 
0 0 254 
0 0 254 
0 0 255 
0 0 253 
0 0 253 
0 0 254 
0 0 254 
0 0 254 
0 0 255 
0 0 255 
0 0 253 
0 0 252 
0 0 253 
0 0 254 
0 0 253 
0 0 250 
0 0 254 
0 0 255 
0 0 252 
0 0 255 
0 0 255 
0 0 253 
0 0 254 
0 0 253 
0 0 254 
0 0 252 
0 0 249 
0 0 254 
0 0 253 
0 0 253 
0 0 254 
0 0 253 
0 0 255 
0 0 253 
0 0 254 
0 0 252 
0 0 252 
0 0 250 
0 0 246 
0 0 250 
0 0 250 
0 0 250 
0 0 255 
0 0 253 
0 0 249 
0 0 250 
0 0 252 
0 0 252 
0 0 252 
0 0 254 
0 0 254 
0 0 252 
0 0 253 
0 0 250 
0 0 252 
0 0 254 
0 0 252 
0 0 255 
0 0 252 
0 0 254 
0 0 246 
0 0 249 
0 0 254 
0 0 250 
0 0 253 
0 0 253 
0 0 253 
0 0 248 
0 0 254 
0 0 252 
0 0 249 
0 0 252 
0 0 250 
0 0 241 
0 0 246 
0 0 246 
0 0 242 
0 0 250 
0 0 244 
0 0 250 
0 0 246 
0 0 248 
0 0 252 
0 0 245 
0 0 248 
0 0 249 
0 0 255 
0 0 246 
0 0 240 
0 0 244 
0 0 244 
0 0 253 
0 0 245 
0 0 244 
0 0 250 
0 0 241 
0 0 249 
0 0 250 
0 0 240 
0 0 236 
0 0 249 
0 0 246 
0 0 241 
0 0 245 
0 0 244 
0 0 241 
0 0 241 
0 0 241 
0 0 237 
0 0 241 
0 0 240 
0 0 241 
0 0 244 
0 0 240 
0 0 242 
0 0 240 
0 0 240 
0 0 244 
0 0 241 
0 0 237 
0 0 236 
0 0 238 
0 0 228 
0 0 240 
0 0 236 
0 0 236 
0 0 228 
0 0 237 
0 0 240 
0 0 223 
0 0 236 
0 0 236 
0 0 233 
0 0 227 
0 0 217 
0 0 223 
0 0 231 
0 0 221 
0 0 231 
0 0 220 
0 0 221 
0 0 214 
0 0 199 
0 0 217 
0 0 218 
0 0 223 
0 0 217 
0 0 214 
0 0 194 
0 0 227 
0 0 220 
0 0 221 
0 0 206 
0 0 199 
0 0 194 
0 0 184 
0 0 189 
0 0 196 
0 0 196 
0 0 184 
0 0 161 
0 0 171 
0 0 181 
0 0 161 
140 153 204 
212 230 255 
212 230 255 
212 230 255 
212 230 255 
212 230 255 
212 230 255 
212 230 255 
212 230 255 
212 230 255 
212 230 255 
163 145 161 
129 0 0 
127 0 0 
140 0 0 
155 0 0 
140 0 0 
145 0 0 
148 0 0 
150 0 0 
166 0 0 
158 0 0 
164 0 0 
180 0 0 
179 0 0 
161 0 0 
172 0 0 
172 0 0 
176 0 0 
175 0 0 
176 0 0 
191 0 0 
184 0 0 
187 0 0 
189 0 0 
184 0 0 
174 0 0 
185 0 0 
196 0 0 
184 0 0 
198 0 0 
187 0 0 
190 0 0 
191 0 0 
203 0 0 
183 0 0 
192 0 0 
201 0 0 
197 0 0 
200 0 0 
200 0 0 
197 0 0 
202 0 0 
192 0 0 
199 0 0 
200 0 0 
196 0 0 
209 0 0 
202 0 0 
207 0 0 
211 0 0 
200 0 0 
196 0 0 
207 0 0 
200 0 0 
197 0 0 
200 0 0 
199 0 0 
201 0 0 
205 0 0 
199 0 0 
200 0 0 
210 0 0 
205 0 0 
207 0 0 
211 0 0 
207 0 0 
211 0 0 
208 0 0 
208 0 0 
208 0 0 
208 0 0 
207 0 0 
207 0 0 
203 0 0 
210 0 0 
208 0 0 
207 0 0 
212 0 0 
210 0 0 
214 0 0 
213 0 0 
208 0 0 
208 0 0 
205 0 0 
205 0 0 
212 0 0 
214 0 0 
210 0 0 
212 0 0 
211 0 0 
209 0 0 
207 0 0 
213 0 0 
205 0 0 
211 0 0 
208 0 0 
207 0 0 
209 0 0 
209 0 0 
213 0 0 
217 0 0 
215 0 0 
213 0 0 
211 0 0 
207 0 0 
216 0 0 
214 0 0 
217 0 0 
214 0 0 
216 0 0 
214 0 0 
209 0 0 
211 0 0 
213 0 0 
218 0 0 
216 0 0 
211 0 0 
213 0 0 
215 0 0 
217 0 0 
218 0 0 
215 0 0 
216 0 0 
211 0 0 
215 0 0 
219 0 0 
214 0 0 
216 0 0 
214 0 0 
217 0 0 
213 0 0 
215 0 0 
217 0 0 
213 0 0 
216 0 0 
218 0 0 
218 0 0 
217 0 0 
211 0 0 
217 0 0 
216 0 0 
216 0 0 
214 0 0 
214 0 0 
215 0 0 
218 0 0 
217 0 0 
213 0 0 
217 0 0 
218 0 0 
217 0 0 
214 0 0 
218 0 0 
215 0 0 
215 0 0 
217 0 0 
213 0 0 
216 0 0 
219 0 0 
218 0 0 
221 0 0 
218 0 0 
220 0 0 
218 0 0 
217 0 0 
217 0 0 
218 0 0 
218 0 0 
217 0 0 
216 0 0 
218 0 0 
219 0 0 
218 0 0 
217 0 0 
219 0 0 
219 0 0 
218 0 0 
215 0 0 
215 0 0 
218 0 0 
217 0 0 
218 0 0 
221 0 0 
218 0 0 
215 0 0 
218 0 0 
218 0 0 
218 0 0 
219 0 0 
218 0 0 
218 0 0 
218 0 0 
216 0 0 
216 0 0 
218 0 0 
0 0 255 
0 0 255 
0 0 255 
0 0 254 
0 0 253 
0 0 254 
0 0 255 
0 0 255 
0 0 254 
0 0 254 
0 0 255 
0 0 255 
0 0 252 
0 0 255 
0 0 255 
0 0 255 
0 0 254 
0 0 255 
0 0 254 
0 0 252 
0 0 252 
0 0 255 
0 0 254 
0 0 253 
0 0 254 
0 0 254 
0 0 255 
0 0 255 
0 0 253 
0 0 255 
0 0 255 
0 0 254 
0 0 255 
0 0 254 
0 0 253 
0 0 253 
0 0 253 
0 0 255 
0 0 254 
0 0 254 
0 0 253 
0 0 252 
0 0 253 
0 0 255 
0 0 254 
0 0 255 
0 0 253 
0 0 254 
0 0 254 
0 0 254 
0 0 255 
0 0 255 
0 0 255 
0 0 254 
0 0 254 
0 0 253 
0 0 253 
0 0 255 
0 0 254 
0 0 254 
0 0 254 
0 0 253 
0 0 254 
0 0 254 
0 0 254 
0 0 254 
0 0 254 
0 0 253 
0 0 254 
0 0 252 
0 0 250 
0 0 253 
0 0 255 
0 0 254 
0 0 252 
0 0 250 
0 0 252 
0 0 253 
0 0 249 
0 0 249 
0 0 253 
0 0 252 
0 0 253 
0 0 254 
0 0 254 
0 0 252 
0 0 250 
0 0 249 
0 0 253 
0 0 252 
0 0 253 
0 0 254 
0 0 252 
0 0 249 
0 0 249 
0 0 249 
0 0 252 
0 0 252 
0 0 249 
0 0 248 
0 0 249 
0 0 250 
0 0 248 
0 0 253 
0 0 250 
0 0 249 
0 0 244 
0 0 250 
0 0 249 
0 0 249 
0 0 245 
0 0 248 
0 0 248 
0 0 244 
0 0 245 
0 0 241 
0 0 246 
0 0 245 
0 0 249 
0 0 248 
0 0 245 
0 0 240 
0 0 242 
0 0 246 
0 0 249 
0 0 246 
0 0 241 
0 0 246 
0 0 245 
0 0 245 
0 0 242 
0 0 245 
0 0 245 
0 0 238 
0 0 240 
0 0 238 
0 0 246 
0 0 244 
0 0 244 
0 0 249 
0 0 240 
0 0 241 
0 0 237 
0 0 236 
0 0 238 
0 0 240 
0 0 246 
0 0 238 
0 0 237 
0 0 246 
0 0 237 
0 0 241 
0 0 237 
0 0 234 
0 0 230 
0 0 238 
0 0 234 
0 0 228 
0 0 236 
0 0 234 
0 0 231 
0 0 236 
0 0 224 
0 0 228 
0 0 228 
0 0 234 
0 0 234 
0 0 223 
0 0 220 
0 0 231 
0 0 221 
0 0 227 
0 0 211 
0 0 221 
0 0 226 
0 0 218 
0 0 221 
0 0 203 
0 0 203 
0 0 203 
0 0 206 
0 0 212 
0 0 193 
0 0 203 
0 0 204 
0 0 212 
0 0 189 
0 0 194 
0 0 186 
0 0 186 
0 0 173 
0 0 184 
0 0 165 
0 0 149 
47 51 169 
207 225 252 
212 230 255 
212 230 255 
212 230 255 
212 230 255 
212 230 255 
212 230 255 
212 230 255 
212 230 255 
210 227 252 
126 51 57 
124 0 0 
132 0 0 
139 0 0 
138 0 0 
146 0 0 
139 0 0 
156 0 0 
144 0 0 
152 0 0 
151 0 0 
171 0 0 
177 0 0 
178 0 0 
177 0 0 
163 0 0 
186 0 0 
171 0 0 
176 0 0 
169 0 0 
181 0 0 
186 0 0 
187 0 0 
183 0 0 
189 0 0 
202 0 0 
184 0 0 
189 0 0 
184 0 0 
191 0 0 
190 0 0 
182 0 0 
192 0 0 
194 0 0 
195 0 0 
193 0 0 
185 0 0 
198 0 0 
195 0 0 
200 0 0 
202 0 0 
191 0 0 
196 0 0 
201 0 0 
202 0 0 
199 0 0 
201 0 0 
199 0 0 
205 0 0 
198 0 0 
205 0 0 
204 0 0 
200 0 0 
207 0 0 
208 0 0 
201 0 0 
205 0 0 
207 0 0 
202 0 0 
210 0 0 
206 0 0 
208 0 0 
209 0 0 
210 0 0 
210 0 0 
210 0 0 
207 0 0 
211 0 0 
213 0 0 
206 0 0 
207 0 0 
209 0 0 
217 0 0 
215 0 0 
212 0 0 
201 0 0 
212 0 0 
209 0 0 
209 0 0 
209 0 0 
211 0 0 
213 0 0 
211 0 0 
204 0 0 
208 0 0 
214 0 0 
207 0 0 
209 0 0 
212 0 0 
210 0 0 
217 0 0 
213 0 0 
216 0 0 
213 0 0 
212 0 0 
208 0 0 
214 0 0 
211 0 0 
210 0 0 
207 0 0 
213 0 0 
215 0 0 
215 0 0 
212 0 0 
215 0 0 
215 0 0 
210 0 0 
210 0 0 
215 0 0 
213 0 0 
213 0 0 
215 0 0 
220 0 0 
213 0 0 
214 0 0 
217 0 0 
214 0 0 
215 0 0 
217 0 0 
213 0 0 
216 0 0 
212 0 0 
215 0 0 
220 0 0 
216 0 0 
213 0 0 
216 0 0 
218 0 0 
217 0 0 
220 0 0 
214 0 0 
215 0 0 
216 0 0 
214 0 0 
214 0 0 
213 0 0 
217 0 0 
219 0 0 
215 0 0 
218 0 0 
217 0 0 
214 0 0 
218 0 0 
217 0 0 
216 0 0 
218 0 0 
214 0 0 
214 0 0 
217 0 0 
214 0 0 
216 0 0 
217 0 0 
217 0 0 
214 0 0 
214 0 0 
221 0 0 
218 0 0 
218 0 0 
218 0 0 
218 0 0 
217 0 0 
218 0 0 
218 0 0 
216 0 0 
217 0 0 
218 0 0 
221 0 0 
219 0 0 
217 0 0 
217 0 0 
218 0 0 
215 0 0 
217 0 0 
220 0 0 
218 0 0 
220 0 0 
218 0 0 
216 0 0 
217 0 0 
217 0 0 
218 0 0 
220 0 0 
219 0 0 
223 0 0 
220 0 0 
217 0 0 
217 0 0 
216 0 0 
217 0 0 
217 0 0 
218 0 0 
219 0 0 
216 0 0 
219 0 0 
217 0 0 
0 0 254 
0 0 255 
0 0 254 
0 0 255 
0 0 255 
0 0 254 
0 0 254 
0 0 255 
0 0 255 
0 0 255 
0 0 255 
0 0 255 
0 0 255 
0 0 254 
0 0 255 
0 0 255 
0 0 254 
0 0 255 
0 0 255 
0 0 254 
0 0 254 
0 0 254 
0 0 255 
0 0 255 
0 0 254 
0 0 255 
0 0 254 
0 0 254 
0 0 254 
0 0 252 
0 0 254 
0 0 250 
0 0 253 
0 0 255 
0 0 255 
0 0 254 
0 0 254 
0 0 255 
0 0 253 
0 0 253 
0 0 253 
0 0 254 
0 0 253 
0 0 253 
0 0 253 
0 0 252 
0 0 254 
0 0 253 
0 0 253 
0 0 252 
0 0 254 
0 0 255 
0 0 255 
0 0 253 
0 0 255 
0 0 254 
0 0 252 
0 0 252 
0 0 252 
0 0 254 
0 0 255 
0 0 254 
0 0 253 
0 0 255 
0 0 252 
0 0 254 
0 0 253 
0 0 253 
0 0 254 
0 0 253 
0 0 252 
0 0 254 
0 0 250 
0 0 249 
0 0 252 
0 0 248 
0 0 254 
0 0 250 
0 0 252 
0 0 248 
0 0 252 
0 0 254 
0 0 250 
0 0 250 
0 0 254 
0 0 249 
0 0 252 
0 0 250 
0 0 250 
0 0 252 
0 0 248 
0 0 253 
0 0 250 
0 0 250 
0 0 252 
0 0 253 
0 0 250 
0 0 250 
0 0 249 
0 0 245 
0 0 248 
0 0 248 
0 0 250 
0 0 252 
0 0 246 
0 0 250 
0 0 246 
0 0 253 
0 0 246 
0 0 248 
0 0 245 
0 0 246 
0 0 250 
0 0 244 
0 0 244 
0 0 244 
0 0 248 
0 0 254 
0 0 238 
0 0 242 
0 0 245 
0 0 244 
0 0 244 
0 0 245 
0 0 248 
0 0 252 
0 0 249 
0 0 246 
0 0 246 
0 0 248 
0 0 240 
0 0 249 
0 0 241 
0 0 244 
0 0 240 
0 0 236 
0 0 244 
0 0 238 
0 0 240 
0 0 246 
0 0 242 
0 0 237 
0 0 245 
0 0 240 
0 0 231 
0 0 238 
0 0 238 
0 0 231 
0 0 245 
0 0 231 
0 0 236 
0 0 228 
0 0 237 
0 0 244 
0 0 223 
0 0 238 
0 0 234 
0 0 230 
0 0 233 
0 0 238 
0 0 233 
0 0 226 
0 0 226 
0 0 240 
0 0 227 
0 0 220 
0 0 227 
0 0 221 
0 0 221 
0 0 231 
0 0 220 
0 0 212 
0 0 223 
0 0 221 
0 0 214 
0 0 220 
0 0 221 
0 0 214 
0 0 206 
0 0 212 
0 0 201 
0 0 186 
0 0 196 
0 0 204 
0 0 204 
0 0 182 
0 0 199 
0 0 193 
0 0 171 
0 0 177 
0 0 179 
0 0 149 
0 0 163 
0 0 167 
0 0 161 
178 193 221 
212 231 255 
212 231 255 
212 231 255 
212 231 255 
212 231 255 
212 231 255 
212 231 255 
212 231 255 
188 191 212 
126 0 0 
131 0 0 
116 0 0 
148 0 0 
138 0 0 
141 0 0 
149 0 0 
157 0 0 
159 0 0 
155 0 0 
156 0 0 
171 0 0 
162 0 0 
168 0 0 
168 0 0 
179 0 0 
181 0 0 
182 0 0 
179 0 0 
175 0 0 
163 0 0 
178 0 0 
180 0 0 
171 0 0 
188 0 0 
184 0 0 
187 0 0 
195 0 0 
191 0 0 
190 0 0 
203 0 0 
197 0 0 
187 0 0 
197 0 0 
194 0 0 
200 0 0 
195 0 0 
199 0 0 
200 0 0 
197 0 0 
192 0 0 
196 0 0 
200 0 0 
198 0 0 
206 0 0 
199 0 0 
201 0 0 
196 0 0 
201 0 0 
209 0 0 
208 0 0 
203 0 0 
206 0 0 
201 0 0 
198 0 0 
199 0 0 
202 0 0 
204 0 0 
210 0 0 
212 0 0 
208 0 0 
207 0 0 
201 0 0 
203 0 0 
210 0 0 
210 0 0 
205 0 0 
215 0 0 
209 0 0 
207 0 0 
206 0 0 
210 0 0 
213 0 0 
200 0 0 
211 0 0 
205 0 0 
208 0 0 
214 0 0 
210 0 0 
204 0 0 
213 0 0 
212 0 0 
207 0 0 
208 0 0 
217 0 0 
216 0 0 
206 0 0 
208 0 0 
208 0 0 
215 0 0 
216 0 0 
211 0 0 
218 0 0 
213 0 0 
214 0 0 
215 0 0 
208 0 0 
213 0 0 
210 0 0 
216 0 0 
211 0 0 
216 0 0 
212 0 0 
212 0 0 
214 0 0 
219 0 0 
215 0 0 
211 0 0 
210 0 0 
218 0 0 
217 0 0 
216 0 0 
214 0 0 
219 0 0 
217 0 0 
213 0 0 
211 0 0 
217 0 0 
216 0 0 
213 0 0 
217 0 0 
218 0 0 
213 0 0 
216 0 0 
218 0 0 
217 0 0 
217 0 0 
216 0 0 
213 0 0 
220 0 0 
215 0 0 
217 0 0 
215 0 0 
216 0 0 
220 0 0 
216 0 0 
219 0 0 
218 0 0 
217 0 0 
216 0 0 
222 0 0 
216 0 0 
220 0 0 
215 0 0 
212 0 0 
217 0 0 
220 0 0 
216 0 0 
219 0 0 
219 0 0 
219 0 0 
215 0 0 
217 0 0 
219 0 0 
219 0 0 
217 0 0 
217 0 0 
218 0 0 
220 0 0 
215 0 0 
221 0 0 
215 0 0 
219 0 0 
212 0 0 
219 0 0 
215 0 0 
220 0 0 
218 0 0 
218 0 0 
219 0 0 
219 0 0 
219 0 0 
217 0 0 
217 0 0 
217 0 0 
219 0 0 
215 0 0 
215 0 0 
217 0 0 
216 0 0 
220 0 0 
218 0 0 
219 0 0 
216 0 0 
217 0 0 
217 0 0 
221 0 0 
221 0 0 
222 0 0 
218 0 0 
218 0 0 
219 0 0 
217 0 0 
217 0 0 
219 0 0 
0 0 255 
0 0 255 
0 0 254 
0 0 255 
0 0 255 
0 0 254 
0 0 255 
0 0 254 
0 0 255 
0 0 254 
0 0 255 
0 0 255 
0 0 254 
0 0 255 
0 0 255 
0 0 255 
0 0 254 
0 0 254 
0 0 254 
0 0 255 
0 0 255 
0 0 254 
0 0 253 
0 0 255 
0 0 253 
0 0 255 
0 0 255 
0 0 255 
0 0 254 
0 0 255 
0 0 255 
0 0 255 
0 0 255 
0 0 254 
0 0 254 
0 0 255 
0 0 253 
0 0 252 
0 0 253 
0 0 255 
0 0 254 
0 0 254 
0 0 255 
0 0 252 
0 0 254 
0 0 255 
0 0 254 
0 0 253 
0 0 253 
0 0 254 
0 0 252 
0 0 252 
0 0 253 
0 0 254 
0 0 255 
0 0 254 
0 0 255 
0 0 255 
0 0 252 
0 0 253 
0 0 253 
0 0 253 
0 0 254 
0 0 254 
0 0 254 
0 0 254 
0 0 254 
0 0 253 
0 0 254 
0 0 254 
0 0 252 
0 0 254 
0 0 253 
0 0 252 
0 0 253 
0 0 246 
0 0 248 
0 0 252 
0 0 255 
0 0 254 
0 0 252 
0 0 253 
0 0 252 
0 0 249 
0 0 252 
0 0 255 
0 0 249 
0 0 248 
0 0 254 
0 0 248 
0 0 253 
0 0 244 
0 0 250 
0 0 254 
0 0 250 
0 0 249 
0 0 249 
0 0 246 
0 0 252 
0 0 250 
0 0 248 
0 0 254 
0 0 248 
0 0 248 
0 0 246 
0 0 252 
0 0 250 
0 0 250 
0 0 250 
0 0 250 
0 0 252 
0 0 246 
0 0 252 
0 0 245 
0 0 248 
0 0 245 
0 0 242 
0 0 252 
0 0 242 
0 0 248 
0 0 242 
0 0 242 
0 0 248 
0 0 249 
0 0 246 
0 0 245 
0 0 241 
0 0 248 
0 0 245 
0 0 245 
0 0 249 
0 0 242 
0 0 246 
0 0 248 
0 0 240 
0 0 242 
0 0 240 
0 0 241 
0 0 246 
0 0 236 
0 0 240 
0 0 238 
0 0 237 
0 0 241 
0 0 238 
0 0 238 
0 0 241 
0 0 245 
0 0 233 
0 0 242 
0 0 234 
0 0 241 
0 0 234 
0 0 234 
0 0 236 
0 0 230 
0 0 241 
0 0 231 
0 0 226 
0 0 227 
0 0 237 
0 0 230 
0 0 237 
0 0 236 
0 0 230 
0 0 221 
0 0 227 
0 0 224 
0 0 218 
0 0 215 
0 0 233 
0 0 214 
0 0 223 
0 0 223 
0 0 215 
0 0 224 
0 0 218 
0 0 220 
0 0 215 
0 0 207 
0 0 209 
0 0 204 
0 0 198 
0 0 189 
0 0 191 
0 0 199 
0 0 198 
0 0 199 
0 0 177 
0 0 186 
0 0 188 
0 0 184 
0 0 155 
0 0 159 
0 0 147 
126 136 196 
213 231 255 
213 231 255 
213 231 255 
213 231 255 
213 231 255 
213 231 255 
213 231 255 
213 231 255 
155 136 151 
126 0 0 
128 0 0 
127 0 0 
134 0 0 
157 0 0 
137 0 0 
143 0 0 
161 0 0 
150 0 0 
165 0 0 
163 0 0 
161 0 0 
172 0 0 
171 0 0 
170 0 0 
181 0 0 
176 0 0 
173 0 0 
188 0 0 
182 0 0 
175 0 0 
184 0 0 
182 0 0 
189 0 0 
189 0 0 
190 0 0 
195 0 0 
191 0 0 
189 0 0 
200 0 0 
195 0 0 
194 0 0 
202 0 0 
203 0 0 
186 0 0 
195 0 0 
201 0 0 
197 0 0 
193 0 0 
202 0 0 
200 0 0 
201 0 0 
207 0 0 
200 0 0 
199 0 0 
206 0 0 
202 0 0 
208 0 0 
201 0 0 
207 0 0 
208 0 0 
194 0 0 
205 0 0 
205 0 0 
201 0 0 
199 0 0 
206 0 0 
202 0 0 
199 0 0 
202 0 0 
211 0 0 
198 0 0 
213 0 0 
208 0 0 
208 0 0 
204 0 0 
209 0 0 
207 0 0 
208 0 0 
206 0 0 
210 0 0 
205 0 0 
213 0 0 
207 0 0 
213 0 0 
208 0 0 
214 0 0 
210 0 0 
208 0 0 
210 0 0 
210 0 0 
217 0 0 
213 0 0 
213 0 0 
218 0 0 
213 0 0 
216 0 0 
213 0 0 
205 0 0 
211 0 0 
211 0 0 
210 0 0 
212 0 0 
211 0 0 
214 0 0 
212 0 0 
216 0 0 
214 0 0 
216 0 0 
215 0 0 
209 0 0 
215 0 0 
210 0 0 
215 0 0 
207 0 0 
211 0 0 
210 0 0 
209 0 0 
216 0 0 
211 0 0 
215 0 0 
215 0 0 
213 0 0 
215 0 0 
210 0 0 
217 0 0 
218 0 0 
216 0 0 
212 0 0 
218 0 0 
217 0 0 
213 0 0 
213 0 0 
218 0 0 
218 0 0 
215 0 0 
216 0 0 
214 0 0 
214 0 0 
217 0 0 
218 0 0 
220 0 0 
216 0 0 
213 0 0 
214 0 0 
214 0 0 
214 0 0 
217 0 0 
217 0 0 
217 0 0 
214 0 0 
215 0 0 
214 0 0 
220 0 0 
217 0 0 
218 0 0 
212 0 0 
216 0 0 
216 0 0 
217 0 0 
218 0 0 
217 0 0 
216 0 0 
220 0 0 
218 0 0 
215 0 0 
212 0 0 
219 0 0 
217 0 0 
218 0 0 
215 0 0 
213 0 0 
218 0 0 
217 0 0 
220 0 0 
216 0 0 
220 0 0 
216 0 0 
219 0 0 
216 0 0 
222 0 0 
215 0 0 
222 0 0 
220 0 0 
214 0 0 
220 0 0 
219 0 0 
218 0 0 
220 0 0 
220 0 0 
216 0 0 
217 0 0 
219 0 0 
219 0 0 
213 0 0 
218 0 0 
222 0 0 
220 0 0 
219 0 0 
219 0 0 
221 0 0 
216 0 0 
218 0 0 
218 0 0 
217 0 0 
0 0 254 
0 0 255 
0 0 255 
0 0 255 
0 0 255 
0 0 255 
0 0 253 
0 0 255 
0 0 254 
0 0 255 
0 0 255 
0 0 255 
0 0 254 
0 0 255 
0 0 254 
0 0 253 
0 0 255 
0 0 254 
0 0 255 
0 0 255 
0 0 254 
0 0 255 
0 0 255 
0 0 254 
0 0 254 
0 0 255 
0 0 253 
0 0 255 
0 0 253 
0 0 254 
0 0 255 
0 0 253 
0 0 255 
0 0 254 
0 0 254 
0 0 254 
0 0 255 
0 0 253 
0 0 255 
0 0 253 
0 0 254 
0 0 255 
0 0 253 
0 0 253 
0 0 255 
0 0 254 
0 0 253 
0 0 254 
0 0 252 
0 0 249 
0 0 253 
0 0 254 
0 0 250 
0 0 253 
0 0 255 
0 0 255 
0 0 253 
0 0 252 
0 0 255 
0 0 255 
0 0 254 
0 0 252 
0 0 249 
0 0 254 
0 0 254 
0 0 253 
0 0 254 
0 0 252 
0 0 254 
0 0 253 
0 0 252 
0 0 249 
0 0 246 
0 0 249 
0 0 254 
0 0 252 
0 0 254 
0 0 252 
0 0 253 
0 0 250 
0 0 253 
0 0 249 
0 0 254 
0 0 252 
0 0 252 
0 0 249 
0 0 252 
0 0 253 
0 0 246 
0 0 252 
0 0 249 
0 0 250 
0 0 249 
0 0 253 
0 0 254 
0 0 250 
0 0 254 
0 0 249 
0 0 249 
0 0 252 
0 0 249 
0 0 250 
0 0 246 
0 0 252 
0 0 249 
0 0 246 
0 0 250 
0 0 252 
0 0 249 
0 0 252 
0 0 252 
0 0 252 
0 0 252 
0 0 246 
0 0 241 
0 0 248 
0 0 246 
0 0 246 
0 0 250 
0 0 246 
0 0 250 
0 0 246 
0 0 246 
0 0 248 
0 0 250 
0 0 244 
0 0 245 
0 0 245 
0 0 241 
0 0 240 
0 0 245 
0 0 252 
0 0 242 
0 0 245 
0 0 242 
0 0 236 
0 0 240 
0 0 245 
0 0 236 
0 0 238 
0 0 244 
0 0 241 
0 0 241 
0 0 241 
0 0 240 
0 0 237 
0 0 236 
0 0 238 
0 0 241 
0 0 240 
0 0 244 
0 0 233 
0 0 228 
0 0 234 
0 0 233 
0 0 234 
0 0 234 
0 0 234 
0 0 228 
0 0 237 
0 0 230 
0 0 228 
0 0 228 
0 0 236 
0 0 220 
0 0 226 
0 0 227 
0 0 228 
0 0 220 
0 0 221 
0 0 217 
0 0 218 
0 0 212 
0 0 212 
0 0 234 
0 0 223 
0 0 207 
0 0 218 
0 0 207 
0 0 214 
0 0 211 
0 0 209 
0 0 204 
0 0 204 
0 0 209 
0 0 201 
0 0 186 
0 0 181 
0 0 182 
0 0 184 
0 0 167 
0 0 167 
0 0 165 
0 0 169 
0 0 153 
30 32 147 
207 224 252 
213 231 255 
213 231 255 
213 231 255 
213 231 255 
213 231 255 
213 231 255 
209 225 249 
109 56 62 
118 0 0 
125 0 0 
133 0 0 
141 0 0 
136 0 0 
141 0 0 
146 0 0 
150 0 0 
156 0 0 
162 0 0 
169 0 0 
159 0 0 
164 0 0 
171 0 0 
175 0 0 
168 0 0 
174 0 0 
182 0 0 
170 0 0 
187 0 0 
183 0 0 
175 0 0 
188 0 0 
181 0 0 
190 0 0 
190 0 0 
197 0 0 
187 0 0 
191 0 0 
187 0 0 
194 0 0 
192 0 0 
199 0 0 
193 0 0 
198 0 0 
188 0 0 
191 0 0 
193 0 0 
197 0 0 
199 0 0 
198 0 0 
199 0 0 
202 0 0 
204 0 0 
199 0 0 
207 0 0 
207 0 0 
203 0 0 
210 0 0 
205 0 0 
202 0 0 
204 0 0 
207 0 0 
205 0 0 
203 0 0 
202 0 0 
205 0 0 
200 0 0 
203 0 0 
203 0 0 
207 0 0 
205 0 0 
206 0 0 
201 0 0 
205 0 0 
206 0 0 
213 0 0 
208 0 0 
206 0 0 
211 0 0 
209 0 0 
213 0 0 
212 0 0 
205 0 0 
203 0 0 
214 0 0 
211 0 0 
212 0 0 
210 0 0 
218 0 0 
210 0 0 
212 0 0 
210 0 0 
217 0 0 
210 0 0 
206 0 0 
207 0 0 
215 0 0 
208 0 0 
214 0 0 
209 0 0 
212 0 0 
217 0 0 
210 0 0 
218 0 0 
215 0 0 
207 0 0 
216 0 0 
212 0 0 
217 0 0 
213 0 0 
210 0 0 
213 0 0 
215 0 0 
214 0 0 
217 0 0 
213 0 0 
210 0 0 
219 0 0 
211 0 0 
220 0 0 
219 0 0 
213 0 0 
215 0 0 
214 0 0 
216 0 0 
221 0 0 
212 0 0 
218 0 0 
217 0 0 
214 0 0 
217 0 0 
217 0 0 
215 0 0 
214 0 0 
217 0 0 
212 0 0 
217 0 0 
217 0 0 
211 0 0 
213 0 0 
219 0 0 
215 0 0 
215 0 0 
217 0 0 
215 0 0 
213 0 0 
217 0 0 
216 0 0 
216 0 0 
215 0 0 
217 0 0 
218 0 0 
216 0 0 
216 0 0 
218 0 0 
218 0 0 
216 0 0 
217 0 0 
218 0 0 
218 0 0 
214 0 0 
216 0 0 
221 0 0 
214 0 0 
220 0 0 
217 0 0 
221 0 0 
215 0 0 
215 0 0 
217 0 0 
219 0 0 
218 0 0 
218 0 0 
218 0 0 
220 0 0 
219 0 0 
221 0 0 
218 0 0 
218 0 0 
220 0 0 
216 0 0 
219 0 0 
218 0 0 
219 0 0 
219 0 0 
218 0 0 
217 0 0 
219 0 0 
219 0 0 
220 0 0 
216 0 0 
219 0 0 
218 0 0 
217 0 0 
219 0 0 
219 0 0 
216 0 0 
220 0 0 
218 0 0 
216 0 0 
215 0 0 
220 0 0 
218 0 0 
220 0 0 
0 0 255 
0 0 254 
0 0 255 
0 0 255 
0 0 255 
0 0 255 
0 0 255 
0 0 255 
0 0 255 
0 0 255 
0 0 254 
0 0 254 
0 0 254 
0 0 253 
0 0 254 
0 0 255 
0 0 254 
0 0 255 
0 0 255 
0 0 254 
0 0 255 
0 0 253 
0 0 254 
0 0 253 
0 0 252 
0 0 255 
0 0 254 
0 0 253 
0 0 254 
0 0 255 
0 0 253 
0 0 254 
0 0 254 
0 0 253 
0 0 255 
0 0 255 
0 0 250 
0 0 253 
0 0 255 
0 0 254 
0 0 252 
0 0 254 
0 0 255 
0 0 250 
0 0 253 
0 0 254 
0 0 255 
0 0 252 
0 0 255 
0 0 253 
0 0 253 
0 0 254 
0 0 254 
0 0 252 
0 0 254 
0 0 249 
0 0 249 
0 0 250 
0 0 254 
0 0 254 
0 0 254 
0 0 254 
0 0 253 
0 0 253 
0 0 254 
0 0 255 
0 0 254 
0 0 253 
0 0 252 
0 0 255 
0 0 245 
0 0 255 
0 0 252 
0 0 250 
0 0 253 
0 0 252 
0 0 252 
0 0 248 
0 0 254 
0 0 250 
0 0 250 
0 0 252 
0 0 249 
0 0 248 
0 0 249 
0 0 252 
0 0 253 
0 0 250 
0 0 254 
0 0 252 
0 0 254 
0 0 249 
0 0 254 
0 0 253 
0 0 252 
0 0 252 
0 0 249 
0 0 249 
0 0 250 
0 0 253 
0 0 250 
0 0 249 
0 0 248 
0 0 246 
0 0 252 
0 0 255 
0 0 249 
0 0 244 
0 0 250 
0 0 249 
0 0 249 
0 0 249 
0 0 245 
0 0 253 
0 0 252 
0 0 241 
0 0 242 
0 0 252 
0 0 246 
0 0 249 
0 0 249 
0 0 252 
0 0 248 
0 0 246 
0 0 252 
0 0 233 
0 0 249 
0 0 244 
0 0 245 
0 0 242 
0 0 246 
0 0 242 
0 0 246 
0 0 246 
0 0 236 
0 0 248 
0 0 242 
0 0 236 
0 0 244 
0 0 240 
0 0 242 
0 0 246 
0 0 241 
0 0 228 
0 0 241 
0 0 245 
0 0 241 
0 0 244 
0 0 241 
0 0 237 
0 0 234 
0 0 236 
0 0 234 
0 0 226 
0 0 221 
0 0 233 
0 0 233 
0 0 237 
0 0 240 
0 0 234 
0 0 234 
0 0 231 
0 0 223 
0 0 223 
0 0 214 
0 0 228 
0 0 237 
0 0 221 
0 0 221 
0 0 215 
0 0 214 
0 0 214 
0 0 207 
0 0 206 
0 0 226 
0 0 214 
0 0 211 
0 0 223 
0 0 211 
0 0 207 
0 0 207 
0 0 194 
0 0 207 
0 0 201 
0 0 191 
0 0 198 
0 0 196 
0 0 194 
0 0 179 
0 0 186 
0 0 175 
0 0 189 
0 0 179 
0 0 144 
0 0 153 
0 0 163 
173 188 221 
213 231 255 
213 231 255 
213 231 255 
213 231 255 
213 231 255 
213 231 255 
188 188 207 
101 0 0 
117 0 0 
133 0 0 
144 0 0 
140 0 0 
142 0 0 
150 0 0 
164 0 0 
139 0 0 
161 0 0 
162 0 0 
164 0 0 
168 0 0 
165 0 0 
174 0 0 
166 0 0 
173 0 0 
176 0 0 
180 0 0 
180 0 0 
168 0 0 
188 0 0 
175 0 0 
181 0 0 
188 0 0 
174 0 0 
191 0 0 
181 0 0 
169 0 0 
191 0 0 
191 0 0 
191 0 0 
193 0 0 
192 0 0 
194 0 0 
201 0 0 
198 0 0 
194 0 0 
206 0 0 
198 0 0 
203 0 0 
200 0 0 
201 0 0 
196 0 0 
194 0 0 
203 0 0 
204 0 0 
204 0 0 
203 0 0 
200 0 0 
206 0 0 
201 0 0 
199 0 0 
203 0 0 
197 0 0 
199 0 0 
208 0 0 
203 0 0 
200 0 0 
212 0 0 
208 0 0 
206 0 0 
202 0 0 
207 0 0 
209 0 0 
211 0 0 
203 0 0 
212 0 0 
206 0 0 
212 0 0 
214 0 0 
203 0 0 
206 0 0 
208 0 0 
206 0 0 
207 0 0 
210 0 0 
205 0 0 
216 0 0 
212 0 0 
214 0 0 
205 0 0 
212 0 0 
211 0 0 
209 0 0 
209 0 0 
214 0 0 
209 0 0 
216 0 0 
210 0 0 
211 0 0 
211 0 0 
208 0 0 
205 0 0 
217 0 0 
212 0 0 
210 0 0 
216 0 0 
213 0 0 
214 0 0 
216 0 0 
215 0 0 
215 0 0 
218 0 0 
216 0 0 
216 0 0 
213 0 0 
206 0 0 
215 0 0 
215 0 0 
214 0 0 
212 0 0 
215 0 0 
213 0 0 
210 0 0 
218 0 0 
215 0 0 
217 0 0 
216 0 0 
212 0 0 
212 0 0 
216 0 0 
219 0 0 
214 0 0 
214 0 0 
214 0 0 
213 0 0 
213 0 0 
216 0 0 
219 0 0 
217 0 0 
215 0 0 
217 0 0 
215 0 0 
217 0 0 
219 0 0 
216 0 0 
218 0 0 
218 0 0 
217 0 0 
219 0 0 
216 0 0 
215 0 0 
217 0 0 
216 0 0 
216 0 0 
216 0 0 
217 0 0 
218 0 0 
213 0 0 
218 0 0 
218 0 0 
217 0 0 
219 0 0 
220 0 0 
216 0 0 
219 0 0 
218 0 0 
217 0 0 
218 0 0 
220 0 0 
217 0 0 
221 0 0 
219 0 0 
218 0 0 
220 0 0 
214 0 0 
219 0 0 
218 0 0 
216 0 0 
221 0 0 
220 0 0 
220 0 0 
217 0 0 
219 0 0 
217 0 0 
219 0 0 
217 0 0 
216 0 0 
218 0 0 
218 0 0 
222 0 0 
215 0 0 
218 0 0 
218 0 0 
217 0 0 
218 0 0 
221 0 0 
219 0 0 
218 0 0 
218 0 0 
217 0 0 
218 0 0 
217 0 0 
220 0 0 
219 0 0 
0 0 254 
0 0 255 
0 0 254 
0 0 255 
0 0 255 
0 0 255 
0 0 255 
0 0 255 
0 0 254 
0 0 254 
0 0 255 
0 0 255 
0 0 255 
0 0 253 
0 0 253 
0 0 255 
0 0 255 
0 0 255 
0 0 255 
0 0 253 
0 0 254 
0 0 255 
0 0 255 
0 0 254 
0 0 254 
0 0 254 
0 0 255 
0 0 255 
0 0 254 
0 0 255 
0 0 254 
0 0 255 
0 0 254 
0 0 254 
0 0 253 
0 0 253 
0 0 254 
0 0 254 
0 0 253 
0 0 253 
0 0 254 
0 0 255 
0 0 254 
0 0 253 
0 0 253 
0 0 253 
0 0 252 
0 0 255 
0 0 255 
0 0 252 
0 0 254 
0 0 252 
0 0 253 
0 0 253 
0 0 253 
0 0 254 
0 0 250 
0 0 255 
0 0 252 
0 0 253 
0 0 249 
0 0 254 
0 0 255 
0 0 254 
0 0 254 
0 0 253 
0 0 252 
0 0 254 
0 0 252 
0 0 253 
0 0 254 
0 0 252 
0 0 252 
0 0 248 
0 0 253 
0 0 250 
0 0 253 
0 0 250 
0 0 252 
0 0 252 
0 0 253 
0 0 254 
0 0 245 
0 0 253 
0 0 248 
0 0 252 
0 0 252 
0 0 254 
0 0 249 
0 0 254 
0 0 252 
0 0 250 
0 0 252 
0 0 253 
0 0 252 
0 0 249 
0 0 250 
0 0 253 
0 0 250 
0 0 252 
0 0 252 
0 0 248 
0 0 249 
0 0 244 
0 0 250 
0 0 252 
0 0 254 
0 0 246 
0 0 244 
0 0 252 
0 0 246 
0 0 254 
0 0 245 
0 0 248 
0 0 245 
0 0 249 
0 0 248 
0 0 246 
0 0 245 
0 0 246 
0 0 245 
0 0 250 
0 0 246 
0 0 248 
0 0 248 
0 0 241 
0 0 241 
0 0 248 
0 0 244 
0 0 241 
0 0 244 
0 0 241 
0 0 238 
0 0 241 
0 0 241 
0 0 238 
0 0 238 
0 0 244 
0 0 252 
0 0 248 
0 0 237 
0 0 244 
0 0 240 
0 0 241 
0 0 237 
0 0 242 
0 0 238 
0 0 233 
0 0 248 
0 0 241 
0 0 233 
0 0 236 
0 0 238 
0 0 237 
0 0 230 
0 0 244 
0 0 238 
0 0 227 
0 0 233 
0 0 221 
0 0 233 
0 0 223 
0 0 224 
0 0 224 
0 0 223 
0 0 233 
0 0 236 
0 0 228 
0 0 220 
0 0 220 
0 0 230 
0 0 224 
0 0 220 
0 0 221 
0 0 227 
0 0 206 
0 0 220 
0 0 204 
0 0 220 
0 0 203 
0 0 204 
0 0 206 
0 0 189 
0 0 184 
0 0 196 
0 0 191 
0 0 201 
0 0 175 
0 0 181 
0 0 186 
0 0 184 
0 0 177 
0 0 163 
0 0 151 
0 0 153 
0 0 151 
132 142 189 
214 231 255 
214 231 255 
214 231 255 
214 231 255 
214 231 255 
214 231 255 
143 126 140 
111 0 0 
132 0 0 
139 0 0 
139 0 0 
143 0 0 
146 0 0 
168 0 0 
158 0 0 
163 0 0 
155 0 0 
161 0 0 
168 0 0 
171 0 0 
158 0 0 
157 0 0 
177 0 0 
180 0 0 
186 0 0 
182 0 0 
179 0 0 
182 0 0 
173 0 0 
175 0 0 
200 0 0 
186 0 0 
190 0 0 
189 0 0 
181 0 0 
196 0 0 
192 0 0 
181 0 0 
191 0 0 
177 0 0 
193 0 0 
195 0 0 
193 0 0 
192 0 0 
205 0 0 
200 0 0 
192 0 0 
202 0 0 
203 0 0 
202 0 0 
195 0 0 
200 0 0 
205 0 0 
205 0 0 
201 0 0 
200 0 0 
209 0 0 
203 0 0 
207 0 0 
201 0 0 
207 0 0 
200 0 0 
206 0 0 
200 0 0 
199 0 0 
202 0 0 
205 0 0 
200 0 0 
209 0 0 
191 0 0 
209 0 0 
204 0 0 
201 0 0 
214 0 0 
209 0 0 
207 0 0 
211 0 0 
209 0 0 
210 0 0 
202 0 0 
207 0 0 
207 0 0 
217 0 0 
209 0 0 
209 0 0 
210 0 0 
210 0 0 
211 0 0 
221 0 0 
215 0 0 
213 0 0 
212 0 0 
212 0 0 
208 0 0 
215 0 0 
211 0 0 
214 0 0 
216 0 0 
216 0 0 
212 0 0 
212 0 0 
211 0 0 
214 0 0 
209 0 0 
207 0 0 
209 0 0 
215 0 0 
212 0 0 
214 0 0 
211 0 0 
212 0 0 
215 0 0 
209 0 0 
218 0 0 
218 0 0 
214 0 0 
219 0 0 
208 0 0 
217 0 0 
219 0 0 
211 0 0 
217 0 0 
214 0 0 
212 0 0 
214 0 0 
215 0 0 
214 0 0 
216 0 0 
216 0 0 
218 0 0 
220 0 0 
215 0 0 
215 0 0 
217 0 0 
216 0 0 
216 0 0 
216 0 0 
217 0 0 
217 0 0 
219 0 0 
218 0 0 
214 0 0 
216 0 0 
216 0 0 
216 0 0 
215 0 0 
215 0 0 
215 0 0 
217 0 0 
217 0 0 
215 0 0 
217 0 0 
220 0 0 
216 0 0 
217 0 0 
218 0 0 
217 0 0 
220 0 0 
217 0 0 
215 0 0 
219 0 0 
217 0 0 
217 0 0 
220 0 0 
217 0 0 
221 0 0 
218 0 0 
218 0 0 
220 0 0 
218 0 0 
215 0 0 
218 0 0 
217 0 0 
216 0 0 
219 0 0 
219 0 0 
216 0 0 
214 0 0 
217 0 0 
219 0 0 
220 0 0 
219 0 0 
216 0 0 
219 0 0 
214 0 0 
221 0 0 
219 0 0 
218 0 0 
219 0 0 
211 0 0 
214 0 0 
219 0 0 
217 0 0 
214 0 0 
220 0 0 
220 0 0 
215 0 0 
223 0 0 
219 0 0 
214 0 0 
217 0 0 
217 0 0 
217 0 0 
0 0 255 
0 0 255 
0 0 254 
0 0 255 
0 0 252 
0 0 254 
0 0 255 
0 0 255 
0 0 254 
0 0 255 
0 0 255 
0 0 255 
0 0 255 
0 0 255 
0 0 254 
0 0 254 
0 0 254 
0 0 255 
0 0 254 
0 0 255 
0 0 254 
0 0 254 
0 0 255 
0 0 255 
0 0 255 
0 0 254 
0 0 254 
0 0 254 
0 0 253 
0 0 254 
0 0 253 
0 0 254 
0 0 255 
0 0 255 
0 0 255 
0 0 255 
0 0 253 
0 0 253 
0 0 253 
0 0 255 
0 0 254 
0 0 254 
0 0 255 
0 0 255 
0 0 253 
0 0 253 
0 0 255 
0 0 254 
0 0 253 
0 0 254 
0 0 252 
0 0 254 
0 0 253 
0 0 254 
0 0 253 
0 0 254 
0 0 253 
0 0 253 
0 0 252 
0 0 250 
0 0 253 
0 0 250 
0 0 253 
0 0 253 
0 0 250 
0 0 250 
0 0 254 
0 0 249 
0 0 252 
0 0 254 
0 0 252 
0 0 252 
0 0 253 
0 0 252 
0 0 249 
0 0 254 
0 0 253 
0 0 249 
0 0 252 
0 0 252 
0 0 250 
0 0 253 
0 0 255 
0 0 253 
0 0 252 
0 0 252 
0 0 253 
0 0 253 
0 0 248 
0 0 249 
0 0 246 
0 0 246 
0 0 253 
0 0 248 
0 0 249 
0 0 249 
0 0 245 
0 0 250 
0 0 248 
0 0 250 
0 0 248 
0 0 249 
0 0 252 
0 0 246 
0 0 245 
0 0 252 
0 0 252 
0 0 246 
0 0 244 
0 0 253 
0 0 250 
0 0 244 
0 0 252 
0 0 254 
0 0 244 
0 0 244 
0 0 246 
0 0 246 
0 0 246 
0 0 249 
0 0 249 
0 0 245 
0 0 250 
0 0 246 
0 0 244 
0 0 242 
0 0 244 
0 0 248 
0 0 242 
0 0 242 
0 0 249 
0 0 248 
0 0 250 
0 0 234 
0 0 233 
0 0 241 
0 0 241 
0 0 241 
0 0 238 
0 0 236 
0 0 244 
0 0 240 
0 0 244 
0 0 236 
0 0 241 
0 0 241 
0 0 244 
0 0 238 
0 0 242 
0 0 242 
0 0 240 
0 0 237 
0 0 237 
0 0 240 
0 0 237 
0 0 241 
0 0 236 
0 0 234 
0 0 226 
0 0 241 
0 0 230 
0 0 231 
0 0 217 
0 0 240 
0 0 238 
0 0 233 
0 0 227 
0 0 223 
0 0 233 
0 0 226 
0 0 223 
0 0 217 
0 0 204 
0 0 223 
0 0 209 
0 0 204 
0 0 209 
0 0 217 
0 0 217 
0 0 206 
0 0 203 
0 0 203 
0 0 196 
0 0 194 
0 0 188 
0 0 194 
0 0 196 
0 0 189 
0 0 191 
0 0 163 
0 0 203 
0 0 179 
0 0 137 
0 0 155 
0 0 153 
0 0 128 
67 73 165 
213 230 254 
214 231 255 
214 231 255 
214 231 255 
214 231 255 
214 231 255 
109 69 76 
111 0 0 
110 0 0 
134 0 0 
142 0 0 
151 0 0 
146 0 0 
136 0 0 
155 0 0 
155 0 0 
165 0 0 
158 0 0 
162 0 0 
169 0 0 
181 0 0 
170 0 0 
168 0 0 
164 0 0 
183 0 0 
186 0 0 
176 0 0 
182 0 0 
186 0 0 
193 0 0 
185 0 0 
194 0 0 
195 0 0 
191 0 0 
186 0 0 
182 0 0 
182 0 0 
189 0 0 
188 0 0 
197 0 0 
198 0 0 
195 0 0 
190 0 0 
186 0 0 
201 0 0 
198 0 0 
206 0 0 
203 0 0 
196 0 0 
201 0 0 
199 0 0 
202 0 0 
204 0 0 
198 0 0 
205 0 0 
205 0 0 
197 0 0 
209 0 0 
206 0 0 
203 0 0 
202 0 0 
212 0 0 
207 0 0 
201 0 0 
211 0 0 
212 0 0 
206 0 0 
205 0 0 
207 0 0 
208 0 0 
213 0 0 
203 0 0 
208 0 0 
205 0 0 
201 0 0 
209 0 0 
207 0 0 
211 0 0 
213 0 0 
212 0 0 
212 0 0 
209 0 0 
208 0 0 
207 0 0 
210 0 0 
210 0 0 
208 0 0 
212 0 0 
209 0 0 
205 0 0 
209 0 0 
211 0 0 
214 0 0 
205 0 0 
210 0 0 
214 0 0 
212 0 0 
215 0 0 
218 0 0 
214 0 0 
208 0 0 
212 0 0 
212 0 0 
211 0 0 
214 0 0 
213 0 0 
210 0 0 
212 0 0 
216 0 0 
213 0 0 
210 0 0 
211 0 0 
211 0 0 
213 0 0 
214 0 0 
217 0 0 
215 0 0 
213 0 0 
212 0 0 
214 0 0 
216 0 0 
217 0 0 
214 0 0 
215 0 0 
213 0 0 
217 0 0 
219 0 0 
214 0 0 
212 0 0 
216 0 0 
217 0 0 
217 0 0 
214 0 0 
215 0 0 
214 0 0 
217 0 0 
214 0 0 
217 0 0 
220 0 0 
216 0 0 
212 0 0 
212 0 0 
213 0 0 
218 0 0 
216 0 0 
216 0 0 
219 0 0 
218 0 0 
218 0 0 
217 0 0 
217 0 0 
217 0 0 
217 0 0 
221 0 0 
215 0 0 
218 0 0 
219 0 0 
216 0 0 
219 0 0 
215 0 0 
223 0 0 
219 0 0 
218 0 0 
216 0 0 
219 0 0 
215 0 0 
218 0 0 
218 0 0 
219 0 0 
220 0 0 
214 0 0 
213 0 0 
217 0 0 
218 0 0 
220 0 0 
215 0 0 
217 0 0 
219 0 0 
220 0 0 
217 0 0 
220 0 0 
215 0 0 
217 0 0 
222 0 0 
216 0 0 
215 0 0 
215 0 0 
220 0 0 
217 0 0 
219 0 0 
219 0 0 
218 0 0 
219 0 0 
219 0 0 
219 0 0 
220 0 0 
220 0 0 
219 0 0 
222 0 0 
223 0 0 
219 0 0 
221 0 0 
219 0 0 
0 0 255 
0 0 254 
0 0 253 
0 0 254 
0 0 255 
0 0 255 
0 0 255 
0 0 255 
0 0 254 
0 0 255 
0 0 255 
0 0 255 
0 0 254 
0 0 254 
0 0 255 
0 0 255 
0 0 255 
0 0 255 
0 0 255 
0 0 254 
0 0 253 
0 0 254 
0 0 255 
0 0 254 
0 0 255 
0 0 253 
0 0 255 
0 0 255 
0 0 254 
0 0 254 
0 0 255 
0 0 253 
0 0 255 
0 0 254 
0 0 254 
0 0 255 
0 0 254 
0 0 253 
0 0 254 
0 0 250 
0 0 254 
0 0 255 
0 0 255 
0 0 254 
0 0 250 
0 0 250 
0 0 249 
0 0 254 
0 0 254 
0 0 250 
0 0 254 
0 0 253 
0 0 254 
0 0 254 
0 0 253 
0 0 253 
0 0 252 
0 0 253 
0 0 253 
0 0 254 
0 0 255 
0 0 254 
0 0 253 
0 0 253 
0 0 254 
0 0 253 
0 0 253 
0 0 252 
0 0 253 
0 0 252 
0 0 250 
0 0 252 
0 0 255 
0 0 252 
0 0 250 
0 0 254 
0 0 252 
0 0 252 
0 0 253 
0 0 253 
0 0 252 
0 0 250 
0 0 250 
0 0 249 
0 0 252 
0 0 254 
0 0 249 
0 0 254 
0 0 249 
0 0 244 
0 0 250 
0 0 253 
0 0 253 
0 0 250 
0 0 249 
0 0 245 
0 0 250 
0 0 250 
0 0 253 
0 0 248 
0 0 253 
0 0 250 
0 0 248 
0 0 244 
0 0 245 
0 0 250 
0 0 245 
0 0 250 
0 0 248 
0 0 248 
0 0 245 
0 0 252 
0 0 246 
0 0 246 
0 0 253 
0 0 248 
0 0 248 
0 0 245 
0 0 249 
0 0 244 
0 0 238 
0 0 242 
0 0 252 
0 0 250 
0 0 244 
0 0 238 
0 0 248 
0 0 246 
0 0 246 
0 0 234 
0 0 244 
0 0 241 
0 0 246 
0 0 237 
0 0 250 
0 0 246 
0 0 246 
0 0 241 
0 0 242 
0 0 240 
0 0 238 
0 0 233 
0 0 231 
0 0 230 
0 0 238 
0 0 241 
0 0 240 
0 0 241 
0 0 236 
0 0 237 
0 0 234 
0 0 241 
0 0 237 
0 0 231 
0 0 226 
0 0 238 
0 0 227 
0 0 224 
0 0 230 
0 0 215 
0 0 236 
0 0 233 
0 0 236 
0 0 227 
0 0 233 
0 0 223 
0 0 218 
0 0 234 
0 0 227 
0 0 228 
0 0 220 
0 0 226 
0 0 226 
0 0 211 
0 0 212 
0 0 212 
0 0 221 
0 0 217 
0 0 201 
0 0 209 
0 0 189 
0 0 206 
0 0 203 
0 0 193 
0 0 177 
0 0 206 
0 0 196 
0 0 191 
0 0 196 
0 0 171 
0 0 173 
0 0 159 
0 0 161 
0 0 147 
0 0 130 
0 0 142 
0 0 125 
192 207 233 
214 232 255 
214 232 255 
214 232 255 
214 232 255 
196 207 228 
104 0 0 
108 0 0 
114 0 0 
133 0 0 
128 0 0 
126 0 0 
148 0 0 
142 0 0 
146 0 0 
151 0 0 
178 0 0 
147 0 0 
177 0 0 
170 0 0 
170 0 0 
181 0 0 
179 0 0 
179 0 0 
176 0 0 
186 0 0 
178 0 0 
178 0 0 
182 0 0 
190 0 0 
186 0 0 
186 0 0 
184 0 0 
183 0 0 
188 0 0 
197 0 0 
186 0 0 
191 0 0 
187 0 0 
197 0 0 
196 0 0 
195 0 0 
195 0 0 
197 0 0 
200 0 0 
197 0 0 
194 0 0 
196 0 0 
193 0 0 
198 0 0 
200 0 0 
196 0 0 
203 0 0 
200 0 0 
199 0 0 
195 0 0 
197 0 0 
202 0 0 
205 0 0 
205 0 0 
202 0 0 
204 0 0 
209 0 0 
212 0 0 
212 0 0 
205 0 0 
203 0 0 
206 0 0 
205 0 0 
207 0 0 
208 0 0 
206 0 0 
209 0 0 
206 0 0 
208 0 0 
208 0 0 
204 0 0 
216 0 0 
209 0 0 
210 0 0 
208 0 0 
207 0 0 
213 0 0 
211 0 0 
211 0 0 
210 0 0 
206 0 0 
209 0 0 
212 0 0 
214 0 0 
216 0 0 
210 0 0 
218 0 0 
212 0 0 
213 0 0 
207 0 0 
213 0 0 
211 0 0 
210 0 0 
214 0 0 
211 0 0 
212 0 0 
218 0 0 
212 0 0 
216 0 0 
217 0 0 
215 0 0 
214 0 0 
213 0 0 
209 0 0 
215 0 0 
215 0 0 
213 0 0 
219 0 0 
214 0 0 
215 0 0 
218 0 0 
217 0 0 
215 0 0 
216 0 0 
217 0 0 
211 0 0 
214 0 0 
206 0 0 
214 0 0 
213 0 0 
218 0 0 
217 0 0 
220 0 0 
212 0 0 
212 0 0 
212 0 0 
222 0 0 
217 0 0 
213 0 0 
216 0 0 
217 0 0 
214 0 0 
219 0 0 
218 0 0 
218 0 0 
212 0 0 
217 0 0 
217 0 0 
219 0 0 
217 0 0 
217 0 0 
218 0 0 
215 0 0 
215 0 0 
215 0 0 
218 0 0 
219 0 0 
214 0 0 
220 0 0 
217 0 0 
218 0 0 
211 0 0 
213 0 0 
213 0 0 
217 0 0 
219 0 0 
216 0 0 
219 0 0 
219 0 0 
217 0 0 
218 0 0 
215 0 0 
215 0 0 
216 0 0 
220 0 0 
219 0 0 
219 0 0 
215 0 0 
214 0 0 
216 0 0 
216 0 0 
218 0 0 
219 0 0 
219 0 0 
216 0 0 
217 0 0 
220 0 0 
217 0 0 
215 0 0 
220 0 0 
217 0 0 
222 0 0 
220 0 0 
218 0 0 
215 0 0 
218 0 0 
217 0 0 
216 0 0 
218 0 0 
220 0 0 
220 0 0 
218 0 0 
219 0 0 
218 0 0 
217 0 0 
219 0 0 
218 0 0 
0 0 255 
0 0 254 
0 0 255 
0 0 255 
0 0 254 
0 0 255 
0 0 255 
0 0 255 
0 0 255 
0 0 253 
0 0 255 
0 0 254 
0 0 255 
0 0 254 
0 0 255 
0 0 255 
0 0 253 
0 0 255 
0 0 255 
0 0 254 
0 0 255 
0 0 254 
0 0 253 
0 0 254 
0 0 254 
0 0 253 
0 0 255 
0 0 252 
0 0 255 
0 0 255 
0 0 255 
0 0 255 
0 0 255 
0 0 254 
0 0 254 
0 0 255 
0 0 250 
0 0 252 
0 0 254 
0 0 254 
0 0 253 
0 0 253 
0 0 254 
0 0 254 
0 0 254 
0 0 254 
0 0 255 
0 0 253 
0 0 252 
0 0 254 
0 0 254 
0 0 253 
0 0 254 
0 0 253 
0 0 255 
0 0 253 
0 0 255 
0 0 254 
0 0 253 
0 0 253 
0 0 254 
0 0 253 
0 0 254 
0 0 253 
0 0 250 
0 0 255 
0 0 254 
0 0 253 
0 0 253 
0 0 252 
0 0 250 
0 0 252 
0 0 252 
0 0 253 
0 0 254 
0 0 253 
0 0 253 
0 0 253 
0 0 252 
0 0 253 
0 0 250 
0 0 254 
0 0 250 
0 0 244 
0 0 250 
0 0 248 
0 0 252 
0 0 250 
0 0 253 
0 0 248 
0 0 250 
0 0 250 
0 0 252 
0 0 248 
0 0 249 
0 0 249 
0 0 250 
0 0 252 
0 0 249 
0 0 250 
0 0 250 
0 0 252 
0 0 250 
0 0 248 
0 0 253 
0 0 249 
0 0 246 
0 0 242 
0 0 249 
0 0 248 
0 0 248 
0 0 252 
0 0 252 
0 0 249 
0 0 245 
0 0 249 
0 0 248 
0 0 248 
0 0 242 
0 0 246 
0 0 242 
0 0 245 
0 0 250 
0 0 242 
0 0 245 
0 0 244 
0 0 240 
0 0 238 
0 0 241 
0 0 245 
0 0 248 
0 0 238 
0 0 248 
0 0 248 
0 0 242 
0 0 244 
0 0 246 
0 0 242 
0 0 244 
0 0 245 
0 0 237 
0 0 240 
0 0 241 
0 0 241 
0 0 241 
0 0 240 
0 0 244 
0 0 231 
0 0 241 
0 0 230 
0 0 234 
0 0 238 
0 0 228 
0 0 236 
0 0 241 
0 0 233 
0 0 236 
0 0 231 
0 0 237 
0 0 228 
0 0 230 
0 0 227 
0 0 227 
0 0 233 
0 0 228 
0 0 228 
0 0 227 
0 0 224 
0 0 226 
0 0 230 
0 0 228 
0 0 215 
0 0 233 
0 0 227 
0 0 209 
0 0 215 
0 0 211 
0 0 214 
0 0 211 
0 0 214 
0 0 209 
0 0 204 
0 0 209 
0 0 188 
0 0 184 
0 0 203 
0 0 186 
0 0 186 
0 0 175 
0 0 188 
0 0 175 
0 0 175 
0 0 163 
0 0 155 
0 0 159 
0 0 130 
0 0 122 
152 164 199 
215 232 255 
215 232 255 
215 232 255 
215 232 255 
175 172 189 
108 0 0 
113 0 0 
105 0 0 
132 0 0 
140 0 0 
133 0 0 
134 0 0 
156 0 0 
138 0 0 
163 0 0 
162 0 0 
165 0 0 
162 0 0 
172 0 0 
168 0 0 
176 0 0 
170 0 0 
172 0 0 
176 0 0 
179 0 0 
184 0 0 
185 0 0 
186 0 0 
185 0 0 
188 0 0 
181 0 0 
194 0 0 
195 0 0 
187 0 0 
190 0 0 
204 0 0 
187 0 0 
190 0 0 
200 0 0 
203 0 0 
205 0 0 
190 0 0 
200 0 0 
201 0 0 
197 0 0 
192 0 0 
207 0 0 
198 0 0 
201 0 0 
196 0 0 
202 0 0 
207 0 0 
207 0 0 
199 0 0 
200 0 0 
203 0 0 
206 0 0 
209 0 0 
212 0 0 
206 0 0 
198 0 0 
206 0 0 
204 0 0 
209 0 0 
207 0 0 
206 0 0 
198 0 0 
210 0 0 
210 0 0 
203 0 0 
213 0 0 
209 0 0 
216 0 0 
202 0 0 
207 0 0 
209 0 0 
209 0 0 
213 0 0 
214 0 0 
205 0 0 
207 0 0 
213 0 0 
213 0 0 
215 0 0 
211 0 0 
211 0 0 
214 0 0 
213 0 0 
212 0 0 
212 0 0 
213 0 0 
216 0 0 
212 0 0 
207 0 0 
215 0 0 
212 0 0 
219 0 0 
210 0 0 
208 0 0 
213 0 0 
208 0 0 
214 0 0 
214 0 0 
214 0 0 
218 0 0 
214 0 0 
219 0 0 
217 0 0 
211 0 0 
215 0 0 
217 0 0 
214 0 0 
219 0 0 
218 0 0 
218 0 0 
215 0 0 
216 0 0 
217 0 0 
216 0 0 
214 0 0 
216 0 0 
219 0 0 
218 0 0 
214 0 0 
218 0 0 
221 0 0 
215 0 0 
217 0 0 
213 0 0 
216 0 0 
215 0 0 
214 0 0 
217 0 0 
216 0 0 
215 0 0 
216 0 0 
216 0 0 
215 0 0 
215 0 0 
216 0 0 
219 0 0 
215 0 0 
216 0 0 
212 0 0 
218 0 0 
215 0 0 
214 0 0 
216 0 0 
217 0 0 
217 0 0 
216 0 0 
217 0 0 
221 0 0 
215 0 0 
219 0 0 
219 0 0 
221 0 0 
217 0 0 
217 0 0 
218 0 0 
220 0 0 
221 0 0 
216 0 0 
219 0 0 
219 0 0 
219 0 0 
219 0 0 
219 0 0 
216 0 0 
217 0 0 
218 0 0 
219 0 0 
217 0 0 
219 0 0 
214 0 0 
217 0 0 
219 0 0 
215 0 0 
218 0 0 
220 0 0 
217 0 0 
217 0 0 
219 0 0 
219 0 0 
217 0 0 
217 0 0 
221 0 0 
218 0 0 
215 0 0 
223 0 0 
222 0 0 
221 0 0 
220 0 0 
222 0 0 
217 0 0 
219 0 0 
219 0 0 
215 0 0 
221 0 0 
222 0 0 
218 0 0 
217 0 0 
0 0 254 
0 0 254 
0 0 255 
0 0 254 
0 0 254 
0 0 253 
0 0 255 
0 0 255 
0 0 253 
0 0 254 
0 0 255 
0 0 255 
0 0 255 
0 0 255 
0 0 255 
0 0 254 
0 0 254 
0 0 255 
0 0 254 
0 0 254 
0 0 255 
0 0 254 
0 0 255 
0 0 255 
0 0 255 
0 0 255 
0 0 252 
0 0 254 
0 0 254 
0 0 254 
0 0 253 
0 0 255 
0 0 253 
0 0 254 
0 0 255 
0 0 255 
0 0 255 
0 0 252 
0 0 253 
0 0 254 
0 0 253 
0 0 254 
0 0 254 
0 0 253 
0 0 255 
0 0 252 
0 0 255 
0 0 255 
0 0 250 
0 0 253 
0 0 253 
0 0 254 
0 0 253 
0 0 254 
0 0 255 
0 0 253 
0 0 249 
0 0 253 
0 0 255 
0 0 253 
0 0 249 
0 0 255 
0 0 249 
0 0 254 
0 0 253 
0 0 252 
0 0 253 
0 0 255 
0 0 255 
0 0 252 
0 0 249 
0 0 250 
0 0 252 
0 0 253 
0 0 252 
0 0 250 
0 0 246 
0 0 252 
0 0 254 
0 0 252 
0 0 249 
0 0 254 
0 0 252 
0 0 252 
0 0 252 
0 0 245 
0 0 252 
0 0 252 
0 0 250 
0 0 252 
0 0 248 
0 0 250 
0 0 248 
0 0 249 
0 0 248 
0 0 252 
0 0 250 
0 0 249 
0 0 248 
0 0 253 
0 0 249 
0 0 252 
0 0 240 
0 0 250 
0 0 252 
0 0 246 
0 0 250 
0 0 252 
0 0 240 
0 0 248 
0 0 249 
0 0 245 
0 0 244 
0 0 252 
0 0 248 
0 0 249 
0 0 242 
0 0 244 
0 0 242 
0 0 246 
0 0 246 
0 0 240 
0 0 248 
0 0 238 
0 0 245 
0 0 244 
0 0 245 
0 0 249 
0 0 240 
0 0 246 
0 0 245 
0 0 240 
0 0 240 
0 0 244 
0 0 249 
0 0 240 
0 0 242 
0 0 244 
0 0 240 
0 0 237 
0 0 233 
0 0 242 
0 0 245 
0 0 234 
0 0 240 
0 0 244 
0 0 246 
0 0 237 
0 0 242 
0 0 233 
0 0 240 
0 0 234 
0 0 227 
0 0 240 
0 0 242 
0 0 228 
0 0 238 
0 0 240 
0 0 234 
0 0 236 
0 0 241 
0 0 236 
0 0 228 
0 0 228 
0 0 234 
0 0 227 
0 0 230 
0 0 220 
0 0 224 
0 0 227 
0 0 215 
0 0 218 
0 0 220 
0 0 220 
0 0 221 
0 0 226 
0 0 220 
0 0 221 
0 0 212 
0 0 203 
0 0 212 
0 0 203 
0 0 191 
0 0 196 
0 0 184 
0 0 199 
0 0 182 
0 0 199 
0 0 173 
0 0 175 
0 0 179 
0 0 163 
0 0 151 
0 0 159 
0 0 137 
0 0 147 
0 0 111 
111 120 171 
215 232 255 
215 232 255 
215 232 255 
215 232 255 
149 123 135 
112 0 0 
105 0 0 
125 0 0 
128 0 0 
136 0 0 
144 0 0 
152 0 0 
138 0 0 
151 0 0 
148 0 0 
144 0 0 
164 0 0 
176 0 0 
162 0 0 
155 0 0 
161 0 0 
182 0 0 
166 0 0 
171 0 0 
173 0 0 
167 0 0 
187 0 0 
187 0 0 
186 0 0 
193 0 0 
184 0 0 
186 0 0 
189 0 0 
189 0 0 
187 0 0 
191 0 0 
189 0 0 
190 0 0 
192 0 0 
199 0 0 
192 0 0 
186 0 0 
205 0 0 
188 0 0 
195 0 0 
201 0 0 
198 0 0 
193 0 0 
205 0 0 
189 0 0 
194 0 0 
192 0 0 
196 0 0 
204 0 0 
206 0 0 
203 0 0 
197 0 0 
205 0 0 
204 0 0 
206 0 0 
204 0 0 
206 0 0 
201 0 0 
189 0 0 
207 0 0 
200 0 0 
205 0 0 
209 0 0 
208 0 0 
211 0 0 
210 0 0 
206 0 0 
207 0 0 
204 0 0 
211 0 0 
211 0 0 
204 0 0 
212 0 0 
217 0 0 
214 0 0 
210 0 0 
207 0 0 
219 0 0 
214 0 0 
211 0 0 
208 0 0 
211 0 0 
214 0 0 
213 0 0 
208 0 0 
207 0 0 
214 0 0 
213 0 0 
216 0 0 
207 0 0 
214 0 0 
213 0 0 
215 0 0 
209 0 0 
213 0 0 
208 0 0 
215 0 0 
214 0 0 
213 0 0 
213 0 0 
214 0 0 
213 0 0 
214 0 0 
214 0 0 
219 0 0 
210 0 0 
218 0 0 
212 0 0 
214 0 0 
222 0 0 
217 0 0 
214 0 0 
216 0 0 
215 0 0 
215 0 0 
221 0 0 
217 0 0 
214 0 0 
221 0 0 
210 0 0 
215 0 0 
218 0 0 
217 0 0 
214 0 0 
217 0 0 
214 0 0 
217 0 0 
220 0 0 
214 0 0 
220 0 0 
213 0 0 
219 0 0 
220 0 0 
217 0 0 
215 0 0 
219 0 0 
212 0 0 
217 0 0 
213 0 0 
216 0 0 
216 0 0 
220 0 0 
218 0 0 
221 0 0 
217 0 0 
215 0 0 
219 0 0 
214 0 0 
217 0 0 
216 0 0 
217 0 0 
208 0 0 
217 0 0 
218 0 0 
218 0 0 
217 0 0 
221 0 0 
218 0 0 
218 0 0 
217 0 0 
217 0 0 
216 0 0 
223 0 0 
212 0 0 
215 0 0 
218 0 0 
219 0 0 
220 0 0 
220 0 0 
215 0 0 
215 0 0 
218 0 0 
219 0 0 
218 0 0 
215 0 0 
218 0 0 
219 0 0 
220 0 0 
217 0 0 
218 0 0 
221 0 0 
219 0 0 
218 0 0 
219 0 0 
221 0 0 
217 0 0 
219 0 0 
217 0 0 
220 0 0 
221 0 0 
220 0 0 
220 0 0 
218 0 0 
219 0 0 
221 0 0 
217 0 0 
219 0 0 
0 0 255 
0 0 255 
0 0 255 
0 0 255 
0 0 255 
0 0 255 
0 0 255 
0 0 255 
0 0 249 
0 0 254 
0 0 253 
0 0 254 
0 0 253 
0 0 254 
0 0 255 
0 0 253 
0 0 250 
0 0 255 
0 0 254 
0 0 254 
0 0 255 
0 0 255 
0 0 253 
0 0 254 
0 0 253 
0 0 254 
0 0 255 
0 0 254 
0 0 254 
0 0 255 
0 0 254 
0 0 252 
0 0 254 
0 0 253 
0 0 253 
0 0 253 
0 0 254 
0 0 254 
0 0 254 
0 0 254 
0 0 254 
0 0 249 
0 0 253 
0 0 254 
0 0 253 
0 0 253 
0 0 255 
0 0 252 
0 0 255 
0 0 254 
0 0 254 
0 0 253 
0 0 253 
0 0 255 
0 0 253 
0 0 254 
0 0 255 
0 0 249 
0 0 254 
0 0 252 
0 0 253 
0 0 254 
0 0 253 
0 0 253 
0 0 250 
0 0 252 
0 0 255 
0 0 255 
0 0 250 
0 0 255 
0 0 253 
0 0 254 
0 0 253 
0 0 254 
0 0 250 
0 0 254 
0 0 255 
0 0 254 
0 0 250 
0 0 248 
0 0 246 
0 0 253 
0 0 249 
0 0 248 
0 0 248 
0 0 254 
0 0 252 
0 0 254 
0 0 249 
0 0 252 
0 0 248 
0 0 250 
0 0 250 
0 0 252 
0 0 250 
0 0 248 
0 0 249 
0 0 246 
0 0 248 
0 0 249 
0 0 246 
0 0 252 
0 0 249 
0 0 250 
0 0 240 
0 0 249 
0 0 245 
0 0 248 
0 0 246 
0 0 248 
0 0 248 
0 0 250 
0 0 246 
0 0 252 
0 0 250 
0 0 246 
0 0 244 
0 0 245 
0 0 245 
0 0 248 
0 0 252 
0 0 241 
0 0 244 
0 0 252 
0 0 248 
0 0 242 
0 0 241 
0 0 241 
0 0 248 
0 0 249 
0 0 238 
0 0 246 
0 0 240 
0 0 240 
0 0 242 
0 0 246 
0 0 237 
0 0 246 
0 0 240 
0 0 240 
0 0 245 
0 0 241 
0 0 240 
0 0 233 
0 0 240 
0 0 248 
0 0 241 
0 0 241 
0 0 234 
0 0 233 
0 0 238 
0 0 236 
0 0 234 
0 0 240 
0 0 234 
0 0 240 
0 0 237 
0 0 238 
0 0 226 
0 0 223 
0 0 238 
0 0 231 
0 0 228 
0 0 231 
0 0 228 
0 0 227 
0 0 221 
0 0 223 
0 0 233 
0 0 224 
0 0 217 
0 0 212 
0 0 209 
0 0 223 
0 0 226 
0 0 220 
0 0 212 
0 0 215 
0 0 207 
0 0 189 
0 0 193 
0 0 212 
0 0 203 
0 0 207 
0 0 201 
0 0 193 
0 0 191 
0 0 182 
0 0 194 
0 0 188 
0 0 173 
0 0 181 
0 0 161 
0 0 153 
0 0 149 
0 0 144 
0 0 140 
68 73 144 
214 231 255 
215 232 255 
215 232 255 
214 230 253 
99 46 51 
103 0 0 
107 0 0 
119 0 0 
140 0 0 
127 0 0 
138 0 0 
159 0 0 
161 0 0 
152 0 0 
163 0 0 
169 0 0 
154 0 0 
164 0 0 
167 0 0 
169 0 0 
181 0 0 
171 0 0 
173 0 0 
185 0 0 
171 0 0 
184 0 0 
192 0 0 
188 0 0 
177 0 0 
181 0 0 
188 0 0 
197 0 0 
183 0 0 
195 0 0 
187 0 0 
181 0 0 
184 0 0 
189 0 0 
195 0 0 
195 0 0 
189 0 0 
191 0 0 
202 0 0 
193 0 0 
203 0 0 
207 0 0 
205 0 0 
206 0 0 
204 0 0 
198 0 0 
201 0 0 
208 0 0 
202 0 0 
197 0 0 
201 0 0 
201 0 0 
208 0 0 
205 0 0 
205 0 0 
202 0 0 
205 0 0 
203 0 0 
204 0 0 
211 0 0 
200 0 0 
203 0 0 
209 0 0 
207 0 0 
210 0 0 
205 0 0 
210 0 0 
201 0 0 
210 0 0 
204 0 0 
212 0 0 
206 0 0 
210 0 0 
214 0 0 
212 0 0 
207 0 0 
208 0 0 
210 0 0 
208 0 0 
213 0 0 
218 0 0 
213 0 0 
212 0 0 
211 0 0 
212 0 0 
211 0 0 
214 0 0 
216 0 0 
208 0 0 
210 0 0 
217 0 0 
214 0 0 
219 0 0 
217 0 0 
216 0 0 
213 0 0 
216 0 0 
216 0 0 
212 0 0 
212 0 0 
219 0 0 
214 0 0 
214 0 0 
209 0 0 
215 0 0 
215 0 0 
212 0 0 
217 0 0 
219 0 0 
216 0 0 
214 0 0 
211 0 0 
217 0 0 
213 0 0 
209 0 0 
214 0 0 
215 0 0 
208 0 0 
216 0 0 
214 0 0 
216 0 0 
214 0 0 
212 0 0 
212 0 0 
218 0 0 
217 0 0 
217 0 0 
212 0 0 
216 0 0 
216 0 0 
217 0 0 
217 0 0 
215 0 0 
215 0 0 
215 0 0 
217 0 0 
218 0 0 
216 0 0 
219 0 0 
218 0 0 
222 0 0 
211 0 0 
219 0 0 
215 0 0 
219 0 0 
219 0 0 
211 0 0 
219 0 0 
217 0 0 
214 0 0 
215 0 0 
214 0 0 
217 0 0 
218 0 0 
218 0 0 
219 0 0 
219 0 0 
219 0 0 
217 0 0 
220 0 0 
221 0 0 
219 0 0 
219 0 0 
218 0 0 
212 0 0 
216 0 0 
215 0 0 
217 0 0 
219 0 0 
214 0 0 
221 0 0 
220 0 0 
214 0 0 
219 0 0 
217 0 0 
219 0 0 
220 0 0 
219 0 0 
217 0 0 
218 0 0 
220 0 0 
221 0 0 
217 0 0 
217 0 0 
218 0 0 
220 0 0 
217 0 0 
222 0 0 
222 0 0 
217 0 0 
220 0 0 
219 0 0 
219 0 0 
217 0 0 
218 0 0 
217 0 0 
217 0 0 
217 0 0 
0 0 254 
0 0 255 
0 0 254 
0 0 254 
0 0 255 
0 0 254 
0 0 254 
0 0 253 
0 0 254 
0 0 254 
0 0 254 
0 0 255 
0 0 255 
0 0 254 
0 0 254 
0 0 255 
0 0 253 
0 0 255 
0 0 254 
0 0 254 
0 0 254 
0 0 255 
0 0 253 
0 0 253 
0 0 255 
0 0 252 
0 0 253 
0 0 254 
0 0 254 
0 0 255 
0 0 252 
0 0 254 
0 0 254 
0 0 253 
0 0 255 
0 0 255 
0 0 254 
0 0 253 
0 0 253 
0 0 254 
0 0 252 
0 0 254 
0 0 255 
0 0 254 
0 0 250 
0 0 254 
0 0 252 
0 0 253 
0 0 253 
0 0 250 
0 0 253 
0 0 253 
0 0 252 
0 0 254 
0 0 253 
0 0 250 
0 0 255 
0 0 253 
0 0 252 
0 0 252 
0 0 252 
0 0 254 
0 0 254 
0 0 253 
0 0 255 
0 0 255 
0 0 252 
0 0 253 
0 0 252 
0 0 252 
0 0 250 
0 0 254 
0 0 254 
0 0 254 
0 0 253 
0 0 246 
0 0 253 
0 0 253 
0 0 252 
0 0 253 
0 0 248 
0 0 252 
0 0 254 
0 0 253 
0 0 252 
0 0 253 
0 0 245 
0 0 253 
0 0 248 
0 0 249 
0 0 252 
0 0 250 
0 0 252 
0 0 249 
0 0 252 
0 0 254 
0 0 248 
0 0 250 
0 0 250 
0 0 252 
0 0 249 
0 0 250 
0 0 252 
0 0 245 
0 0 241 
0 0 254 
0 0 248 
0 0 250 
0 0 248 
0 0 246 
0 0 252 
0 0 250 
0 0 249 
0 0 248 
0 0 252 
0 0 242 
0 0 252 
0 0 246 
0 0 245 
0 0 245 
0 0 242 
0 0 246 
0 0 249 
0 0 244 
0 0 248 
0 0 248 
0 0 246 
0 0 249 
0 0 244 
0 0 246 
0 0 246 
0 0 242 
0 0 234 
0 0 244 
0 0 242 
0 0 245 
0 0 246 
0 0 244 
0 0 240 
0 0 240 
0 0 237 
0 0 240 
0 0 238 
0 0 241 
0 0 245 
0 0 237 
0 0 236 
0 0 241 
0 0 237 
0 0 226 
0 0 234 
0 0 238 
0 0 241 
0 0 234 
0 0 233 
0 0 228 
0 0 226 
0 0 233 
0 0 230 
0 0 227 
0 0 228 
0 0 224 
0 0 233 
0 0 226 
0 0 220 
0 0 228 
0 0 238 
0 0 227 
0 0 226 
0 0 230 
0 0 218 
0 0 204 
0 0 228 
0 0 217 
0 0 217 
0 0 221 
0 0 212 
0 0 214 
0 0 201 
0 0 218 
0 0 204 
0 0 212 
0 0 188 
0 0 206 
0 0 212 
0 0 182 
0 0 191 
0 0 188 
0 0 182 
0 0 191 
0 0 189 
0 0 161 
0 0 159 
0 0 165 
0 0 147 
0 0 144 
0 0 108 
0 0 111 
189 204 231 
216 232 255 
216 232 255 
202 213 234 
92 0 0 
89 0 0 
107 0 0 
124 0 0 
132 0 0 
137 0 0 
155 0 0 
137 0 0 
154 0 0 
147 0 0 
153 0 0 
171 0 0 
136 0 0 
161 0 0 
166 0 0 
171 0 0 
171 0 0 
172 0 0 
169 0 0 
175 0 0 
184 0 0 
171 0 0 
181 0 0 
186 0 0 
179 0 0 
189 0 0 
178 0 0 
193 0 0 
189 0 0 
191 0 0 
187 0 0 
183 0 0 
194 0 0 
193 0 0 
193 0 0 
194 0 0 
190 0 0 
197 0 0 
207 0 0 
203 0 0 
193 0 0 
197 0 0 
199 0 0 
193 0 0 
204 0 0 
202 0 0 
195 0 0 
203 0 0 
200 0 0 
209 0 0 
199 0 0 
202 0 0 
203 0 0 
207 0 0 
206 0 0 
200 0 0 
202 0 0 
208 0 0 
210 0 0 
214 0 0 
207 0 0 
207 0 0 
198 0 0 
205 0 0 
207 0 0 
203 0 0 
214 0 0 
210 0 0 
214 0 0 
210 0 0 
202 0 0 
212 0 0 
205 0 0 
210 0 0 
210 0 0 
208 0 0 
209 0 0 
207 0 0 
209 0 0 
210 0 0 
209 0 0 
214 0 0 
213 0 0 
211 0 0 
218 0 0 
218 0 0 
207 0 0 
214 0 0 
215 0 0 
216 0 0 
213 0 0 
211 0 0 
210 0 0 
214 0 0 
212 0 0 
216 0 0 
213 0 0 
212 0 0 
212 0 0 
216 0 0 
214 0 0 
215 0 0 
210 0 0 
211 0 0 
211 0 0 
216 0 0 
210 0 0 
216 0 0 
216 0 0 
216 0 0 
213 0 0 
215 0 0 
218 0 0 
212 0 0 
217 0 0 
216 0 0 
215 0 0 
217 0 0 
219 0 0 
220 0 0 
217 0 0 
215 0 0 
218 0 0 
216 0 0 
215 0 0 
217 0 0 
216 0 0 
218 0 0 
220 0 0 
217 0 0 
212 0 0 
219 0 0 
215 0 0 
220 0 0 
215 0 0 
218 0 0 
216 0 0 
213 0 0 
218 0 0 
220 0 0 
217 0 0 
219 0 0 
217 0 0 
216 0 0 
222 0 0 
217 0 0 
221 0 0 
220 0 0 
217 0 0 
219 0 0 
219 0 0 
220 0 0 
221 0 0 
220 0 0 
217 0 0 
221 0 0 
219 0 0 
217 0 0 
221 0 0 
216 0 0 
217 0 0 
217 0 0 
219 0 0 
215 0 0 
221 0 0 
216 0 0 
216 0 0 
216 0 0 
218 0 0 
220 0 0 
217 0 0 
221 0 0 
218 0 0 
221 0 0 
220 0 0 
219 0 0 
211 0 0 
224 0 0 
222 0 0 
219 0 0 
222 0 0 
220 0 0 
217 0 0 
217 0 0 
217 0 0 
219 0 0 
222 0 0 
216 0 0 
219 0 0 
219 0 0 
217 0 0 
217 0 0 
217 0 0 
222 0 0 
220 0 0 
217 0 0 
223 0 0 
217 0 0 
0 0 254 
0 0 254 
0 0 255 
0 0 255 
0 0 255 
0 0 254 
0 0 254 
0 0 254 
0 0 255 
0 0 254 
0 0 255 
0 0 254 
0 0 254 
0 0 253 
0 0 255 
0 0 254 
0 0 254 
0 0 253 
0 0 255 
0 0 254 
0 0 254 
0 0 255 
0 0 253 
0 0 253 
0 0 255 
0 0 254 
0 0 254 
0 0 254 
0 0 254 
0 0 252 
0 0 254 
0 0 253 
0 0 253 
0 0 252 
0 0 255 
0 0 254 
0 0 254 
0 0 255 
0 0 254 
0 0 254 
0 0 255 
0 0 254 
0 0 253 
0 0 254 
0 0 255 
0 0 253 
0 0 254 
0 0 254 
0 0 252 
0 0 253 
0 0 253 
0 0 250 
0 0 254 
0 0 255 
0 0 254 
0 0 253 
0 0 249 
0 0 253 
0 0 253 
0 0 252 
0 0 253 
0 0 252 
0 0 252 
0 0 250 
0 0 253 
0 0 253 
0 0 252 
0 0 250 
0 0 253 
0 0 253 
0 0 252 
0 0 252 
0 0 253 
0 0 255 
0 0 250 
0 0 250 
0 0 248 
0 0 249 
0 0 252 
0 0 250 
0 0 253 
0 0 252 
0 0 249 
0 0 255 
0 0 253 
0 0 254 
0 0 252 
0 0 254 
0 0 249 
0 0 253 
0 0 249 
0 0 253 
0 0 250 
0 0 252 
0 0 249 
0 0 252 
0 0 249 
0 0 250 
0 0 249 
0 0 249 
0 0 248 
0 0 253 
0 0 249 
0 0 248 
0 0 249 
0 0 248 
0 0 245 
0 0 249 
0 0 250 
0 0 246 
0 0 250 
0 0 249 
0 0 250 
0 0 244 
0 0 244 
0 0 244 
0 0 246 
0 0 248 
0 0 248 
0 0 245 
0 0 248 
0 0 248 
0 0 240 
0 0 240 
0 0 241 
0 0 245 
0 0 249 
0 0 246 
0 0 246 
0 0 240 
0 0 241 
0 0 246 
0 0 245 
0 0 248 
0 0 242 
0 0 245 
0 0 244 
0 0 240 
0 0 242 
0 0 241 
0 0 245 
0 0 246 
0 0 246 
0 0 244 
0 0 233 
0 0 240 
0 0 245 
0 0 241 
0 0 233 
0 0 238 
0 0 233 
0 0 236 
0 0 240 
0 0 236 
0 0 227 
0 0 240 
0 0 224 
0 0 224 
0 0 220 
0 0 237 
0 0 230 
0 0 238 
0 0 231 
0 0 240 
0 0 226 
0 0 231 
0 0 224 
0 0 228 
0 0 217 
0 0 231 
0 0 233 
0 0 220 
0 0 223 
0 0 224 
0 0 209 
0 0 223 
0 0 207 
0 0 207 
0 0 204 
0 0 203 
0 0 206 
0 0 193 
0 0 214 
0 0 189 
0 0 199 
0 0 194 
0 0 199 
0 0 193 
0 0 173 
0 0 179 
0 0 167 
0 0 165 
0 0 155 
0 0 155 
0 0 151 
0 0 137 
0 0 137 
0 0 99 
164 177 201 
216 233 255 
216 233 255 
169 177 194 
96 0 0 
99 0 0 
116 0 0 
119 0 0 
112 0 0 
133 0 0 
136 0 0 
140 0 0 
139 0 0 
162 0 0 
166 0 0 
170 0 0 
160 0 0 
165 0 0 
178 0 0 
172 0 0 
161 0 0 
171 0 0 
178 0 0 
182 0 0 
184 0 0 
179 0 0 
174 0 0 
186 0 0 
184 0 0 
192 0 0 
187 0 0 
185 0 0 
189 0 0 
181 0 0 
187 0 0 
198 0 0 
188 0 0 
180 0 0 
194 0 0 
198 0 0 
203 0 0 
198 0 0 
190 0 0 
198 0 0 
191 0 0 
197 0 0 
196 0 0 
205 0 0 
206 0 0 
198 0 0 
202 0 0 
196 0 0 
205 0 0 
192 0 0 
205 0 0 
198 0 0 
206 0 0 
202 0 0 
205 0 0 
204 0 0 
207 0 0 
210 0 0 
207 0 0 
206 0 0 
212 0 0 
207 0 0 
208 0 0 
212 0 0 
212 0 0 
206 0 0 
207 0 0 
208 0 0 
210 0 0 
208 0 0 
209 0 0 
209 0 0 
213 0 0 
208 0 0 
211 0 0 
207 0 0 
208 0 0 
214 0 0 
204 0 0 
211 0 0 
211 0 0 
210 0 0 
209 0 0 
212 0 0 
205 0 0 
212 0 0 
206 0 0 
211 0 0 
215 0 0 
213 0 0 
214 0 0 
218 0 0 
215 0 0 
215 0 0 
205 0 0 
218 0 0 
213 0 0 
215 0 0 
216 0 0 
214 0 0 
217 0 0 
212 0 0 
211 0 0 
211 0 0 
218 0 0 
210 0 0 
214 0 0 
216 0 0 
217 0 0 
220 0 0 
215 0 0 
215 0 0 
214 0 0 
215 0 0 
217 0 0 
216 0 0 
215 0 0 
220 0 0 
215 0 0 
213 0 0 
218 0 0 
215 0 0 
217 0 0 
221 0 0 
211 0 0 
218 0 0 
217 0 0 
217 0 0 
212 0 0 
222 0 0 
221 0 0 
216 0 0 
211 0 0 
218 0 0 
218 0 0 
219 0 0 
219 0 0 
217 0 0 
215 0 0 
219 0 0 
220 0 0 
220 0 0 
221 0 0 
218 0 0 
218 0 0 
216 0 0 
218 0 0 
216 0 0 
218 0 0 
216 0 0 
217 0 0 
215 0 0 
216 0 0 
216 0 0 
218 0 0 
219 0 0 
219 0 0 
218 0 0 
217 0 0 
217 0 0 
218 0 0 
216 0 0 
218 0 0 
211 0 0 
219 0 0 
221 0 0 
218 0 0 
220 0 0 
216 0 0 
217 0 0 
221 0 0 
214 0 0 
222 0 0 
218 0 0 
217 0 0 
219 0 0 
218 0 0 
223 0 0 
220 0 0 
217 0 0 
215 0 0 
219 0 0 
217 0 0 
220 0 0 
220 0 0 
219 0 0 
220 0 0 
219 0 0 
221 0 0 
219 0 0 
215 0 0 
218 0 0 
217 0 0 
219 0 0 
220 0 0 
218 0 0 
219 0 0 
217 0 0 
0 0 255 
0 0 254 
0 0 255 
0 0 254 
0 0 254 
0 0 255 
0 0 254 
0 0 254 
0 0 254 
0 0 254 
0 0 255 
0 0 255 
0 0 254 
0 0 254 
0 0 254 
0 0 255 
0 0 252 
0 0 255 
0 0 255 
0 0 254 
0 0 255 
0 0 255 
0 0 255 
0 0 253 
0 0 254 
0 0 255 
0 0 252 
0 0 253 
0 0 255 
0 0 254 
0 0 255 
0 0 254 
0 0 255 
0 0 253 
0 0 252 
0 0 253 
0 0 254 
0 0 255 
0 0 254 
0 0 255 
0 0 254 
0 0 254 
0 0 255 
0 0 254 
0 0 253 
0 0 254 
0 0 254 
0 0 254 
0 0 252 
0 0 249 
0 0 255 
0 0 254 
0 0 254 
0 0 254 
0 0 253 
0 0 252 
0 0 254 
0 0 254 
0 0 253 
0 0 254 
0 0 253 
0 0 252 
0 0 253 
0 0 254 
0 0 255 
0 0 252 
0 0 252 
0 0 254 
0 0 250 
0 0 254 
0 0 250 
0 0 248 
0 0 253 
0 0 252 
0 0 253 
0 0 253 
0 0 253 
0 0 252 
0 0 255 
0 0 250 
0 0 253 
0 0 249 
0 0 249 
0 0 253 
0 0 249 
0 0 250 
0 0 253 
0 0 250 
0 0 245 
0 0 248 
0 0 246 
0 0 250 
0 0 250 
0 0 254 
0 0 253 
0 0 254 
0 0 245 
0 0 250 
0 0 252 
0 0 248 
0 0 250 
0 0 252 
0 0 249 
0 0 246 
0 0 248 
0 0 253 
0 0 248 
0 0 250 
0 0 246 
0 0 249 
0 0 250 
0 0 248 
0 0 246 
0 0 244 
0 0 244 
0 0 237 
0 0 237 
0 0 246 
0 0 250 
0 0 244 
0 0 238 
0 0 245 
0 0 244 
0 0 246 
0 0 245 
0 0 249 
0 0 246 
0 0 245 
0 0 245 
0 0 241 
0 0 244 
0 0 246 
0 0 234 
0 0 241 
0 0 246 
0 0 241 
0 0 234 
0 0 234 
0 0 245 
0 0 234 
0 0 231 
0 0 237 
0 0 238 
0 0 231 
0 0 238 
0 0 237 
0 0 242 
0 0 234 
0 0 231 
0 0 234 
0 0 242 
0 0 230 
0 0 234 
0 0 228 
0 0 238 
0 0 238 
0 0 236 
0 0 231 
0 0 228 
0 0 227 
0 0 237 
0 0 230 
0 0 234 
0 0 224 
0 0 218 
0 0 230 
0 0 227 
0 0 211 
0 0 217 
0 0 227 
0 0 223 
0 0 224 
0 0 220 
0 0 221 
0 0 218 
0 0 224 
0 0 220 
0 0 215 
0 0 218 
0 0 209 
0 0 207 
0 0 211 
0 0 212 
0 0 188 
0 0 193 
0 0 177 
0 0 181 
0 0 193 
0 0 207 
0 0 173 
0 0 175 
0 0 177 
0 0 147 
0 0 159 
0 0 163 
0 0 128 
0 0 111 
0 0 111 
147 158 194 
216 233 255 
216 233 255 
154 154 169 
70 0 0 
103 0 0 
120 0 0 
124 0 0 
128 0 0 
136 0 0 
128 0 0 
152 0 0 
149 0 0 
167 0 0 
159 0 0 
168 0 0 
158 0 0 
165 0 0 
160 0 0 
166 0 0 
168 0 0 
172 0 0 
182 0 0 
177 0 0 
179 0 0 
191 0 0 
187 0 0 
174 0 0 
189 0 0 
183 0 0 
186 0 0 
185 0 0 
186 0 0 
192 0 0 
193 0 0 
202 0 0 
197 0 0 
201 0 0 
193 0 0 
199 0 0 
198 0 0 
195 0 0 
196 0 0 
200 0 0 
200 0 0 
195 0 0 
200 0 0 
208 0 0 
202 0 0 
203 0 0 
201 0 0 
193 0 0 
203 0 0 
204 0 0 
201 0 0 
204 0 0 
201 0 0 
208 0 0 
209 0 0 
208 0 0 
210 0 0 
210 0 0 
204 0 0 
206 0 0 
201 0 0 
211 0 0 
208 0 0 
206 0 0 
215 0 0 
209 0 0 
204 0 0 
212 0 0 
212 0 0 
207 0 0 
213 0 0 
211 0 0 
205 0 0 
207 0 0 
211 0 0 
205 0 0 
213 0 0 
209 0 0 
205 0 0 
209 0 0 
214 0 0 
205 0 0 
209 0 0 
208 0 0 
212 0 0 
210 0 0 
211 0 0 
210 0 0 
222 0 0 
215 0 0 
209 0 0 
210 0 0 
218 0 0 
215 0 0 
215 0 0 
216 0 0 
213 0 0 
216 0 0 
213 0 0 
214 0 0 
214 0 0 
212 0 0 
215 0 0 
214 0 0 
216 0 0 
217 0 0 
215 0 0 
216 0 0 
216 0 0 
218 0 0 
214 0 0 
217 0 0 
212 0 0 
212 0 0 
220 0 0 
216 0 0 
217 0 0 
219 0 0 
215 0 0 
217 0 0 
221 0 0 
217 0 0 
217 0 0 
213 0 0 
214 0 0 
217 0 0 
219 0 0 
216 0 0 
215 0 0 
218 0 0 
215 0 0 
216 0 0 
216 0 0 
216 0 0 
217 0 0 
214 0 0 
218 0 0 
216 0 0 
217 0 0 
218 0 0 
216 0 0 
215 0 0 
220 0 0 
217 0 0 
220 0 0 
217 0 0 
213 0 0 
216 0 0 
217 0 0 
220 0 0 
219 0 0 
218 0 0 
213 0 0 
215 0 0 
217 0 0 
219 0 0 
219 0 0 
215 0 0 
225 0 0 
219 0 0 
222 0 0 
216 0 0 
219 0 0 
218 0 0 
215 0 0 
219 0 0 
219 0 0 
220 0 0 
217 0 0 
217 0 0 
219 0 0 
218 0 0 
220 0 0 
219 0 0 
215 0 0 
219 0 0 
220 0 0 
220 0 0 
221 0 0 
220 0 0 
217 0 0 
218 0 0 
218 0 0 
223 0 0 
223 0 0 
219 0 0 
219 0 0 
221 0 0 
218 0 0 
223 0 0 
219 0 0 
219 0 0 
218 0 0 
218 0 0 
219 0 0 
218 0 0 
219 0 0 
219 0 0 
0 0 255 
0 0 254 
0 0 254 
0 0 255 
0 0 254 
0 0 254 
0 0 255 
0 0 255 
0 0 254 
0 0 255 
0 0 253 
0 0 254 
0 0 255 
0 0 255 
0 0 255 
0 0 255 
0 0 255 
0 0 255 
0 0 255 
0 0 254 
0 0 253 
0 0 255 
0 0 255 
0 0 254 
0 0 255 
0 0 254 
0 0 254 
0 0 253 
0 0 255 
0 0 255 
0 0 254 
0 0 254 
0 0 254 
0 0 255 
0 0 253 
0 0 255 
0 0 255 
0 0 253 
0 0 254 
0 0 253 
0 0 254 
0 0 255 
0 0 254 
0 0 250 
0 0 254 
0 0 255 
0 0 249 
0 0 254 
0 0 254 
0 0 254 
0 0 254 
0 0 255 
0 0 255 
0 0 254 
0 0 253 
0 0 255 
0 0 250 
0 0 253 
0 0 253 
0 0 253 
0 0 255 
0 0 252 
0 0 255 
0 0 252 
0 0 254 
0 0 255 
0 0 246 
0 0 252 
0 0 253 
0 0 252 
0 0 254 
0 0 252 
0 0 250 
0 0 250 
0 0 252 
0 0 248 
0 0 253 
0 0 249 
0 0 246 
0 0 250 
0 0 250 
0 0 250 
0 0 250 
0 0 250 
0 0 252 
0 0 252 
0 0 248 
0 0 249 
0 0 252 
0 0 253 
0 0 250 
0 0 252 
0 0 250 
0 0 250 
0 0 249 
0 0 252 
0 0 249 
0 0 249 
0 0 249 
0 0 250 
0 0 252 
0 0 244 
0 0 246 
0 0 249 
0 0 246 
0 0 252 
0 0 248 
0 0 254 
0 0 249 
0 0 246 
0 0 250 
0 0 246 
0 0 245 
0 0 252 
0 0 246 
0 0 249 
0 0 241 
0 0 250 
0 0 246 
0 0 244 
0 0 246 
0 0 248 
0 0 252 
0 0 250 
0 0 242 
0 0 248 
0 0 237 
0 0 246 
0 0 240 
0 0 246 
0 0 238 
0 0 246 
0 0 244 
0 0 240 
0 0 244 
0 0 240 
0 0 242 
0 0 237 
0 0 236 
0 0 238 
0 0 238 
0 0 236 
0 0 238 
0 0 238 
0 0 244 
0 0 242 
0 0 242 
0 0 244 
0 0 240 
0 0 236 
0 0 236 
0 0 241 
0 0 230 
0 0 241 
0 0 224 
0 0 241 
0 0 236 
0 0 230 
0 0 227 
0 0 237 
0 0 233 
0 0 237 
0 0 230 
0 0 209 
0 0 223 
0 0 236 
0 0 231 
0 0 218 
0 0 226 
0 0 220 
0 0 226 
0 0 220 
0 0 221 
0 0 227 
0 0 215 
0 0 209 
0 0 206 
0 0 224 
0 0 226 
0 0 207 
0 0 226 
0 0 204 
0 0 191 
0 0 209 
0 0 188 
0 0 186 
0 0 171 
0 0 184 
0 0 193 
0 0 157 
0 0 181 
0 0 167 
0 0 157 
0 0 169 
0 0 142 
0 0 135 
0 0 144 
0 0 102 
86 93 130 
217 233 255 
217 233 255 
126 121 133 
86 0 0 
95 0 0 
105 0 0 
125 0 0 
138 0 0 
140 0 0 
138 0 0 
152 0 0 
144 0 0 
160 0 0 
166 0 0 
153 0 0 
176 0 0 
169 0 0 
174 0 0 
167 0 0 
170 0 0 
175 0 0 
184 0 0 
173 0 0 
191 0 0 
184 0 0 
181 0 0 
167 0 0 
182 0 0 
186 0 0 
180 0 0 
197 0 0 
193 0 0 
192 0 0 
180 0 0 
188 0 0 
184 0 0 
198 0 0 
201 0 0 
194 0 0 
195 0 0 
194 0 0 
194 0 0 
202 0 0 
197 0 0 
192 0 0 
201 0 0 
204 0 0 
210 0 0 
198 0 0 
201 0 0 
205 0 0 
199 0 0 
209 0 0 
204 0 0 
204 0 0 
206 0 0 
205 0 0 
210 0 0 
206 0 0 
212 0 0 
209 0 0 
206 0 0 
195 0 0 
207 0 0 
212 0 0 
210 0 0 
203 0 0 
201 0 0 
216 0 0 
206 0 0 
213 0 0 
210 0 0 
215 0 0 
213 0 0 
209 0 0 
217 0 0 
214 0 0 
215 0 0 
207 0 0 
213 0 0 
212 0 0 
206 0 0 
216 0 0 
211 0 0 
212 0 0 
217 0 0 
209 0 0 
210 0 0 
215 0 0 
211 0 0 
212 0 0 
220 0 0 
211 0 0 
216 0 0 
212 0 0 
210 0 0 
212 0 0 
215 0 0 
206 0 0 
213 0 0 
217 0 0 
216 0 0 
216 0 0 
215 0 0 
220 0 0 
211 0 0 
216 0 0 
213 0 0 
219 0 0 
218 0 0 
213 0 0 
218 0 0 
207 0 0 
219 0 0 
212 0 0 
215 0 0 
215 0 0 
214 0 0 
214 0 0 
220 0 0 
214 0 0 
215 0 0 
213 0 0 
215 0 0 
208 0 0 
223 0 0 
218 0 0 
217 0 0 
217 0 0 
215 0 0 
219 0 0 
216 0 0 
217 0 0 
216 0 0 
217 0 0 
214 0 0 
219 0 0 
220 0 0 
221 0 0 
216 0 0 
216 0 0 
218 0 0 
218 0 0 
221 0 0 
220 0 0 
215 0 0 
218 0 0 
222 0 0 
216 0 0 
219 0 0 
216 0 0 
219 0 0 
216 0 0 
214 0 0 
217 0 0 
218 0 0 
219 0 0 
216 0 0 
220 0 0 
218 0 0 
221 0 0 
217 0 0 
222 0 0 
216 0 0 
216 0 0 
217 0 0 
218 0 0 
218 0 0 
221 0 0 
220 0 0 
218 0 0 
222 0 0 
216 0 0 
220 0 0 
220 0 0 
220 0 0 
218 0 0 
219 0 0 
218 0 0 
217 0 0 
222 0 0 
219 0 0 
222 0 0 
217 0 0 
216 0 0 
223 0 0 
222 0 0 
223 0 0 
215 0 0 
217 0 0 
217 0 0 
217 0 0 
221 0 0 
221 0 0 
218 0 0 
219 0 0 
218 0 0 
219 0 0 
220 0 0 
219 0 0 
221 0 0 
0 0 254 
0 0 255 
0 0 254 
0 0 253 
0 0 255 
0 0 253 
0 0 255 
0 0 254 
0 0 254 
0 0 255 
0 0 255 
0 0 254 
0 0 255 
0 0 254 
0 0 255 
0 0 254 
0 0 253 
0 0 255 
0 0 254 
0 0 255 
0 0 255 
0 0 254 
0 0 254 
0 0 255 
0 0 255 
0 0 255 
0 0 253 
0 0 255 
0 0 254 
0 0 253 
0 0 254 
0 0 253 
0 0 254 
0 0 254 
0 0 254 
0 0 254 
0 0 255 
0 0 254 
0 0 254 
0 0 248 
0 0 255 
0 0 253 
0 0 255 
0 0 252 
0 0 253 
0 0 254 
0 0 254 
0 0 253 
0 0 253 
0 0 254 
0 0 255 
0 0 253 
0 0 249 
0 0 255 
0 0 254 
0 0 254 
0 0 252 
0 0 252 
0 0 252 
0 0 254 
0 0 253 
0 0 252 
0 0 254 
0 0 252 
0 0 255 
0 0 250 
0 0 253 
0 0 248 
0 0 254 
0 0 253 
0 0 250 
0 0 252 
0 0 253 
0 0 253 
0 0 250 
0 0 242 
0 0 253 
0 0 252 
0 0 254 
0 0 248 
0 0 253 
0 0 252 
0 0 248 
0 0 252 
0 0 253 
0 0 253 
0 0 253 
0 0 253 
0 0 250 
0 0 248 
0 0 253 
0 0 253 
0 0 248 
0 0 246 
0 0 249 
0 0 249 
0 0 252 
0 0 249 
0 0 246 
0 0 253 
0 0 248 
0 0 250 
0 0 250 
0 0 250 
0 0 253 
0 0 249 
0 0 250 
0 0 250 
0 0 244 
0 0 248 
0 0 248 
0 0 249 
0 0 249 
0 0 249 
0 0 241 
0 0 250 
0 0 249 
0 0 248 
0 0 244 
0 0 244 
0 0 248 
0 0 249 
0 0 248 
0 0 246 
0 0 244 
0 0 242 
0 0 245 
0 0 244 
0 0 245 
0 0 245 
0 0 240 
0 0 244 
0 0 242 
0 0 242 
0 0 241 
0 0 245 
0 0 240 
0 0 245 
0 0 248 
0 0 241 
0 0 237 
0 0 238 
0 0 231 
0 0 241 
0 0 236 
0 0 237 
0 0 234 
0 0 236 
0 0 238 
0 0 231 
0 0 231 
0 0 230 
0 0 230 
0 0 231 
0 0 245 
0 0 230 
0 0 230 
0 0 236 
0 0 226 
0 0 240 
0 0 234 
0 0 218 
0 0 237 
0 0 212 
0 0 220 
0 0 228 
0 0 212 
0 0 231 
0 0 214 
0 0 224 
0 0 218 
0 0 218 
0 0 221 
0 0 204 
0 0 211 
0 0 214 
0 0 209 
0 0 209 
0 0 206 
0 0 204 
0 0 209 
0 0 211 
0 0 204 
0 0 199 
0 0 201 
0 0 198 
0 0 199 
0 0 184 
0 0 179 
0 0 188 
0 0 165 
0 0 163 
0 0 173 
0 0 153 
0 0 159 
0 0 142 
0 0 130 
0 0 92 
43 46 102 
217 233 255 
217 233 255 
99 61 67 
86 0 0 
99 0 0 
117 0 0 
125 0 0 
118 0 0 
134 0 0 
141 0 0 
153 0 0 
139 0 0 
152 0 0 
155 0 0 
150 0 0 
162 0 0 
172 0 0 
170 0 0 
168 0 0 
166 0 0 
170 0 0 
177 0 0 
191 0 0 
182 0 0 
176 0 0 
177 0 0 
197 0 0 
183 0 0 
187 0 0 
181 0 0 
183 0 0 
193 0 0 
190 0 0 
178 0 0 
186 0 0 
199 0 0 
199 0 0 
192 0 0 
195 0 0 
191 0 0 
202 0 0 
201 0 0 
201 0 0 
199 0 0 
208 0 0 
199 0 0 
191 0 0 
204 0 0 
197 0 0 
202 0 0 
209 0 0 
201 0 0 
201 0 0 
209 0 0 
206 0 0 
201 0 0 
204 0 0 
200 0 0 
210 0 0 
205 0 0 
204 0 0 
211 0 0 
212 0 0 
208 0 0 
211 0 0 
199 0 0 
208 0 0 
210 0 0 
205 0 0 
204 0 0 
206 0 0 
211 0 0 
210 0 0 
214 0 0 
212 0 0 
211 0 0 
216 0 0 
211 0 0 
222 0 0 
211 0 0 
207 0 0 
211 0 0 
208 0 0 
213 0 0 
211 0 0 
209 0 0 
209 0 0 
213 0 0 
216 0 0 
214 0 0 
210 0 0 
212 0 0 
213 0 0 
212 0 0 
207 0 0 
214 0 0 
212 0 0 
219 0 0 
219 0 0 
216 0 0 
212 0 0 
216 0 0 
218 0 0 
216 0 0 
219 0 0 
217 0 0 
213 0 0 
212 0 0 
214 0 0 
217 0 0 
214 0 0 
216 0 0 
218 0 0 
212 0 0 
220 0 0 
215 0 0 
216 0 0 
215 0 0 
218 0 0 
219 0 0 
215 0 0 
216 0 0 
216 0 0 
214 0 0 
220 0 0 
215 0 0 
212 0 0 
218 0 0 
217 0 0 
217 0 0 
218 0 0 
213 0 0 
222 0 0 
217 0 0 
215 0 0 
218 0 0 
218 0 0 
223 0 0 
218 0 0 
220 0 0 
218 0 0 
220 0 0 
218 0 0 
218 0 0 
219 0 0 
217 0 0 
218 0 0 
219 0 0 
216 0 0 
223 0 0 
218 0 0 
215 0 0 
221 0 0 
213 0 0 
216 0 0 
217 0 0 
219 0 0 
217 0 0 
218 0 0 
220 0 0 
220 0 0 
218 0 0 
213 0 0 
222 0 0 
215 0 0 
221 0 0 
220 0 0 
214 0 0 
223 0 0 
217 0 0 
223 0 0 
221 0 0 
218 0 0 
220 0 0 
217 0 0 
219 0 0 
216 0 0 
224 0 0 
221 0 0 
222 0 0 
220 0 0 
216 0 0 
218 0 0 
219 0 0 
219 0 0 
220 0 0 
219 0 0 
220 0 0 
220 0 0 
220 0 0 
219 0 0 
220 0 0 
217 0 0 
219 0 0 
218 0 0 
220 0 0 
222 0 0 
219 0 0 
217 0 0 
219 0 0 
216 0 0 
0 0 255 
0 0 255 
0 0 255 
0 0 255 
0 0 254 
0 0 255 
0 0 255 
0 0 254 
0 0 255 
0 0 255 
0 0 255 
0 0 255 
0 0 253 
0 0 254 
0 0 254 
0 0 255 
0 0 254 
0 0 255 
0 0 255 
0 0 254 
0 0 255 
0 0 253 
0 0 253 
0 0 255 
0 0 255 
0 0 254 
0 0 254 
0 0 255 
0 0 255 
0 0 255 
0 0 254 
0 0 254 
0 0 255 
0 0 255 
0 0 255 
0 0 255 
0 0 253 
0 0 255 
0 0 252 
0 0 255 
0 0 254 
0 0 255 
0 0 254 
0 0 253 
0 0 253 
0 0 253 
0 0 253 
0 0 255 
0 0 255 
0 0 254 
0 0 249 
0 0 255 
0 0 253 
0 0 254 
0 0 254 
0 0 253 
0 0 252 
0 0 254 
0 0 250 
0 0 255 
0 0 252 
0 0 252 
0 0 253 
0 0 253 
0 0 254 
0 0 250 
0 0 250 
0 0 253 
0 0 249 
0 0 253 
0 0 253 
0 0 255 
0 0 250 
0 0 250 
0 0 252 
0 0 252 
0 0 254 
0 0 255 
0 0 255 
0 0 246 
0 0 249 
0 0 252 
0 0 250 
0 0 250 
0 0 249 
0 0 250 
0 0 254 
0 0 246 
0 0 253 
0 0 252 
0 0 248 
0 0 250 
0 0 252 
0 0 250 
0 0 250 
0 0 250 
0 0 250 
0 0 254 
0 0 246 
0 0 252 
0 0 249 
0 0 246 
0 0 252 
0 0 250 
0 0 249 
0 0 248 
0 0 250 
0 0 245 
0 0 242 
0 0 246 
0 0 248 
0 0 249 
0 0 245 
0 0 250 
0 0 246 
0 0 242 
0 0 246 
0 0 241 
0 0 242 
0 0 253 
0 0 245 
0 0 248 
0 0 245 
0 0 244 
0 0 240 
0 0 244 
0 0 252 
0 0 248 
0 0 237 
0 0 248 
0 0 242 
0 0 242 
0 0 244 
0 0 240 
0 0 245 
0 0 237 
0 0 238 
0 0 242 
0 0 248 
0 0 242 
0 0 233 
0 0 237 
0 0 250 
0 0 240 
0 0 234 
0 0 236 
0 0 244 
0 0 237 
0 0 236 
0 0 230 
0 0 242 
0 0 226 
0 0 234 
0 0 240 
0 0 238 
0 0 237 
0 0 230 
0 0 238 
0 0 228 
0 0 233 
0 0 234 
0 0 233 
0 0 238 
0 0 223 
0 0 236 
0 0 234 
0 0 217 
0 0 215 
0 0 221 
0 0 217 
0 0 221 
0 0 223 
0 0 218 
0 0 220 
0 0 209 
0 0 212 
0 0 221 
0 0 206 
0 0 215 
0 0 201 
0 0 206 
0 0 194 
0 0 214 
0 0 199 
0 0 198 
0 0 199 
0 0 209 
0 0 182 
0 0 184 
0 0 182 
0 0 151 
0 0 153 
0 0 153 
0 0 157 
0 0 142 
0 0 125 
0 0 128 
0 0 88 
0 0 102 
207 223 245 
208 224 245 
61 0 0 
98 0 0 
103 0 0 
102 0 0 
127 0 0 
114 0 0 
136 0 0 
137 0 0 
146 0 0 
136 0 0 
147 0 0 
153 0 0 
176 0 0 
167 0 0 
163 0 0 
171 0 0 
178 0 0 
172 0 0 
172 0 0 
173 0 0 
178 0 0 
191 0 0 
193 0 0 
187 0 0 
186 0 0 
181 0 0 
200 0 0 
197 0 0 
195 0 0 
201 0 0 
189 0 0 
195 0 0 
192 0 0 
194 0 0 
194 0 0 
195 0 0 
199 0 0 
200 0 0 
200 0 0 
189 0 0 
198 0 0 
210 0 0 
195 0 0 
207 0 0 
195 0 0 
199 0 0 
196 0 0 
207 0 0 
204 0 0 
199 0 0 
206 0 0 
207 0 0 
200 0 0 
205 0 0 
204 0 0 
210 0 0 
201 0 0 
206 0 0 
207 0 0 
209 0 0 
203 0 0 
207 0 0 
204 0 0 
204 0 0 
211 0 0 
212 0 0 
206 0 0 
198 0 0 
207 0 0 
202 0 0 
210 0 0 
203 0 0 
205 0 0 
207 0 0 
214 0 0 
208 0 0 
210 0 0 
216 0 0 
215 0 0 
209 0 0 
212 0 0 
212 0 0 
218 0 0 
214 0 0 
208 0 0 
212 0 0 
210 0 0 
209 0 0 
209 0 0 
210 0 0 
212 0 0 
205 0 0 
214 0 0 
212 0 0 
214 0 0 
216 0 0 
206 0 0 
215 0 0 
218 0 0 
214 0 0 
221 0 0 
215 0 0 
210 0 0 
218 0 0 
215 0 0 
215 0 0 
217 0 0 
217 0 0 
213 0 0 
217 0 0 
218 0 0 
216 0 0 
208 0 0 
217 0 0 
218 0 0 
215 0 0 
220 0 0 
218 0 0 
220 0 0 
209 0 0 
213 0 0 
212 0 0 
214 0 0 
219 0 0 
220 0 0 
216 0 0 
218 0 0 
218 0 0 
214 0 0 
217 0 0 
215 0 0 
223 0 0 
218 0 0 
213 0 0 
219 0 0 
219 0 0 
220 0 0 
214 0 0 
215 0 0 
218 0 0 
214 0 0 
216 0 0 
217 0 0 
220 0 0 
215 0 0 
220 0 0 
218 0 0 
218 0 0 
219 0 0 
219 0 0 
216 0 0 
221 0 0 
216 0 0 
214 0 0 
215 0 0 
220 0 0 
214 0 0 
219 0 0 
213 0 0 
220 0 0 
214 0 0 
219 0 0 
220 0 0 
220 0 0 
221 0 0 
216 0 0 
222 0 0 
222 0 0 
221 0 0 
217 0 0 
219 0 0 
220 0 0 
222 0 0 
221 0 0 
219 0 0 
220 0 0 
217 0 0 
220 0 0 
221 0 0 
218 0 0 
219 0 0 
219 0 0 
221 0 0 
222 0 0 
221 0 0 
220 0 0 
220 0 0 
223 0 0 
219 0 0 
219 0 0 
219 0 0 
220 0 0 
220 0 0 
223 0 0 
223 0 0 
221 0 0 
219 0 0 
221 0 0 
218 0 0 
0 0 254 
0 0 255 
0 0 255 
0 0 255 
0 0 255 
0 0 254 
0 0 254 
0 0 255 
0 0 255 
0 0 254 
0 0 255 
0 0 255 
0 0 254 
0 0 255 
0 0 255 
0 0 255 
0 0 254 
0 0 254 
0 0 254 
0 0 255 
0 0 255 
0 0 255 
0 0 255 
0 0 253 
0 0 253 
0 0 254 
0 0 254 
0 0 254 
0 0 253 
0 0 254 
0 0 253 
0 0 255 
0 0 255 
0 0 255 
0 0 252 
0 0 255 
0 0 255 
0 0 254 
0 0 255 
0 0 254 
0 0 253 
0 0 254 
0 0 253 
0 0 252 
0 0 254 
0 0 254 
0 0 254 
0 0 254 
0 0 255 
0 0 252 
0 0 250 
0 0 253 
0 0 252 
0 0 252 
0 0 245 
0 0 254 
0 0 254 
0 0 254 
0 0 254 
0 0 253 
0 0 253 
0 0 254 
0 0 254 
0 0 255 
0 0 253 
0 0 254 
0 0 253 
0 0 253 
0 0 250 
0 0 252 
0 0 255 
0 0 252 
0 0 252 
0 0 254 
0 0 253 
0 0 255 
0 0 248 
0 0 253 
0 0 252 
0 0 250 
0 0 254 
0 0 252 
0 0 253 
0 0 254 
0 0 253 
0 0 255 
0 0 252 
0 0 252 
0 0 241 
0 0 248 
0 0 254 
0 0 246 
0 0 250 
0 0 253 
0 0 253 
0 0 250 
0 0 250 
0 0 250 
0 0 252 
0 0 254 
0 0 252 
0 0 250 
0 0 249 
0 0 249 
0 0 253 
0 0 252 
0 0 248 
0 0 248 
0 0 248 
0 0 249 
0 0 248 
0 0 245 
0 0 249 
0 0 244 
0 0 249 
0 0 250 
0 0 242 
0 0 252 
0 0 246 
0 0 242 
0 0 245 
0 0 238 
0 0 250 
0 0 245 
0 0 242 
0 0 249 
0 0 242 
0 0 245 
0 0 250 
0 0 245 
0 0 240 
0 0 240 
0 0 238 
0 0 240 
0 0 240 
0 0 244 
0 0 240 
0 0 241 
0 0 248 
0 0 241 
0 0 241 
0 0 237 
0 0 242 
0 0 237 
0 0 240 
0 0 236 
0 0 237 
0 0 238 
0 0 228 
0 0 245 
0 0 236 
0 0 234 
0 0 245 
0 0 234 
0 0 230 
0 0 237 
0 0 234 
0 0 226 
0 0 226 
0 0 230 
0 0 228 
0 0 237 
0 0 234 
0 0 237 
0 0 227 
0 0 224 
0 0 223 
0 0 233 
0 0 209 
0 0 230 
0 0 215 
0 0 217 
0 0 220 
0 0 224 
0 0 214 
0 0 223 
0 0 215 
0 0 204 
0 0 220 
0 0 211 
0 0 201 
0 0 203 
0 0 196 
0 0 204 
0 0 198 
0 0 203 
0 0 188 
0 0 188 
0 0 173 
0 0 186 
0 0 175 
0 0 179 
0 0 157 
0 0 179 
0 0 140 
0 0 147 
0 0 133 
0 0 102 
0 0 102 
198 213 236 
179 191 209 
58 0 0 
90 0 0 
89 0 0 
114 0 0 
125 0 0 
121 0 0 
140 0 0 
142 0 0 
142 0 0 
146 0 0 
153 0 0 
150 0 0 
148 0 0 
147 0 0 
172 0 0 
151 0 0 
166 0 0 
177 0 0 
179 0 0 
175 0 0 
188 0 0 
192 0 0 
179 0 0 
189 0 0 
195 0 0 
182 0 0 
191 0 0 
195 0 0 
192 0 0 
187 0 0 
199 0 0 
187 0 0 
191 0 0 
188 0 0 
190 0 0 
190 0 0 
188 0 0 
193 0 0 
192 0 0 
200 0 0 
193 0 0 
196 0 0 
193 0 0 
201 0 0 
205 0 0 
199 0 0 
203 0 0 
208 0 0 
200 0 0 
207 0 0 
207 0 0 
209 0 0 
202 0 0 
201 0 0 
211 0 0 
203 0 0 
203 0 0 
203 0 0 
211 0 0 
205 0 0 
201 0 0 
211 0 0 
212 0 0 
208 0 0 
206 0 0 
211 0 0 
210 0 0 
209 0 0 
212 0 0 
203 0 0 
207 0 0 
211 0 0 
213 0 0 
206 0 0 
205 0 0 
209 0 0 
212 0 0 
214 0 0 
208 0 0 
206 0 0 
214 0 0 
215 0 0 
218 0 0 
213 0 0 
217 0 0 
207 0 0 
213 0 0 
209 0 0 
215 0 0 
213 0 0 
215 0 0 
210 0 0 
210 0 0 
217 0 0 
214 0 0 
212 0 0 
217 0 0 
217 0 0 
212 0 0 
213 0 0 
217 0 0 
214 0 0 
211 0 0 
214 0 0 
215 0 0 
212 0 0 
220 0 0 
213 0 0 
214 0 0 
214 0 0 
216 0 0 
213 0 0 
218 0 0 
219 0 0 
210 0 0 
218 0 0 
217 0 0 
216 0 0 
219 0 0 
216 0 0 
217 0 0 
217 0 0 
215 0 0 
219 0 0 
219 0 0 
215 0 0 
218 0 0 
217 0 0 
215 0 0 
217 0 0 
218 0 0 
215 0 0 
215 0 0 
216 0 0 
219 0 0 
217 0 0 
217 0 0 
218 0 0 
218 0 0 
219 0 0 
217 0 0 
217 0 0 
215 0 0 
217 0 0 
219 0 0 
217 0 0 
217 0 0 
218 0 0 
218 0 0 
219 0 0 
216 0 0 
221 0 0 
218 0 0 
220 0 0 
216 0 0 
221 0 0 
221 0 0 
216 0 0 
215 0 0 
220 0 0 
221 0 0 
221 0 0 
218 0 0 
219 0 0 
218 0 0 
218 0 0 
219 0 0 
219 0 0 
219 0 0 
216 0 0 
216 0 0 
214 0 0 
222 0 0 
217 0 0 
215 0 0 
218 0 0 
217 0 0 
217 0 0 
221 0 0 
219 0 0 
218 0 0 
219 0 0 
222 0 0 
218 0 0 
218 0 0 
217 0 0 
220 0 0 
222 0 0 
220 0 0 
222 0 0 
219 0 0 
218 0 0 
218 0 0 
215 0 0 
221 0 0 
222 0 0 
223 0 0 
222 0 0 
219 0 0 
0 0 255 
0 0 253 
0 0 255 
0 0 255 
0 0 255 
0 0 253 
0 0 254 
0 0 255 
0 0 254 
0 0 254 
0 0 254 
0 0 255 
0 0 255 
0 0 255 
0 0 255 
0 0 255 
0 0 255 
0 0 255 
0 0 255 
0 0 254 
0 0 254 
0 0 253 
0 0 254 
0 0 255 
0 0 255 
0 0 255 
0 0 254 
0 0 255 
0 0 255 
0 0 255 
0 0 255 
0 0 255 
0 0 255 
0 0 254 
0 0 254 
0 0 253 
0 0 254 
0 0 250 
0 0 255 
0 0 253 
0 0 254 
0 0 254 
0 0 254 
0 0 254 
0 0 255 
0 0 253 
0 0 254 
0 0 255 
0 0 252 
0 0 255 
0 0 253 
0 0 254 
0 0 249 
0 0 254 
0 0 254 
0 0 252 
0 0 255 
0 0 253 
0 0 252 
0 0 254 
0 0 255 
0 0 254 
0 0 253 
0 0 254 
0 0 252 
0 0 250 
0 0 252 
0 0 254 
0 0 253 
0 0 254 
0 0 252 
0 0 249 
0 0 252 
0 0 245 
0 0 249 
0 0 254 
0 0 254 
0 0 253 
0 0 252 
0 0 250 
0 0 252 
0 0 250 
0 0 249 
0 0 253 
0 0 254 
0 0 253 
0 0 250 
0 0 252 
0 0 253 
0 0 252 
0 0 254 
0 0 255 
0 0 250 
0 0 245 
0 0 249 
0 0 248 
0 0 250 
0 0 252 
0 0 246 
0 0 253 
0 0 244 
0 0 249 
0 0 252 
0 0 245 
0 0 250 
0 0 248 
0 0 249 
0 0 250 
0 0 250 
0 0 249 
0 0 242 
0 0 252 
0 0 254 
0 0 245 
0 0 250 
0 0 244 
0 0 246 
0 0 252 
0 0 250 
0 0 250 
0 0 246 
0 0 244 
0 0 252 
0 0 242 
0 0 244 
0 0 245 
0 0 244 
0 0 244 
0 0 242 
0 0 245 
0 0 248 
0 0 252 
0 0 245 
0 0 246 
0 0 244 
0 0 252 
0 0 241 
0 0 242 
0 0 242 
0 0 241 
0 0 242 
0 0 241 
0 0 240 
0 0 238 
0 0 241 
0 0 240 
0 0 242 
0 0 238 
0 0 231 
0 0 245 
0 0 242 
0 0 240 
0 0 236 
0 0 244 
0 0 236 
0 0 233 
0 0 231 
0 0 233 
0 0 231 
0 0 228 
0 0 230 
0 0 236 
0 0 240 
0 0 228 
0 0 221 
0 0 230 
0 0 223 
0 0 236 
0 0 227 
0 0 217 
0 0 215 
0 0 207 
0 0 218 
0 0 209 
0 0 198 
0 0 204 
0 0 211 
0 0 211 
0 0 212 
0 0 215 
0 0 209 
0 0 206 
0 0 199 
0 0 191 
0 0 203 
0 0 203 
0 0 191 
0 0 191 
0 0 184 
0 0 169 
0 0 182 
0 0 163 
0 0 179 
0 0 147 
0 0 137 
0 0 137 
0 0 140 
0 0 99 
0 0 108 
187 201 223 
182 193 211 
69 0 0 
91 0 0 
106 0 0 
100 0 0 
134 0 0 
126 0 0 
149 0 0 
151 0 0 
149 0 0 
145 0 0 
155 0 0 
154 0 0 
171 0 0 
167 0 0 
162 0 0 
170 0 0 
168 0 0 
168 0 0 
167 0 0 
175 0 0 
187 0 0 
183 0 0 
178 0 0 
182 0 0 
183 0 0 
195 0 0 
185 0 0 
187 0 0 
194 0 0 
193 0 0 
184 0 0 
192 0 0 
187 0 0 
205 0 0 
195 0 0 
196 0 0 
187 0 0 
192 0 0 
202 0 0 
198 0 0 
197 0 0 
177 0 0 
202 0 0 
194 0 0 
197 0 0 
201 0 0 
202 0 0 
203 0 0 
211 0 0 
209 0 0 
201 0 0 
196 0 0 
204 0 0 
207 0 0 
201 0 0 
199 0 0 
208 0 0 
197 0 0 
216 0 0 
205 0 0 
210 0 0 
206 0 0 
215 0 0 
204 0 0 
209 0 0 
212 0 0 
213 0 0 
214 0 0 
216 0 0 
211 0 0 
208 0 0 
208 0 0 
202 0 0 
214 0 0 
214 0 0 
208 0 0 
214 0 0 
217 0 0 
209 0 0 
211 0 0 
204 0 0 
215 0 0 
217 0 0 
214 0 0 
216 0 0 
212 0 0 
210 0 0 
212 0 0 
215 0 0 
213 0 0 
217 0 0 
214 0 0 
216 0 0 
211 0 0 
215 0 0 
216 0 0 
205 0 0 
215 0 0 
216 0 0 
217 0 0 
220 0 0 
215 0 0 
219 0 0 
215 0 0 
218 0 0 
215 0 0 
218 0 0 
218 0 0 
214 0 0 
218 0 0 
216 0 0 
216 0 0 
217 0 0 
217 0 0 
214 0 0 
219 0 0 
217 0 0 
215 0 0 
218 0 0 
216 0 0 
210 0 0 
222 0 0 
213 0 0 
217 0 0 
217 0 0 
215 0 0 
213 0 0 
213 0 0 
217 0 0 
218 0 0 
215 0 0 
219 0 0 
216 0 0 
218 0 0 
215 0 0 
215 0 0 
220 0 0 
216 0 0 
219 0 0 
218 0 0 
217 0 0 
216 0 0 
217 0 0 
218 0 0 
218 0 0 
221 0 0 
221 0 0 
219 0 0 
221 0 0 
220 0 0 
222 0 0 
212 0 0 
220 0 0 
223 0 0 
220 0 0 
217 0 0 
220 0 0 
223 0 0 
217 0 0 
222 0 0 
215 0 0 
218 0 0 
221 0 0 
219 0 0 
217 0 0 
217 0 0 
218 0 0 
218 0 0 
216 0 0 
220 0 0 
217 0 0 
219 0 0 
219 0 0 
221 0 0 
218 0 0 
220 0 0 
221 0 0 
219 0 0 
220 0 0 
220 0 0 
217 0 0 
217 0 0 
221 0 0 
221 0 0 
221 0 0 
219 0 0 
216 0 0 
221 0 0 
219 0 0 
219 0 0 
222 0 0 
220 0 0 
220 0 0 
219 0 0 
219 0 0 
219 0 0 
220 0 0 
217 0 0 
218 0 0 
0 0 255 
0 0 254 
0 0 254 
0 0 253 
0 0 254 
0 0 253 
0 0 254 
0 0 255 
0 0 255 
0 0 255 
0 0 255 
0 0 255 
0 0 255 
0 0 255 
0 0 254 
0 0 254 
0 0 253 
0 0 254 
0 0 255 
0 0 255 
0 0 255 
0 0 254 
0 0 254 
0 0 254 
0 0 255 
0 0 254 
0 0 255 
0 0 255 
0 0 255 
0 0 255 
0 0 253 
0 0 255 
0 0 254 
0 0 254 
0 0 254 
0 0 253 
0 0 255 
0 0 255 
0 0 253 
0 0 250 
0 0 250 
0 0 253 
0 0 253 
0 0 255 
0 0 253 
0 0 253 
0 0 253 
0 0 254 
0 0 254 
0 0 254 
0 0 255 
0 0 254 
0 0 254 
0 0 254 
0 0 250 
0 0 252 
0 0 254 
0 0 254 
0 0 250 
0 0 252 
0 0 249 
0 0 254 
0 0 253 
0 0 253 
0 0 252 
0 0 253 
0 0 252 
0 0 252 
0 0 252 
0 0 248 
0 0 255 
0 0 250 
0 0 249 
0 0 253 
0 0 255 
0 0 253 
0 0 250 
0 0 250 
0 0 246 
0 0 254 
0 0 252 
0 0 249 
0 0 250 
0 0 250 
0 0 246 
0 0 249 
0 0 253 
0 0 252 
0 0 249 
0 0 249 
0 0 253 
0 0 250 
0 0 253 
0 0 252 
0 0 249 
0 0 249 
0 0 253 
0 0 252 
0 0 248 
0 0 246 
0 0 249 
0 0 248 
0 0 249 
0 0 245 
0 0 250 
0 0 252 
0 0 249 
0 0 250 
0 0 248 
0 0 245 
0 0 250 
0 0 254 
0 0 248 
0 0 245 
0 0 248 
0 0 248 
0 0 246 
0 0 245 
0 0 253 
0 0 250 
0 0 242 
0 0 246 
0 0 248 
0 0 245 
0 0 248 
0 0 245 
0 0 248 
0 0 241 
0 0 249 
0 0 242 
0 0 246 
0 0 249 
0 0 242 
0 0 245 
0 0 246 
0 0 238 
0 0 245 
0 0 237 
0 0 231 
0 0 240 
0 0 237 
0 0 237 
0 0 244 
0 0 245 
0 0 237 
0 0 237 
0 0 244 
0 0 237 
0 0 241 
0 0 233 
0 0 237 
0 0 234 
0 0 228 
0 0 237 
0 0 227 
0 0 234 
0 0 220 
0 0 233 
0 0 233 
0 0 241 
0 0 220 
0 0 233 
0 0 231 
0 0 231 
0 0 231 
0 0 221 
0 0 209 
0 0 223 
0 0 212 
0 0 223 
0 0 218 
0 0 227 
0 0 218 
0 0 224 
0 0 218 
0 0 220 
0 0 203 
0 0 220 
0 0 223 
0 0 212 
0 0 201 
0 0 215 
0 0 201 
0 0 198 
0 0 196 
0 0 182 
0 0 186 
0 0 193 
0 0 188 
0 0 188 
0 0 182 
0 0 171 
0 0 163 
0 0 163 
0 0 144 
0 0 128 
0 0 120 
0 0 99 
0 0 88 
159 170 193 
164 170 186 
72 0 0 
102 0 0 
99 0 0 
107 0 0 
119 0 0 
132 0 0 
130 0 0 
139 0 0 
132 0 0 
170 0 0 
152 0 0 
150 0 0 
171 0 0 
167 0 0 
168 0 0 
165 0 0 
171 0 0 
164 0 0 
178 0 0 
184 0 0 
178 0 0 
181 0 0 
182 0 0 
198 0 0 
193 0 0 
188 0 0 
187 0 0 
189 0 0 
180 0 0 
186 0 0 
192 0 0 
201 0 0 
196 0 0 
204 0 0 
202 0 0 
190 0 0 
191 0 0 
203 0 0 
200 0 0 
204 0 0 
196 0 0 
202 0 0 
196 0 0 
204 0 0 
204 0 0 
203 0 0 
199 0 0 
207 0 0 
205 0 0 
208 0 0 
201 0 0 
207 0 0 
200 0 0 
204 0 0 
204 0 0 
204 0 0 
211 0 0 
205 0 0 
206 0 0 
209 0 0 
202 0 0 
212 0 0 
211 0 0 
205 0 0 
213 0 0 
212 0 0 
211 0 0 
202 0 0 
213 0 0 
209 0 0 
209 0 0 
210 0 0 
210 0 0 
211 0 0 
209 0 0 
210 0 0 
215 0 0 
212 0 0 
210 0 0 
211 0 0 
211 0 0 
215 0 0 
207 0 0 
214 0 0 
212 0 0 
207 0 0 
213 0 0 
210 0 0 
211 0 0 
216 0 0 
209 0 0 
215 0 0 
216 0 0 
218 0 0 
210 0 0 
214 0 0 
219 0 0 
214 0 0 
222 0 0 
215 0 0 
215 0 0 
219 0 0 
217 0 0 
219 0 0 
211 0 0 
219 0 0 
217 0 0 
218 0 0 
217 0 0 
220 0 0 
217 0 0 
221 0 0 
219 0 0 
219 0 0 
213 0 0 
212 0 0 
218 0 0 
220 0 0 
217 0 0 
220 0 0 
217 0 0 
216 0 0 
213 0 0 
218 0 0 
220 0 0 
218 0 0 
216 0 0 
221 0 0 
215 0 0 
216 0 0 
218 0 0 
223 0 0 
220 0 0 
217 0 0 
219 0 0 
217 0 0 
221 0 0 
220 0 0 
219 0 0 
216 0 0 
220 0 0 
221 0 0 
216 0 0 
219 0 0 
218 0 0 
217 0 0 
219 0 0 
217 0 0 
221 0 0 
219 0 0 
210 0 0 
218 0 0 
215 0 0 
218 0 0 
219 0 0 
217 0 0 
223 0 0 
216 0 0 
221 0 0 
219 0 0 
216 0 0 
214 0 0 
216 0 0 
218 0 0 
220 0 0 
220 0 0 
213 0 0 
219 0 0 
222 0 0 
219 0 0 
221 0 0 
215 0 0 
222 0 0 
217 0 0 
221 0 0 
219 0 0 
223 0 0 
221 0 0 
222 0 0 
219 0 0 
221 0 0 
221 0 0 
221 0 0 
220 0 0 
221 0 0 
221 0 0 
219 0 0 
218 0 0 
218 0 0 
216 0 0 
220 0 0 
221 0 0 
222 0 0 
221 0 0 
220 0 0 
219 0 0 
225 0 0 
217 0 0 
221 0 0 
0 0 254 
0 0 255 
0 0 255 
0 0 255 
0 0 254 
0 0 255 
0 0 255 
0 0 255 
0 0 255 
0 0 254 
0 0 255 
0 0 253 
0 0 255 
0 0 255 
0 0 255 
0 0 255 
0 0 255 
0 0 254 
0 0 253 
0 0 255 
0 0 253 
0 0 254 
0 0 255 
0 0 254 
0 0 254 
0 0 254 
0 0 255 
0 0 254 
0 0 253 
0 0 253 
0 0 249 
0 0 253 
0 0 255 
0 0 254 
0 0 254 
0 0 253 
0 0 253 
0 0 255 
0 0 254 
0 0 254 
0 0 255 
0 0 250 
0 0 254 
0 0 254 
0 0 254 
0 0 253 
0 0 254 
0 0 253 
0 0 253 
0 0 254 
0 0 252 
0 0 253 
0 0 249 
0 0 254 
0 0 253 
0 0 255 
0 0 248 
0 0 253 
0 0 253 
0 0 254 
0 0 252 
0 0 254 
0 0 250 
0 0 253 
0 0 250 
0 0 253 
0 0 249 
0 0 249 
0 0 252 
0 0 253 
0 0 254 
0 0 253 
0 0 254 
0 0 252 
0 0 250 
0 0 254 
0 0 254 
0 0 253 
0 0 253 
0 0 254 
0 0 246 
0 0 253 
0 0 253 
0 0 252 
0 0 249 
0 0 250 
0 0 248 
0 0 252 
0 0 250 
0 0 253 
0 0 249 
0 0 252 
0 0 253 
0 0 252 
0 0 248 
0 0 246 
0 0 250 
0 0 249 
0 0 246 
0 0 248 
0 0 250 
0 0 249 
0 0 246 
0 0 242 
0 0 246 
0 0 248 
0 0 248 
0 0 250 
0 0 246 
0 0 244 
0 0 249 
0 0 245 
0 0 245 
0 0 254 
0 0 249 
0 0 250 
0 0 250 
0 0 249 
0 0 246 
0 0 246 
0 0 242 
0 0 250 
0 0 249 
0 0 248 
0 0 244 
0 0 246 
0 0 249 
0 0 246 
0 0 249 
0 0 244 
0 0 245 
0 0 250 
0 0 248 
0 0 244 
0 0 236 
0 0 248 
0 0 240 
0 0 244 
0 0 237 
0 0 242 
0 0 233 
0 0 246 
0 0 240 
0 0 244 
0 0 237 
0 0 244 
0 0 238 
0 0 228 
0 0 237 
0 0 238 
0 0 240 
0 0 238 
0 0 230 
0 0 236 
0 0 228 
0 0 227 
0 0 236 
0 0 241 
0 0 236 
0 0 230 
0 0 224 
0 0 238 
0 0 228 
0 0 227 
0 0 230 
0 0 220 
0 0 228 
0 0 230 
0 0 221 
0 0 220 
0 0 228 
0 0 228 
0 0 220 
0 0 214 
0 0 212 
0 0 207 
0 0 209 
0 0 214 
0 0 209 
0 0 207 
0 0 212 
0 0 204 
0 0 196 
0 0 199 
0 0 201 
0 0 193 
0 0 191 
0 0 171 
0 0 191 
0 0 167 
0 0 181 
0 0 171 
0 0 167 
0 0 153 
0 0 140 
0 0 125 
0 0 130 
0 0 99 
0 0 99 
136 146 161 
135 142 155 
71 0 0 
86 0 0 
98 0 0 
103 0 0 
128 0 0 
133 0 0 
128 0 0 
125 0 0 
154 0 0 
154 0 0 
160 0 0 
160 0 0 
162 0 0 
166 0 0 
177 0 0 
166 0 0 
176 0 0 
183 0 0 
181 0 0 
172 0 0 
173 0 0 
162 0 0 
180 0 0 
188 0 0 
190 0 0 
183 0 0 
193 0 0 
188 0 0 
186 0 0 
184 0 0 
184 0 0 
189 0 0 
184 0 0 
196 0 0 
197 0 0 
196 0 0 
195 0 0 
198 0 0 
194 0 0 
192 0 0 
206 0 0 
197 0 0 
204 0 0 
199 0 0 
200 0 0 
196 0 0 
192 0 0 
203 0 0 
205 0 0 
210 0 0 
208 0 0 
194 0 0 
206 0 0 
209 0 0 
204 0 0 
202 0 0 
211 0 0 
211 0 0 
211 0 0 
206 0 0 
208 0 0 
206 0 0 
207 0 0 
212 0 0 
203 0 0 
208 0 0 
209 0 0 
200 0 0 
211 0 0 
210 0 0 
207 0 0 
209 0 0 
211 0 0 
205 0 0 
218 0 0 
211 0 0 
207 0 0 
213 0 0 
208 0 0 
213 0 0 
212 0 0 
207 0 0 
213 0 0 
212 0 0 
213 0 0 
216 0 0 
211 0 0 
208 0 0 
215 0 0 
210 0 0 
220 0 0 
217 0 0 
213 0 0 
212 0 0 
216 0 0 
213 0 0 
214 0 0 
213 0 0 
212 0 0 
213 0 0 
217 0 0 
212 0 0 
219 0 0 
216 0 0 
218 0 0 
219 0 0 
212 0 0 
211 0 0 
219 0 0 
212 0 0 
217 0 0 
215 0 0 
219 0 0 
218 0 0 
216 0 0 
214 0 0 
214 0 0 
219 0 0 
218 0 0 
216 0 0 
220 0 0 
218 0 0 
217 0 0 
221 0 0 
220 0 0 
217 0 0 
216 0 0 
218 0 0 
217 0 0 
222 0 0 
220 0 0 
214 0 0 
217 0 0 
219 0 0 
216 0 0 
218 0 0 
221 0 0 
217 0 0 
214 0 0 
218 0 0 
218 0 0 
222 0 0 
219 0 0 
218 0 0 
218 0 0 
223 0 0 
220 0 0 
219 0 0 
218 0 0 
220 0 0 
221 0 0 
220 0 0 
221 0 0 
217 0 0 
217 0 0 
222 0 0 
219 0 0 
217 0 0 
220 0 0 
220 0 0 
216 0 0 
217 0 0 
221 0 0 
222 0 0 
217 0 0 
218 0 0 
217 0 0 
217 0 0 
220 0 0 
218 0 0 
221 0 0 
219 0 0 
216 0 0 
221 0 0 
216 0 0 
221 0 0 
219 0 0 
220 0 0 
220 0 0 
217 0 0 
221 0 0 
219 0 0 
221 0 0 
218 0 0 
219 0 0 
220 0 0 
222 0 0 
216 0 0 
219 0 0 
219 0 0 
220 0 0 
218 0 0 
219 0 0 
221 0 0 
219 0 0 
221 0 0 
219 0 0 
220 0 0 
223 0 0 
0 0 255 
0 0 253 
0 0 255 
0 0 255 
0 0 253 
0 0 255 
0 0 253 
0 0 255 
0 0 255 
0 0 254 
0 0 255 
0 0 254 
0 0 255 
0 0 255 
0 0 253 
0 0 255 
0 0 255 
0 0 254 
0 0 255 
0 0 253 
0 0 255 
0 0 255 
0 0 253 
0 0 252 
0 0 254 
0 0 254 
0 0 252 
0 0 255 
0 0 255 
0 0 255 
0 0 254 
0 0 255 
0 0 255 
0 0 255 
0 0 255 
0 0 254 
0 0 255 
0 0 255 
0 0 253 
0 0 254 
0 0 254 
0 0 255 
0 0 254 
0 0 254 
0 0 252 
0 0 253 
0 0 254 
0 0 254 
0 0 254 
0 0 253 
0 0 252 
0 0 245 
0 0 255 
0 0 254 
0 0 255 
0 0 254 
0 0 253 
0 0 250 
0 0 252 
0 0 254 
0 0 250 
0 0 255 
0 0 253 
0 0 253 
0 0 254 
0 0 250 
0 0 254 
0 0 249 
0 0 254 
0 0 248 
0 0 254 
0 0 254 
0 0 250 
0 0 252 
0 0 250 
0 0 253 
0 0 246 
0 0 253 
0 0 250 
0 0 249 
0 0 254 
0 0 250 
0 0 252 
0 0 254 
0 0 250 
0 0 250 
0 0 252 
0 0 246 
0 0 254 
0 0 252 
0 0 253 
0 0 253 
0 0 246 
0 0 248 
0 0 249 
0 0 240 
0 0 250 
0 0 249 
0 0 246 
0 0 248 
0 0 254 
0 0 249 
0 0 252 
0 0 252 
0 0 249 
0 0 250 
0 0 244 
0 0 249 
0 0 240 
0 0 248 
0 0 249 
0 0 248 
0 0 250 
0 0 242 
0 0 242 
0 0 252 
0 0 244 
0 0 249 
0 0 250 
0 0 241 
0 0 245 
0 0 242 
0 0 249 
0 0 249 
0 0 246 
0 0 248 
0 0 248 
0 0 244 
0 0 241 
0 0 241 
0 0 233 
0 0 250 
0 0 245 
0 0 244 
0 0 241 
0 0 249 
0 0 233 
0 0 244 
0 0 242 
0 0 241 
0 0 231 
0 0 241 
0 0 242 
0 0 240 
0 0 244 
0 0 237 
0 0 245 
0 0 237 
0 0 240 
0 0 234 
0 0 237 
0 0 230 
0 0 236 
0 0 226 
0 0 230 
0 0 233 
0 0 236 
0 0 242 
0 0 237 
0 0 223 
0 0 234 
0 0 230 
0 0 224 
0 0 233 
0 0 228 
0 0 220 
0 0 220 
0 0 227 
0 0 226 
0 0 236 
0 0 209 
0 0 226 
0 0 227 
0 0 217 
0 0 207 
0 0 218 
0 0 233 
0 0 211 
0 0 218 
0 0 218 
0 0 199 
0 0 199 
0 0 198 
0 0 204 
0 0 209 
0 0 194 
0 0 198 
0 0 198 
0 0 177 
0 0 175 
0 0 161 
0 0 159 
0 0 167 
0 0 142 
0 0 149 
0 0 128 
0 0 114 
0 0 125 
0 0 80 
118 126 147 
137 136 149 
72 0 0 
80 0 0 
90 0 0 
129 0 0 
128 0 0 
131 0 0 
146 0 0 
134 0 0 
151 0 0 
160 0 0 
146 0 0 
157 0 0 
168 0 0 
170 0 0 
156 0 0 
149 0 0 
174 0 0 
176 0 0 
178 0 0 
176 0 0 
181 0 0 
187 0 0 
185 0 0 
174 0 0 
193 0 0 
185 0 0 
191 0 0 
194 0 0 
199 0 0 
183 0 0 
201 0 0 
189 0 0 
197 0 0 
193 0 0 
190 0 0 
201 0 0 
204 0 0 
202 0 0 
203 0 0 
206 0 0 
202 0 0 
199 0 0 
193 0 0 
197 0 0 
207 0 0 
203 0 0 
209 0 0 
204 0 0 
195 0 0 
206 0 0 
203 0 0 
202 0 0 
208 0 0 
208 0 0 
211 0 0 
207 0 0 
213 0 0 
201 0 0 
205 0 0 
207 0 0 
205 0 0 
211 0 0 
214 0 0 
212 0 0 
211 0 0 
211 0 0 
207 0 0 
214 0 0 
207 0 0 
213 0 0 
207 0 0 
206 0 0 
209 0 0 
208 0 0 
218 0 0 
215 0 0 
203 0 0 
215 0 0 
211 0 0 
206 0 0 
208 0 0 
216 0 0 
209 0 0 
210 0 0 
216 0 0 
211 0 0 
212 0 0 
209 0 0 
212 0 0 
215 0 0 
217 0 0 
214 0 0 
216 0 0 
210 0 0 
213 0 0 
214 0 0 
211 0 0 
219 0 0 
216 0 0 
212 0 0 
214 0 0 
213 0 0 
212 0 0 
217 0 0 
214 0 0 
213 0 0 
221 0 0 
215 0 0 
214 0 0 
216 0 0 
216 0 0 
214 0 0 
219 0 0 
215 0 0 
208 0 0 
214 0 0 
216 0 0 
219 0 0 
217 0 0 
215 0 0 
216 0 0 
218 0 0 
221 0 0 
220 0 0 
215 0 0 
220 0 0 
216 0 0 
220 0 0 
216 0 0 
217 0 0 
215 0 0 
217 0 0 
217 0 0 
208 0 0 
217 0 0 
220 0 0 
218 0 0 
216 0 0 
216 0 0 
220 0 0 
217 0 0 
219 0 0 
221 0 0 
219 0 0 
219 0 0 
219 0 0 
220 0 0 
222 0 0 
220 0 0 
214 0 0 
219 0 0 
218 0 0 
221 0 0 
217 0 0 
221 0 0 
216 0 0 
219 0 0 
217 0 0 
219 0 0 
223 0 0 
221 0 0 
220 0 0 
223 0 0 
221 0 0 
219 0 0 
216 0 0 
216 0 0 
217 0 0 
220 0 0 
216 0 0 
217 0 0 
219 0 0 
222 0 0 
217 0 0 
221 0 0 
221 0 0 
217 0 0 
220 0 0 
223 0 0 
219 0 0 
222 0 0 
219 0 0 
221 0 0 
221 0 0 
218 0 0 
219 0 0 
219 0 0 
222 0 0 
223 0 0 
219 0 0 
221 0 0 
222 0 0 
222 0 0 
220 0 0 
220 0 0 
221 0 0 
221 0 0 
219 0 0 
219 0 0 
0 0 255 
0 0 254 
0 0 255 
0 0 255 
0 0 254 
0 0 255 
0 0 255 
0 0 255 
0 0 255 
0 0 255 
0 0 253 
0 0 254 
0 0 255 
0 0 253 
0 0 255 
0 0 255 
0 0 254 
0 0 254 
0 0 254 
0 0 254 
0 0 255 
0 0 255 
0 0 254 
0 0 255 
0 0 255 
0 0 255 
0 0 255 
0 0 254 
0 0 253 
0 0 253 
0 0 253 
0 0 254 
0 0 254 
0 0 250 
0 0 255 
0 0 255 
0 0 254 
0 0 252 
0 0 253 
0 0 255 
0 0 255 
0 0 254 
0 0 253 
0 0 253 
0 0 255 
0 0 254 
0 0 254 
0 0 254 
0 0 253 
0 0 254 
0 0 252 
0 0 250 
0 0 252 
0 0 253 
0 0 255 
0 0 254 
0 0 252 
0 0 253 
0 0 253 
0 0 253 
0 0 252 
0 0 252 
0 0 254 
0 0 249 
0 0 253 
0 0 249 
0 0 255 
0 0 254 
0 0 255 
0 0 252 
0 0 252 
0 0 253 
0 0 250 
0 0 253 
0 0 253 
0 0 254 
0 0 252 
0 0 244 
0 0 253 
0 0 253 
0 0 252 
0 0 252 
0 0 249 
0 0 252 
0 0 245 
0 0 249 
0 0 254 
0 0 253 
0 0 246 
0 0 248 
0 0 252 
0 0 252 
0 0 250 
0 0 252 
0 0 250 
0 0 252 
0 0 253 
0 0 249 
0 0 244 
0 0 249 
0 0 249 
0 0 250 
0 0 248 
0 0 249 
0 0 253 
0 0 244 
0 0 250 
0 0 248 
0 0 246 
0 0 242 
0 0 246 
0 0 244 
0 0 246 
0 0 249 
0 0 246 
0 0 246 
0 0 245 
0 0 246 
0 0 245 
0 0 242 
0 0 250 
0 0 249 
0 0 244 
0 0 249 
0 0 248 
0 0 248 
0 0 250 
0 0 252 
0 0 246 
0 0 246 
0 0 248 
0 0 246 
0 0 245 
0 0 246 
0 0 246 
0 0 248 
0 0 231 
0 0 238 
0 0 237 
0 0 244 
0 0 245 
0 0 248 
0 0 244 
0 0 236 
0 0 241 
0 0 236 
0 0 241 
0 0 233 
0 0 224 
0 0 231 
0 0 236 
0 0 236 
0 0 244 
0 0 227 
0 0 227 
0 0 228 
0 0 233 
0 0 228 
0 0 227 
0 0 234 
0 0 231 
0 0 230 
0 0 220 
0 0 227 
0 0 231 
0 0 224 
0 0 207 
0 0 215 
0 0 233 
0 0 230 
0 0 218 
0 0 217 
0 0 207 
0 0 218 
0 0 217 
0 0 228 
0 0 223 
0 0 209 
0 0 214 
0 0 203 
0 0 204 
0 0 191 
0 0 203 
0 0 204 
0 0 211 
0 0 196 
0 0 191 
0 0 194 
0 0 177 
0 0 177 
0 0 163 
0 0 167 
0 0 163 
0 0 153 
0 0 137 
0 0 133 
0 0 114 
0 0 105 
0 0 72 
114 122 149 
94 84 92 
81 0 0 
88 0 0 
92 0 0 
118 0 0 
128 0 0 
134 0 0 
136 0 0 
138 0 0 
152 0 0 
146 0 0 
148 0 0 
162 0 0 
160 0 0 
160 0 0 
165 0 0 
162 0 0 
174 0 0 
173 0 0 
179 0 0 
181 0 0 
183 0 0 
177 0 0 
182 0 0 
183 0 0 
189 0 0 
189 0 0 
191 0 0 
194 0 0 
198 0 0 
184 0 0 
187 0 0 
187 0 0 
192 0 0 
188 0 0 
199 0 0 
187 0 0 
201 0 0 
199 0 0 
201 0 0 
203 0 0 
206 0 0 
205 0 0 
206 0 0 
202 0 0 
198 0 0 
208 0 0 
207 0 0 
204 0 0 
204 0 0 
202 0 0 
215 0 0 
197 0 0 
205 0 0 
210 0 0 
203 0 0 
216 0 0 
204 0 0 
209 0 0 
199 0 0 
211 0 0 
205 0 0 
209 0 0 
207 0 0 
203 0 0 
211 0 0 
209 0 0 
208 0 0 
209 0 0 
211 0 0 
213 0 0 
207 0 0 
201 0 0 
204 0 0 
211 0 0 
214 0 0 
215 0 0 
207 0 0 
213 0 0 
215 0 0 
213 0 0 
216 0 0 
210 0 0 
216 0 0 
208 0 0 
211 0 0 
217 0 0 
208 0 0 
211 0 0 
214 0 0 
210 0 0 
215 0 0 
212 0 0 
212 0 0 
212 0 0 
209 0 0 
214 0 0 
211 0 0 
213 0 0 
211 0 0 
212 0 0 
212 0 0 
214 0 0 
216 0 0 
215 0 0 
216 0 0 
220 0 0 
218 0 0 
214 0 0 
218 0 0 
219 0 0 
213 0 0 
218 0 0 
218 0 0 
221 0 0 
217 0 0 
215 0 0 
218 0 0 
219 0 0 
216 0 0 
213 0 0 
213 0 0 
217 0 0 
219 0 0 
213 0 0 
213 0 0 
220 0 0 
216 0 0 
218 0 0 
213 0 0 
220 0 0 
218 0 0 
212 0 0 
218 0 0 
221 0 0 
218 0 0 
220 0 0 
216 0 0 
220 0 0 
218 0 0 
218 0 0 
218 0 0 
216 0 0 
219 0 0 
216 0 0 
218 0 0 
220 0 0 
221 0 0 
218 0 0 
220 0 0 
219 0 0 
220 0 0 
225 0 0 
218 0 0 
221 0 0 
221 0 0 
221 0 0 
216 0 0 
221 0 0 
220 0 0 
218 0 0 
218 0 0 
219 0 0 
218 0 0 
221 0 0 
221 0 0 
218 0 0 
218 0 0 
217 0 0 
220 0 0 
223 0 0 
219 0 0 
217 0 0 
218 0 0 
217 0 0 
221 0 0 
221 0 0 
221 0 0 
219 0 0 
221 0 0 
218 0 0 
217 0 0 
220 0 0 
220 0 0 
217 0 0 
219 0 0 
221 0 0 
218 0 0 
220 0 0 
219 0 0 
219 0 0 
219 0 0 
221 0 0 
223 0 0 
222 0 0 
221 0 0 
220 0 0 
221 0 0 
223 0 0 
222 0 0 
0 0 255 
0 0 254 
0 0 253 
0 0 254 
0 0 254 
0 0 253 
0 0 254 
0 0 253 
0 0 255 
0 0 255 
0 0 254 
0 0 254 
0 0 255 
0 0 254 
0 0 254 
0 0 254 
0 0 254 
0 0 254 
0 0 253 
0 0 252 
0 0 254 
0 0 253 
0 0 254 
0 0 255 
0 0 255 
0 0 254 
0 0 253 
0 0 253 
0 0 255 
0 0 254 
0 0 255 
0 0 255 
0 0 255 
0 0 255 
0 0 253 
0 0 253 
0 0 255 
0 0 255 
0 0 255 
0 0 255 
0 0 252 
0 0 253 
0 0 253 
0 0 253 
0 0 250 
0 0 252 
0 0 253 
0 0 254 
0 0 253 
0 0 250 
0 0 253 
0 0 254 
0 0 254 
0 0 254 
0 0 253 
0 0 253 
0 0 254 
0 0 255 
0 0 254 
0 0 253 
0 0 254 
0 0 255 
0 0 253 
0 0 253 
0 0 253 
0 0 252 
0 0 250 
0 0 252 
0 0 254 
0 0 252 
0 0 250 
0 0 252 
0 0 252 
0 0 255 
0 0 253 
0 0 254 
0 0 254 
0 0 252 
0 0 252 
0 0 252 
0 0 248 
0 0 252 
0 0 255 
0 0 253 
0 0 248 
0 0 248 
0 0 248 
0 0 250 
0 0 250 
0 0 253 
0 0 250 
0 0 250 
0 0 252 
0 0 250 
0 0 254 
0 0 254 
0 0 253 
0 0 252 
0 0 252 
0 0 245 
0 0 248 
0 0 248 
0 0 249 
0 0 249 
0 0 244 
0 0 249 
0 0 245 
0 0 241 
0 0 240 
0 0 252 
0 0 246 
0 0 252 
0 0 246 
0 0 246 
0 0 252 
0 0 249 
0 0 246 
0 0 244 
0 0 244 
0 0 244 
0 0 240 
0 0 246 
0 0 245 
0 0 248 
0 0 242 
0 0 250 
0 0 246 
0 0 246 
0 0 244 
0 0 242 
0 0 244 
0 0 241 
0 0 245 
0 0 244 
0 0 236 
0 0 246 
0 0 242 
0 0 240 
0 0 246 
0 0 236 
0 0 234 
0 0 236 
0 0 234 
0 0 248 
0 0 231 
0 0 238 
0 0 241 
0 0 238 
0 0 246 
0 0 234 
0 0 233 
0 0 236 
0 0 231 
0 0 238 
0 0 236 
0 0 226 
0 0 236 
0 0 227 
0 0 231 
0 0 238 
0 0 233 
0 0 228 
0 0 231 
0 0 223 
0 0 227 
0 0 236 
0 0 228 
0 0 234 
0 0 228 
0 0 224 
0 0 230 
0 0 226 
0 0 207 
0 0 215 
0 0 223 
0 0 215 
0 0 217 
0 0 211 
0 0 218 
0 0 215 
0 0 211 
0 0 201 
0 0 209 
0 0 198 
0 0 193 
0 0 199 
0 0 188 
0 0 186 
0 0 179 
0 0 179 
0 0 165 
0 0 159 
0 0 155 
0 0 159 
0 0 155 
0 0 142 
0 0 128 
0 0 105 
0 0 102 
100 107 125 
95 91 99 
76 0 0 
100 0 0 
101 0 0 
128 0 0 
118 0 0 
120 0 0 
136 0 0 
149 0 0 
143 0 0 
149 0 0 
162 0 0 
169 0 0 
164 0 0 
164 0 0 
167 0 0 
170 0 0 
175 0 0 
177 0 0 
166 0 0 
172 0 0 
183 0 0 
178 0 0 
184 0 0 
180 0 0 
189 0 0 
185 0 0 
188 0 0 
185 0 0 
189 0 0 
196 0 0 
190 0 0 
194 0 0 
191 0 0 
200 0 0 
186 0 0 
201 0 0 
202 0 0 
206 0 0 
190 0 0 
208 0 0 
199 0 0 
197 0 0 
197 0 0 
205 0 0 
208 0 0 
197 0 0 
205 0 0 
203 0 0 
207 0 0 
196 0 0 
204 0 0 
204 0 0 
204 0 0 
215 0 0 
205 0 0 
205 0 0 
198 0 0 
208 0 0 
206 0 0 
201 0 0 
207 0 0 
204 0 0 
205 0 0 
208 0 0 
217 0 0 
207 0 0 
213 0 0 
219 0 0 
210 0 0 
209 0 0 
213 0 0 
202 0 0 
207 0 0 
209 0 0 
211 0 0 
214 0 0 
209 0 0 
208 0 0 
210 0 0 
213 0 0 
213 0 0 
212 0 0 
214 0 0 
206 0 0 
213 0 0 
214 0 0 
214 0 0 
208 0 0 
214 0 0 
213 0 0 
216 0 0 
214 0 0 
221 0 0 
217 0 0 
212 0 0 
221 0 0 
215 0 0 
214 0 0 
214 0 0 
214 0 0 
210 0 0 
218 0 0 
213 0 0 
221 0 0 
218 0 0 
219 0 0 
216 0 0 
219 0 0 
210 0 0 
219 0 0 
217 0 0 
216 0 0 
218 0 0 
219 0 0 
213 0 0 
219 0 0 
221 0 0 
219 0 0 
218 0 0 
218 0 0 
213 0 0 
213 0 0 
212 0 0 
215 0 0 
210 0 0 
218 0 0 
223 0 0 
219 0 0 
216 0 0 
216 0 0 
218 0 0 
215 0 0 
220 0 0 
217 0 0 
218 0 0 
220 0 0 
220 0 0 
223 0 0 
220 0 0 
217 0 0 
217 0 0 
219 0 0 
222 0 0 
219 0 0 
214 0 0 
216 0 0 
218 0 0 
219 0 0 
220 0 0 
217 0 0 
223 0 0 
216 0 0 
221 0 0 
219 0 0 
221 0 0 
220 0 0 
222 0 0 
218 0 0 
217 0 0 
222 0 0 
217 0 0 
219 0 0 
224 0 0 
219 0 0 
220 0 0 
217 0 0 
216 0 0 
219 0 0 
221 0 0 
216 0 0 
214 0 0 
222 0 0 
219 0 0 
216 0 0 
220 0 0 
221 0 0 
220 0 0 
216 0 0 
220 0 0 
220 0 0 
221 0 0 
224 0 0 
222 0 0 
218 0 0 
219 0 0 
219 0 0 
220 0 0 
221 0 0 
218 0 0 
220 0 0 
220 0 0 
218 0 0 
221 0 0 
223 0 0 
218 0 0 
220 0 0 
217 0 0 
222 0 0 
219 0 0 
0 0 255 
0 0 255 
0 0 255 
0 0 254 
0 0 255 
0 0 255 
0 0 255 
0 0 254 
0 0 255 
0 0 254 
0 0 255 
0 0 255 
0 0 255 
0 0 253 
0 0 255 
0 0 255 
0 0 255 
0 0 255 
0 0 253 
0 0 254 
0 0 254 
0 0 254 
0 0 255 
0 0 255 
0 0 255 
0 0 255 
0 0 255 
0 0 254 
0 0 255 
0 0 254 
0 0 255 
0 0 253 
0 0 255 
0 0 254 
0 0 255 
0 0 255 
0 0 255 
0 0 250 
0 0 254 
0 0 254 
0 0 252 
0 0 250 
0 0 255 
0 0 255 
0 0 254 
0 0 255 
0 0 255 
0 0 254 
0 0 254 
0 0 253 
0 0 254 
0 0 253 
0 0 253 
0 0 255 
0 0 248 
0 0 254 
0 0 255 
0 0 253 
0 0 250 
0 0 253 
0 0 252 
0 0 255 
0 0 253 
0 0 250 
0 0 250 
0 0 254 
0 0 250 
0 0 252 
0 0 250 
0 0 253 
0 0 253 
0 0 252 
0 0 249 
0 0 252 
0 0 250 
0 0 250 
0 0 252 
0 0 253 
0 0 253 
0 0 253 
0 0 253 
0 0 250 
0 0 253 
0 0 252 
0 0 252 
0 0 249 
0 0 252 
0 0 242 
0 0 250 
0 0 252 
0 0 250 
0 0 248 
0 0 248 
0 0 250 
0 0 252 
0 0 253 
0 0 250 
0 0 244 
0 0 246 
0 0 249 
0 0 253 
0 0 245 
0 0 250 
0 0 244 
0 0 246 
0 0 249 
0 0 245 
0 0 252 
0 0 244 
0 0 240 
0 0 248 
0 0 249 
0 0 248 
0 0 246 
0 0 245 
0 0 244 
0 0 249 
0 0 249 
0 0 248 
0 0 244 
0 0 240 
0 0 248 
0 0 249 
0 0 240 
0 0 248 
0 0 244 
0 0 246 
0 0 240 
0 0 242 
0 0 246 
0 0 245 
0 0 245 
0 0 242 
0 0 248 
0 0 237 
0 0 240 
0 0 242 
0 0 238 
0 0 240 
0 0 246 
0 0 244 
0 0 240 
0 0 236 
0 0 248 
0 0 245 
0 0 245 
0 0 244 
0 0 238 
0 0 242 
0 0 237 
0 0 236 
0 0 241 
0 0 234 
0 0 237 
0 0 233 
0 0 224 
0 0 238 
0 0 223 
0 0 242 
0 0 231 
0 0 227 
0 0 231 
0 0 224 
0 0 230 
0 0 224 
0 0 220 
0 0 227 
0 0 221 
0 0 220 
0 0 227 
0 0 214 
0 0 217 
0 0 217 
0 0 228 
0 0 214 
0 0 204 
0 0 215 
0 0 203 
0 0 207 
0 0 203 
0 0 206 
0 0 199 
0 0 203 
0 0 203 
0 0 203 
0 0 181 
0 0 194 
0 0 196 
0 0 173 
0 0 179 
0 0 177 
0 0 165 
0 0 184 
0 0 144 
0 0 153 
0 0 142 
0 0 128 
0 0 117 
0 0 80 
73 78 108 
64 62 67 
54 0 0 
85 0 0 
91 0 0 
118 0 0 
122 0 0 
126 0 0 
156 0 0 
152 0 0 
161 0 0 
151 0 0 
165 0 0 
143 0 0 
176 0 0 
169 0 0 
171 0 0 
159 0 0 
177 0 0 
182 0 0 
176 0 0 
175 0 0 
185 0 0 
192 0 0 
180 0 0 
192 0 0 
193 0 0 
191 0 0 
192 0 0 
190 0 0 
203 0 0 
202 0 0 
187 0 0 
200 0 0 
202 0 0 
193 0 0 
202 0 0 
191 0 0 
203 0 0 
196 0 0 
204 0 0 
191 0 0 
198 0 0 
195 0 0 
202 0 0 
206 0 0 
207 0 0 
202 0 0 
202 0 0 
214 0 0 
210 0 0 
213 0 0 
200 0 0 
205 0 0 
204 0 0 
203 0 0 
204 0 0 
212 0 0 
207 0 0 
208 0 0 
211 0 0 
214 0 0 
209 0 0 
204 0 0 
209 0 0 
210 0 0 
208 0 0 
209 0 0 
216 0 0 
207 0 0 
213 0 0 
211 0 0 
215 0 0 
215 0 0 
214 0 0 
213 0 0 
214 0 0 
209 0 0 
217 0 0 
207 0 0 
214 0 0 
215 0 0 
207 0 0 
215 0 0 
211 0 0 
220 0 0 
216 0 0 
215 0 0 
214 0 0 
212 0 0 
212 0 0 
211 0 0 
218 0 0 
214 0 0 
212 0 0 
213 0 0 
216 0 0 
215 0 0 
210 0 0 
212 0 0 
219 0 0 
211 0 0 
218 0 0 
214 0 0 
215 0 0 
216 0 0 
215 0 0 
220 0 0 
217 0 0 
217 0 0 
217 0 0 
218 0 0 
217 0 0 
211 0 0 
215 0 0 
218 0 0 
212 0 0 
219 0 0 
216 0 0 
217 0 0 
215 0 0 
214 0 0 
218 0 0 
217 0 0 
221 0 0 
211 0 0 
217 0 0 
219 0 0 
216 0 0 
218 0 0 
220 0 0 
217 0 0 
215 0 0 
218 0 0 
216 0 0 
220 0 0 
220 0 0 
217 0 0 
225 0 0 
217 0 0 
219 0 0 
218 0 0 
221 0 0 
223 0 0 
219 0 0 
212 0 0 
220 0 0 
221 0 0 
220 0 0 
222 0 0 
220 0 0 
219 0 0 
215 0 0 
223 0 0 
215 0 0 
216 0 0 
215 0 0 
217 0 0 
216 0 0 
221 0 0 
222 0 0 
219 0 0 
212 0 0 
219 0 0 
219 0 0 
220 0 0 
221 0 0 
217 0 0 
220 0 0 
219 0 0 
218 0 0 
222 0 0 
224 0 0 
219 0 0 
217 0 0 
222 0 0 
217 0 0 
218 0 0 
221 0 0 
214 0 0 
219 0 0 
220 0 0 
218 0 0 
218 0 0 
218 0 0 
221 0 0 
217 0 0 
221 0 0 
217 0 0 
219 0 0 
218 0 0 
221 0 0 
221 0 0 
220 0 0 
224 0 0 
224 0 0 
221 0 0 
223 0 0 
220 0 0 
223 0 0 
220 0 0 
0 0 255 
0 0 254 
0 0 255 
0 0 255 
0 0 255 
0 0 252 
0 0 252 
0 0 254 
0 0 254 
0 0 254 
0 0 254 
0 0 254 
0 0 255 
0 0 255 
0 0 255 
0 0 255 
0 0 252 
0 0 253 
0 0 255 
0 0 253 
0 0 253 
0 0 254 
0 0 255 
0 0 254 
0 0 254 
0 0 253 
0 0 255 
0 0 254 
0 0 254 
0 0 255 
0 0 254 
0 0 255 
0 0 253 
0 0 255 
0 0 252 
0 0 253 
0 0 254 
0 0 254 
0 0 254 
0 0 255 
0 0 252 
0 0 253 
0 0 252 
0 0 253 
0 0 255 
0 0 253 
0 0 255 
0 0 254 
0 0 254 
0 0 255 
0 0 250 
0 0 253 
0 0 254 
0 0 252 
0 0 254 
0 0 252 
0 0 254 
0 0 253 
0 0 252 
0 0 254 
0 0 249 
0 0 252 
0 0 253 
0 0 254 
0 0 252 
0 0 254 
0 0 250 
0 0 253 
0 0 253 
0 0 246 
0 0 252 
0 0 252 
0 0 254 
0 0 253 
0 0 252 
0 0 254 
0 0 254 
0 0 252 
0 0 252 
0 0 253 
0 0 250 
0 0 249 
0 0 253 
0 0 255 
0 0 246 
0 0 253 
0 0 252 
0 0 252 
0 0 253 
0 0 250 
0 0 252 
0 0 249 
0 0 252 
0 0 250 
0 0 252 
0 0 249 
0 0 248 
0 0 249 
0 0 253 
0 0 244 
0 0 254 
0 0 253 
0 0 248 
0 0 252 
0 0 246 
0 0 252 
0 0 250 
0 0 248 
0 0 252 
0 0 252 
0 0 245 
0 0 244 
0 0 249 
0 0 249 
0 0 244 
0 0 252 
0 0 242 
0 0 248 
0 0 249 
0 0 253 
0 0 242 
0 0 246 
0 0 248 
0 0 248 
0 0 245 
0 0 246 
0 0 242 
0 0 246 
0 0 248 
0 0 244 
0 0 244 
0 0 245 
0 0 244 
0 0 238 
0 0 244 
0 0 244 
0 0 244 
0 0 241 
0 0 238 
0 0 241 
0 0 240 
0 0 241 
0 0 233 
0 0 228 
0 0 242 
0 0 234 
0 0 244 
0 0 241 
0 0 244 
0 0 238 
0 0 241 
0 0 236 
0 0 234 
0 0 240 
0 0 238 
0 0 231 
0 0 209 
0 0 233 
0 0 230 
0 0 228 
0 0 231 
0 0 233 
0 0 228 
0 0 224 
0 0 217 
0 0 234 
0 0 227 
0 0 215 
0 0 228 
0 0 221 
0 0 226 
0 0 220 
0 0 211 
0 0 215 
0 0 209 
0 0 215 
0 0 214 
0 0 204 
0 0 201 
0 0 217 
0 0 203 
0 0 204 
0 0 198 
0 0 201 
0 0 206 
0 0 193 
0 0 179 
0 0 186 
0 0 188 
0 0 186 
0 0 161 
0 0 175 
0 0 177 
0 0 165 
0 0 142 
0 0 142 
0 0 114 
0 0 125 
0 0 92 
44 47 80 
72 52 57 
65 0 0 
93 0 0 
109 0 0 
126 0 0 
133 0 0 
124 0 0 
128 0 0 
137 0 0 
151 0 0 
142 0 0 
155 0 0 
168 0 0 
180 0 0 
167 0 0 
157 0 0 
172 0 0 
183 0 0 
168 0 0 
180 0 0 
167 0 0 
174 0 0 
183 0 0 
180 0 0 
182 0 0 
177 0 0 
185 0 0 
192 0 0 
197 0 0 
189 0 0 
194 0 0 
185 0 0 
198 0 0 
202 0 0 
195 0 0 
200 0 0 
204 0 0 
198 0 0 
194 0 0 
191 0 0 
201 0 0 
203 0 0 
204 0 0 
198 0 0 
205 0 0 
199 0 0 
208 0 0 
187 0 0 
207 0 0 
205 0 0 
200 0 0 
208 0 0 
208 0 0 
207 0 0 
205 0 0 
201 0 0 
204 0 0 
211 0 0 
213 0 0 
213 0 0 
209 0 0 
210 0 0 
205 0 0 
203 0 0 
213 0 0 
213 0 0 
210 0 0 
217 0 0 
214 0 0 
192 0 0 
205 0 0 
218 0 0 
211 0 0 
205 0 0 
208 0 0 
210 0 0 
219 0 0 
209 0 0 
209 0 0 
212 0 0 
212 0 0 
212 0 0 
207 0 0 
210 0 0 
216 0 0 
213 0 0 
208 0 0 
212 0 0 
214 0 0 
209 0 0 
220 0 0 
218 0 0 
212 0 0 
215 0 0 
212 0 0 
213 0 0 
215 0 0 
215 0 0 
213 0 0 
213 0 0 
217 0 0 
213 0 0 
219 0 0 
219 0 0 
216 0 0 
219 0 0 
206 0 0 
218 0 0 
219 0 0 
214 0 0 
218 0 0 
213 0 0 
217 0 0 
216 0 0 
220 0 0 
216 0 0 
218 0 0 
217 0 0 
212 0 0 
214 0 0 
216 0 0 
216 0 0 
216 0 0 
215 0 0 
211 0 0 
219 0 0 
221 0 0 
216 0 0 
216 0 0 
223 0 0 
221 0 0 
215 0 0 
220 0 0 
219 0 0 
220 0 0 
213 0 0 
220 0 0 
221 0 0 
218 0 0 
221 0 0 
220 0 0 
218 0 0 
218 0 0 
217 0 0 
217 0 0 
217 0 0 
223 0 0 
219 0 0 
218 0 0 
218 0 0 
221 0 0 
213 0 0 
219 0 0 
220 0 0 
225 0 0 
218 0 0 
219 0 0 
218 0 0 
221 0 0 
219 0 0 
219 0 0 
219 0 0 
221 0 0 
220 0 0 
223 0 0 
216 0 0 
219 0 0 
217 0 0 
221 0 0 
221 0 0 
221 0 0 
219 0 0 
219 0 0 
218 0 0 
222 0 0 
221 0 0 
221 0 0 
224 0 0 
220 0 0 
222 0 0 
223 0 0 
224 0 0 
220 0 0 
222 0 0 
222 0 0 
220 0 0 
216 0 0 
218 0 0 
220 0 0 
217 0 0 
217 0 0 
222 0 0 
223 0 0 
220 0 0 
220 0 0 
223 0 0 
219 0 0 
218 0 0 
216 0 0 
223 0 0 
0 0 255 
0 0 254 
0 0 255 
0 0 254 
0 0 255 
0 0 255 
0 0 255 
0 0 254 
0 0 255 
0 0 255 
0 0 255 
0 0 255 
0 0 254 
0 0 255 
0 0 254 
0 0 255 
0 0 252 
0 0 255 
0 0 255 
0 0 254 
0 0 255 
0 0 252 
0 0 254 
0 0 254 
0 0 255 
0 0 254 
0 0 254 
0 0 254 
0 0 250 
0 0 250 
0 0 253 
0 0 253 
0 0 253 
0 0 252 
0 0 255 
0 0 255 
0 0 255 
0 0 255 
0 0 254 
0 0 254 
0 0 255 
0 0 254 
0 0 255 
0 0 252 
0 0 254 
0 0 255 
0 0 254 
0 0 252 
0 0 254 
0 0 254 
0 0 254 
0 0 254 
0 0 249 
0 0 250 
0 0 253 
0 0 254 
0 0 255 
0 0 254 
0 0 253 
0 0 250 
0 0 250 
0 0 252 
0 0 252 
0 0 253 
0 0 250 
0 0 252 
0 0 253 
0 0 253 
0 0 254 
0 0 254 
0 0 253 
0 0 250 
0 0 252 
0 0 254 
0 0 249 
0 0 253 
0 0 250 
0 0 252 
0 0 250 
0 0 248 
0 0 253 
0 0 253 
0 0 252 
0 0 249 
0 0 249 
0 0 250 
0 0 249 
0 0 249 
0 0 253 
0 0 253 
0 0 248 
0 0 249 
0 0 246 
0 0 250 
0 0 252 
0 0 250 
0 0 248 
0 0 252 
0 0 246 
0 0 244 
0 0 250 
0 0 246 
0 0 249 
0 0 248 
0 0 245 
0 0 246 
0 0 248 
0 0 252 
0 0 249 
0 0 248 
0 0 252 
0 0 250 
0 0 244 
0 0 250 
0 0 252 
0 0 246 
0 0 252 
0 0 245 
0 0 241 
0 0 246 
0 0 246 
0 0 244 
0 0 249 
0 0 250 
0 0 242 
0 0 248 
0 0 246 
0 0 240 
0 0 245 
0 0 244 
0 0 245 
0 0 248 
0 0 249 
0 0 246 
0 0 245 
0 0 244 
0 0 249 
0 0 248 
0 0 245 
0 0 236 
0 0 244 
0 0 234 
0 0 234 
0 0 240 
0 0 238 
0 0 242 
0 0 244 
0 0 234 
0 0 238 
0 0 231 
0 0 231 
0 0 234 
0 0 240 
0 0 236 
0 0 238 
0 0 233 
0 0 220 
0 0 238 
0 0 236 
0 0 224 
0 0 237 
0 0 227 
0 0 228 
0 0 224 
0 0 233 
0 0 227 
0 0 223 
0 0 233 
0 0 227 
0 0 224 
0 0 223 
0 0 221 
0 0 224 
0 0 218 
0 0 230 
0 0 214 
0 0 207 
0 0 226 
0 0 203 
0 0 203 
0 0 211 
0 0 201 
0 0 201 
0 0 189 
0 0 189 
0 0 186 
0 0 201 
0 0 196 
0 0 186 
0 0 163 
0 0 186 
0 0 157 
0 0 163 
0 0 128 
0 0 135 
0 0 135 
0 0 133 
0 0 95 
0 0 72 
44 47 67 
45 40 44 
82 0 0 
89 0 0 
113 0 0 
111 0 0 
127 0 0 
131 0 0 
129 0 0 
137 0 0 
151 0 0 
161 0 0 
166 0 0 
159 0 0 
161 0 0 
162 0 0 
177 0 0 
179 0 0 
175 0 0 
172 0 0 
166 0 0 
177 0 0 
188 0 0 
185 0 0 
187 0 0 
195 0 0 
189 0 0 
181 0 0 
181 0 0 
186 0 0 
198 0 0 
188 0 0 
196 0 0 
194 0 0 
199 0 0 
199 0 0 
200 0 0 
205 0 0 
207 0 0 
197 0 0 
200 0 0 
189 0 0 
202 0 0 
191 0 0 
198 0 0 
199 0 0 
202 0 0 
205 0 0 
200 0 0 
201 0 0 
204 0 0 
212 0 0 
203 0 0 
201 0 0 
206 0 0 
203 0 0 
204 0 0 
206 0 0 
203 0 0 
211 0 0 
212 0 0 
211 0 0 
204 0 0 
198 0 0 
213 0 0 
208 0 0 
203 0 0 
216 0 0 
209 0 0 
216 0 0 
210 0 0 
206 0 0 
210 0 0 
216 0 0 
209 0 0 
216 0 0 
212 0 0 
213 0 0 
213 0 0 
209 0 0 
215 0 0 
208 0 0 
212 0 0 
212 0 0 
215 0 0 
210 0 0 
215 0 0 
209 0 0 
208 0 0 
210 0 0 
209 0 0 
218 0 0 
210 0 0 
219 0 0 
211 0 0 
213 0 0 
216 0 0 
213 0 0 
208 0 0 
208 0 0 
210 0 0 
217 0 0 
218 0 0 
213 0 0 
218 0 0 
211 0 0 
212 0 0 
220 0 0 
214 0 0 
215 0 0 
220 0 0 
215 0 0 
213 0 0 
214 0 0 
220 0 0 
221 0 0 
215 0 0 
217 0 0 
222 0 0 
218 0 0 
217 0 0 
217 0 0 
217 0 0 
215 0 0 
213 0 0 
215 0 0 
221 0 0 
222 0 0 
214 0 0 
221 0 0 
221 0 0 
217 0 0 
221 0 0 
220 0 0 
215 0 0 
220 0 0 
214 0 0 
217 0 0 
219 0 0 
220 0 0 
222 0 0 
219 0 0 
215 0 0 
218 0 0 
221 0 0 
218 0 0 
222 0 0 
223 0 0 
218 0 0 
218 0 0 
222 0 0 
220 0 0 
217 0 0 
218 0 0 
219 0 0 
214 0 0 
221 0 0 
220 0 0 
224 0 0 
218 0 0 
220 0 0 
218 0 0 
223 0 0 
218 0 0 
222 0 0 
219 0 0 
220 0 0 
215 0 0 
220 0 0 
221 0 0 
211 0 0 
216 0 0 
218 0 0 
214 0 0 
214 0 0 
217 0 0 
220 0 0 
219 0 0 
223 0 0 
221 0 0 
219 0 0 
217 0 0 
223 0 0 
218 0 0 
219 0 0 
219 0 0 
221 0 0 
219 0 0 
221 0 0 
223 0 0 
218 0 0 
218 0 0 
221 0 0 
221 0 0 
219 0 0 
218 0 0 
220 0 0 
219 0 0 
223 0 0 
219 0 0 
223 0 0 
0 0 254 
0 0 255 
0 0 255 
0 0 252 
0 0 255 
0 0 254 
0 0 254 
0 0 253 
0 0 254 
0 0 252 
0 0 255 
0 0 255 
0 0 253 
0 0 255 
0 0 253 
0 0 253 
0 0 255 
0 0 253 
0 0 253 
0 0 255 
0 0 255 
0 0 254 
0 0 254 
0 0 255 
0 0 255 
0 0 255 
0 0 253 
0 0 255 
0 0 255 
0 0 254 
0 0 253 
0 0 254 
0 0 254 
0 0 255 
0 0 255 
0 0 255 
0 0 252 
0 0 253 
0 0 255 
0 0 253 
0 0 254 
0 0 254 
0 0 252 
0 0 254 
0 0 254 
0 0 254 
0 0 254 
0 0 253 
0 0 252 
0 0 252 
0 0 249 
0 0 250 
0 0 254 
0 0 253 
0 0 253 
0 0 255 
0 0 253 
0 0 254 
0 0 253 
0 0 250 
0 0 250 
0 0 254 
0 0 253 
0 0 252 
0 0 252 
0 0 250 
0 0 252 
0 0 250 
0 0 253 
0 0 252 
0 0 252 
0 0 254 
0 0 253 
0 0 252 
0 0 250 
0 0 250 
0 0 253 
0 0 254 
0 0 253 
0 0 244 
0 0 250 
0 0 253 
0 0 253 
0 0 254 
0 0 248 
0 0 252 
0 0 253 
0 0 246 
0 0 248 
0 0 250 
0 0 249 
0 0 250 
0 0 252 
0 0 248 
0 0 254 
0 0 252 
0 0 250 
0 0 249 
0 0 249 
0 0 245 
0 0 250 
0 0 246 
0 0 249 
0 0 248 
0 0 253 
0 0 250 
0 0 248 
0 0 242 
0 0 253 
0 0 245 
0 0 249 
0 0 252 
0 0 248 
0 0 250 
0 0 248 
0 0 249 
0 0 246 
0 0 245 
0 0 244 
0 0 248 
0 0 236 
0 0 252 
0 0 244 
0 0 248 
0 0 246 
0 0 244 
0 0 245 
0 0 242 
0 0 244 
0 0 242 
0 0 245 
0 0 244 
0 0 246 
0 0 240 
0 0 241 
0 0 246 
0 0 246 
0 0 246 
0 0 238 
0 0 241 
0 0 236 
0 0 236 
0 0 240 
0 0 245 
0 0 228 
0 0 236 
0 0 238 
0 0 234 
0 0 237 
0 0 237 
0 0 241 
0 0 230 
0 0 245 
0 0 237 
0 0 240 
0 0 231 
0 0 234 
0 0 244 
0 0 227 
0 0 228 
0 0 233 
0 0 234 
0 0 217 
0 0 230 
0 0 227 
0 0 226 
0 0 226 
0 0 227 
0 0 218 
0 0 231 
0 0 223 
0 0 220 
0 0 215 
0 0 220 
0 0 217 
0 0 203 
0 0 211 
0 0 201 
0 0 209 
0 0 211 
0 0 206 
0 0 209 
0 0 186 
0 0 201 
0 0 199 
0 0 184 
0 0 193 
0 0 189 
0 0 196 
0 0 188 
0 0 165 
0 0 159 
0 0 169 
0 0 169 
0 0 155 
0 0 128 
0 0 128 
0 0 99 
0 0 80 
0 0 57 
34 0 0 
73 0 0 
98 0 0 
95 0 0 
116 0 0 
138 0 0 
126 0 0 
124 0 0 
150 0 0 
166 0 0 
164 0 0 
161 0 0 
161 0 0 
165 0 0 
159 0 0 
178 0 0 
183 0 0 
173 0 0 
168 0 0 
172 0 0 
185 0 0 
186 0 0 
183 0 0 
179 0 0 
186 0 0 
197 0 0 
194 0 0 
182 0 0 
192 0 0 
178 0 0 
194 0 0 
192 0 0 
204 0 0 
202 0 0 
189 0 0 
195 0 0 
202 0 0 
195 0 0 
203 0 0 
186 0 0 
195 0 0 
206 0 0 
197 0 0 
204 0 0 
199 0 0 
200 0 0 
203 0 0 
202 0 0 
207 0 0 
200 0 0 
207 0 0 
202 0 0 
195 0 0 
210 0 0 
210 0 0 
213 0 0 
211 0 0 
213 0 0 
208 0 0 
209 0 0 
198 0 0 
210 0 0 
209 0 0 
205 0 0 
212 0 0 
208 0 0 
203 0 0 
207 0 0 
210 0 0 
213 0 0 
208 0 0 
211 0 0 
204 0 0 
209 0 0 
209 0 0 
203 0 0 
211 0 0 
213 0 0 
209 0 0 
210 0 0 
210 0 0 
216 0 0 
215 0 0 
215 0 0 
203 0 0 
214 0 0 
215 0 0 
213 0 0 
213 0 0 
208 0 0 
209 0 0 
215 0 0 
219 0 0 
219 0 0 
219 0 0 
219 0 0 
216 0 0 
212 0 0 
215 0 0 
215 0 0 
217 0 0 
216 0 0 
218 0 0 
220 0 0 
216 0 0 
214 0 0 
213 0 0 
220 0 0 
214 0 0 
215 0 0 
222 0 0 
219 0 0 
208 0 0 
218 0 0 
220 0 0 
217 0 0 
213 0 0 
216 0 0 
220 0 0 
219 0 0 
213 0 0 
213 0 0 
217 0 0 
218 0 0 
216 0 0 
221 0 0 
218 0 0 
216 0 0 
217 0 0 
216 0 0 
219 0 0 
220 0 0 
216 0 0 
218 0 0 
217 0 0 
219 0 0 
220 0 0 
218 0 0 
221 0 0 
216 0 0 
223 0 0 
218 0 0 
219 0 0 
218 0 0 
219 0 0 
217 0 0 
214 0 0 
221 0 0 
220 0 0 
220 0 0 
221 0 0 
217 0 0 
221 0 0 
219 0 0 
221 0 0 
220 0 0 
222 0 0 
217 0 0 
217 0 0 
220 0 0 
219 0 0 
218 0 0 
224 0 0 
222 0 0 
218 0 0 
221 0 0 
221 0 0 
219 0 0 
217 0 0 
219 0 0 
222 0 0 
218 0 0 
219 0 0 
219 0 0 
221 0 0 
219 0 0 
220 0 0 
220 0 0 
218 0 0 
216 0 0 
221 0 0 
219 0 0 
217 0 0 
221 0 0 
219 0 0 
221 0 0 
223 0 0 
220 0 0 
218 0 0 
221 0 0 
225 0 0 
221 0 0 
223 0 0 
219 0 0 
220 0 0 
220 0 0 
223 0 0 
223 0 0 
219 0 0 
223 0 0 
0 0 255 
0 0 255 
0 0 255 
0 0 255 
0 0 254 
0 0 255 
0 0 254 
0 0 255 
0 0 255 
0 0 255 
0 0 254 
0 0 254 
0 0 255 
0 0 255 
0 0 255 
0 0 254 
0 0 255 
0 0 252 
0 0 255 
0 0 255 
0 0 255 
0 0 253 
0 0 254 
0 0 254 
0 0 253 
0 0 254 
0 0 255 
0 0 250 
0 0 255 
0 0 254 
0 0 255 
0 0 255 
0 0 253 
0 0 255 
0 0 255 
0 0 254 
0 0 255 
0 0 255 
0 0 255 
0 0 253 
0 0 253 
0 0 254 
0 0 252 
0 0 253 
0 0 253 
0 0 254 
0 0 254 
0 0 253 
0 0 254 
0 0 252 
0 0 255 
0 0 253 
0 0 255 
0 0 254 
0 0 255 
0 0 253 
0 0 253 
0 0 248 
0 0 254 
0 0 253 
0 0 254 
0 0 252 
0 0 254 
0 0 255 
0 0 255 
0 0 253 
0 0 249 
0 0 252 
0 0 254 
0 0 253 
0 0 253 
0 0 253 
0 0 254 
0 0 249 
0 0 248 
0 0 250 
0 0 248 
0 0 255 
0 0 253 
0 0 254 
0 0 250 
0 0 252 
0 0 253 
0 0 249 
0 0 252 
0 0 248 
0 0 248 
0 0 249 
0 0 248 
0 0 253 
0 0 252 
0 0 253 
0 0 252 
0 0 249 
0 0 248 
0 0 252 
0 0 253 
0 0 249 
0 0 248 
0 0 253 
0 0 250 
0 0 242 
0 0 254 
0 0 250 
0 0 249 
0 0 252 
0 0 244 
0 0 246 
0 0 245 
0 0 244 
0 0 245 
0 0 246 
0 0 246 
0 0 246 
0 0 246 
0 0 246 
0 0 245 
0 0 244 
0 0 252 
0 0 240 
0 0 249 
0 0 249 
0 0 245 
0 0 249 
0 0 242 
0 0 249 
0 0 248 
0 0 241 
0 0 245 
0 0 240 
0 0 249 
0 0 240 
0 0 244 
0 0 244 
0 0 248 
0 0 248 
0 0 244 
0 0 241 
0 0 234 
0 0 248 
0 0 244 
0 0 250 
0 0 244 
0 0 241 
0 0 237 
0 0 240 
0 0 238 
0 0 238 
0 0 240 
0 0 240 
0 0 240 
0 0 230 
0 0 238 
0 0 245 
0 0 230 
0 0 231 
0 0 230 
0 0 234 
0 0 231 
0 0 234 
0 0 236 
0 0 231 
0 0 231 
0 0 214 
0 0 223 
0 0 214 
0 0 223 
0 0 231 
0 0 224 
0 0 209 
0 0 236 
0 0 223 
0 0 199 
0 0 211 
0 0 212 
0 0 212 
0 0 218 
0 0 204 
0 0 214 
0 0 193 
0 0 204 
0 0 207 
0 0 215 
0 0 212 
0 0 188 
0 0 196 
0 0 184 
0 0 189 
0 0 188 
0 0 186 
0 0 191 
0 0 163 
0 0 155 
0 0 167 
0 0 122 
0 0 111 
0 0 111 
0 0 99 
0 0 111 
22 23 57 
41 0 0 
80 0 0 
93 0 0 
89 0 0 
113 0 0 
111 0 0 
112 0 0 
146 0 0 
140 0 0 
149 0 0 
170 0 0 
158 0 0 
153 0 0 
152 0 0 
165 0 0 
174 0 0 
166 0 0 
167 0 0 
176 0 0 
171 0 0 
178 0 0 
189 0 0 
186 0 0 
185 0 0 
193 0 0 
177 0 0 
191 0 0 
187 0 0 
194 0 0 
186 0 0 
180 0 0 
184 0 0 
186 0 0 
201 0 0 
195 0 0 
200 0 0 
200 0 0 
193 0 0 
200 0 0 
195 0 0 
200 0 0 
187 0 0 
208 0 0 
204 0 0 
198 0 0 
205 0 0 
208 0 0 
205 0 0 
200 0 0 
192 0 0 
208 0 0 
208 0 0 
208 0 0 
212 0 0 
207 0 0 
206 0 0 
206 0 0 
211 0 0 
213 0 0 
212 0 0 
206 0 0 
208 0 0 
210 0 0 
205 0 0 
204 0 0 
212 0 0 
209 0 0 
211 0 0 
208 0 0 
214 0 0 
206 0 0 
213 0 0 
204 0 0 
214 0 0 
210 0 0 
206 0 0 
213 0 0 
214 0 0 
213 0 0 
223 0 0 
217 0 0 
215 0 0 
210 0 0 
218 0 0 
214 0 0 
212 0 0 
212 0 0 
217 0 0 
214 0 0 
215 0 0 
215 0 0 
214 0 0 
217 0 0 
213 0 0 
216 0 0 
214 0 0 
218 0 0 
219 0 0 
212 0 0 
213 0 0 
214 0 0 
219 0 0 
215 0 0 
216 0 0 
218 0 0 
218 0 0 
212 0 0 
220 0 0 
217 0 0 
221 0 0 
217 0 0 
218 0 0 
211 0 0 
215 0 0 
220 0 0 
216 0 0 
216 0 0 
223 0 0 
215 0 0 
216 0 0 
216 0 0 
215 0 0 
223 0 0 
217 0 0 
218 0 0 
215 0 0 
217 0 0 
221 0 0 
222 0 0 
218 0 0 
220 0 0 
215 0 0 
221 0 0 
214 0 0 
216 0 0 
218 0 0 
218 0 0 
218 0 0 
219 0 0 
220 0 0 
221 0 0 
219 0 0 
222 0 0 
212 0 0 
216 0 0 
217 0 0 
221 0 0 
220 0 0 
219 0 0 
219 0 0 
219 0 0 
214 0 0 
218 0 0 
221 0 0 
217 0 0 
219 0 0 
220 0 0 
222 0 0 
221 0 0 
216 0 0 
224 0 0 
218 0 0 
223 0 0 
224 0 0 
220 0 0 
217 0 0 
217 0 0 
220 0 0 
214 0 0 
223 0 0 
219 0 0 
219 0 0 
222 0 0 
223 0 0 
219 0 0 
221 0 0 
222 0 0 
221 0 0 
220 0 0 
218 0 0 
224 0 0 
223 0 0 
220 0 0 
220 0 0 
222 0 0 
220 0 0 
221 0 0 
223 0 0 
221 0 0 
219 0 0 
220 0 0 
219 0 0 
224 0 0 
221 0 0 
222 0 0 
219 0 0 
221 0 0 
222 0 0 
223 0 0 
218 0 0 
0 0 255 
0 0 255 
0 0 255 
0 0 255 
0 0 254 
0 0 255 
0 0 254 
0 0 255 
0 0 255 
0 0 254 
0 0 255 
0 0 255 
0 0 255 
0 0 255 
0 0 255 
0 0 254 
0 0 253 
0 0 255 
0 0 253 
0 0 253 
0 0 254 
0 0 255 
0 0 255 
0 0 253 
0 0 253 
0 0 255 
0 0 255 
0 0 252 
0 0 254 
0 0 254 
0 0 254 
0 0 254 
0 0 254 
0 0 254 
0 0 255 
0 0 252 
0 0 255 
0 0 254 
0 0 252 
0 0 254 
0 0 254 
0 0 254 
0 0 254 
0 0 255 
0 0 252 
0 0 250 
0 0 250 
0 0 255 
0 0 254 
0 0 255 
0 0 255 
0 0 254 
0 0 253 
0 0 253 
0 0 254 
0 0 252 
0 0 253 
0 0 252 
0 0 249 
0 0 252 
0 0 253 
0 0 250 
0 0 254 
0 0 253 
0 0 254 
0 0 252 
0 0 253 
0 0 253 
0 0 252 
0 0 252 
0 0 253 
0 0 254 
0 0 250 
0 0 254 
0 0 249 
0 0 253 
0 0 252 
0 0 249 
0 0 252 
0 0 249 
0 0 249 
0 0 252 
0 0 253 
0 0 252 
0 0 253 
0 0 252 
0 0 252 
0 0 252 
0 0 246 
0 0 255 
0 0 254 
0 0 249 
0 0 250 
0 0 253 
0 0 250 
0 0 246 
0 0 250 
0 0 252 
0 0 248 
0 0 250 
0 0 252 
0 0 246 
0 0 245 
0 0 248 
0 0 249 
0 0 250 
0 0 249 
0 0 246 
0 0 244 
0 0 245 
0 0 245 
0 0 248 
0 0 254 
0 0 244 
0 0 249 
0 0 250 
0 0 241 
0 0 241 
0 0 249 
0 0 248 
0 0 250 
0 0 244 
0 0 245 
0 0 249 
0 0 240 
0 0 249 
0 0 242 
0 0 242 
0 0 244 
0 0 237 
0 0 244 
0 0 244 
0 0 245 
0 0 242 
0 0 240 
0 0 248 
0 0 236 
0 0 240 
0 0 238 
0 0 238 
0 0 241 
0 0 242 
0 0 245 
0 0 241 
0 0 238 
0 0 241 
0 0 230 
0 0 231 
0 0 238 
0 0 228 
0 0 236 
0 0 238 
0 0 230 
0 0 234 
0 0 240 
0 0 231 
0 0 233 
0 0 221 
0 0 236 
0 0 223 
0 0 226 
0 0 224 
0 0 220 
0 0 231 
0 0 223 
0 0 215 
0 0 226 
0 0 224 
0 0 224 
0 0 223 
0 0 214 
0 0 228 
0 0 226 
0 0 217 
0 0 217 
0 0 218 
0 0 207 
0 0 206 
0 0 220 
0 0 198 
0 0 206 
0 0 212 
0 0 214 
0 0 217 
0 0 194 
0 0 169 
0 0 189 
0 0 186 
0 0 179 
0 0 167 
0 0 188 
0 0 177 
0 0 171 
0 0 161 
0 0 149 
0 0 151 
0 0 133 
0 0 111 
0 0 105 
0 0 25 
60 23 25 
70 0 0 
85 0 0 
119 0 0 
106 0 0 
124 0 0 
141 0 0 
138 0 0 
154 0 0 
151 0 0 
163 0 0 
148 0 0 
160 0 0 
159 0 0 
163 0 0 
167 0 0 
161 0 0 
180 0 0 
177 0 0 
176 0 0 
173 0 0 
188 0 0 
174 0 0 
200 0 0 
177 0 0 
187 0 0 
173 0 0 
190 0 0 
179 0 0 
189 0 0 
181 0 0 
187 0 0 
196 0 0 
191 0 0 
203 0 0 
195 0 0 
190 0 0 
179 0 0 
204 0 0 
198 0 0 
208 0 0 
207 0 0 
211 0 0 
204 0 0 
195 0 0 
196 0 0 
202 0 0 
202 0 0 
200 0 0 
200 0 0 
210 0 0 
194 0 0 
210 0 0 
207 0 0 
203 0 0 
207 0 0 
203 0 0 
207 0 0 
207 0 0 
211 0 0 
213 0 0 
218 0 0 
213 0 0 
208 0 0 
211 0 0 
215 0 0 
211 0 0 
211 0 0 
206 0 0 
211 0 0 
210 0 0 
213 0 0 
208 0 0 
217 0 0 
217 0 0 
213 0 0 
209 0 0 
208 0 0 
206 0 0 
212 0 0 
214 0 0 
216 0 0 
216 0 0 
210 0 0 
218 0 0 
211 0 0 
210 0 0 
213 0 0 
213 0 0 
215 0 0 
206 0 0 
221 0 0 
218 0 0 
218 0 0 
220 0 0 
212 0 0 
212 0 0 
212 0 0 
215 0 0 
212 0 0 
213 0 0 
212 0 0 
222 0 0 
216 0 0 
220 0 0 
217 0 0 
219 0 0 
223 0 0 
211 0 0 
219 0 0 
215 0 0 
220 0 0 
214 0 0 
215 0 0 
218 0 0 
216 0 0 
214 0 0 
219 0 0 
215 0 0 
220 0 0 
222 0 0 
221 0 0 
216 0 0 
218 0 0 
220 0 0 
219 0 0 
221 0 0 
219 0 0 
220 0 0 
213 0 0 
220 0 0 
220 0 0 
217 0 0 
217 0 0 
217 0 0 
212 0 0 
219 0 0 
221 0 0 
219 0 0 
220 0 0 
219 0 0 
219 0 0 
221 0 0 
220 0 0 
221 0 0 
218 0 0 
218 0 0 
220 0 0 
224 0 0 
220 0 0 
221 0 0 
220 0 0 
218 0 0 
219 0 0 
220 0 0 
219 0 0 
219 0 0 
217 0 0 
218 0 0 
219 0 0 
214 0 0 
219 0 0 
220 0 0 
221 0 0 
219 0 0 
215 0 0 
219 0 0 
223 0 0 
221 0 0 
216 0 0 
221 0 0 
218 0 0 
218 0 0 
218 0 0 
220 0 0 
216 0 0 
217 0 0 
219 0 0 
217 0 0 
222 0 0 
223 0 0 
220 0 0 
223 0 0 
217 0 0 
222 0 0 
219 0 0 
219 0 0 
222 0 0 
216 0 0 
223 0 0 
220 0 0 
220 0 0 
218 0 0 
221 0 0 
219 0 0 
221 0 0 
221 0 0 
222 0 0 
222 0 0 
217 0 0 
0 0 255 
0 0 255 
0 0 253 
0 0 255 
0 0 254 
0 0 254 
0 0 254 
0 0 255 
0 0 254 
0 0 255 
0 0 255 
0 0 252 
0 0 253 
0 0 253 
0 0 252 
0 0 254 
0 0 255 
0 0 254 
0 0 252 
0 0 254 
0 0 253 
0 0 255 
0 0 255 
0 0 254 
0 0 253 
0 0 255 
0 0 254 
0 0 252 
0 0 255 
0 0 255 
0 0 255 
0 0 255 
0 0 254 
0 0 255 
0 0 253 
0 0 254 
0 0 254 
0 0 255 
0 0 254 
0 0 254 
0 0 254 
0 0 250 
0 0 254 
0 0 254 
0 0 253 
0 0 254 
0 0 252 
0 0 248 
0 0 253 
0 0 254 
0 0 252 
0 0 252 
0 0 254 
0 0 253 
0 0 253 
0 0 254 
0 0 253 
0 0 252 
0 0 253 
0 0 252 
0 0 254 
0 0 252 
0 0 249 
0 0 250 
0 0 253 
0 0 254 
0 0 253 
0 0 252 
0 0 252 
0 0 252 
0 0 252 
0 0 255 
0 0 253 
0 0 250 
0 0 249 
0 0 250 
0 0 252 
0 0 255 
0 0 253 
0 0 252 
0 0 254 
0 0 252 
0 0 252 
0 0 252 
0 0 250 
0 0 249 
0 0 250 
0 0 253 
0 0 250 
0 0 250 
0 0 248 
0 0 246 
0 0 249 
0 0 246 
0 0 252 
0 0 248 
0 0 249 
0 0 253 
0 0 249 
0 0 250 
0 0 248 
0 0 255 
0 0 250 
0 0 250 
0 0 250 
0 0 250 
0 0 253 
0 0 250 
0 0 252 
0 0 246 
0 0 250 
0 0 248 
0 0 245 
0 0 252 
0 0 245 
0 0 244 
0 0 248 
0 0 248 
0 0 246 
0 0 250 
0 0 244 
0 0 241 
0 0 241 
0 0 248 
0 0 249 
0 0 245 
0 0 244 
0 0 244 
0 0 242 
0 0 245 
0 0 244 
0 0 245 
0 0 238 
0 0 245 
0 0 236 
0 0 245 
0 0 240 
0 0 240 
0 0 244 
0 0 242 
0 0 248 
0 0 245 
0 0 240 
0 0 234 
0 0 238 
0 0 236 
0 0 236 
0 0 238 
0 0 227 
0 0 233 
0 0 233 
0 0 236 
0 0 233 
0 0 228 
0 0 223 
0 0 237 
0 0 231 
0 0 221 
0 0 240 
0 0 236 
0 0 228 
0 0 230 
0 0 231 
0 0 221 
0 0 226 
0 0 221 
0 0 231 
0 0 233 
0 0 228 
0 0 230 
0 0 224 
0 0 227 
0 0 217 
0 0 214 
0 0 220 
0 0 227 
0 0 217 
0 0 206 
0 0 214 
0 0 196 
0 0 206 
0 0 224 
0 0 198 
0 0 199 
0 0 189 
0 0 177 
0 0 191 
0 0 186 
0 0 161 
0 0 179 
0 0 149 
0 0 173 
0 0 171 
0 0 140 
0 0 153 
0 0 120 
0 0 120 
0 0 99 
0 0 95 
0 0 25 
60 40 44 
95 0 0 
92 0 0 
104 0 0 
123 0 0 
117 0 0 
134 0 0 
140 0 0 
144 0 0 
164 0 0 
165 0 0 
164 0 0 
165 0 0 
168 0 0 
177 0 0 
153 0 0 
163 0 0 
187 0 0 
179 0 0 
171 0 0 
170 0 0 
188 0 0 
177 0 0 
189 0 0 
196 0 0 
178 0 0 
187 0 0 
188 0 0 
194 0 0 
199 0 0 
187 0 0 
182 0 0 
194 0 0 
194 0 0 
189 0 0 
184 0 0 
203 0 0 
197 0 0 
188 0 0 
200 0 0 
198 0 0 
208 0 0 
201 0 0 
204 0 0 
201 0 0 
199 0 0 
203 0 0 
210 0 0 
204 0 0 
212 0 0 
213 0 0 
210 0 0 
206 0 0 
202 0 0 
212 0 0 
206 0 0 
204 0 0 
218 0 0 
203 0 0 
204 0 0 
214 0 0 
211 0 0 
215 0 0 
203 0 0 
207 0 0 
217 0 0 
214 0 0 
208 0 0 
213 0 0 
214 0 0 
206 0 0 
213 0 0 
215 0 0 
212 0 0 
208 0 0 
215 0 0 
210 0 0 
211 0 0 
216 0 0 
210 0 0 
211 0 0 
211 0 0 
215 0 0 
216 0 0 
209 0 0 
218 0 0 
214 0 0 
218 0 0 
218 0 0 
212 0 0 
213 0 0 
215 0 0 
218 0 0 
215 0 0 
219 0 0 
219 0 0 
215 0 0 
217 0 0 
212 0 0 
214 0 0 
213 0 0 
218 0 0 
219 0 0 
212 0 0 
214 0 0 
213 0 0 
215 0 0 
217 0 0 
218 0 0 
218 0 0 
218 0 0 
215 0 0 
220 0 0 
218 0 0 
221 0 0 
218 0 0 
215 0 0 
219 0 0 
221 0 0 
212 0 0 
224 0 0 
214 0 0 
215 0 0 
215 0 0 
218 0 0 
219 0 0 
219 0 0 
223 0 0 
217 0 0 
221 0 0 
222 0 0 
220 0 0 
223 0 0 
220 0 0 
215 0 0 
221 0 0 
221 0 0 
218 0 0 
220 0 0 
217 0 0 
219 0 0 
219 0 0 
219 0 0 
218 0 0 
222 0 0 
221 0 0 
217 0 0 
222 0 0 
217 0 0 
219 0 0 
215 0 0 
221 0 0 
220 0 0 
221 0 0 
218 0 0 
218 0 0 
220 0 0 
217 0 0 
213 0 0 
222 0 0 
219 0 0 
220 0 0 
220 0 0 
214 0 0 
218 0 0 
219 0 0 
222 0 0 
217 0 0 
218 0 0 
225 0 0 
218 0 0 
221 0 0 
220 0 0 
219 0 0 
217 0 0 
220 0 0 
219 0 0 
217 0 0 
221 0 0 
223 0 0 
222 0 0 
223 0 0 
222 0 0 
223 0 0 
220 0 0 
221 0 0 
218 0 0 
224 0 0 
221 0 0 
222 0 0 
222 0 0 
221 0 0 
220 0 0 
220 0 0 
217 0 0 
226 0 0 
220 0 0 
220 0 0 
221 0 0 
221 0 0 
0 0 255 
0 0 254 
0 0 254 
0 0 253 
0 0 254 
0 0 254 
0 0 255 
0 0 254 
0 0 252 
0 0 255 
0 0 255 
0 0 254 
0 0 255 
0 0 255 
0 0 255 
0 0 255 
0 0 254 
0 0 255 
0 0 254 
0 0 255 
0 0 254 
0 0 254 
0 0 255 
0 0 255 
0 0 255 
0 0 255 
0 0 255 
0 0 254 
0 0 255 
0 0 255 
0 0 254 
0 0 255 
0 0 252 
0 0 254 
0 0 250 
0 0 254 
0 0 253 
0 0 255 
0 0 250 
0 0 254 
0 0 255 
0 0 252 
0 0 252 
0 0 253 
0 0 254 
0 0 254 
0 0 255 
0 0 255 
0 0 254 
0 0 254 
0 0 252 
0 0 252 
0 0 254 
0 0 253 
0 0 253 
0 0 254 
0 0 253 
0 0 250 
0 0 254 
0 0 248 
0 0 253 
0 0 252 
0 0 250 
0 0 253 
0 0 253 
0 0 253 
0 0 252 
0 0 254 
0 0 255 
0 0 252 
0 0 252 
0 0 254 
0 0 253 
0 0 253 
0 0 249 
0 0 248 
0 0 252 
0 0 252 
0 0 253 
0 0 250 
0 0 254 
0 0 249 
0 0 253 
0 0 245 
0 0 254 
0 0 249 
0 0 250 
0 0 246 
0 0 252 
0 0 249 
0 0 249 
0 0 253 
0 0 253 
0 0 250 
0 0 246 
0 0 253 
0 0 249 
0 0 248 
0 0 245 
0 0 246 
0 0 252 
0 0 248 
0 0 245 
0 0 245 
0 0 250 
0 0 252 
0 0 249 
0 0 250 
0 0 248 
0 0 244 
0 0 245 
0 0 246 
0 0 250 
0 0 248 
0 0 246 
0 0 242 
0 0 249 
0 0 249 
0 0 245 
0 0 248 
0 0 246 
0 0 242 
0 0 240 
0 0 249 
0 0 245 
0 0 242 
0 0 244 
0 0 248 
0 0 245 
0 0 238 
0 0 242 
0 0 238 
0 0 245 
0 0 249 
0 0 245 
0 0 240 
0 0 246 
0 0 240 
0 0 238 
0 0 238 
0 0 238 
0 0 238 
0 0 240 
0 0 236 
0 0 242 
0 0 236 
0 0 241 
0 0 242 
0 0 237 
0 0 233 
0 0 228 
0 0 238 
0 0 231 
0 0 226 
0 0 228 
0 0 230 
0 0 231 
0 0 236 
0 0 228 
0 0 223 
0 0 223 
0 0 228 
0 0 233 
0 0 223 
0 0 226 
0 0 217 
0 0 220 
0 0 223 
0 0 218 
0 0 224 
0 0 230 
0 0 215 
0 0 227 
0 0 218 
0 0 193 
0 0 214 
0 0 214 
0 0 214 
0 0 207 
0 0 194 
0 0 215 
0 0 184 
0 0 207 
0 0 206 
0 0 189 
0 0 188 
0 0 186 
0 0 186 
0 0 184 
0 0 167 
0 0 171 
0 0 144 
0 0 135 
0 0 151 
0 0 147 
0 0 142 
0 0 128 
0 0 114 
0 0 84 
70 74 92 
66 62 67 
70 0 0 
106 0 0 
107 0 0 
89 0 0 
130 0 0 
142 0 0 
135 0 0 
147 0 0 
153 0 0 
142 0 0 
149 0 0 
147 0 0 
164 0 0 
154 0 0 
151 0 0 
174 0 0 
176 0 0 
178 0 0 
178 0 0 
179 0 0 
180 0 0 
187 0 0 
185 0 0 
184 0 0 
182 0 0 
194 0 0 
182 0 0 
193 0 0 
193 0 0 
198 0 0 
201 0 0 
195 0 0 
196 0 0 
194 0 0 
195 0 0 
209 0 0 
201 0 0 
200 0 0 
205 0 0 
195 0 0 
207 0 0 
212 0 0 
203 0 0 
204 0 0 
192 0 0 
202 0 0 
211 0 0 
209 0 0 
203 0 0 
200 0 0 
201 0 0 
203 0 0 
210 0 0 
208 0 0 
206 0 0 
214 0 0 
206 0 0 
212 0 0 
206 0 0 
210 0 0 
215 0 0 
209 0 0 
209 0 0 
212 0 0 
210 0 0 
213 0 0 
212 0 0 
214 0 0 
210 0 0 
207 0 0 
212 0 0 
218 0 0 
217 0 0 
211 0 0 
205 0 0 
218 0 0 
212 0 0 
217 0 0 
216 0 0 
215 0 0 
209 0 0 
217 0 0 
214 0 0 
218 0 0 
213 0 0 
221 0 0 
221 0 0 
208 0 0 
213 0 0 
209 0 0 
216 0 0 
216 0 0 
215 0 0 
217 0 0 
214 0 0 
216 0 0 
215 0 0 
215 0 0 
222 0 0 
219 0 0 
218 0 0 
215 0 0 
212 0 0 
220 0 0 
214 0 0 
215 0 0 
216 0 0 
211 0 0 
221 0 0 
221 0 0 
217 0 0 
212 0 0 
218 0 0 
217 0 0 
220 0 0 
219 0 0 
218 0 0 
221 0 0 
215 0 0 
219 0 0 
219 0 0 
218 0 0 
212 0 0 
215 0 0 
217 0 0 
220 0 0 
216 0 0 
213 0 0 
220 0 0 
217 0 0 
223 0 0 
216 0 0 
222 0 0 
221 0 0 
219 0 0 
217 0 0 
220 0 0 
223 0 0 
216 0 0 
217 0 0 
216 0 0 
216 0 0 
216 0 0 
219 0 0 
219 0 0 
221 0 0 
216 0 0 
222 0 0 
222 0 0 
221 0 0 
218 0 0 
222 0 0 
219 0 0 
221 0 0 
222 0 0 
217 0 0 
217 0 0 
225 0 0 
218 0 0 
226 0 0 
218 0 0 
218 0 0 
225 0 0 
219 0 0 
216 0 0 
220 0 0 
224 0 0 
224 0 0 
218 0 0 
219 0 0 
223 0 0 
217 0 0 
219 0 0 
220 0 0 
221 0 0 
222 0 0 
222 0 0 
219 0 0 
221 0 0 
223 0 0 
222 0 0 
224 0 0 
218 0 0 
218 0 0 
220 0 0 
222 0 0 
220 0 0 
218 0 0 
221 0 0 
220 0 0 
222 0 0 
217 0 0 
221 0 0 
219 0 0 
220 0 0 
221 0 0 
223 0 0 
220 0 0 
223 0 0 
0 0 253 
0 0 255 
0 0 255 
0 0 253 
0 0 253 
0 0 253 
0 0 255 
0 0 255 
0 0 254 
0 0 253 
0 0 255 
0 0 255 
0 0 255 
0 0 254 
0 0 255 
0 0 254 
0 0 255 
0 0 253 
0 0 255 
0 0 255 
0 0 255 
0 0 255 
0 0 254 
0 0 255 
0 0 255 
0 0 254 
0 0 254 
0 0 254 
0 0 254 
0 0 254 
0 0 253 
0 0 254 
0 0 254 
0 0 255 
0 0 254 
0 0 255 
0 0 253 
0 0 254 
0 0 252 
0 0 255 
0 0 253 
0 0 253 
0 0 254 
0 0 255 
0 0 254 
0 0 254 
0 0 249 
0 0 254 
0 0 254 
0 0 253 
0 0 253 
0 0 253 
0 0 253 
0 0 253 
0 0 254 
0 0 249 
0 0 254 
0 0 255 
0 0 254 
0 0 253 
0 0 252 
0 0 253 
0 0 254 
0 0 255 
0 0 250 
0 0 253 
0 0 253 
0 0 249 
0 0 253 
0 0 254 
0 0 250 
0 0 254 
0 0 252 
0 0 252 
0 0 255 
0 0 250 
0 0 252 
0 0 246 
0 0 252 
0 0 253 
0 0 252 
0 0 249 
0 0 246 
0 0 246 
0 0 253 
0 0 253 
0 0 254 
0 0 250 
0 0 253 
0 0 250 
0 0 250 
0 0 249 
0 0 248 
0 0 249 
0 0 250 
0 0 254 
0 0 250 
0 0 253 
0 0 252 
0 0 249 
0 0 250 
0 0 250 
0 0 245 
0 0 252 
0 0 250 
0 0 248 
0 0 249 
0 0 246 
0 0 249 
0 0 246 
0 0 241 
0 0 249 
0 0 245 
0 0 248 
0 0 249 
0 0 246 
0 0 242 
0 0 249 
0 0 250 
0 0 244 
0 0 244 
0 0 245 
0 0 236 
0 0 244 
0 0 244 
0 0 250 
0 0 244 
0 0 244 
0 0 244 
0 0 241 
0 0 236 
0 0 250 
0 0 236 
0 0 245 
0 0 245 
0 0 245 
0 0 244 
0 0 240 
0 0 245 
0 0 241 
0 0 242 
0 0 249 
0 0 240 
0 0 233 
0 0 236 
0 0 236 
0 0 233 
0 0 233 
0 0 238 
0 0 240 
0 0 234 
0 0 231 
0 0 226 
0 0 233 
0 0 234 
0 0 230 
0 0 242 
0 0 236 
0 0 228 
0 0 209 
0 0 227 
0 0 227 
0 0 233 
0 0 227 
0 0 224 
0 0 228 
0 0 223 
0 0 224 
0 0 227 
0 0 227 
0 0 211 
0 0 217 
0 0 215 
0 0 227 
0 0 217 
0 0 212 
0 0 206 
0 0 217 
0 0 214 
0 0 199 
0 0 214 
0 0 193 
0 0 199 
0 0 206 
0 0 212 
0 0 181 
0 0 189 
0 0 193 
0 0 163 
0 0 157 
0 0 177 
0 0 191 
0 0 153 
0 0 157 
0 0 155 
0 0 117 
0 0 125 
0 0 102 
0 0 92 
66 71 99 
108 97 105 
93 0 0 
98 0 0 
113 0 0 
113 0 0 
119 0 0 
126 0 0 
136 0 0 
157 0 0 
152 0 0 
150 0 0 
164 0 0 
152 0 0 
162 0 0 
165 0 0 
165 0 0 
164 0 0 
187 0 0 
163 0 0 
195 0 0 
181 0 0 
193 0 0 
178 0 0 
186 0 0 
184 0 0 
191 0 0 
189 0 0 
190 0 0 
186 0 0 
186 0 0 
189 0 0 
191 0 0 
198 0 0 
203 0 0 
194 0 0 
199 0 0 
195 0 0 
198 0 0 
189 0 0 
207 0 0 
198 0 0 
200 0 0 
196 0 0 
191 0 0 
207 0 0 
204 0 0 
205 0 0 
210 0 0 
208 0 0 
200 0 0 
209 0 0 
204 0 0 
212 0 0 
200 0 0 
214 0 0 
207 0 0 
212 0 0 
211 0 0 
214 0 0 
211 0 0 
212 0 0 
210 0 0 
205 0 0 
206 0 0 
204 0 0 
212 0 0 
216 0 0 
219 0 0 
215 0 0 
212 0 0 
211 0 0 
208 0 0 
209 0 0 
211 0 0 
214 0 0 
214 0 0 
215 0 0 
213 0 0 
213 0 0 
209 0 0 
214 0 0 
220 0 0 
213 0 0 
210 0 0 
214 0 0 
219 0 0 
215 0 0 
215 0 0 
211 0 0 
214 0 0 
216 0 0 
214 0 0 
216 0 0 
213 0 0 
218 0 0 
213 0 0 
222 0 0 
224 0 0 
211 0 0 
217 0 0 
218 0 0 
216 0 0 
215 0 0 
221 0 0 
216 0 0 
214 0 0 
216 0 0 
216 0 0 
212 0 0 
219 0 0 
222 0 0 
218 0 0 
216 0 0 
218 0 0 
218 0 0 
221 0 0 
218 0 0 
223 0 0 
218 0 0 
218 0 0 
220 0 0 
220 0 0 
222 0 0 
213 0 0 
218 0 0 
220 0 0 
219 0 0 
216 0 0 
215 0 0 
219 0 0 
215 0 0 
220 0 0 
221 0 0 
219 0 0 
220 0 0 
220 0 0 
219 0 0 
221 0 0 
220 0 0 
222 0 0 
219 0 0 
218 0 0 
216 0 0 
216 0 0 
222 0 0 
217 0 0 
221 0 0 
219 0 0 
219 0 0 
221 0 0 
222 0 0 
223 0 0 
221 0 0 
222 0 0 
217 0 0 
219 0 0 
218 0 0 
219 0 0 
220 0 0 
214 0 0 
223 0 0 
222 0 0 
220 0 0 
220 0 0 
220 0 0 
222 0 0 
219 0 0 
221 0 0 
220 0 0 
219 0 0 
221 0 0 
220 0 0 
221 0 0 
221 0 0 
221 0 0 
224 0 0 
223 0 0 
219 0 0 
219 0 0 
221 0 0 
219 0 0 
221 0 0 
217 0 0 
221 0 0 
221 0 0 
219 0 0 
220 0 0 
225 0 0 
222 0 0 
219 0 0 
219 0 0 
219 0 0 
216 0 0 
223 0 0 
223 0 0 
219 0 0 
220 0 0 
217 0 0 
222 0 0 
217 0 0 
0 0 254 
0 0 255 
0 0 254 
0 0 254 
0 0 255 
0 0 255 
0 0 255 
0 0 254 
0 0 255 
0 0 255 
0 0 255 
0 0 254 
0 0 253 
0 0 252 
0 0 255 
0 0 254 
0 0 254 
0 0 255 
0 0 255 
0 0 254 
0 0 255 
0 0 254 
0 0 255 
0 0 254 
0 0 255 
0 0 255 
0 0 254 
0 0 248 
0 0 255 
0 0 253 
0 0 255 
0 0 254 
0 0 255 
0 0 254 
0 0 253 
0 0 254 
0 0 254 
0 0 255 
0 0 254 
0 0 254 
0 0 254 
0 0 253 
0 0 250 
0 0 254 
0 0 254 
0 0 254 
0 0 253 
0 0 254 
0 0 254 
0 0 252 
0 0 255 
0 0 255 
0 0 253 
0 0 252 
0 0 255 
0 0 250 
0 0 253 
0 0 250 
0 0 254 
0 0 252 
0 0 252 
0 0 254 
0 0 252 
0 0 252 
0 0 250 
0 0 255 
0 0 255 
0 0 255 
0 0 253 
0 0 250 
0 0 250 
0 0 252 
0 0 253 
0 0 250 
0 0 252 
0 0 246 
0 0 254 
0 0 248 
0 0 254 
0 0 252 
0 0 252 
0 0 249 
0 0 252 
0 0 252 
0 0 250 
0 0 249 
0 0 252 
0 0 245 
0 0 253 
0 0 254 
0 0 252 
0 0 253 
0 0 248 
0 0 253 
0 0 249 
0 0 250 
0 0 246 
0 0 250 
0 0 242 
0 0 249 
0 0 249 
0 0 253 
0 0 248 
0 0 252 
0 0 248 
0 0 253 
0 0 246 
0 0 253 
0 0 241 
0 0 250 
0 0 249 
0 0 245 
0 0 245 
0 0 241 
0 0 244 
0 0 248 
0 0 253 
0 0 248 
0 0 246 
0 0 241 
0 0 249 
0 0 248 
0 0 246 
0 0 246 
0 0 248 
0 0 248 
0 0 240 
0 0 244 
0 0 246 
0 0 249 
0 0 249 
0 0 241 
0 0 249 
0 0 238 
0 0 236 
0 0 245 
0 0 234 
0 0 236 
0 0 242 
0 0 238 
0 0 241 
0 0 242 
0 0 244 
0 0 231 
0 0 236 
0 0 240 
0 0 237 
0 0 245 
0 0 234 
0 0 238 
0 0 231 
0 0 221 
0 0 237 
0 0 238 
0 0 238 
0 0 238 
0 0 238 
0 0 220 
0 0 236 
0 0 234 
0 0 238 
0 0 230 
0 0 228 
0 0 230 
0 0 221 
0 0 223 
0 0 214 
0 0 217 
0 0 226 
0 0 220 
0 0 224 
0 0 223 
0 0 214 
0 0 224 
0 0 223 
0 0 209 
0 0 207 
0 0 203 
0 0 211 
0 0 203 
0 0 230 
0 0 193 
0 0 201 
0 0 181 
0 0 194 
0 0 203 
0 0 194 
0 0 186 
0 0 179 
0 0 167 
0 0 169 
0 0 163 
0 0 157 
0 0 142 
0 0 171 
0 0 122 
0 0 125 
0 0 95 
0 0 84 
67 71 76 
90 82 88 
73 0 0 
99 0 0 
113 0 0 
103 0 0 
133 0 0 
133 0 0 
138 0 0 
148 0 0 
154 0 0 
147 0 0 
145 0 0 
155 0 0 
180 0 0 
167 0 0 
178 0 0 
158 0 0 
181 0 0 
180 0 0 
182 0 0 
187 0 0 
189 0 0 
184 0 0 
182 0 0 
186 0 0 
187 0 0 
186 0 0 
179 0 0 
195 0 0 
194 0 0 
189 0 0 
190 0 0 
196 0 0 
192 0 0 
197 0 0 
197 0 0 
203 0 0 
199 0 0 
202 0 0 
195 0 0 
201 0 0 
193 0 0 
188 0 0 
198 0 0 
205 0 0 
193 0 0 
202 0 0 
208 0 0 
204 0 0 
207 0 0 
205 0 0 
206 0 0 
213 0 0 
200 0 0 
213 0 0 
195 0 0 
206 0 0 
209 0 0 
205 0 0 
207 0 0 
211 0 0 
204 0 0 
210 0 0 
215 0 0 
210 0 0 
209 0 0 
206 0 0 
213 0 0 
219 0 0 
216 0 0 
211 0 0 
208 0 0 
202 0 0 
218 0 0 
210 0 0 
210 0 0 
213 0 0 
213 0 0 
214 0 0 
214 0 0 
221 0 0 
213 0 0 
215 0 0 
219 0 0 
207 0 0 
217 0 0 
212 0 0 
219 0 0 
216 0 0 
222 0 0 
216 0 0 
214 0 0 
214 0 0 
212 0 0 
214 0 0 
219 0 0 
219 0 0 
212 0 0 
215 0 0 
218 0 0 
219 0 0 
212 0 0 
217 0 0 
220 0 0 
219 0 0 
218 0 0 
220 0 0 
220 0 0 
217 0 0 
216 0 0 
216 0 0 
212 0 0 
219 0 0 
221 0 0 
219 0 0 
219 0 0 
221 0 0 
213 0 0 
218 0 0 
209 0 0 
219 0 0 
212 0 0 
217 0 0 
219 0 0 
220 0 0 
221 0 0 
220 0 0 
219 0 0 
215 0 0 
219 0 0 
219 0 0 
219 0 0 
220 0 0 
218 0 0 
214 0 0 
223 0 0 
220 0 0 
222 0 0 
224 0 0 
222 0 0 
219 0 0 
223 0 0 
224 0 0 
220 0 0 
217 0 0 
220 0 0 
220 0 0 
224 0 0 
216 0 0 
222 0 0 
220 0 0 
223 0 0 
216 0 0 
220 0 0 
222 0 0 
220 0 0 
218 0 0 
216 0 0 
224 0 0 
221 0 0 
220 0 0 
224 0 0 
223 0 0 
219 0 0 
218 0 0 
219 0 0 
221 0 0 
221 0 0 
222 0 0 
222 0 0 
222 0 0 
222 0 0 
222 0 0 
218 0 0 
221 0 0 
222 0 0 
219 0 0 
222 0 0 
221 0 0 
226 0 0 
220 0 0 
221 0 0 
219 0 0 
222 0 0 
219 0 0 
219 0 0 
223 0 0 
224 0 0 
219 0 0 
222 0 0 
221 0 0 
223 0 0 
222 0 0 
220 0 0 
221 0 0 
221 0 0 
221 0 0 
224 0 0 
222 0 0 
224 0 0 
0 0 255 
0 0 255 
0 0 255 
0 0 255 
0 0 255 
0 0 254 
0 0 254 
0 0 255 
0 0 255 
0 0 255 
0 0 255 
0 0 255 
0 0 252 
0 0 255 
0 0 255 
0 0 254 
0 0 255 
0 0 253 
0 0 255 
0 0 253 
0 0 255 
0 0 254 
0 0 253 
0 0 255 
0 0 254 
0 0 254 
0 0 255 
0 0 255 
0 0 254 
0 0 255 
0 0 254 
0 0 254 
0 0 253 
0 0 254 
0 0 254 
0 0 253 
0 0 254 
0 0 255 
0 0 255 
0 0 254 
0 0 254 
0 0 253 
0 0 255 
0 0 254 
0 0 250 
0 0 252 
0 0 253 
0 0 253 
0 0 254 
0 0 253 
0 0 254 
0 0 250 
0 0 249 
0 0 254 
0 0 252 
0 0 250 
0 0 254 
0 0 249 
0 0 250 
0 0 253 
0 0 255 
0 0 255 
0 0 249 
0 0 252 
0 0 249 
0 0 254 
0 0 252 
0 0 253 
0 0 254 
0 0 250 
0 0 249 
0 0 248 
0 0 250 
0 0 250 
0 0 253 
0 0 252 
0 0 249 
0 0 254 
0 0 252 
0 0 250 
0 0 252 
0 0 249 
0 0 252 
0 0 254 
0 0 253 
0 0 250 
0 0 250 
0 0 253 
0 0 253 
0 0 246 
0 0 249 
0 0 253 
0 0 250 
0 0 249 
0 0 250 
0 0 248 
0 0 248 
0 0 252 
0 0 245 
0 0 249 
0 0 246 
0 0 249 
0 0 244 
0 0 249 
0 0 242 
0 0 249 
0 0 245 
0 0 248 
0 0 254 
0 0 245 
0 0 248 
0 0 245 
0 0 249 
0 0 246 
0 0 245 
0 0 248 
0 0 249 
0 0 248 
0 0 253 
0 0 245 
0 0 250 
0 0 242 
0 0 249 
0 0 246 
0 0 245 
0 0 248 
0 0 246 
0 0 246 
0 0 245 
0 0 244 
0 0 245 
0 0 250 
0 0 240 
0 0 240 
0 0 240 
0 0 241 
0 0 240 
0 0 248 
0 0 242 
0 0 240 
0 0 234 
0 0 237 
0 0 236 
0 0 238 
0 0 238 
0 0 241 
0 0 236 
0 0 231 
0 0 244 
0 0 231 
0 0 230 
0 0 234 
0 0 244 
0 0 228 
0 0 231 
0 0 244 
0 0 228 
0 0 228 
0 0 226 
0 0 240 
0 0 236 
0 0 224 
0 0 231 
0 0 218 
0 0 231 
0 0 218 
0 0 223 
0 0 233 
0 0 231 
0 0 223 
0 0 226 
0 0 206 
0 0 215 
0 0 215 
0 0 221 
0 0 211 
0 0 204 
0 0 224 
0 0 201 
0 0 209 
0 0 209 
0 0 196 
0 0 193 
0 0 206 
0 0 196 
0 0 179 
0 0 198 
0 0 177 
0 0 184 
0 0 169 
0 0 169 
0 0 163 
0 0 165 
0 0 153 
0 0 147 
0 0 108 
0 0 137 
0 0 95 
0 0 92 
102 108 130 
100 103 111 
77 0 0 
93 0 0 
103 0 0 
109 0 0 
111 0 0 
145 0 0 
145 0 0 
141 0 0 
150 0 0 
151 0 0 
159 0 0 
166 0 0 
168 0 0 
173 0 0 
172 0 0 
172 0 0 
179 0 0 
183 0 0 
176 0 0 
177 0 0 
178 0 0 
193 0 0 
185 0 0 
197 0 0 
195 0 0 
192 0 0 
197 0 0 
184 0 0 
203 0 0 
191 0 0 
200 0 0 
202 0 0 
199 0 0 
204 0 0 
203 0 0 
198 0 0 
198 0 0 
200 0 0 
207 0 0 
204 0 0 
204 0 0 
200 0 0 
202 0 0 
205 0 0 
196 0 0 
203 0 0 
213 0 0 
210 0 0 
207 0 0 
201 0 0 
204 0 0 
202 0 0 
201 0 0 
204 0 0 
209 0 0 
210 0 0 
206 0 0 
209 0 0 
211 0 0 
216 0 0 
212 0 0 
212 0 0 
210 0 0 
208 0 0 
208 0 0 
204 0 0 
214 0 0 
205 0 0 
211 0 0 
212 0 0 
215 0 0 
215 0 0 
205 0 0 
216 0 0 
217 0 0 
210 0 0 
216 0 0 
214 0 0 
211 0 0 
210 0 0 
220 0 0 
216 0 0 
213 0 0 
215 0 0 
216 0 0 
211 0 0 
213 0 0 
209 0 0 
210 0 0 
214 0 0 
212 0 0 
219 0 0 
217 0 0 
214 0 0 
216 0 0 
211 0 0 
215 0 0 
215 0 0 
217 0 0 
218 0 0 
213 0 0 
217 0 0 
222 0 0 
219 0 0 
221 0 0 
219 0 0 
215 0 0 
217 0 0 
221 0 0 
217 0 0 
220 0 0 
218 0 0 
220 0 0 
220 0 0 
216 0 0 
220 0 0 
216 0 0 
218 0 0 
216 0 0 
218 0 0 
221 0 0 
219 0 0 
215 0 0 
215 0 0 
218 0 0 
215 0 0 
221 0 0 
222 0 0 
217 0 0 
219 0 0 
218 0 0 
223 0 0 
219 0 0 
218 0 0 
222 0 0 
218 0 0 
219 0 0 
219 0 0 
219 0 0 
216 0 0 
222 0 0 
225 0 0 
220 0 0 
220 0 0 
221 0 0 
223 0 0 
221 0 0 
221 0 0 
221 0 0 
221 0 0 
219 0 0 
222 0 0 
220 0 0 
219 0 0 
224 0 0 
219 0 0 
219 0 0 
219 0 0 
220 0 0 
224 0 0 
219 0 0 
221 0 0 
221 0 0 
217 0 0 
219 0 0 
222 0 0 
222 0 0 
224 0 0 
222 0 0 
221 0 0 
219 0 0 
220 0 0 
222 0 0 
220 0 0 
220 0 0 
220 0 0 
219 0 0 
218 0 0 
222 0 0 
221 0 0 
220 0 0 
219 0 0 
222 0 0 
220 0 0 
220 0 0 
220 0 0 
221 0 0 
219 0 0 
225 0 0 
222 0 0 
222 0 0 
222 0 0 
224 0 0 
222 0 0 
218 0 0 
222 0 0 
222 0 0 
220 0 0 
221 0 0 
0 0 255 
0 0 255 
0 0 255 
0 0 255 
0 0 254 
0 0 255 
0 0 255 
0 0 255 
0 0 253 
0 0 254 
0 0 255 
0 0 255 
0 0 254 
0 0 254 
0 0 254 
0 0 253 
0 0 255 
0 0 250 
0 0 254 
0 0 254 
0 0 254 
0 0 253 
0 0 255 
0 0 254 
0 0 255 
0 0 255 
0 0 254 
0 0 252 
0 0 254 
0 0 253 
0 0 253 
0 0 254 
0 0 254 
0 0 252 
0 0 253 
0 0 252 
0 0 252 
0 0 253 
0 0 255 
0 0 254 
0 0 255 
0 0 253 
0 0 254 
0 0 253 
0 0 253 
0 0 252 
0 0 253 
0 0 254 
0 0 254 
0 0 255 
0 0 254 
0 0 254 
0 0 253 
0 0 254 
0 0 253 
0 0 253 
0 0 252 
0 0 253 
0 0 248 
0 0 255 
0 0 252 
0 0 254 
0 0 253 
0 0 253 
0 0 252 
0 0 252 
0 0 248 
0 0 254 
0 0 249 
0 0 253 
0 0 248 
0 0 252 
0 0 250 
0 0 252 
0 0 253 
0 0 244 
0 0 253 
0 0 250 
0 0 249 
0 0 252 
0 0 253 
0 0 246 
0 0 252 
0 0 250 
0 0 254 
0 0 252 
0 0 252 
0 0 253 
0 0 250 
0 0 253 
0 0 248 
0 0 250 
0 0 249 
0 0 253 
0 0 245 
0 0 249 
0 0 250 
0 0 248 
0 0 254 
0 0 249 
0 0 246 
0 0 248 
0 0 249 
0 0 253 
0 0 250 
0 0 245 
0 0 248 
0 0 252 
0 0 248 
0 0 248 
0 0 248 
0 0 246 
0 0 246 
0 0 249 
0 0 248 
0 0 242 
0 0 246 
0 0 238 
0 0 252 
0 0 250 
0 0 246 
0 0 246 
0 0 241 
0 0 240 
0 0 244 
0 0 238 
0 0 244 
0 0 241 
0 0 248 
0 0 244 
0 0 249 
0 0 252 
0 0 246 
0 0 240 
0 0 242 
0 0 244 
0 0 249 
0 0 240 
0 0 245 
0 0 231 
0 0 240 
0 0 244 
0 0 242 
0 0 241 
0 0 241 
0 0 245 
0 0 240 
0 0 234 
0 0 234 
0 0 233 
0 0 238 
0 0 236 
0 0 237 
0 0 231 
0 0 236 
0 0 234 
0 0 241 
0 0 228 
0 0 236 
0 0 242 
0 0 228 
0 0 227 
0 0 233 
0 0 227 
0 0 224 
0 0 228 
0 0 226 
0 0 227 
0 0 230 
0 0 215 
0 0 220 
0 0 209 
0 0 215 
0 0 223 
0 0 203 
0 0 207 
0 0 214 
0 0 203 
0 0 223 
0 0 217 
0 0 211 
0 0 215 
0 0 196 
0 0 198 
0 0 188 
0 0 194 
0 0 175 
0 0 196 
0 0 184 
0 0 171 
0 0 177 
0 0 184 
0 0 157 
0 0 147 
0 0 133 
0 0 147 
0 0 125 
0 0 95 
0 0 80 
126 134 157 
123 125 135 
90 0 0 
105 0 0 
119 0 0 
110 0 0 
135 0 0 
133 0 0 
151 0 0 
135 0 0 
144 0 0 
159 0 0 
150 0 0 
161 0 0 
167 0 0 
164 0 0 
157 0 0 
183 0 0 
176 0 0 
181 0 0 
163 0 0 
181 0 0 
187 0 0 
186 0 0 
178 0 0 
195 0 0 
187 0 0 
198 0 0 
191 0 0 
201 0 0 
198 0 0 
187 0 0 
200 0 0 
190 0 0 
194 0 0 
201 0 0 
196 0 0 
195 0 0 
200 0 0 
200 0 0 
209 0 0 
196 0 0 
201 0 0 
206 0 0 
204 0 0 
204 0 0 
208 0 0 
211 0 0 
203 0 0 
199 0 0 
202 0 0 
200 0 0 
212 0 0 
202 0 0 
208 0 0 
208 0 0 
201 0 0 
210 0 0 
204 0 0 
211 0 0 
201 0 0 
204 0 0 
208 0 0 
213 0 0 
212 0 0 
208 0 0 
215 0 0 
210 0 0 
212 0 0 
211 0 0 
213 0 0 
206 0 0 
215 0 0 
217 0 0 
213 0 0 
213 0 0 
217 0 0 
206 0 0 
211 0 0 
213 0 0 
212 0 0 
217 0 0 
218 0 0 
213 0 0 
215 0 0 
214 0 0 
212 0 0 
215 0 0 
218 0 0 
211 0 0 
213 0 0 
210 0 0 
217 0 0 
217 0 0 
220 0 0 
219 0 0 
216 0 0 
214 0 0 
218 0 0 
213 0 0 
216 0 0 
216 0 0 
218 0 0 
214 0 0 
218 0 0 
218 0 0 
209 0 0 
214 0 0 
222 0 0 
220 0 0 
220 0 0 
214 0 0 
215 0 0 
210 0 0 
219 0 0 
221 0 0 
218 0 0 
216 0 0 
218 0 0 
217 0 0 
221 0 0 
219 0 0 
217 0 0 
220 0 0 
216 0 0 
219 0 0 
222 0 0 
218 0 0 
222 0 0 
217 0 0 
219 0 0 
218 0 0 
218 0 0 
219 0 0 
222 0 0 
221 0 0 
223 0 0 
223 0 0 
223 0 0 
222 0 0 
222 0 0 
219 0 0 
221 0 0 
222 0 0 
216 0 0 
215 0 0 
223 0 0 
217 0 0 
224 0 0 
221 0 0 
221 0 0 
223 0 0 
216 0 0 
220 0 0 
217 0 0 
219 0 0 
218 0 0 
221 0 0 
217 0 0 
215 0 0 
219 0 0 
218 0 0 
222 0 0 
219 0 0 
219 0 0 
213 0 0 
220 0 0 
218 0 0 
222 0 0 
219 0 0 
219 0 0 
221 0 0 
224 0 0 
219 0 0 
219 0 0 
222 0 0 
217 0 0 
219 0 0 
216 0 0 
223 0 0 
222 0 0 
223 0 0 
217 0 0 
221 0 0 
219 0 0 
220 0 0 
224 0 0 
221 0 0 
218 0 0 
221 0 0 
224 0 0 
221 0 0 
221 0 0 
218 0 0 
221 0 0 
220 0 0 
223 0 0 
227 0 0 
224 0 0 
222 0 0 
221 0 0 
0 0 255 
0 0 255 
0 0 255 
0 0 255 
0 0 255 
0 0 254 
0 0 253 
0 0 255 
0 0 255 
0 0 254 
0 0 252 
0 0 255 
0 0 255 
0 0 255 
0 0 255 
0 0 254 
0 0 254 
0 0 254 
0 0 254 
0 0 255 
0 0 254 
0 0 254 
0 0 254 
0 0 255 
0 0 253 
0 0 254 
0 0 255 
0 0 253 
0 0 255 
0 0 254 
0 0 254 
0 0 255 
0 0 253 
0 0 254 
0 0 253 
0 0 254 
0 0 255 
0 0 253 
0 0 255 
0 0 252 
0 0 254 
0 0 253 
0 0 253 
0 0 252 
0 0 252 
0 0 250 
0 0 253 
0 0 252 
0 0 255 
0 0 252 
0 0 254 
0 0 254 
0 0 253 
0 0 253 
0 0 252 
0 0 253 
0 0 253 
0 0 253 
0 0 250 
0 0 255 
0 0 252 
0 0 254 
0 0 255 
0 0 252 
0 0 255 
0 0 253 
0 0 250 
0 0 253 
0 0 249 
0 0 254 
0 0 252 
0 0 250 
0 0 252 
0 0 249 
0 0 250 
0 0 252 
0 0 254 
0 0 246 
0 0 250 
0 0 252 
0 0 252 
0 0 253 
0 0 254 
0 0 254 
0 0 250 
0 0 249 
0 0 254 
0 0 249 
0 0 253 
0 0 253 
0 0 250 
0 0 253 
0 0 253 
0 0 252 
0 0 252 
0 0 252 
0 0 252 
0 0 252 
0 0 248 
0 0 252 
0 0 249 
0 0 255 
0 0 249 
0 0 248 
0 0 246 
0 0 242 
0 0 250 
0 0 253 
0 0 252 
0 0 248 
0 0 250 
0 0 250 
0 0 253 
0 0 250 
0 0 244 
0 0 249 
0 0 238 
0 0 250 
0 0 246 
0 0 246 
0 0 250 
0 0 248 
0 0 238 
0 0 242 
0 0 246 
0 0 244 
0 0 249 
0 0 244 
0 0 245 
0 0 233 
0 0 245 
0 0 240 
0 0 248 
0 0 242 
0 0 244 
0 0 244 
0 0 244 
0 0 237 
0 0 246 
0 0 246 
0 0 237 
0 0 241 
0 0 233 
0 0 227 
0 0 236 
0 0 240 
0 0 236 
0 0 237 
0 0 244 
0 0 240 
0 0 241 
0 0 242 
0 0 238 
0 0 228 
0 0 224 
0 0 231 
0 0 236 
0 0 228 
0 0 237 
0 0 231 
0 0 218 
0 0 233 
0 0 230 
0 0 236 
0 0 224 
0 0 226 
0 0 224 
0 0 234 
0 0 226 
0 0 230 
0 0 224 
0 0 218 
0 0 224 
0 0 223 
0 0 224 
0 0 220 
0 0 217 
0 0 228 
0 0 211 
0 0 211 
0 0 204 
0 0 211 
0 0 211 
0 0 199 
0 0 198 
0 0 198 
0 0 201 
0 0 191 
0 0 184 
0 0 171 
0 0 153 
0 0 159 
0 0 151 
0 0 157 
0 0 157 
0 0 117 
0 0 125 
0 0 122 
0 0 92 
153 162 181 
155 162 175 
69 0 0 
113 0 0 
117 0 0 
132 0 0 
131 0 0 
134 0 0 
152 0 0 
156 0 0 
151 0 0 
145 0 0 
160 0 0 
158 0 0 
169 0 0 
176 0 0 
167 0 0 
160 0 0 
163 0 0 
175 0 0 
185 0 0 
186 0 0 
184 0 0 
196 0 0 
191 0 0 
179 0 0 
187 0 0 
192 0 0 
196 0 0 
199 0 0 
198 0 0 
196 0 0 
195 0 0 
197 0 0 
200 0 0 
192 0 0 
195 0 0 
192 0 0 
201 0 0 
207 0 0 
201 0 0 
203 0 0 
193 0 0 
206 0 0 
203 0 0 
199 0 0 
208 0 0 
209 0 0 
199 0 0 
212 0 0 
206 0 0 
211 0 0 
210 0 0 
209 0 0 
204 0 0 
199 0 0 
210 0 0 
212 0 0 
200 0 0 
209 0 0 
211 0 0 
209 0 0 
205 0 0 
210 0 0 
217 0 0 
208 0 0 
213 0 0 
208 0 0 
218 0 0 
221 0 0 
209 0 0 
210 0 0 
214 0 0 
210 0 0 
214 0 0 
216 0 0 
216 0 0 
213 0 0 
213 0 0 
215 0 0 
216 0 0 
211 0 0 
214 0 0 
210 0 0 
209 0 0 
213 0 0 
215 0 0 
215 0 0 
217 0 0 
212 0 0 
217 0 0 
218 0 0 
214 0 0 
214 0 0 
219 0 0 
212 0 0 
217 0 0 
224 0 0 
215 0 0 
220 0 0 
222 0 0 
218 0 0 
220 0 0 
217 0 0 
216 0 0 
215 0 0 
216 0 0 
220 0 0 
214 0 0 
215 0 0 
221 0 0 
216 0 0 
214 0 0 
220 0 0 
220 0 0 
222 0 0 
221 0 0 
224 0 0 
221 0 0 
213 0 0 
215 0 0 
214 0 0 
216 0 0 
221 0 0 
218 0 0 
217 0 0 
217 0 0 
223 0 0 
217 0 0 
215 0 0 
214 0 0 
222 0 0 
220 0 0 
219 0 0 
216 0 0 
221 0 0 
219 0 0 
220 0 0 
224 0 0 
224 0 0 
219 0 0 
223 0 0 
218 0 0 
219 0 0 
220 0 0 
218 0 0 
219 0 0 
220 0 0 
217 0 0 
221 0 0 
221 0 0 
222 0 0 
224 0 0 
222 0 0 
221 0 0 
221 0 0 
223 0 0 
219 0 0 
221 0 0 
224 0 0 
219 0 0 
219 0 0 
221 0 0 
222 0 0 
218 0 0 
222 0 0 
222 0 0 
222 0 0 
218 0 0 
222 0 0 
218 0 0 
218 0 0 
221 0 0 
216 0 0 
220 0 0 
223 0 0 
226 0 0 
219 0 0 
218 0 0 
224 0 0 
220 0 0 
220 0 0 
221 0 0 
225 0 0 
221 0 0 
220 0 0 
222 0 0 
224 0 0 
222 0 0 
220 0 0 
219 0 0 
222 0 0 
222 0 0 
224 0 0 
220 0 0 
224 0 0 
220 0 0 
222 0 0 
219 0 0 
224 0 0 
224 0 0 
0 0 254 
0 0 254 
0 0 254 
0 0 254 
0 0 252 
0 0 255 
0 0 253 
0 0 254 
0 0 254 
0 0 254 
0 0 254 
0 0 254 
0 0 255 
0 0 253 
0 0 254 
0 0 255 
0 0 254 
0 0 253 
0 0 253 
0 0 255 
0 0 254 
0 0 250 
0 0 255 
0 0 255 
0 0 255 
0 0 254 
0 0 250 
0 0 250 
0 0 253 
0 0 254 
0 0 254 
0 0 255 
0 0 253 
0 0 253 
0 0 254 
0 0 253 
0 0 255 
0 0 255 
0 0 255 
0 0 253 
0 0 253 
0 0 254 
0 0 252 
0 0 255 
0 0 255 
0 0 255 
0 0 253 
0 0 252 
0 0 250 
0 0 253 
0 0 255 
0 0 252 
0 0 254 
0 0 250 
0 0 249 
0 0 252 
0 0 254 
0 0 252 
0 0 255 
0 0 255 
0 0 253 
0 0 253 
0 0 253 
0 0 253 
0 0 253 
0 0 250 
0 0 254 
0 0 249 
0 0 249 
0 0 254 
0 0 242 
0 0 252 
0 0 254 
0 0 248 
0 0 253 
0 0 249 
0 0 255 
0 0 254 
0 0 253 
0 0 253 
0 0 254 
0 0 252 
0 0 252 
0 0 249 
0 0 252 
0 0 252 
0 0 250 
0 0 250 
0 0 249 
0 0 248 
0 0 250 
0 0 253 
0 0 249 
0 0 248 
0 0 250 
0 0 248 
0 0 252 
0 0 252 
0 0 248 
0 0 248 
0 0 249 
0 0 250 
0 0 252 
0 0 246 
0 0 245 
0 0 244 
0 0 250 
0 0 249 
0 0 249 
0 0 250 
0 0 249 
0 0 250 
0 0 249 
0 0 250 
0 0 254 
0 0 248 
0 0 245 
0 0 246 
0 0 244 
0 0 249 
0 0 244 
0 0 249 
0 0 242 
0 0 244 
0 0 249 
0 0 246 
0 0 245 
0 0 245 
0 0 238 
0 0 237 
0 0 244 
0 0 249 
0 0 249 
0 0 245 
0 0 244 
0 0 244 
0 0 242 
0 0 238 
0 0 234 
0 0 244 
0 0 244 
0 0 237 
0 0 242 
0 0 234 
0 0 244 
0 0 240 
0 0 242 
0 0 242 
0 0 226 
0 0 245 
0 0 236 
0 0 242 
0 0 236 
0 0 241 
0 0 231 
0 0 238 
0 0 230 
0 0 237 
0 0 234 
0 0 220 
0 0 231 
0 0 226 
0 0 228 
0 0 223 
0 0 224 
0 0 233 
0 0 217 
0 0 230 
0 0 230 
0 0 230 
0 0 226 
0 0 218 
0 0 227 
0 0 217 
0 0 214 
0 0 211 
0 0 220 
0 0 223 
0 0 209 
0 0 211 
0 0 209 
0 0 206 
0 0 206 
0 0 207 
0 0 199 
0 0 209 
0 0 194 
0 0 191 
0 0 179 
0 0 179 
0 0 167 
0 0 169 
0 0 147 
0 0 142 
0 0 142 
0 0 117 
0 0 133 
0 0 108 
0 0 84 
169 179 196 
167 168 181 
52 0 0 
117 0 0 
115 0 0 
124 0 0 
137 0 0 
155 0 0 
152 0 0 
132 0 0 
152 0 0 
151 0 0 
161 0 0 
168 0 0 
160 0 0 
174 0 0 
185 0 0 
177 0 0 
180 0 0 
164 0 0 
180 0 0 
184 0 0 
179 0 0 
190 0 0 
194 0 0 
201 0 0 
188 0 0 
189 0 0 
190 0 0 
195 0 0 
196 0 0 
198 0 0 
195 0 0 
200 0 0 
196 0 0 
201 0 0 
193 0 0 
197 0 0 
207 0 0 
184 0 0 
201 0 0 
206 0 0 
205 0 0 
207 0 0 
209 0 0 
201 0 0 
205 0 0 
205 0 0 
206 0 0 
210 0 0 
206 0 0 
209 0 0 
197 0 0 
207 0 0 
210 0 0 
202 0 0 
210 0 0 
216 0 0 
209 0 0 
218 0 0 
209 0 0 
205 0 0 
205 0 0 
207 0 0 
217 0 0 
209 0 0 
209 0 0 
218 0 0 
214 0 0 
214 0 0 
213 0 0 
210 0 0 
215 0 0 
212 0 0 
216 0 0 
209 0 0 
214 0 0 
212 0 0 
213 0 0 
214 0 0 
214 0 0 
217 0 0 
215 0 0 
216 0 0 
214 0 0 
214 0 0 
217 0 0 
219 0 0 
213 0 0 
211 0 0 
218 0 0 
211 0 0 
223 0 0 
220 0 0 
217 0 0 
220 0 0 
216 0 0 
213 0 0 
217 0 0 
216 0 0 
214 0 0 
218 0 0 
213 0 0 
218 0 0 
214 0 0 
216 0 0 
219 0 0 
222 0 0 
213 0 0 
220 0 0 
219 0 0 
216 0 0 
217 0 0 
220 0 0 
216 0 0 
219 0 0 
220 0 0 
219 0 0 
213 0 0 
218 0 0 
218 0 0 
219 0 0 
220 0 0 
213 0 0 
218 0 0 
218 0 0 
220 0 0 
223 0 0 
220 0 0 
221 0 0 
217 0 0 
222 0 0 
222 0 0 
219 0 0 
218 0 0 
220 0 0 
217 0 0 
220 0 0 
223 0 0 
222 0 0 
218 0 0 
221 0 0 
222 0 0 
221 0 0 
221 0 0 
216 0 0 
219 0 0 
218 0 0 
220 0 0 
222 0 0 
222 0 0 
220 0 0 
222 0 0 
218 0 0 
223 0 0 
220 0 0 
220 0 0 
222 0 0 
220 0 0 
219 0 0 
223 0 0 
220 0 0 
219 0 0 
220 0 0 
224 0 0 
220 0 0 
218 0 0 
224 0 0 
221 0 0 
220 0 0 
221 0 0 
218 0 0 
219 0 0 
217 0 0 
222 0 0 
217 0 0 
219 0 0 
222 0 0 
223 0 0 
218 0 0 
225 0 0 
222 0 0 
218 0 0 
221 0 0 
222 0 0 
223 0 0 
223 0 0 
218 0 0 
222 0 0 
222 0 0 
221 0 0 
225 0 0 
220 0 0 
222 0 0 
223 0 0 
220 0 0 
221 0 0 
223 0 0 
222 0 0 
221 0 0 
220 0 0 
0 0 254 
0 0 254 
0 0 254 
0 0 255 
0 0 253 
0 0 255 
0 0 255 
0 0 255 
0 0 255 
0 0 254 
0 0 255 
0 0 254 
0 0 254 
0 0 254 
0 0 255 
0 0 253 
0 0 255 
0 0 254 
0 0 253 
0 0 254 
0 0 255 
0 0 253 
0 0 254 
0 0 253 
0 0 255 
0 0 253 
0 0 255 
0 0 254 
0 0 255 
0 0 253 
0 0 255 
0 0 255 
0 0 252 
0 0 254 
0 0 250 
0 0 254 
0 0 254 
0 0 255 
0 0 255 
0 0 254 
0 0 255 
0 0 252 
0 0 254 
0 0 253 
0 0 252 
0 0 255 
0 0 254 
0 0 252 
0 0 254 
0 0 254 
0 0 254 
0 0 252 
0 0 254 
0 0 254 
0 0 254 
0 0 255 
0 0 253 
0 0 253 
0 0 254 
0 0 252 
0 0 254 
0 0 252 
0 0 252 
0 0 254 
0 0 249 
0 0 253 
0 0 250 
0 0 253 
0 0 253 
0 0 253 
0 0 254 
0 0 254 
0 0 252 
0 0 248 
0 0 254 
0 0 254 
0 0 254 
0 0 245 
0 0 250 
0 0 250 
0 0 253 
0 0 250 
0 0 250 
0 0 253 
0 0 248 
0 0 253 
0 0 250 
0 0 248 
0 0 248 
0 0 253 
0 0 246 
0 0 253 
0 0 250 
0 0 252 
0 0 249 
0 0 244 
0 0 249 
0 0 253 
0 0 252 
0 0 250 
0 0 249 
0 0 249 
0 0 252 
0 0 248 
0 0 249 
0 0 245 
0 0 255 
0 0 250 
0 0 244 
0 0 252 
0 0 252 
0 0 242 
0 0 253 
0 0 245 
0 0 242 
0 0 250 
0 0 244 
0 0 249 
0 0 248 
0 0 246 
0 0 245 
0 0 248 
0 0 246 
0 0 234 
0 0 244 
0 0 242 
0 0 245 
0 0 245 
0 0 245 
0 0 249 
0 0 245 
0 0 234 
0 0 241 
0 0 248 
0 0 246 
0 0 246 
0 0 242 
0 0 248 
0 0 246 
0 0 248 
0 0 242 
0 0 236 
0 0 236 
0 0 228 
0 0 245 
0 0 233 
0 0 240 
0 0 237 
0 0 240 
0 0 238 
0 0 242 
0 0 228 
0 0 230 
0 0 237 
0 0 233 
0 0 228 
0 0 227 
0 0 241 
0 0 228 
0 0 230 
0 0 240 
0 0 240 
0 0 218 
0 0 227 
0 0 227 
0 0 228 
0 0 228 
0 0 218 
0 0 218 
0 0 221 
0 0 215 
0 0 221 
0 0 227 
0 0 206 
0 0 228 
0 0 211 
0 0 209 
0 0 199 
0 0 199 
0 0 218 
0 0 201 
0 0 186 
0 0 203 
0 0 193 
0 0 194 
0 0 179 
0 0 186 
0 0 188 
0 0 181 
0 0 181 
0 0 179 
0 0 163 
0 0 167 
0 0 140 
0 0 147 
0 0 120 
0 0 128 
0 0 111 
0 0 99 
174 184 199 
184 185 199 
89 0 0 
85 0 0 
112 0 0 
126 0 0 
132 0 0 
132 0 0 
143 0 0 
147 0 0 
161 0 0 
168 0 0 
172 0 0 
175 0 0 
178 0 0 
176 0 0 
169 0 0 
177 0 0 
187 0 0 
191 0 0 
184 0 0 
186 0 0 
192 0 0 
188 0 0 
185 0 0 
178 0 0 
181 0 0 
195 0 0 
190 0 0 
200 0 0 
200 0 0 
197 0 0 
196 0 0 
193 0 0 
194 0 0 
195 0 0 
207 0 0 
198 0 0 
197 0 0 
196 0 0 
203 0 0 
204 0 0 
208 0 0 
201 0 0 
204 0 0 
200 0 0 
210 0 0 
203 0 0 
201 0 0 
207 0 0 
211 0 0 
203 0 0 
201 0 0 
209 0 0 
207 0 0 
203 0 0 
208 0 0 
208 0 0 
211 0 0 
211 0 0 
211 0 0 
214 0 0 
209 0 0 
216 0 0 
214 0 0 
215 0 0 
208 0 0 
213 0 0 
215 0 0 
208 0 0 
217 0 0 
211 0 0 
218 0 0 
212 0 0 
213 0 0 
214 0 0 
216 0 0 
211 0 0 
215 0 0 
216 0 0 
215 0 0 
217 0 0 
212 0 0 
216 0 0 
213 0 0 
217 0 0 
221 0 0 
216 0 0 
215 0 0 
212 0 0 
216 0 0 
210 0 0 
216 0 0 
219 0 0 
212 0 0 
218 0 0 
218 0 0 
221 0 0 
218 0 0 
218 0 0 
221 0 0 
217 0 0 
217 0 0 
212 0 0 
220 0 0 
220 0 0 
218 0 0 
213 0 0 
218 0 0 
216 0 0 
215 0 0 
219 0 0 
215 0 0 
224 0 0 
220 0 0 
220 0 0 
224 0 0 
216 0 0 
218 0 0 
219 0 0 
217 0 0 
217 0 0 
220 0 0 
216 0 0 
222 0 0 
221 0 0 
211 0 0 
217 0 0 
223 0 0 
218 0 0 
219 0 0 
221 0 0 
223 0 0 
221 0 0 
223 0 0 
216 0 0 
221 0 0 
216 0 0 
217 0 0 
221 0 0 
226 0 0 
220 0 0 
224 0 0 
218 0 0 
222 0 0 
221 0 0 
217 0 0 
220 0 0 
221 0 0 
220 0 0 
220 0 0 
221 0 0 
221 0 0 
221 0 0 
224 0 0 
219 0 0 
221 0 0 
221 0 0 
219 0 0 
220 0 0 
221 0 0 
218 0 0 
219 0 0 
223 0 0 
220 0 0 
222 0 0 
220 0 0 
221 0 0 
218 0 0 
219 0 0 
221 0 0 
220 0 0 
219 0 0 
221 0 0 
221 0 0 
222 0 0 
218 0 0 
222 0 0 
222 0 0 
222 0 0 
219 0 0 
220 0 0 
221 0 0 
223 0 0 
224 0 0 
221 0 0 
222 0 0 
221 0 0 
218 0 0 
218 0 0 
221 0 0 
222 0 0 
218 0 0 
221 0 0 
221 0 0 
220 0 0 
219 0 0 
220 0 0 
221 0 0 
218 0 0 
222 0 0 
0 0 255 
0 0 255 
0 0 255 
0 0 253 
0 0 255 
0 0 254 
0 0 254 
0 0 255 
0 0 255 
0 0 254 
0 0 253 
0 0 255 
0 0 254 
0 0 254 
0 0 255 
0 0 255 
0 0 255 
0 0 254 
0 0 254 
0 0 254 
0 0 255 
0 0 253 
0 0 254 
0 0 254 
0 0 254 
0 0 253 
0 0 255 
0 0 255 
0 0 254 
0 0 254 
0 0 253 
0 0 255 
0 0 255 
0 0 254 
0 0 255 
0 0 255 
0 0 255 
0 0 254 
0 0 253 
0 0 255 
0 0 254 
0 0 254 
0 0 253 
0 0 252 
0 0 253 
0 0 250 
0 0 249 
0 0 255 
0 0 252 
0 0 254 
0 0 253 
0 0 254 
0 0 252 
0 0 253 
0 0 254 
0 0 254 
0 0 252 
0 0 250 
0 0 254 
0 0 254 
0 0 255 
0 0 253 
0 0 252 
0 0 250 
0 0 250 
0 0 250 
0 0 254 
0 0 254 
0 0 254 
0 0 250 
0 0 253 
0 0 252 
0 0 253 
0 0 253 
0 0 252 
0 0 253 
0 0 249 
0 0 250 
0 0 250 
0 0 253 
0 0 252 
0 0 253 
0 0 254 
0 0 254 
0 0 249 
0 0 250 
0 0 253 
0 0 248 
0 0 249 
0 0 246 
0 0 240 
0 0 248 
0 0 250 
0 0 250 
0 0 248 
0 0 248 
0 0 250 
0 0 246 
0 0 252 
0 0 249 
0 0 254 
0 0 249 
0 0 250 
0 0 241 
0 0 248 
0 0 248 
0 0 248 
0 0 246 
0 0 250 
0 0 252 
0 0 252 
0 0 245 
0 0 252 
0 0 244 
0 0 249 
0 0 245 
0 0 245 
0 0 245 
0 0 245 
0 0 242 
0 0 244 
0 0 248 
0 0 240 
0 0 249 
0 0 246 
0 0 244 
0 0 245 
0 0 249 
0 0 249 
0 0 246 
0 0 238 
0 0 244 
0 0 237 
0 0 246 
0 0 246 
0 0 241 
0 0 241 
0 0 233 
0 0 242 
0 0 237 
0 0 241 
0 0 240 
0 0 237 
0 0 244 
0 0 250 
0 0 242 
0 0 245 
0 0 236 
0 0 242 
0 0 241 
0 0 230 
0 0 234 
0 0 238 
0 0 231 
0 0 241 
0 0 234 
0 0 230 
0 0 233 
0 0 236 
0 0 227 
0 0 230 
0 0 237 
0 0 231 
0 0 223 
0 0 227 
0 0 217 
0 0 227 
0 0 224 
0 0 230 
0 0 220 
0 0 220 
0 0 199 
0 0 212 
0 0 217 
0 0 220 
0 0 217 
0 0 215 
0 0 209 
0 0 204 
0 0 204 
0 0 211 
0 0 198 
0 0 218 
0 0 193 
0 0 188 
0 0 184 
0 0 199 
0 0 173 
0 0 184 
0 0 188 
0 0 175 
0 0 155 
0 0 171 
0 0 167 
0 0 144 
0 0 137 
0 0 133 
0 0 133 
0 0 92 
187 197 214 
201 211 227 
93 0 0 
107 0 0 
120 0 0 
127 0 0 
143 0 0 
143 0 0 
129 0 0 
148 0 0 
137 0 0 
150 0 0 
163 0 0 
163 0 0 
165 0 0 
165 0 0 
170 0 0 
173 0 0 
172 0 0 
180 0 0 
191 0 0 
190 0 0 
193 0 0 
191 0 0 
180 0 0 
189 0 0 
198 0 0 
190 0 0 
191 0 0 
202 0 0 
200 0 0 
184 0 0 
191 0 0 
196 0 0 
197 0 0 
201 0 0 
200 0 0 
192 0 0 
200 0 0 
190 0 0 
197 0 0 
205 0 0 
198 0 0 
202 0 0 
204 0 0 
199 0 0 
210 0 0 
210 0 0 
211 0 0 
209 0 0 
211 0 0 
210 0 0 
208 0 0 
211 0 0 
213 0 0 
215 0 0 
206 0 0 
205 0 0 
207 0 0 
208 0 0 
214 0 0 
210 0 0 
208 0 0 
215 0 0 
210 0 0 
212 0 0 
213 0 0 
207 0 0 
212 0 0 
205 0 0 
212 0 0 
216 0 0 
213 0 0 
212 0 0 
211 0 0 
216 0 0 
218 0 0 
215 0 0 
222 0 0 
211 0 0 
213 0 0 
213 0 0 
213 0 0 
211 0 0 
211 0 0 
212 0 0 
218 0 0 
218 0 0 
211 0 0 
211 0 0 
210 0 0 
217 0 0 
217 0 0 
210 0 0 
215 0 0 
217 0 0 
218 0 0 
219 0 0 
221 0 0 
218 0 0 
214 0 0 
216 0 0 
220 0 0 
219 0 0 
212 0 0 
219 0 0 
218 0 0 
215 0 0 
220 0 0 
215 0 0 
218 0 0 
221 0 0 
211 0 0 
223 0 0 
219 0 0 
216 0 0 
218 0 0 
215 0 0 
221 0 0 
223 0 0 
219 0 0 
222 0 0 
213 0 0 
217 0 0 
220 0 0 
218 0 0 
216 0 0 
221 0 0 
221 0 0 
217 0 0 
216 0 0 
216 0 0 
221 0 0 
218 0 0 
222 0 0 
219 0 0 
221 0 0 
220 0 0 
214 0 0 
221 0 0 
216 0 0 
219 0 0 
216 0 0 
218 0 0 
219 0 0 
222 0 0 
217 0 0 
220 0 0 
217 0 0 
223 0 0 
217 0 0 
221 0 0 
220 0 0 
223 0 0 
218 0 0 
218 0 0 
225 0 0 
222 0 0 
221 0 0 
223 0 0 
221 0 0 
220 0 0 
225 0 0 
223 0 0 
219 0 0 
222 0 0 
223 0 0 
221 0 0 
222 0 0 
219 0 0 
220 0 0 
220 0 0 
219 0 0 
223 0 0 
224 0 0 
222 0 0 
218 0 0 
222 0 0 
218 0 0 
223 0 0 
221 0 0 
219 0 0 
220 0 0 
221 0 0 
222 0 0 
222 0 0 
217 0 0 
222 0 0 
221 0 0 
223 0 0 
222 0 0 
222 0 0 
222 0 0 
223 0 0 
221 0 0 
221 0 0 
220 0 0 
225 0 0 
220 0 0 
221 0 0 
222 0 0 
0 0 252 
0 0 255 
0 0 255 
0 0 255 
0 0 255 
0 0 255 
0 0 255 
0 0 253 
0 0 255 
0 0 253 
0 0 255 
0 0 254 
0 0 255 
0 0 250 
0 0 254 
0 0 254 
0 0 255 
0 0 254 
0 0 254 
0 0 255 
0 0 253 
0 0 254 
0 0 254 
0 0 253 
0 0 254 
0 0 254 
0 0 253 
0 0 254 
0 0 254 
0 0 254 
0 0 254 
0 0 252 
0 0 255 
0 0 255 
0 0 254 
0 0 253 
0 0 254 
0 0 253 
0 0 253 
0 0 253 
0 0 254 
0 0 254 
0 0 254 
0 0 254 
0 0 254 
0 0 253 
0 0 252 
0 0 255 
0 0 255 
0 0 254 
0 0 250 
0 0 254 
0 0 250 
0 0 255 
0 0 254 
0 0 252 
0 0 252 
0 0 254 
0 0 254 
0 0 254 
0 0 253 
0 0 255 
0 0 250 
0 0 255 
0 0 252 
0 0 254 
0 0 253 
0 0 254 
0 0 252 
0 0 250 
0 0 253 
0 0 252 
0 0 250 
0 0 252 
0 0 252 
0 0 253 
0 0 253 
0 0 254 
0 0 254 
0 0 252 
0 0 252 
0 0 255 
0 0 255 
0 0 252 
0 0 252 
0 0 248 
0 0 250 
0 0 254 
0 0 252 
0 0 249 
0 0 246 
0 0 249 
0 0 250 
0 0 252 
0 0 245 
0 0 250 
0 0 249 
0 0 250 
0 0 244 
0 0 250 
0 0 248 
0 0 250 
0 0 249 
0 0 244 
0 0 248 
0 0 250 
0 0 246 
0 0 252 
0 0 249 
0 0 249 
0 0 252 
0 0 240 
0 0 252 
0 0 249 
0 0 250 
0 0 246 
0 0 246 
0 0 248 
0 0 249 
0 0 245 
0 0 246 
0 0 250 
0 0 248 
0 0 238 
0 0 250 
0 0 244 
0 0 241 
0 0 237 
0 0 234 
0 0 242 
0 0 242 
0 0 241 
0 0 242 
0 0 245 
0 0 245 
0 0 246 
0 0 242 
0 0 244 
0 0 245 
0 0 236 
0 0 241 
0 0 240 
0 0 231 
0 0 240 
0 0 241 
0 0 244 
0 0 238 
0 0 238 
0 0 246 
0 0 236 
0 0 237 
0 0 234 
0 0 240 
0 0 238 
0 0 236 
0 0 226 
0 0 240 
0 0 237 
0 0 226 
0 0 237 
0 0 227 
0 0 234 
0 0 230 
0 0 224 
0 0 221 
0 0 240 
0 0 231 
0 0 233 
0 0 224 
0 0 220 
0 0 224 
0 0 215 
0 0 212 
0 0 206 
0 0 217 
0 0 221 
0 0 220 
0 0 204 
0 0 207 
0 0 220 
0 0 215 
0 0 207 
0 0 214 
0 0 204 
0 0 188 
0 0 196 
0 0 191 
0 0 177 
0 0 189 
0 0 179 
0 0 186 
0 0 173 
0 0 167 
0 0 163 
0 0 157 
0 0 133 
0 0 108 
0 0 88 
0 0 92 
200 211 230 
219 232 249 
107 0 0 
106 0 0 
96 0 0 
124 0 0 
132 0 0 
137 0 0 
152 0 0 
143 0 0 
158 0 0 
157 0 0 
173 0 0 
171 0 0 
167 0 0 
169 0 0 
175 0 0 
178 0 0 
190 0 0 
183 0 0 
188 0 0 
189 0 0 
182 0 0 
193 0 0 
181 0 0 
175 0 0 
185 0 0 
187 0 0 
190 0 0 
192 0 0 
197 0 0 
196 0 0 
199 0 0 
198 0 0 
193 0 0 
200 0 0 
197 0 0 
206 0 0 
208 0 0 
200 0 0 
195 0 0 
193 0 0 
193 0 0 
211 0 0 
208 0 0 
200 0 0 
206 0 0 
203 0 0 
200 0 0 
211 0 0 
204 0 0 
203 0 0 
211 0 0 
203 0 0 
203 0 0 
209 0 0 
206 0 0 
214 0 0 
205 0 0 
207 0 0 
221 0 0 
209 0 0 
212 0 0 
206 0 0 
207 0 0 
212 0 0 
218 0 0 
213 0 0 
211 0 0 
209 0 0 
211 0 0 
210 0 0 
216 0 0 
212 0 0 
216 0 0 
220 0 0 
207 0 0 
208 0 0 
216 0 0 
213 0 0 
213 0 0 
213 0 0 
219 0 0 
221 0 0 
209 0 0 
210 0 0 
217 0 0 
221 0 0 
213 0 0 
216 0 0 
215 0 0 
216 0 0 
212 0 0 
217 0 0 
213 0 0 
211 0 0 
218 0 0 
219 0 0 
217 0 0 
222 0 0 
220 0 0 
215 0 0 
219 0 0 
213 0 0 
221 0 0 
219 0 0 
217 0 0 
214 0 0 
215 0 0 
216 0 0 
215 0 0 
216 0 0 
220 0 0 
217 0 0 
216 0 0 
218 0 0 
219 0 0 
217 0 0 
219 0 0 
220 0 0 
216 0 0 
220 0 0 
215 0 0 
219 0 0 
226 0 0 
218 0 0 
219 0 0 
219 0 0 
219 0 0 
220 0 0 
217 0 0 
215 0 0 
223 0 0 
219 0 0 
220 0 0 
220 0 0 
221 0 0 
220 0 0 
222 0 0 
221 0 0 
223 0 0 
221 0 0 
212 0 0 
219 0 0 
220 0 0 
223 0 0 
220 0 0 
219 0 0 
220 0 0 
222 0 0 
221 0 0 
224 0 0 
223 0 0 
220 0 0 
215 0 0 
223 0 0 
221 0 0 
221 0 0 
219 0 0 
226 0 0 
219 0 0 
220 0 0 
221 0 0 
221 0 0 
224 0 0 
223 0 0 
219 0 0 
223 0 0 
221 0 0 
222 0 0 
219 0 0 
222 0 0 
223 0 0 
221 0 0 
224 0 0 
222 0 0 
224 0 0 
222 0 0 
224 0 0 
223 0 0 
227 0 0 
223 0 0 
224 0 0 
224 0 0 
220 0 0 
224 0 0 
223 0 0 
219 0 0 
225 0 0 
219 0 0 
224 0 0 
224 0 0 
222 0 0 
221 0 0 
219 0 0 
225 0 0 
221 0 0 
222 0 0 
221 0 0 
222 0 0 
220 0 0 
0 0 254 
0 0 255 
0 0 255 
0 0 255 
0 0 254 
0 0 255 
0 0 255 
0 0 253 
0 0 255 
0 0 255 
0 0 255 
0 0 254 
0 0 255 
0 0 255 
0 0 255 
0 0 255 
0 0 254 
0 0 255 
0 0 255 
0 0 255 
0 0 254 
0 0 255 
0 0 255 
0 0 254 
0 0 253 
0 0 253 
0 0 255 
0 0 255 
0 0 255 
0 0 254 
0 0 255 
0 0 254 
0 0 254 
0 0 254 
0 0 255 
0 0 252 
0 0 253 
0 0 254 
0 0 254 
0 0 255 
0 0 254 
0 0 254 
0 0 254 
0 0 254 
0 0 254 
0 0 253 
0 0 252 
0 0 254 
0 0 254 
0 0 255 
0 0 252 
0 0 255 
0 0 250 
0 0 250 
0 0 250 
0 0 253 
0 0 252 
0 0 252 
0 0 255 
0 0 254 
0 0 254 
0 0 249 
0 0 255 
0 0 254 
0 0 249 
0 0 249 
0 0 248 
0 0 249 
0 0 253 
0 0 255 
0 0 252 
0 0 252 
0 0 250 
0 0 250 
0 0 250 
0 0 252 
0 0 248 
0 0 252 
0 0 248 
0 0 250 
0 0 250 
0 0 248 
0 0 250 
0 0 249 
0 0 248 
0 0 252 
0 0 252 
0 0 254 
0 0 252 
0 0 253 
0 0 253 
0 0 253 
0 0 252 
0 0 252 
0 0 252 
0 0 249 
0 0 249 
0 0 246 
0 0 253 
0 0 254 
0 0 252 
0 0 250 
0 0 248 
0 0 253 
0 0 252 
0 0 245 
0 0 250 
0 0 252 
0 0 250 
0 0 250 
0 0 241 
0 0 248 
0 0 248 
0 0 248 
0 0 249 
0 0 246 
0 0 240 
0 0 250 
0 0 244 
0 0 244 
0 0 244 
0 0 242 
0 0 241 
0 0 248 
0 0 246 
0 0 236 
0 0 242 
0 0 241 
0 0 245 
0 0 246 
0 0 248 
0 0 244 
0 0 249 
0 0 236 
0 0 237 
0 0 248 
0 0 244 
0 0 244 
0 0 242 
0 0 238 
0 0 242 
0 0 242 
0 0 238 
0 0 230 
0 0 236 
0 0 237 
0 0 242 
0 0 237 
0 0 240 
0 0 246 
0 0 240 
0 0 226 
0 0 241 
0 0 234 
0 0 241 
0 0 230 
0 0 233 
0 0 230 
0 0 234 
0 0 233 
0 0 214 
0 0 234 
0 0 227 
0 0 231 
0 0 228 
0 0 231 
0 0 224 
0 0 227 
0 0 217 
0 0 218 
0 0 220 
0 0 226 
0 0 228 
0 0 217 
0 0 223 
0 0 217 
0 0 214 
0 0 209 
0 0 209 
0 0 212 
0 0 201 
0 0 201 
0 0 204 
0 0 194 
0 0 201 
0 0 184 
0 0 194 
0 0 181 
0 0 177 
0 0 189 
0 0 181 
0 0 163 
0 0 171 
0 0 163 
0 0 159 
0 0 147 
0 0 114 
0 0 99 
63 67 122 
225 238 255 
225 238 255 
113 41 44 
105 0 0 
119 0 0 
131 0 0 
137 0 0 
133 0 0 
133 0 0 
134 0 0 
152 0 0 
163 0 0 
174 0 0 
163 0 0 
158 0 0 
173 0 0 
165 0 0 
174 0 0 
179 0 0 
181 0 0 
180 0 0 
177 0 0 
194 0 0 
184 0 0 
192 0 0 
173 0 0 
195 0 0 
187 0 0 
200 0 0 
199 0 0 
180 0 0 
191 0 0 
190 0 0 
200 0 0 
202 0 0 
201 0 0 
202 0 0 
202 0 0 
209 0 0 
206 0 0 
208 0 0 
208 0 0 
194 0 0 
206 0 0 
199 0 0 
202 0 0 
211 0 0 
206 0 0 
204 0 0 
198 0 0 
205 0 0 
208 0 0 
204 0 0 
197 0 0 
211 0 0 
204 0 0 
208 0 0 
207 0 0 
212 0 0 
211 0 0 
209 0 0 
209 0 0 
207 0 0 
214 0 0 
214 0 0 
200 0 0 
212 0 0 
214 0 0 
221 0 0 
217 0 0 
209 0 0 
209 0 0 
213 0 0 
215 0 0 
208 0 0 
212 0 0 
209 0 0 
212 0 0 
212 0 0 
215 0 0 
214 0 0 
215 0 0 
214 0 0 
217 0 0 
212 0 0 
212 0 0 
213 0 0 
213 0 0 
220 0 0 
218 0 0 
218 0 0 
215 0 0 
222 0 0 
217 0 0 
216 0 0 
216 0 0 
217 0 0 
213 0 0 
214 0 0 
220 0 0 
223 0 0 
215 0 0 
221 0 0 
224 0 0 
221 0 0 
221 0 0 
219 0 0 
218 0 0 
218 0 0 
223 0 0 
220 0 0 
220 0 0 
217 0 0 
216 0 0 
216 0 0 
218 0 0 
219 0 0 
220 0 0 
217 0 0 
224 0 0 
221 0 0 
222 0 0 
217 0 0 
219 0 0 
221 0 0 
218 0 0 
223 0 0 
213 0 0 
214 0 0 
226 0 0 
220 0 0 
220 0 0 
222 0 0 
218 0 0 
220 0 0 
217 0 0 
219 0 0 
219 0 0 
222 0 0 
223 0 0 
223 0 0 
221 0 0 
223 0 0 
220 0 0 
220 0 0 
218 0 0 
217 0 0 
222 0 0 
220 0 0 
224 0 0 
221 0 0 
225 0 0 
219 0 0 
224 0 0 
219 0 0 
223 0 0 
224 0 0 
219 0 0 
222 0 0 
223 0 0 
216 0 0 
219 0 0 
224 0 0 
223 0 0 
223 0 0 
220 0 0 
224 0 0 
226 0 0 
218 0 0 
221 0 0 
218 0 0 
221 0 0 
223 0 0 
217 0 0 
221 0 0 
218 0 0 
221 0 0 
220 0 0 
224 0 0 
224 0 0 
219 0 0 
220 0 0 
219 0 0 
222 0 0 
224 0 0 
222 0 0 
221 0 0 
223 0 0 
219 0 0 
218 0 0 
221 0 0 
223 0 0 
220 0 0 
219 0 0 
223 0 0 
220 0 0 
223 0 0 
225 0 0 
221 0 0 
220 0 0 
222 0 0 
0 0 255 
0 0 253 
0 0 254 
0 0 255 
0 0 255 
0 0 255 
0 0 255 
0 0 254 
0 0 255 
0 0 254 
0 0 255 
0 0 255 
0 0 254 
0 0 253 
0 0 255 
0 0 254 
0 0 255 
0 0 254 
0 0 253 
0 0 254 
0 0 254 
0 0 254 
0 0 255 
0 0 252 
0 0 255 
0 0 253 
0 0 255 
0 0 253 
0 0 254 
0 0 255 
0 0 252 
0 0 253 
0 0 255 
0 0 253 
0 0 255 
0 0 254 
0 0 254 
0 0 254 
0 0 255 
0 0 254 
0 0 255 
0 0 255 
0 0 255 
0 0 254 
0 0 253 
0 0 254 
0 0 250 
0 0 254 
0 0 255 
0 0 252 
0 0 255 
0 0 254 
0 0 253 
0 0 253 
0 0 254 
0 0 249 
0 0 254 
0 0 254 
0 0 253 
0 0 252 
0 0 254 
0 0 253 
0 0 254 
0 0 253 
0 0 255 
0 0 252 
0 0 252 
0 0 252 
0 0 253 
0 0 254 
0 0 254 
0 0 252 
0 0 253 
0 0 248 
0 0 248 
0 0 252 
0 0 254 
0 0 252 
0 0 254 
0 0 253 
0 0 250 
0 0 253 
0 0 252 
0 0 253 
0 0 252 
0 0 252 
0 0 252 
0 0 252 
0 0 249 
0 0 248 
0 0 252 
0 0 250 
0 0 252 
0 0 249 
0 0 252 
0 0 249 
0 0 252 
0 0 246 
0 0 248 
0 0 250 
0 0 254 
0 0 254 
0 0 248 
0 0 250 
0 0 248 
0 0 245 
0 0 249 
0 0 245 
0 0 249 
0 0 248 
0 0 248 
0 0 242 
0 0 253 
0 0 252 
0 0 241 
0 0 248 
0 0 250 
0 0 245 
0 0 245 
0 0 242 
0 0 246 
0 0 246 
0 0 248 
0 0 236 
0 0 241 
0 0 246 
0 0 252 
0 0 253 
0 0 248 
0 0 241 
0 0 250 
0 0 245 
0 0 250 
0 0 240 
0 0 246 
0 0 242 
0 0 244 
0 0 240 
0 0 246 
0 0 240 
0 0 248 
0 0 233 
0 0 241 
0 0 234 
0 0 238 
0 0 238 
0 0 238 
0 0 242 
0 0 234 
0 0 238 
0 0 231 
0 0 240 
0 0 233 
0 0 240 
0 0 240 
0 0 236 
0 0 236 
0 0 228 
0 0 224 
0 0 234 
0 0 221 
0 0 230 
0 0 230 
0 0 236 
0 0 226 
0 0 223 
0 0 227 
0 0 221 
0 0 230 
0 0 221 
0 0 217 
0 0 214 
0 0 224 
0 0 215 
0 0 203 
0 0 218 
0 0 206 
0 0 214 
0 0 215 
0 0 211 
0 0 194 
0 0 215 
0 0 196 
0 0 204 
0 0 199 
0 0 189 
0 0 191 
0 0 173 
0 0 188 
0 0 188 
0 0 157 
0 0 179 
0 0 157 
0 0 157 
0 0 157 
0 0 140 
0 0 122 
0 0 102 
108 114 151 
226 238 255 
226 238 255 
146 111 120 
104 0 0 
93 0 0 
135 0 0 
129 0 0 
145 0 0 
161 0 0 
152 0 0 
164 0 0 
148 0 0 
175 0 0 
169 0 0 
167 0 0 
164 0 0 
164 0 0 
174 0 0 
159 0 0 
184 0 0 
180 0 0 
193 0 0 
197 0 0 
181 0 0 
187 0 0 
181 0 0 
190 0 0 
196 0 0 
185 0 0 
186 0 0 
197 0 0 
194 0 0 
208 0 0 
206 0 0 
194 0 0 
200 0 0 
195 0 0 
210 0 0 
209 0 0 
204 0 0 
198 0 0 
201 0 0 
203 0 0 
208 0 0 
211 0 0 
204 0 0 
196 0 0 
204 0 0 
195 0 0 
205 0 0 
198 0 0 
209 0 0 
207 0 0 
203 0 0 
205 0 0 
209 0 0 
211 0 0 
217 0 0 
209 0 0 
211 0 0 
210 0 0 
207 0 0 
209 0 0 
214 0 0 
219 0 0 
212 0 0 
210 0 0 
216 0 0 
212 0 0 
213 0 0 
216 0 0 
217 0 0 
208 0 0 
211 0 0 
212 0 0 
210 0 0 
214 0 0 
219 0 0 
215 0 0 
210 0 0 
217 0 0 
213 0 0 
216 0 0 
215 0 0 
217 0 0 
213 0 0 
217 0 0 
214 0 0 
216 0 0 
216 0 0 
216 0 0 
218 0 0 
218 0 0 
215 0 0 
220 0 0 
220 0 0 
219 0 0 
219 0 0 
210 0 0 
217 0 0 
220 0 0 
218 0 0 
216 0 0 
221 0 0 
214 0 0 
219 0 0 
216 0 0 
212 0 0 
221 0 0 
216 0 0 
219 0 0 
223 0 0 
220 0 0 
221 0 0 
217 0 0 
217 0 0 
213 0 0 
220 0 0 
220 0 0 
218 0 0 
220 0 0 
222 0 0 
221 0 0 
215 0 0 
223 0 0 
221 0 0 
216 0 0 
218 0 0 
217 0 0 
223 0 0 
218 0 0 
220 0 0 
220 0 0 
223 0 0 
219 0 0 
222 0 0 
220 0 0 
224 0 0 
217 0 0 
223 0 0 
220 0 0 
221 0 0 
223 0 0 
222 0 0 
215 0 0 
223 0 0 
219 0 0 
224 0 0 
221 0 0 
220 0 0 
225 0 0 
224 0 0 
223 0 0 
221 0 0 
219 0 0 
220 0 0 
219 0 0 
220 0 0 
220 0 0 
222 0 0 
221 0 0 
220 0 0 
223 0 0 
225 0 0 
221 0 0 
224 0 0 
222 0 0 
220 0 0 
219 0 0 
225 0 0 
219 0 0 
224 0 0 
222 0 0 
221 0 0 
221 0 0 
220 0 0 
224 0 0 
220 0 0 
222 0 0 
224 0 0 
221 0 0 
222 0 0 
223 0 0 
221 0 0 
222 0 0 
223 0 0 
221 0 0 
220 0 0 
222 0 0 
222 0 0 
227 0 0 
216 0 0 
222 0 0 
220 0 0 
225 0 0 
224 0 0 
226 0 0 
223 0 0 
222 0 0 
224 0 0 
227 0 0 
0 0 254 
0 0 254 
0 0 255 
0 0 255 
0 0 255 
0 0 254 
0 0 254 
0 0 255 
0 0 254 
0 0 255 
0 0 255 
0 0 250 
0 0 255 
0 0 253 
0 0 255 
0 0 254 
0 0 255 
0 0 254 
0 0 254 
0 0 253 
0 0 255 
0 0 255 
0 0 253 
0 0 254 
0 0 252 
0 0 254 
0 0 254 
0 0 254 
0 0 255 
0 0 255 
0 0 255 
0 0 254 
0 0 253 
0 0 254 
0 0 254 
0 0 255 
0 0 253 
0 0 255 
0 0 254 
0 0 252 
0 0 254 
0 0 254 
0 0 254 
0 0 255 
0 0 253 
0 0 252 
0 0 253 
0 0 253 
0 0 254 
0 0 253 
0 0 253 
0 0 254 
0 0 254 
0 0 254 
0 0 252 
0 0 253 
0 0 254 
0 0 255 
0 0 252 
0 0 253 
0 0 254 
0 0 252 
0 0 254 
0 0 250 
0 0 255 
0 0 252 
0 0 252 
0 0 255 
0 0 254 
0 0 252 
0 0 252 
0 0 252 
0 0 250 
0 0 249 
0 0 253 
0 0 253 
0 0 254 
0 0 246 
0 0 252 
0 0 252 
0 0 249 
0 0 250 
0 0 250 
0 0 253 
0 0 252 
0 0 250 
0 0 252 
0 0 246 
0 0 250 
0 0 252 
0 0 253 
0 0 248 
0 0 246 
0 0 248 
0 0 253 
0 0 245 
0 0 249 
0 0 246 
0 0 248 
0 0 246 
0 0 253 
0 0 249 
0 0 248 
0 0 250 
0 0 254 
0 0 250 
0 0 250 
0 0 249 
0 0 241 
0 0 252 
0 0 249 
0 0 240 
0 0 245 
0 0 249 
0 0 248 
0 0 250 
0 0 246 
0 0 245 
0 0 249 
0 0 245 
0 0 246 
0 0 246 
0 0 248 
0 0 246 
0 0 244 
0 0 240 
0 0 245 
0 0 240 
0 0 246 
0 0 249 
0 0 244 
0 0 245 
0 0 236 
0 0 240 
0 0 248 
0 0 242 
0 0 245 
0 0 242 
0 0 238 
0 0 237 
0 0 238 
0 0 241 
0 0 241 
0 0 234 
0 0 240 
0 0 244 
0 0 236 
0 0 242 
0 0 233 
0 0 228 
0 0 234 
0 0 237 
0 0 230 
0 0 233 
0 0 234 
0 0 240 
0 0 236 
0 0 230 
0 0 234 
0 0 228 
0 0 234 
0 0 238 
0 0 234 
0 0 224 
0 0 231 
0 0 227 
0 0 221 
0 0 215 
0 0 228 
0 0 241 
0 0 218 
0 0 227 
0 0 209 
0 0 209 
0 0 214 
0 0 226 
0 0 218 
0 0 196 
0 0 207 
0 0 204 
0 0 218 
0 0 201 
0 0 207 
0 0 194 
0 0 198 
0 0 194 
0 0 181 
0 0 171 
0 0 175 
0 0 177 
0 0 155 
0 0 177 
0 0 155 
0 0 142 
0 0 142 
0 0 142 
0 0 128 
0 0 135 
146 154 188 
226 238 255 
226 238 255 
172 165 177 
98 0 0 
137 0 0 
132 0 0 
133 0 0 
156 0 0 
143 0 0 
147 0 0 
171 0 0 
156 0 0 
158 0 0 
168 0 0 
166 0 0 
170 0 0 
193 0 0 
182 0 0 
181 0 0 
187 0 0 
182 0 0 
190 0 0 
178 0 0 
189 0 0 
183 0 0 
194 0 0 
181 0 0 
194 0 0 
192 0 0 
203 0 0 
186 0 0 
196 0 0 
207 0 0 
201 0 0 
191 0 0 
198 0 0 
204 0 0 
202 0 0 
199 0 0 
185 0 0 
198 0 0 
198 0 0 
200 0 0 
200 0 0 
200 0 0 
210 0 0 
210 0 0 
201 0 0 
201 0 0 
206 0 0 
208 0 0 
206 0 0 
215 0 0 
210 0 0 
214 0 0 
211 0 0 
211 0 0 
207 0 0 
202 0 0 
213 0 0 
216 0 0 
207 0 0 
207 0 0 
214 0 0 
220 0 0 
214 0 0 
210 0 0 
214 0 0 
213 0 0 
217 0 0 
214 0 0 
211 0 0 
213 0 0 
212 0 0 
207 0 0 
211 0 0 
208 0 0 
216 0 0 
215 0 0 
217 0 0 
217 0 0 
216 0 0 
215 0 0 
212 0 0 
215 0 0 
214 0 0 
212 0 0 
215 0 0 
214 0 0 
221 0 0 
217 0 0 
218 0 0 
221 0 0 
219 0 0 
221 0 0 
213 0 0 
214 0 0 
219 0 0 
214 0 0 
219 0 0 
223 0 0 
219 0 0 
215 0 0 
218 0 0 
212 0 0 
223 0 0 
222 0 0 
219 0 0 
220 0 0 
215 0 0 
218 0 0 
222 0 0 
221 0 0 
216 0 0 
221 0 0 
220 0 0 
212 0 0 
217 0 0 
219 0 0 
223 0 0 
219 0 0 
217 0 0 
219 0 0 
219 0 0 
223 0 0 
221 0 0 
222 0 0 
222 0 0 
215 0 0 
217 0 0 
220 0 0 
221 0 0 
222 0 0 
220 0 0 
221 0 0 
221 0 0 
222 0 0 
219 0 0 
220 0 0 
219 0 0 
221 0 0 
220 0 0 
219 0 0 
219 0 0 
219 0 0 
219 0 0 
224 0 0 
222 0 0 
225 0 0 
221 0 0 
216 0 0 
226 0 0 
220 0 0 
225 0 0 
221 0 0 
220 0 0 
222 0 0 
224 0 0 
224 0 0 
220 0 0 
224 0 0 
223 0 0 
220 0 0 
222 0 0 
217 0 0 
221 0 0 
222 0 0 
222 0 0 
223 0 0 
226 0 0 
221 0 0 
222 0 0 
224 0 0 
220 0 0 
218 0 0 
222 0 0 
223 0 0 
225 0 0 
222 0 0 
224 0 0 
220 0 0 
218 0 0 
226 0 0 
219 0 0 
221 0 0 
219 0 0 
224 0 0 
222 0 0 
219 0 0 
221 0 0 
220 0 0 
221 0 0 
224 0 0 
226 0 0 
224 0 0 
222 0 0 
221 0 0 
224 0 0 
221 0 0 
225 0 0 
222 0 0 
0 0 254 
0 0 255 
0 0 255 
0 0 254 
0 0 254 
0 0 255 
0 0 255 
0 0 255 
0 0 255 
0 0 255 
0 0 254 
0 0 255 
0 0 255 
0 0 255 
0 0 254 
0 0 255 
0 0 255 
0 0 255 
0 0 255 
0 0 252 
0 0 252 
0 0 255 
0 0 254 
0 0 253 
0 0 253 
0 0 254 
0 0 255 
0 0 254 
0 0 255 
0 0 254 
0 0 255 
0 0 255 
0 0 255 
0 0 253 
0 0 254 
0 0 253 
0 0 255 
0 0 255 
0 0 253 
0 0 250 
0 0 255 
0 0 254 
0 0 252 
0 0 252 
0 0 252 
0 0 255 
0 0 255 
0 0 253 
0 0 255 
0 0 255 
0 0 252 
0 0 252 
0 0 253 
0 0 253 
0 0 249 
0 0 255 
0 0 254 
0 0 253 
0 0 250 
0 0 254 
0 0 250 
0 0 253 
0 0 254 
0 0 254 
0 0 253 
0 0 252 
0 0 255 
0 0 254 
0 0 254 
0 0 250 
0 0 249 
0 0 253 
0 0 249 
0 0 244 
0 0 252 
0 0 249 
0 0 252 
0 0 248 
0 0 252 
0 0 255 
0 0 252 
0 0 249 
0 0 252 
0 0 250 
0 0 255 
0 0 252 
0 0 253 
0 0 252 
0 0 253 
0 0 250 
0 0 254 
0 0 250 
0 0 254 
0 0 253 
0 0 248 
0 0 250 
0 0 250 
0 0 252 
0 0 245 
0 0 249 
0 0 250 
0 0 255 
0 0 249 
0 0 242 
0 0 252 
0 0 249 
0 0 249 
0 0 249 
0 0 246 
0 0 248 
0 0 249 
0 0 253 
0 0 249 
0 0 246 
0 0 249 
0 0 250 
0 0 245 
0 0 249 
0 0 244 
0 0 244 
0 0 246 
0 0 250 
0 0 242 
0 0 246 
0 0 244 
0 0 242 
0 0 245 
0 0 241 
0 0 246 
0 0 241 
0 0 237 
0 0 248 
0 0 244 
0 0 241 
0 0 245 
0 0 245 
0 0 246 
0 0 242 
0 0 238 
0 0 242 
0 0 248 
0 0 245 
0 0 242 
0 0 241 
0 0 244 
0 0 240 
0 0 236 
0 0 231 
0 0 246 
0 0 233 
0 0 238 
0 0 238 
0 0 231 
0 0 234 
0 0 228 
0 0 238 
0 0 231 
0 0 237 
0 0 230 
0 0 226 
0 0 228 
0 0 228 
0 0 223 
0 0 236 
0 0 231 
0 0 207 
0 0 221 
0 0 221 
0 0 230 
0 0 215 
0 0 221 
0 0 224 
0 0 221 
0 0 206 
0 0 221 
0 0 218 
0 0 214 
0 0 221 
0 0 203 
0 0 196 
0 0 199 
0 0 209 
0 0 199 
0 0 189 
0 0 196 
0 0 189 
0 0 203 
0 0 194 
0 0 186 
0 0 181 
0 0 177 
0 0 153 
0 0 175 
0 0 165 
0 0 147 
0 0 137 
0 0 80 
0 0 99 
188 198 220 
226 238 255 
226 238 255 
193 195 209 
130 0 0 
118 0 0 
122 0 0 
148 0 0 
146 0 0 
157 0 0 
144 0 0 
163 0 0 
170 0 0 
159 0 0 
173 0 0 
172 0 0 
166 0 0 
174 0 0 
174 0 0 
177 0 0 
174 0 0 
190 0 0 
193 0 0 
193 0 0 
185 0 0 
179 0 0 
187 0 0 
187 0 0 
201 0 0 
205 0 0 
201 0 0 
198 0 0 
199 0 0 
200 0 0 
195 0 0 
191 0 0 
195 0 0 
202 0 0 
192 0 0 
207 0 0 
204 0 0 
198 0 0 
206 0 0 
205 0 0 
203 0 0 
215 0 0 
200 0 0 
206 0 0 
211 0 0 
207 0 0 
208 0 0 
213 0 0 
201 0 0 
206 0 0 
207 0 0 
206 0 0 
209 0 0 
211 0 0 
208 0 0 
218 0 0 
208 0 0 
212 0 0 
207 0 0 
211 0 0 
206 0 0 
208 0 0 
215 0 0 
215 0 0 
210 0 0 
208 0 0 
218 0 0 
214 0 0 
217 0 0 
214 0 0 
217 0 0 
214 0 0 
208 0 0 
211 0 0 
216 0 0 
214 0 0 
212 0 0 
216 0 0 
220 0 0 
216 0 0 
215 0 0 
214 0 0 
211 0 0 
223 0 0 
220 0 0 
213 0 0 
217 0 0 
217 0 0 
216 0 0 
213 0 0 
219 0 0 
213 0 0 
220 0 0 
218 0 0 
224 0 0 
221 0 0 
217 0 0 
225 0 0 
220 0 0 
223 0 0 
218 0 0 
218 0 0 
221 0 0 
221 0 0 
222 0 0 
217 0 0 
223 0 0 
218 0 0 
222 0 0 
222 0 0 
218 0 0 
218 0 0 
220 0 0 
219 0 0 
222 0 0 
220 0 0 
222 0 0 
225 0 0 
215 0 0 
223 0 0 
217 0 0 
221 0 0 
220 0 0 
220 0 0 
217 0 0 
216 0 0 
222 0 0 
219 0 0 
218 0 0 
220 0 0 
224 0 0 
223 0 0 
220 0 0 
219 0 0 
220 0 0 
220 0 0 
219 0 0 
220 0 0 
217 0 0 
219 0 0 
222 0 0 
224 0 0 
222 0 0 
224 0 0 
224 0 0 
222 0 0 
219 0 0 
222 0 0 
220 0 0 
221 0 0 
218 0 0 
222 0 0 
224 0 0 
222 0 0 
223 0 0 
216 0 0 
224 0 0 
221 0 0 
227 0 0 
217 0 0 
223 0 0 
222 0 0 
219 0 0 
228 0 0 
220 0 0 
221 0 0 
224 0 0 
219 0 0 
222 0 0 
222 0 0 
221 0 0 
219 0 0 
221 0 0 
221 0 0 
223 0 0 
219 0 0 
220 0 0 
218 0 0 
223 0 0 
223 0 0 
221 0 0 
218 0 0 
222 0 0 
218 0 0 
219 0 0 
221 0 0 
225 0 0 
224 0 0 
220 0 0 
220 0 0 
221 0 0 
220 0 0 
224 0 0 
219 0 0 
223 0 0 
224 0 0 
222 0 0 
222 0 0 
0 0 255 
0 0 254 
0 0 255 
0 0 255 
0 0 255 
0 0 255 
0 0 255 
0 0 253 
0 0 255 
0 0 254 
0 0 255 
0 0 254 
0 0 255 
0 0 254 
0 0 254 
0 0 255 
0 0 253 
0 0 252 
0 0 255 
0 0 254 
0 0 254 
0 0 255 
0 0 255 
0 0 250 
0 0 255 
0 0 254 
0 0 255 
0 0 254 
0 0 254 
0 0 255 
0 0 254 
0 0 254 
0 0 254 
0 0 255 
0 0 252 
0 0 254 
0 0 250 
0 0 253 
0 0 254 
0 0 252 
0 0 255 
0 0 254 
0 0 254 
0 0 253 
0 0 254 
0 0 255 
0 0 255 
0 0 254 
0 0 255 
0 0 254 
0 0 254 
0 0 254 
0 0 254 
0 0 252 
0 0 255 
0 0 255 
0 0 252 
0 0 254 
0 0 252 
0 0 255 
0 0 255 
0 0 255 
0 0 250 
0 0 252 
0 0 252 
0 0 249 
0 0 254 
0 0 255 
0 0 254 
0 0 254 
0 0 254 
0 0 248 
0 0 250 
0 0 253 
0 0 254 
0 0 250 
0 0 252 
0 0 252 
0 0 250 
0 0 254 
0 0 252 
0 0 252 
0 0 252 
0 0 252 
0 0 253 
0 0 250 
0 0 253 
0 0 249 
0 0 254 
0 0 250 
0 0 250 
0 0 249 
0 0 250 
0 0 244 
0 0 245 
0 0 250 
0 0 248 
0 0 250 
0 0 252 
0 0 250 
0 0 244 
0 0 248 
0 0 250 
0 0 248 
0 0 245 
0 0 250 
0 0 244 
0 0 250 
0 0 249 
0 0 250 
0 0 245 
0 0 248 
0 0 248 
0 0 248 
0 0 246 
0 0 245 
0 0 253 
0 0 244 
0 0 245 
0 0 242 
0 0 248 
0 0 246 
0 0 244 
0 0 244 
0 0 246 
0 0 248 
0 0 244 
0 0 242 
0 0 249 
0 0 246 
0 0 242 
0 0 246 
0 0 244 
0 0 249 
0 0 244 
0 0 244 
0 0 242 
0 0 244 
0 0 241 
0 0 249 
0 0 238 
0 0 237 
0 0 240 
0 0 245 
0 0 242 
0 0 233 
0 0 242 
0 0 240 
0 0 231 
0 0 233 
0 0 233 
0 0 240 
0 0 223 
0 0 233 
0 0 237 
0 0 234 
0 0 230 
0 0 234 
0 0 227 
0 0 227 
0 0 228 
0 0 240 
0 0 226 
0 0 228 
0 0 228 
0 0 223 
0 0 230 
0 0 230 
0 0 221 
0 0 227 
0 0 223 
0 0 227 
0 0 215 
0 0 217 
0 0 207 
0 0 224 
0 0 209 
0 0 203 
0 0 203 
0 0 207 
0 0 188 
0 0 201 
0 0 203 
0 0 196 
0 0 194 
0 0 179 
0 0 194 
0 0 175 
0 0 182 
0 0 175 
0 0 169 
0 0 177 
0 0 144 
0 0 153 
0 0 149 
0 0 140 
0 0 120 
0 0 120 
205 216 238 
227 239 255 
227 239 255 
219 228 244 
88 0 0 
127 0 0 
140 0 0 
124 0 0 
132 0 0 
139 0 0 
152 0 0 
158 0 0 
163 0 0 
162 0 0 
161 0 0 
182 0 0 
171 0 0 
172 0 0 
179 0 0 
193 0 0 
179 0 0 
179 0 0 
185 0 0 
187 0 0 
189 0 0 
186 0 0 
189 0 0 
198 0 0 
193 0 0 
197 0 0 
196 0 0 
194 0 0 
188 0 0 
200 0 0 
196 0 0 
203 0 0 
205 0 0 
209 0 0 
203 0 0 
207 0 0 
195 0 0 
204 0 0 
202 0 0 
206 0 0 
207 0 0 
203 0 0 
207 0 0 
210 0 0 
207 0 0 
214 0 0 
207 0 0 
206 0 0 
197 0 0 
208 0 0 
203 0 0 
212 0 0 
209 0 0 
209 0 0 
214 0 0 
214 0 0 
211 0 0 
209 0 0 
209 0 0 
208 0 0 
206 0 0 
215 0 0 
210 0 0 
211 0 0 
208 0 0 
214 0 0 
216 0 0 
215 0 0 
206 0 0 
210 0 0 
217 0 0 
212 0 0 
215 0 0 
214 0 0 
214 0 0 
210 0 0 
215 0 0 
212 0 0 
215 0 0 
218 0 0 
217 0 0 
213 0 0 
215 0 0 
211 0 0 
223 0 0 
221 0 0 
218 0 0 
212 0 0 
215 0 0 
217 0 0 
214 0 0 
215 0 0 
219 0 0 
220 0 0 
216 0 0 
214 0 0 
210 0 0 
208 0 0 
216 0 0 
217 0 0 
219 0 0 
221 0 0 
217 0 0 
214 0 0 
222 0 0 
222 0 0 
215 0 0 
221 0 0 
219 0 0 
219 0 0 
221 0 0 
221 0 0 
216 0 0 
220 0 0 
222 0 0 
221 0 0 
218 0 0 
225 0 0 
215 0 0 
219 0 0 
220 0 0 
219 0 0 
219 0 0 
224 0 0 
219 0 0 
219 0 0 
219 0 0 
215 0 0 
221 0 0 
219 0 0 
220 0 0 
222 0 0 
218 0 0 
221 0 0 
220 0 0 
222 0 0 
219 0 0 
219 0 0 
218 0 0 
220 0 0 
221 0 0 
213 0 0 
226 0 0 
221 0 0 
224 0 0 
218 0 0 
225 0 0 
220 0 0 
218 0 0 
221 0 0 
219 0 0 
220 0 0 
221 0 0 
221 0 0 
219 0 0 
220 0 0 
221 0 0 
216 0 0 
220 0 0 
223 0 0 
221 0 0 
222 0 0 
222 0 0 
219 0 0 
221 0 0 
222 0 0 
222 0 0 
226 0 0 
219 0 0 
221 0 0 
218 0 0 
220 0 0 
222 0 0 
221 0 0 
221 0 0 
226 0 0 
225 0 0 
219 0 0 
224 0 0 
223 0 0 
220 0 0 
224 0 0 
221 0 0 
222 0 0 
222 0 0 
226 0 0 
226 0 0 
222 0 0 
221 0 0 
221 0 0 
220 0 0 
219 0 0 
221 0 0 
219 0 0 
224 0 0 
224 0 0 
224 0 0 
223 0 0 
0 0 254 
0 0 255 
0 0 255 
0 0 255 
0 0 255 
0 0 252 
0 0 255 
0 0 254 
0 0 254 
0 0 254 
0 0 254 
0 0 255 
0 0 255 
0 0 255 
0 0 255 
0 0 254 
0 0 253 
0 0 253 
0 0 254 
0 0 255 
0 0 252 
0 0 254 
0 0 253 
0 0 253 
0 0 255 
0 0 254 
0 0 255 
0 0 250 
0 0 255 
0 0 254 
0 0 255 
0 0 255 
0 0 253 
0 0 254 
0 0 254 
0 0 253 
0 0 254 
0 0 253 
0 0 253 
0 0 255 
0 0 253 
0 0 254 
0 0 253 
0 0 255 
0 0 255 
0 0 254 
0 0 254 
0 0 253 
0 0 255 
0 0 255 
0 0 254 
0 0 250 
0 0 253 
0 0 253 
0 0 254 
0 0 253 
0 0 255 
0 0 253 
0 0 253 
0 0 253 
0 0 252 
0 0 249 
0 0 248 
0 0 255 
0 0 253 
0 0 252 
0 0 252 
0 0 255 
0 0 254 
0 0 255 
0 0 249 
0 0 248 
0 0 255 
0 0 249 
0 0 252 
0 0 252 
0 0 252 
0 0 250 
0 0 252 
0 0 253 
0 0 249 
0 0 252 
0 0 250 
0 0 248 
0 0 245 
0 0 252 
0 0 250 
0 0 250 
0 0 248 
0 0 248 
0 0 253 
0 0 250 
0 0 249 
0 0 246 
0 0 248 
0 0 250 
0 0 250 
0 0 246 
0 0 248 
0 0 249 
0 0 248 
0 0 249 
0 0 248 
0 0 249 
0 0 246 
0 0 244 
0 0 242 
0 0 252 
0 0 249 
0 0 253 
0 0 241 
0 0 242 
0 0 244 
0 0 252 
0 0 248 
0 0 249 
0 0 245 
0 0 248 
0 0 246 
0 0 244 
0 0 250 
0 0 245 
0 0 244 
0 0 241 
0 0 252 
0 0 242 
0 0 250 
0 0 244 
0 0 252 
0 0 250 
0 0 248 
0 0 242 
0 0 245 
0 0 245 
0 0 240 
0 0 240 
0 0 245 
0 0 234 
0 0 238 
0 0 242 
0 0 242 
0 0 240 
0 0 245 
0 0 234 
0 0 238 
0 0 244 
0 0 221 
0 0 234 
0 0 240 
0 0 237 
0 0 240 
0 0 228 
0 0 241 
0 0 228 
0 0 223 
0 0 241 
0 0 234 
0 0 226 
0 0 240 
0 0 230 
0 0 223 
0 0 228 
0 0 230 
0 0 234 
0 0 228 
0 0 236 
0 0 224 
0 0 221 
0 0 227 
0 0 224 
0 0 223 
0 0 215 
0 0 220 
0 0 214 
0 0 227 
0 0 218 
0 0 215 
0 0 214 
0 0 212 
0 0 203 
0 0 215 
0 0 196 
0 0 212 
0 0 206 
0 0 198 
0 0 189 
0 0 188 
0 0 188 
0 0 177 
0 0 179 
0 0 167 
0 0 173 
0 0 157 
0 0 151 
0 0 130 
0 0 130 
0 0 133 
60 63 125 
226 238 254 
227 239 255 
227 239 255 
226 238 254 
111 67 72 
121 0 0 
135 0 0 
146 0 0 
135 0 0 
152 0 0 
150 0 0 
159 0 0 
160 0 0 
155 0 0 
150 0 0 
165 0 0 
185 0 0 
180 0 0 
178 0 0 
172 0 0 
183 0 0 
193 0 0 
180 0 0 
181 0 0 
187 0 0 
192 0 0 
184 0 0 
197 0 0 
185 0 0 
194 0 0 
195 0 0 
189 0 0 
199 0 0 
192 0 0 
203 0 0 
197 0 0 
204 0 0 
200 0 0 
201 0 0 
203 0 0 
209 0 0 
200 0 0 
200 0 0 
203 0 0 
213 0 0 
207 0 0 
205 0 0 
207 0 0 
210 0 0 
199 0 0 
212 0 0 
199 0 0 
205 0 0 
215 0 0 
200 0 0 
208 0 0 
212 0 0 
201 0 0 
212 0 0 
213 0 0 
214 0 0 
220 0 0 
208 0 0 
211 0 0 
220 0 0 
211 0 0 
215 0 0 
213 0 0 
215 0 0 
208 0 0 
212 0 0 
214 0 0 
211 0 0 
217 0 0 
212 0 0 
216 0 0 
217 0 0 
217 0 0 
217 0 0 
214 0 0 
218 0 0 
215 0 0 
216 0 0 
220 0 0 
213 0 0 
219 0 0 
216 0 0 
217 0 0 
214 0 0 
214 0 0 
221 0 0 
217 0 0 
211 0 0 
215 0 0 
218 0 0 
222 0 0 
219 0 0 
223 0 0 
214 0 0 
220 0 0 
220 0 0 
218 0 0 
216 0 0 
221 0 0 
214 0 0 
221 0 0 
220 0 0 
219 0 0 
220 0 0 
218 0 0 
221 0 0 
218 0 0 
213 0 0 
220 0 0 
218 0 0 
217 0 0 
221 0 0 
218 0 0 
220 0 0 
221 0 0 
218 0 0 
223 0 0 
220 0 0 
218 0 0 
222 0 0 
222 0 0 
219 0 0 
220 0 0 
215 0 0 
220 0 0 
220 0 0 
221 0 0 
220 0 0 
223 0 0 
219 0 0 
218 0 0 
224 0 0 
219 0 0 
224 0 0 
220 0 0 
222 0 0 
222 0 0 
217 0 0 
221 0 0 
219 0 0 
222 0 0 
219 0 0 
223 0 0 
222 0 0 
224 0 0 
219 0 0 
220 0 0 
225 0 0 
224 0 0 
220 0 0 
225 0 0 
225 0 0 
219 0 0 
224 0 0 
226 0 0 
224 0 0 
219 0 0 
220 0 0 
224 0 0 
221 0 0 
220 0 0 
220 0 0 
221 0 0 
218 0 0 
219 0 0 
221 0 0 
221 0 0 
221 0 0 
223 0 0 
221 0 0 
219 0 0 
219 0 0 
224 0 0 
223 0 0 
222 0 0 
222 0 0 
225 0 0 
224 0 0 
219 0 0 
220 0 0 
221 0 0 
223 0 0 
221 0 0 
221 0 0 
223 0 0 
225 0 0 
224 0 0 
224 0 0 
222 0 0 
221 0 0 
222 0 0 
221 0 0 
219 0 0 
222 0 0 
221 0 0 
222 0 0 
221 0 0 
0 0 255 
0 0 255 
0 0 254 
0 0 254 
0 0 255 
0 0 254 
0 0 254 
0 0 254 
0 0 255 
0 0 255 
0 0 255 
0 0 253 
0 0 255 
0 0 255 
0 0 254 
0 0 254 
0 0 254 
0 0 253 
0 0 253 
0 0 253 
0 0 254 
0 0 254 
0 0 255 
0 0 255 
0 0 253 
0 0 255 
0 0 254 
0 0 252 
0 0 250 
0 0 255 
0 0 254 
0 0 255 
0 0 255 
0 0 255 
0 0 253 
0 0 255 
0 0 254 
0 0 254 
0 0 253 
0 0 255 
0 0 254 
0 0 253 
0 0 253 
0 0 254 
0 0 253 
0 0 254 
0 0 254 
0 0 253 
0 0 255 
0 0 254 
0 0 253 
0 0 252 
0 0 254 
0 0 254 
0 0 254 
0 0 253 
0 0 252 
0 0 254 
0 0 252 
0 0 253 
0 0 253 
0 0 254 
0 0 253 
0 0 250 
0 0 255 
0 0 255 
0 0 254 
0 0 254 
0 0 253 
0 0 250 
0 0 252 
0 0 254 
0 0 250 
0 0 253 
0 0 250 
0 0 249 
0 0 252 
0 0 252 
0 0 254 
0 0 253 
0 0 246 
0 0 250 
0 0 252 
0 0 253 
0 0 250 
0 0 254 
0 0 250 
0 0 249 
0 0 252 
0 0 249 
0 0 249 
0 0 248 
0 0 249 
0 0 252 
0 0 249 
0 0 253 
0 0 250 
0 0 249 
0 0 250 
0 0 245 
0 0 252 
0 0 249 
0 0 250 
0 0 246 
0 0 248 
0 0 252 
0 0 246 
0 0 250 
0 0 249 
0 0 250 
0 0 249 
0 0 248 
0 0 248 
0 0 246 
0 0 244 
0 0 248 
0 0 248 
0 0 248 
0 0 238 
0 0 242 
0 0 252 
0 0 252 
0 0 250 
0 0 241 
0 0 244 
0 0 242 
0 0 244 
0 0 244 
0 0 245 
0 0 240 
0 0 245 
0 0 240 
0 0 244 
0 0 241 
0 0 248 
0 0 237 
0 0 248 
0 0 245 
0 0 228 
0 0 238 
0 0 249 
0 0 237 
0 0 240 
0 0 228 
0 0 245 
0 0 241 
0 0 238 
0 0 240 
0 0 234 
0 0 230 
0 0 234 
0 0 244 
0 0 234 
0 0 230 
0 0 236 
0 0 227 
0 0 240 
0 0 234 
0 0 234 
0 0 236 
0 0 230 
0 0 227 
0 0 220 
0 0 236 
0 0 224 
0 0 215 
0 0 220 
0 0 224 
0 0 220 
0 0 223 
0 0 227 
0 0 226 
0 0 226 
0 0 217 
0 0 226 
0 0 220 
0 0 214 
0 0 217 
0 0 212 
0 0 204 
0 0 212 
0 0 206 
0 0 203 
0 0 198 
0 0 188 
0 0 191 
0 0 191 
0 0 189 
0 0 201 
0 0 173 
0 0 181 
0 0 163 
0 0 159 
0 0 147 
0 0 153 
0 0 140 
0 0 135 
118 124 173 
227 239 255 
227 239 255 
227 239 255 
227 239 255 
160 137 147 
105 0 0 
125 0 0 
123 0 0 
140 0 0 
124 0 0 
151 0 0 
157 0 0 
177 0 0 
167 0 0 
167 0 0 
169 0 0 
172 0 0 
179 0 0 
178 0 0 
184 0 0 
181 0 0 
188 0 0 
185 0 0 
187 0 0 
186 0 0 
179 0 0 
182 0 0 
187 0 0 
196 0 0 
185 0 0 
188 0 0 
183 0 0 
190 0 0 
192 0 0 
189 0 0 
195 0 0 
191 0 0 
193 0 0 
198 0 0 
199 0 0 
201 0 0 
202 0 0 
210 0 0 
211 0 0 
212 0 0 
211 0 0 
205 0 0 
215 0 0 
202 0 0 
200 0 0 
206 0 0 
201 0 0 
198 0 0 
210 0 0 
214 0 0 
205 0 0 
212 0 0 
211 0 0 
214 0 0 
218 0 0 
213 0 0 
211 0 0 
208 0 0 
199 0 0 
209 0 0 
214 0 0 
211 0 0 
212 0 0 
217 0 0 
213 0 0 
215 0 0 
219 0 0 
216 0 0 
213 0 0 
214 0 0 
215 0 0 
216 0 0 
217 0 0 
216 0 0 
217 0 0 
214 0 0 
221 0 0 
216 0 0 
218 0 0 
220 0 0 
217 0 0 
219 0 0 
219 0 0 
218 0 0 
219 0 0 
218 0 0 
224 0 0 
222 0 0 
216 0 0 
216 0 0 
207 0 0 
218 0 0 
219 0 0 
217 0 0 
217 0 0 
217 0 0 
219 0 0 
222 0 0 
220 0 0 
220 0 0 
219 0 0 
219 0 0 
217 0 0 
218 0 0 
217 0 0 
221 0 0 
226 0 0 
219 0 0 
220 0 0 
225 0 0 
219 0 0 
219 0 0 
219 0 0 
220 0 0 
220 0 0 
219 0 0 
219 0 0 
216 0 0 
224 0 0 
219 0 0 
224 0 0 
217 0 0 
218 0 0 
216 0 0 
218 0 0 
216 0 0 
218 0 0 
224 0 0 
220 0 0 
216 0 0 
218 0 0 
223 0 0 
223 0 0 
224 0 0 
220 0 0 
219 0 0 
221 0 0 
223 0 0 
220 0 0 
218 0 0 
218 0 0 
226 0 0 
225 0 0 
220 0 0 
218 0 0 
221 0 0 
220 0 0 
223 0 0 
221 0 0 
222 0 0 
219 0 0 
222 0 0 
223 0 0 
221 0 0 
223 0 0 
224 0 0 
222 0 0 
219 0 0 
222 0 0 
220 0 0 
219 0 0 
227 0 0 
223 0 0 
222 0 0 
225 0 0 
218 0 0 
224 0 0 
224 0 0 
226 0 0 
221 0 0 
224 0 0 
221 0 0 
223 0 0 
220 0 0 
221 0 0 
223 0 0 
222 0 0 
220 0 0 
224 0 0 
222 0 0 
226 0 0 
219 0 0 
224 0 0 
223 0 0 
219 0 0 
219 0 0 
224 0 0 
222 0 0 
220 0 0 
224 0 0 
226 0 0 
223 0 0 
224 0 0 
227 0 0 
226 0 0 
225 0 0 
221 0 0 
0 0 255 
0 0 255 
0 0 255 
0 0 254 
0 0 254 
0 0 255 
0 0 255 
0 0 255 
0 0 254 
0 0 255 
0 0 253 
0 0 254 
0 0 254 
0 0 254 
0 0 255 
0 0 254 
0 0 254 
0 0 255 
0 0 255 
0 0 254 
0 0 252 
0 0 255 
0 0 254 
0 0 254 
0 0 255 
0 0 255 
0 0 254 
0 0 254 
0 0 254 
0 0 254 
0 0 254 
0 0 253 
0 0 255 
0 0 255 
0 0 252 
0 0 252 
0 0 254 
0 0 253 
0 0 254 
0 0 254 
0 0 255 
0 0 254 
0 0 255 
0 0 250 
0 0 255 
0 0 253 
0 0 250 
0 0 252 
0 0 252 
0 0 253 
0 0 252 
0 0 253 
0 0 254 
0 0 255 
0 0 254 
0 0 249 
0 0 254 
0 0 254 
0 0 255 
0 0 254 
0 0 254 
0 0 254 
0 0 248 
0 0 252 
0 0 255 
0 0 254 
0 0 253 
0 0 254 
0 0 250 
0 0 252 
0 0 253 
0 0 248 
0 0 254 
0 0 254 
0 0 249 
0 0 255 
0 0 253 
0 0 254 
0 0 246 
0 0 252 
0 0 253 
0 0 255 
0 0 252 
0 0 252 
0 0 255 
0 0 250 
0 0 252 
0 0 250 
0 0 254 
0 0 252 
0 0 253 
0 0 248 
0 0 248 
0 0 248 
0 0 249 
0 0 248 
0 0 252 
0 0 254 
0 0 253 
0 0 253 
0 0 250 
0 0 249 
0 0 250 
0 0 248 
0 0 249 
0 0 245 
0 0 250 
0 0 246 
0 0 249 
0 0 249 
0 0 246 
0 0 253 
0 0 250 
0 0 238 
0 0 252 
0 0 252 
0 0 248 
0 0 246 
0 0 250 
0 0 238 
0 0 238 
0 0 250 
0 0 248 
0 0 250 
0 0 244 
0 0 246 
0 0 244 
0 0 237 
0 0 242 
0 0 248 
0 0 248 
0 0 245 
0 0 242 
0 0 242 
0 0 234 
0 0 242 
0 0 244 
0 0 246 
0 0 246 
0 0 236 
0 0 240 
0 0 234 
0 0 238 
0 0 237 
0 0 237 
0 0 234 
0 0 246 
0 0 241 
0 0 240 
0 0 240 
0 0 233 
0 0 237 
0 0 228 
0 0 234 
0 0 228 
0 0 237 
0 0 236 
0 0 233 
0 0 237 
0 0 237 
0 0 234 
0 0 242 
0 0 237 
0 0 226 
0 0 233 
0 0 230 
0 0 224 
0 0 228 
0 0 230 
0 0 217 
0 0 207 
0 0 228 
0 0 227 
0 0 218 
0 0 214 
0 0 206 
0 0 215 
0 0 211 
0 0 228 
0 0 194 
0 0 204 
0 0 221 
0 0 204 
0 0 206 
0 0 186 
0 0 194 
0 0 198 
0 0 177 
0 0 182 
0 0 186 
0 0 175 
0 0 167 
0 0 169 
0 0 159 
0 0 155 
0 0 133 
0 0 135 
154 162 189 
228 239 255 
228 239 255 
228 239 255 
228 239 255 
166 164 175 
111 0 0 
122 0 0 
139 0 0 
141 0 0 
140 0 0 
165 0 0 
162 0 0 
151 0 0 
151 0 0 
159 0 0 
167 0 0 
178 0 0 
172 0 0 
190 0 0 
179 0 0 
184 0 0 
177 0 0 
168 0 0 
184 0 0 
186 0 0 
190 0 0 
195 0 0 
194 0 0 
196 0 0 
189 0 0 
190 0 0 
198 0 0 
195 0 0 
199 0 0 
199 0 0 
202 0 0 
198 0 0 
205 0 0 
200 0 0 
201 0 0 
202 0 0 
201 0 0 
212 0 0 
208 0 0 
210 0 0 
212 0 0 
211 0 0 
197 0 0 
203 0 0 
209 0 0 
197 0 0 
218 0 0 
206 0 0 
216 0 0 
217 0 0 
213 0 0 
217 0 0 
199 0 0 
211 0 0 
216 0 0 
216 0 0 
213 0 0 
207 0 0 
214 0 0 
211 0 0 
207 0 0 
217 0 0 
215 0 0 
214 0 0 
210 0 0 
211 0 0 
214 0 0 
216 0 0 
214 0 0 
213 0 0 
212 0 0 
214 0 0 
219 0 0 
211 0 0 
218 0 0 
218 0 0 
220 0 0 
217 0 0 
218 0 0 
215 0 0 
212 0 0 
217 0 0 
216 0 0 
215 0 0 
212 0 0 
219 0 0 
217 0 0 
222 0 0 
219 0 0 
219 0 0 
216 0 0 
219 0 0 
214 0 0 
220 0 0 
216 0 0 
215 0 0 
218 0 0 
211 0 0 
219 0 0 
209 0 0 
220 0 0 
219 0 0 
217 0 0 
219 0 0 
219 0 0 
221 0 0 
220 0 0 
218 0 0 
222 0 0 
217 0 0 
216 0 0 
224 0 0 
218 0 0 
222 0 0 
218 0 0 
222 0 0 
223 0 0 
221 0 0 
220 0 0 
223 0 0 
222 0 0 
221 0 0 
222 0 0 
219 0 0 
219 0 0 
219 0 0 
221 0 0 
217 0 0 
225 0 0 
222 0 0 
224 0 0 
219 0 0 
223 0 0 
220 0 0 
219 0 0 
219 0 0 
221 0 0 
220 0 0 
224 0 0 
224 0 0 
219 0 0 
219 0 0 
220 0 0 
218 0 0 
217 0 0 
223 0 0 
224 0 0 
222 0 0 
221 0 0 
223 0 0 
224 0 0 
222 0 0 
223 0 0 
223 0 0 
223 0 0 
221 0 0 
222 0 0 
221 0 0 
218 0 0 
221 0 0 
221 0 0 
217 0 0 
222 0 0 
221 0 0 
222 0 0 
222 0 0 
223 0 0 
224 0 0 
222 0 0 
227 0 0 
223 0 0 
225 0 0 
223 0 0 
223 0 0 
218 0 0 
223 0 0 
221 0 0 
222 0 0 
223 0 0 
221 0 0 
225 0 0 
221 0 0 
223 0 0 
223 0 0 
220 0 0 
220 0 0 
223 0 0 
224 0 0 
221 0 0 
223 0 0 
223 0 0 
223 0 0 
221 0 0 
215 0 0 
221 0 0 
223 0 0 
220 0 0 
0 0 255 
0 0 255 
0 0 255 
0 0 255 
0 0 255 
0 0 253 
0 0 255 
0 0 253 
0 0 255 
0 0 255 
0 0 254 
0 0 253 
0 0 255 
0 0 253 
0 0 255 
0 0 253 
0 0 255 
0 0 254 
0 0 254 
0 0 253 
0 0 254 
0 0 254 
0 0 255 
0 0 253 
0 0 253 
0 0 252 
0 0 253 
0 0 253 
0 0 254 
0 0 254 
0 0 253 
0 0 254 
0 0 255 
0 0 255 
0 0 255 
0 0 255 
0 0 255 
0 0 255 
0 0 254 
0 0 255 
0 0 254 
0 0 254 
0 0 255 
0 0 252 
0 0 252 
0 0 255 
0 0 255 
0 0 254 
0 0 250 
0 0 255 
0 0 254 
0 0 253 
0 0 253 
0 0 253 
0 0 253 
0 0 252 
0 0 254 
0 0 252 
0 0 255 
0 0 252 
0 0 252 
0 0 254 
0 0 255 
0 0 253 
0 0 253 
0 0 253 
0 0 249 
0 0 253 
0 0 252 
0 0 254 
0 0 249 
0 0 252 
0 0 253 
0 0 255 
0 0 252 
0 0 254 
0 0 253 
0 0 254 
0 0 253 
0 0 254 
0 0 252 
0 0 253 
0 0 249 
0 0 250 
0 0 253 
0 0 250 
0 0 253 
0 0 250 
0 0 248 
0 0 250 
0 0 252 
0 0 249 
0 0 249 
0 0 249 
0 0 253 
0 0 248 
0 0 253 
0 0 248 
0 0 255 
0 0 248 
0 0 250 
0 0 254 
0 0 244 
0 0 252 
0 0 248 
0 0 245 
0 0 246 
0 0 248 
0 0 249 
0 0 249 
0 0 242 
0 0 244 
0 0 245 
0 0 248 
0 0 250 
0 0 244 
0 0 242 
0 0 246 
0 0 254 
0 0 238 
0 0 246 
0 0 244 
0 0 249 
0 0 246 
0 0 249 
0 0 245 
0 0 246 
0 0 253 
0 0 249 
0 0 241 
0 0 245 
0 0 242 
0 0 244 
0 0 242 
0 0 240 
0 0 238 
0 0 248 
0 0 245 
0 0 244 
0 0 237 
0 0 241 
0 0 241 
0 0 240 
0 0 240 
0 0 237 
0 0 238 
0 0 245 
0 0 241 
0 0 234 
0 0 240 
0 0 230 
0 0 236 
0 0 231 
0 0 244 
0 0 233 
0 0 233 
0 0 230 
0 0 228 
0 0 228 
0 0 233 
0 0 226 
0 0 234 
0 0 226 
0 0 227 
0 0 218 
0 0 240 
0 0 223 
0 0 217 
0 0 230 
0 0 226 
0 0 220 
0 0 217 
0 0 227 
0 0 214 
0 0 226 
0 0 218 
0 0 211 
0 0 211 
0 0 204 
0 0 214 
0 0 201 
0 0 209 
0 0 212 
0 0 204 
0 0 207 
0 0 206 
0 0 198 
0 0 186 
0 0 184 
0 0 177 
0 0 171 
0 0 177 
0 0 165 
0 0 169 
0 0 167 
0 0 135 
0 0 128 
206 217 238 
228 239 255 
228 239 255 
228 239 255 
228 239 255 
206 209 223 
123 0 0 
133 0 0 
140 0 0 
128 0 0 
145 0 0 
161 0 0 
159 0 0 
161 0 0 
169 0 0 
167 0 0 
158 0 0 
182 0 0 
173 0 0 
171 0 0 
184 0 0 
185 0 0 
190 0 0 
185 0 0 
199 0 0 
191 0 0 
191 0 0 
189 0 0 
184 0 0 
181 0 0 
193 0 0 
202 0 0 
201 0 0 
204 0 0 
201 0 0 
214 0 0 
199 0 0 
204 0 0 
196 0 0 
204 0 0 
196 0 0 
198 0 0 
196 0 0 
205 0 0 
204 0 0 
206 0 0 
204 0 0 
208 0 0 
198 0 0 
215 0 0 
211 0 0 
208 0 0 
208 0 0 
212 0 0 
208 0 0 
213 0 0 
208 0 0 
208 0 0 
207 0 0 
207 0 0 
205 0 0 
209 0 0 
205 0 0 
212 0 0 
209 0 0 
208 0 0 
214 0 0 
211 0 0 
216 0 0 
212 0 0 
215 0 0 
209 0 0 
220 0 0 
217 0 0 
223 0 0 
215 0 0 
214 0 0 
212 0 0 
212 0 0 
214 0 0 
218 0 0 
213 0 0 
213 0 0 
216 0 0 
220 0 0 
217 0 0 
218 0 0 
218 0 0 
219 0 0 
218 0 0 
214 0 0 
213 0 0 
219 0 0 
213 0 0 
216 0 0 
213 0 0 
221 0 0 
222 0 0 
215 0 0 
220 0 0 
222 0 0 
214 0 0 
216 0 0 
222 0 0 
222 0 0 
220 0 0 
220 0 0 
219 0 0 
219 0 0 
218 0 0 
222 0 0 
217 0 0 
220 0 0 
220 0 0 
215 0 0 
218 0 0 
225 0 0 
222 0 0 
218 0 0 
219 0 0 
219 0 0 
222 0 0 
221 0 0 
216 0 0 
220 0 0 
222 0 0 
215 0 0 
223 0 0 
222 0 0 
220 0 0 
220 0 0 
219 0 0 
222 0 0 
221 0 0 
223 0 0 
220 0 0 
224 0 0 
224 0 0 
223 0 0 
224 0 0 
223 0 0 
221 0 0 
218 0 0 
220 0 0 
216 0 0 
225 0 0 
222 0 0 
224 0 0 
221 0 0 
225 0 0 
223 0 0 
217 0 0 
220 0 0 
225 0 0 
221 0 0 
222 0 0 
217 0 0 
222 0 0 
225 0 0 
222 0 0 
223 0 0 
222 0 0 
221 0 0 
222 0 0 
223 0 0 
221 0 0 
219 0 0 
223 0 0 
224 0 0 
223 0 0 
222 0 0 
222 0 0 
220 0 0 
224 0 0 
223 0 0 
221 0 0 
221 0 0 
220 0 0 
223 0 0 
220 0 0 
223 0 0 
228 0 0 
223 0 0 
220 0 0 
223 0 0 
224 0 0 
219 0 0 
221 0 0 
222 0 0 
221 0 0 
222 0 0 
222 0 0 
223 0 0 
225 0 0 
223 0 0 
224 0 0 
221 0 0 
223 0 0 
223 0 0 
224 0 0 
222 0 0 
225 0 0 
224 0 0 
0 0 254 
0 0 255 
0 0 255 
0 0 255 
0 0 255 
0 0 254 
0 0 255 
0 0 254 
0 0 255 
0 0 255 
0 0 254 
0 0 255 
0 0 254 
0 0 254 
0 0 254 
0 0 253 
0 0 254 
0 0 254 
0 0 252 
0 0 255 
0 0 254 
0 0 255 
0 0 255 
0 0 255 
0 0 252 
0 0 254 
0 0 250 
0 0 252 
0 0 255 
0 0 255 
0 0 254 
0 0 253 
0 0 255 
0 0 253 
0 0 254 
0 0 254 
0 0 250 
0 0 254 
0 0 253 
0 0 253 
0 0 255 
0 0 250 
0 0 253 
0 0 253 
0 0 253 
0 0 252 
0 0 254 
0 0 254 
0 0 255 
0 0 255 
0 0 254 
0 0 255 
0 0 255 
0 0 255 
0 0 253 
0 0 253 
0 0 254 
0 0 254 
0 0 255 
0 0 253 
0 0 249 
0 0 254 
0 0 253 
0 0 252 
0 0 255 
0 0 252 
0 0 253 
0 0 254 
0 0 252 
0 0 255 
0 0 249 
0 0 250 
0 0 253 
0 0 253 
0 0 249 
0 0 252 
0 0 253 
0 0 254 
0 0 252 
0 0 253 
0 0 250 
0 0 250 
0 0 250 
0 0 252 
0 0 249 
0 0 252 
0 0 250 
0 0 250 
0 0 254 
0 0 250 
0 0 252 
0 0 246 
0 0 255 
0 0 248 
0 0 254 
0 0 248 
0 0 249 
0 0 249 
0 0 249 
0 0 252 
0 0 249 
0 0 254 
0 0 248 
0 0 250 
0 0 248 
0 0 246 
0 0 249 
0 0 248 
0 0 249 
0 0 253 
0 0 246 
0 0 249 
0 0 248 
0 0 248 
0 0 252 
0 0 245 
0 0 244 
0 0 241 
0 0 249 
0 0 246 
0 0 241 
0 0 248 
0 0 240 
0 0 250 
0 0 245 
0 0 245 
0 0 244 
0 0 242 
0 0 248 
0 0 242 
0 0 241 
0 0 245 
0 0 245 
0 0 244 
0 0 237 
0 0 246 
0 0 238 
0 0 241 
0 0 231 
0 0 242 
0 0 241 
0 0 240 
0 0 238 
0 0 244 
0 0 238 
0 0 241 
0 0 244 
0 0 237 
0 0 237 
0 0 238 
0 0 238 
0 0 228 
0 0 231 
0 0 236 
0 0 240 
0 0 228 
0 0 237 
0 0 230 
0 0 236 
0 0 237 
0 0 234 
0 0 236 
0 0 237 
0 0 233 
0 0 234 
0 0 230 
0 0 223 
0 0 206 
0 0 226 
0 0 223 
0 0 218 
0 0 217 
0 0 215 
0 0 226 
0 0 218 
0 0 217 
0 0 217 
0 0 201 
0 0 207 
0 0 206 
0 0 217 
0 0 206 
0 0 218 
0 0 204 
0 0 199 
0 0 191 
0 0 182 
0 0 182 
0 0 171 
0 0 175 
0 0 181 
0 0 163 
0 0 171 
0 0 171 
0 0 149 
0 0 151 
60 63 144 
227 238 254 
228 239 255 
228 239 255 
228 239 255 
228 239 255 
227 238 254 
131 86 92 
138 0 0 
140 0 0 
138 0 0 
153 0 0 
162 0 0 
156 0 0 
171 0 0 
165 0 0 
176 0 0 
181 0 0 
182 0 0 
182 0 0 
179 0 0 
182 0 0 
191 0 0 
172 0 0 
179 0 0 
183 0 0 
179 0 0 
190 0 0 
191 0 0 
198 0 0 
196 0 0 
191 0 0 
203 0 0 
197 0 0 
193 0 0 
203 0 0 
201 0 0 
205 0 0 
199 0 0 
189 0 0 
200 0 0 
195 0 0 
200 0 0 
202 0 0 
206 0 0 
200 0 0 
206 0 0 
207 0 0 
210 0 0 
210 0 0 
208 0 0 
209 0 0 
217 0 0 
197 0 0 
212 0 0 
212 0 0 
207 0 0 
207 0 0 
216 0 0 
213 0 0 
205 0 0 
219 0 0 
218 0 0 
209 0 0 
214 0 0 
205 0 0 
214 0 0 
210 0 0 
218 0 0 
214 0 0 
215 0 0 
214 0 0 
217 0 0 
219 0 0 
213 0 0 
222 0 0 
219 0 0 
220 0 0 
217 0 0 
214 0 0 
212 0 0 
220 0 0 
217 0 0 
218 0 0 
213 0 0 
214 0 0 
214 0 0 
217 0 0 
220 0 0 
217 0 0 
220 0 0 
217 0 0 
217 0 0 
217 0 0 
212 0 0 
216 0 0 
215 0 0 
212 0 0 
224 0 0 
215 0 0 
213 0 0 
220 0 0 
220 0 0 
217 0 0 
214 0 0 
215 0 0 
218 0 0 
214 0 0 
217 0 0 
219 0 0 
218 0 0 
220 0 0 
218 0 0 
222 0 0 
216 0 0 
221 0 0 
220 0 0 
221 0 0 
224 0 0 
222 0 0 
221 0 0 
217 0 0 
223 0 0 
222 0 0 
219 0 0 
222 0 0 
221 0 0 
221 0 0 
223 0 0 
224 0 0 
216 0 0 
222 0 0 
221 0 0 
223 0 0 
221 0 0 
218 0 0 
218 0 0 
220 0 0 
219 0 0 
219 0 0 
225 0 0 
219 0 0 
224 0 0 
219 0 0 
221 0 0 
221 0 0 
223 0 0 
220 0 0 
221 0 0 
222 0 0 
220 0 0 
226 0 0 
222 0 0 
224 0 0 
220 0 0 
223 0 0 
224 0 0 
225 0 0 
226 0 0 
220 0 0 
223 0 0 
221 0 0 
220 0 0 
221 0 0 
218 0 0 
221 0 0 
228 0 0 
223 0 0 
223 0 0 
218 0 0 
225 0 0 
218 0 0 
220 0 0 
224 0 0 
221 0 0 
221 0 0 
223 0 0 
225 0 0 
222 0 0 
218 0 0 
222 0 0 
224 0 0 
223 0 0 
226 0 0 
222 0 0 
221 0 0 
220 0 0 
221 0 0 
222 0 0 
222 0 0 
222 0 0 
222 0 0 
223 0 0 
223 0 0 
221 0 0 
223 0 0 
222 0 0 
223 0 0 
222 0 0 
223 0 0 
224 0 0 
227 0 0 
219 0 0 
219 0 0 
0 0 255 
0 0 255 
0 0 253 
0 0 255 
0 0 254 
0 0 255 
0 0 255 
0 0 254 
0 0 255 
0 0 255 
0 0 255 
0 0 255 
0 0 255 
0 0 255 
0 0 254 
0 0 254 
0 0 254 
0 0 253 
0 0 254 
0 0 255 
0 0 254 
0 0 253 
0 0 254 
0 0 252 
0 0 254 
0 0 255 
0 0 255 
0 0 254 
0 0 255 
0 0 255 
0 0 255 
0 0 254 
0 0 253 
0 0 252 
0 0 255 
0 0 255 
0 0 253 
0 0 255 
0 0 254 
0 0 252 
0 0 254 
0 0 250 
0 0 255 
0 0 254 
0 0 254 
0 0 254 
0 0 255 
0 0 255 
0 0 250 
0 0 255 
0 0 254 
0 0 255 
0 0 250 
0 0 255 
0 0 255 
0 0 254 
0 0 254 
0 0 253 
0 0 255 
0 0 254 
0 0 249 
0 0 254 
0 0 254 
0 0 254 
0 0 254 
0 0 246 
0 0 253 
0 0 250 
0 0 252 
0 0 252 
0 0 253 
0 0 254 
0 0 252 
0 0 252 
0 0 253 
0 0 250 
0 0 245 
0 0 250 
0 0 253 
0 0 249 
0 0 253 
0 0 253 
0 0 246 
0 0 249 
0 0 250 
0 0 248 
0 0 246 
0 0 248 
0 0 253 
0 0 252 
0 0 252 
0 0 245 
0 0 252 
0 0 248 
0 0 249 
0 0 249 
0 0 249 
0 0 252 
0 0 253 
0 0 245 
0 0 242 
0 0 249 
0 0 252 
0 0 250 
0 0 249 
0 0 248 
0 0 246 
0 0 248 
0 0 250 
0 0 250 
0 0 242 
0 0 248 
0 0 246 
0 0 250 
0 0 250 
0 0 246 
0 0 249 
0 0 242 
0 0 241 
0 0 241 
0 0 246 
0 0 245 
0 0 250 
0 0 248 
0 0 248 
0 0 237 
0 0 248 
0 0 245 
0 0 245 
0 0 246 
0 0 240 
0 0 241 
0 0 245 
0 0 242 
0 0 244 
0 0 240 
0 0 246 
0 0 241 
0 0 242 
0 0 240 
0 0 244 
0 0 233 
0 0 236 
0 0 241 
0 0 238 
0 0 245 
0 0 237 
0 0 237 
0 0 233 
0 0 228 
0 0 231 
0 0 241 
0 0 241 
0 0 242 
0 0 234 
0 0 233 
0 0 236 
0 0 230 
0 0 240 
0 0 227 
0 0 228 
0 0 228 
0 0 227 
0 0 228 
0 0 236 
0 0 236 
0 0 224 
0 0 227 
0 0 226 
0 0 220 
0 0 220 
0 0 224 
0 0 217 
0 0 215 
0 0 211 
0 0 227 
0 0 215 
0 0 215 
0 0 215 
0 0 206 
0 0 206 
0 0 207 
0 0 214 
0 0 206 
0 0 194 
0 0 201 
0 0 199 
0 0 186 
0 0 177 
0 0 184 
0 0 167 
0 0 171 
0 0 189 
0 0 153 
0 0 149 
0 0 165 
127 133 193 
228 240 255 
228 240 255 
228 240 255 
228 240 255 
228 240 255 
228 240 255 
174 148 157 
143 0 0 
122 0 0 
141 0 0 
155 0 0 
154 0 0 
144 0 0 
164 0 0 
164 0 0 
169 0 0 
177 0 0 
167 0 0 
170 0 0 
196 0 0 
190 0 0 
186 0 0 
191 0 0 
193 0 0 
183 0 0 
189 0 0 
192 0 0 
191 0 0 
194 0 0 
192 0 0 
191 0 0 
193 0 0 
194 0 0 
190 0 0 
201 0 0 
196 0 0 
198 0 0 
194 0 0 
199 0 0 
206 0 0 
200 0 0 
204 0 0 
202 0 0 
205 0 0 
204 0 0 
208 0 0 
209 0 0 
216 0 0 
207 0 0 
215 0 0 
213 0 0 
212 0 0 
205 0 0 
215 0 0 
211 0 0 
213 0 0 
204 0 0 
200 0 0 
210 0 0 
211 0 0 
217 0 0 
215 0 0 
213 0 0 
215 0 0 
212 0 0 
211 0 0 
214 0 0 
218 0 0 
203 0 0 
212 0 0 
219 0 0 
212 0 0 
213 0 0 
218 0 0 
215 0 0 
225 0 0 
218 0 0 
215 0 0 
222 0 0 
213 0 0 
217 0 0 
214 0 0 
220 0 0 
220 0 0 
224 0 0 
215 0 0 
217 0 0 
212 0 0 
217 0 0 
217 0 0 
218 0 0 
212 0 0 
218 0 0 
217 0 0 
212 0 0 
216 0 0 
217 0 0 
214 0 0 
219 0 0 
218 0 0 
221 0 0 
217 0 0 
216 0 0 
219 0 0 
219 0 0 
215 0 0 
218 0 0 
215 0 0 
220 0 0 
217 0 0 
220 0 0 
222 0 0 
217 0 0 
223 0 0 
222 0 0 
219 0 0 
224 0 0 
220 0 0 
225 0 0 
220 0 0 
220 0 0 
225 0 0 
220 0 0 
216 0 0 
218 0 0 
226 0 0 
219 0 0 
223 0 0 
223 0 0 
223 0 0 
215 0 0 
215 0 0 
222 0 0 
220 0 0 
217 0 0 
223 0 0 
222 0 0 
215 0 0 
220 0 0 
224 0 0 
227 0 0 
222 0 0 
220 0 0 
223 0 0 
227 0 0 
223 0 0 
222 0 0 
224 0 0 
223 0 0 
224 0 0 
222 0 0 
221 0 0 
225 0 0 
221 0 0 
222 0 0 
224 0 0 
221 0 0 
221 0 0 
220 0 0 
224 0 0 
218 0 0 
221 0 0 
223 0 0 
225 0 0 
218 0 0 
224 0 0 
217 0 0 
226 0 0 
223 0 0 
222 0 0 
224 0 0 
226 0 0 
221 0 0 
221 0 0 
224 0 0 
222 0 0 
222 0 0 
224 0 0 
219 0 0 
222 0 0 
224 0 0 
221 0 0 
223 0 0 
225 0 0 
222 0 0 
223 0 0 
224 0 0 
225 0 0 
219 0 0 
221 0 0 
221 0 0 
224 0 0 
222 0 0 
220 0 0 
224 0 0 
223 0 0 
228 0 0 
221 0 0 
225 0 0 
225 0 0 
223 0 0 
224 0 0 
227 0 0 
0 0 254 
0 0 255 
0 0 255 
0 0 253 
0 0 255 
0 0 255 
0 0 254 
0 0 254 
0 0 254 
0 0 255 
0 0 254 
0 0 255 
0 0 255 
0 0 253 
0 0 255 
0 0 254 
0 0 255 
0 0 255 
0 0 255 
0 0 255 
0 0 255 
0 0 254 
0 0 255 
0 0 255 
0 0 254 
0 0 255 
0 0 253 
0 0 255 
0 0 255 
0 0 254 
0 0 253 
0 0 255 
0 0 255 
0 0 253 
0 0 252 
0 0 255 
0 0 254 
0 0 252 
0 0 254 
0 0 254 
0 0 254 
0 0 255 
0 0 254 
0 0 249 
0 0 253 
0 0 254 
0 0 250 
0 0 255 
0 0 254 
0 0 254 
0 0 252 
0 0 253 
0 0 253 
0 0 254 
0 0 254 
0 0 253 
0 0 253 
0 0 249 
0 0 252 
0 0 254 
0 0 250 
0 0 252 
0 0 249 
0 0 248 
0 0 254 
0 0 255 
0 0 253 
0 0 252 
0 0 250 
0 0 254 
0 0 250 
0 0 252 
0 0 253 
0 0 253 
0 0 249 
0 0 252 
0 0 254 
0 0 252 
0 0 254 
0 0 253 
0 0 249 
0 0 250 
0 0 252 
0 0 252 
0 0 254 
0 0 252 
0 0 250 
0 0 250 
0 0 250 
0 0 252 
0 0 250 
0 0 253 
0 0 250 
0 0 250 
0 0 248 
0 0 252 
0 0 249 
0 0 252 
0 0 254 
0 0 250 
0 0 253 
0 0 252 
0 0 246 
0 0 246 
0 0 246 
0 0 253 
0 0 250 
0 0 248 
0 0 252 
0 0 250 
0 0 244 
0 0 245 
0 0 245 
0 0 250 
0 0 248 
0 0 248 
0 0 249 
0 0 244 
0 0 249 
0 0 249 
0 0 253 
0 0 252 
0 0 246 
0 0 245 
0 0 245 
0 0 252 
0 0 244 
0 0 242 
0 0 245 
0 0 244 
0 0 248 
0 0 248 
0 0 241 
0 0 238 
0 0 246 
0 0 238 
0 0 242 
0 0 241 
0 0 244 
0 0 240 
0 0 244 
0 0 249 
0 0 241 
0 0 241 
0 0 240 
0 0 234 
0 0 242 
0 0 237 
0 0 241 
0 0 237 
0 0 238 
0 0 244 
0 0 241 
0 0 234 
0 0 237 
0 0 234 
0 0 233 
0 0 234 
0 0 227 
0 0 236 
0 0 234 
0 0 224 
0 0 220 
0 0 231 
0 0 221 
0 0 228 
0 0 214 
0 0 230 
0 0 228 
0 0 218 
0 0 220 
0 0 228 
0 0 218 
0 0 218 
0 0 218 
0 0 217 
0 0 209 
0 0 215 
0 0 209 
0 0 215 
0 0 186 
0 0 206 
0 0 189 
0 0 193 
0 0 191 
0 0 204 
0 0 203 
0 0 191 
0 0 169 
0 0 165 
0 0 179 
0 0 165 
0 0 173 
0 0 142 
0 0 153 
0 0 135 
180 189 214 
229 240 255 
229 240 255 
229 240 255 
229 240 255 
229 240 255 
229 240 255 
195 193 206 
148 0 0 
153 0 0 
149 0 0 
162 0 0 
161 0 0 
178 0 0 
173 0 0 
164 0 0 
169 0 0 
183 0 0 
184 0 0 
178 0 0 
185 0 0 
187 0 0 
181 0 0 
173 0 0 
194 0 0 
193 0 0 
194 0 0 
183 0 0 
195 0 0 
194 0 0 
200 0 0 
197 0 0 
192 0 0 
188 0 0 
199 0 0 
196 0 0 
196 0 0 
206 0 0 
201 0 0 
199 0 0 
202 0 0 
208 0 0 
216 0 0 
210 0 0 
204 0 0 
208 0 0 
203 0 0 
209 0 0 
208 0 0 
214 0 0 
209 0 0 
207 0 0 
202 0 0 
210 0 0 
208 0 0 
211 0 0 
204 0 0 
217 0 0 
215 0 0 
213 0 0 
219 0 0 
213 0 0 
217 0 0 
218 0 0 
217 0 0 
217 0 0 
213 0 0 
211 0 0 
220 0 0 
211 0 0 
218 0 0 
211 0 0 
215 0 0 
216 0 0 
223 0 0 
209 0 0 
213 0 0 
221 0 0 
214 0 0 
213 0 0 
215 0 0 
214 0 0 
214 0 0 
220 0 0 
211 0 0 
219 0 0 
222 0 0 
220 0 0 
214 0 0 
221 0 0 
215 0 0 
224 0 0 
214 0 0 
215 0 0 
211 0 0 
222 0 0 
218 0 0 
216 0 0 
213 0 0 
218 0 0 
216 0 0 
212 0 0 
220 0 0 
217 0 0 
216 0 0 
219 0 0 
221 0 0 
218 0 0 
220 0 0 
223 0 0 
220 0 0 
221 0 0 
222 0 0 
217 0 0 
222 0 0 
217 0 0 
216 0 0 
216 0 0 
213 0 0 
222 0 0 
221 0 0 
221 0 0 
218 0 0 
222 0 0 
222 0 0 
222 0 0 
218 0 0 
216 0 0 
222 0 0 
220 0 0 
218 0 0 
215 0 0 
225 0 0 
222 0 0 
219 0 0 
221 0 0 
217 0 0 
223 0 0 
218 0 0 
224 0 0 
225 0 0 
222 0 0 
221 0 0 
222 0 0 
221 0 0 
223 0 0 
224 0 0 
216 0 0 
221 0 0 
219 0 0 
223 0 0 
220 0 0 
220 0 0 
224 0 0 
223 0 0 
223 0 0 
222 0 0 
226 0 0 
222 0 0 
220 0 0 
222 0 0 
223 0 0 
223 0 0 
224 0 0 
220 0 0 
219 0 0 
223 0 0 
222 0 0 
224 0 0 
220 0 0 
224 0 0 
223 0 0 
225 0 0 
224 0 0 
224 0 0 
221 0 0 
225 0 0 
218 0 0 
221 0 0 
220 0 0 
222 0 0 
221 0 0 
225 0 0 
220 0 0 
225 0 0 
220 0 0 
221 0 0 
221 0 0 
219 0 0 
222 0 0 
225 0 0 
225 0 0 
220 0 0 
226 0 0 
226 0 0 
222 0 0 
222 0 0 
224 0 0 
221 0 0 
222 0 0 
221 0 0 
225 0 0 
223 0 0 
221 0 0 
0 0 255 
0 0 255 
0 0 255 
0 0 255 
0 0 254 
0 0 253 
0 0 254 
0 0 255 
0 0 255 
0 0 255 
0 0 254 
0 0 255 
0 0 255 
0 0 254 
0 0 254 
0 0 254 
0 0 255 
0 0 255 
0 0 253 
0 0 255 
0 0 254 
0 0 254 
0 0 254 
0 0 255 
0 0 254 
0 0 254 
0 0 254 
0 0 253 
0 0 254 
0 0 253 
0 0 254 
0 0 254 
0 0 254 
0 0 255 
0 0 254 
0 0 255 
0 0 255 
0 0 253 
0 0 253 
0 0 255 
0 0 252 
0 0 252 
0 0 255 
0 0 254 
0 0 253 
0 0 255 
0 0 253 
0 0 252 
0 0 252 
0 0 254 
0 0 254 
0 0 254 
0 0 250 
0 0 252 
0 0 254 
0 0 252 
0 0 252 
0 0 254 
0 0 254 
0 0 254 
0 0 253 
0 0 250 
0 0 254 
0 0 252 
0 0 253 
0 0 248 
0 0 255 
0 0 253 
0 0 252 
0 0 253 
0 0 254 
0 0 250 
0 0 252 
0 0 254 
0 0 253 
0 0 253 
0 0 254 
0 0 253 
0 0 254 
0 0 248 
0 0 252 
0 0 252 
0 0 250 
0 0 254 
0 0 252 
0 0 250 
0 0 250 
0 0 246 
0 0 255 
0 0 248 
0 0 254 
0 0 250 
0 0 248 
0 0 250 
0 0 252 
0 0 253 
0 0 249 
0 0 249 
0 0 252 
0 0 248 
0 0 252 
0 0 250 
0 0 249 
0 0 245 
0 0 248 
0 0 250 
0 0 254 
0 0 245 
0 0 252 
0 0 245 
0 0 248 
0 0 240 
0 0 250 
0 0 244 
0 0 249 
0 0 250 
0 0 249 
0 0 249 
0 0 246 
0 0 242 
0 0 250 
0 0 244 
0 0 252 
0 0 245 
0 0 236 
0 0 245 
0 0 249 
0 0 250 
0 0 244 
0 0 240 
0 0 244 
0 0 241 
0 0 242 
0 0 249 
0 0 234 
0 0 246 
0 0 248 
0 0 241 
0 0 236 
0 0 234 
0 0 234 
0 0 238 
0 0 248 
0 0 245 
0 0 242 
0 0 249 
0 0 240 
0 0 238 
0 0 242 
0 0 238 
0 0 230 
0 0 228 
0 0 234 
0 0 226 
0 0 237 
0 0 236 
0 0 236 
0 0 231 
0 0 230 
0 0 231 
0 0 236 
0 0 238 
0 0 233 
0 0 226 
0 0 228 
0 0 233 
0 0 227 
0 0 226 
0 0 217 
0 0 221 
0 0 217 
0 0 209 
0 0 215 
0 0 214 
0 0 218 
0 0 191 
0 0 209 
0 0 209 
0 0 204 
0 0 203 
0 0 194 
0 0 212 
0 0 196 
0 0 193 
0 0 203 
0 0 203 
0 0 193 
0 0 194 
0 0 188 
0 0 186 
0 0 191 
0 0 177 
0 0 153 
0 0 177 
0 0 137 
22 24 151 
226 236 252 
229 240 255 
229 240 255 
229 240 255 
229 240 255 
229 240 255 
229 240 255 
224 231 246 
147 34 36 
154 0 0 
146 0 0 
148 0 0 
150 0 0 
165 0 0 
177 0 0 
174 0 0 
171 0 0 
169 0 0 
168 0 0 
174 0 0 
182 0 0 
189 0 0 
187 0 0 
184 0 0 
183 0 0 
193 0 0 
185 0 0 
204 0 0 
199 0 0 
182 0 0 
192 0 0 
191 0 0 
205 0 0 
204 0 0 
198 0 0 
195 0 0 
197 0 0 
205 0 0 
199 0 0 
194 0 0 
214 0 0 
207 0 0 
205 0 0 
202 0 0 
208 0 0 
213 0 0 
214 0 0 
210 0 0 
212 0 0 
208 0 0 
207 0 0 
209 0 0 
214 0 0 
209 0 0 
200 0 0 
207 0 0 
211 0 0 
215 0 0 
219 0 0 
211 0 0 
207 0 0 
211 0 0 
219 0 0 
205 0 0 
215 0 0 
215 0 0 
213 0 0 
217 0 0 
214 0 0 
217 0 0 
205 0 0 
211 0 0 
210 0 0 
213 0 0 
221 0 0 
218 0 0 
213 0 0 
214 0 0 
220 0 0 
217 0 0 
219 0 0 
218 0 0 
217 0 0 
219 0 0 
223 0 0 
218 0 0 
213 0 0 
218 0 0 
214 0 0 
218 0 0 
215 0 0 
210 0 0 
216 0 0 
218 0 0 
212 0 0 
217 0 0 
219 0 0 
219 0 0 
217 0 0 
218 0 0 
223 0 0 
220 0 0 
214 0 0 
218 0 0 
219 0 0 
219 0 0 
224 0 0 
215 0 0 
215 0 0 
217 0 0 
222 0 0 
222 0 0 
219 0 0 
219 0 0 
221 0 0 
224 0 0 
221 0 0 
224 0 0 
213 0 0 
219 0 0 
222 0 0 
220 0 0 
223 0 0 
221 0 0 
225 0 0 
220 0 0 
226 0 0 
222 0 0 
219 0 0 
219 0 0 
213 0 0 
224 0 0 
220 0 0 
224 0 0 
220 0 0 
224 0 0 
224 0 0 
218 0 0 
223 0 0 
222 0 0 
223 0 0 
227 0 0 
215 0 0 
226 0 0 
223 0 0 
216 0 0 
218 0 0 
218 0 0 
225 0 0 
221 0 0 
219 0 0 
219 0 0 
222 0 0 
221 0 0 
222 0 0 
220 0 0 
224 0 0 
226 0 0 
220 0 0 
220 0 0 
222 0 0 
224 0 0 
225 0 0 
221 0 0 
221 0 0 
225 0 0 
225 0 0 
227 0 0 
222 0 0 
221 0 0 
222 0 0 
226 0 0 
225 0 0 
220 0 0 
221 0 0 
224 0 0 
226 0 0 
225 0 0 
222 0 0 
224 0 0 
222 0 0 
223 0 0 
223 0 0 
223 0 0 
220 0 0 
222 0 0 
223 0 0 
224 0 0 
220 0 0 
218 0 0 
226 0 0 
224 0 0 
224 0 0 
221 0 0 
223 0 0 
224 0 0 
221 0 0 
222 0 0 
223 0 0 
225 0 0 
226 0 0 
225 0 0 
223 0 0 
226 0 0 
0 0 255 
0 0 254 
0 0 255 
0 0 254 
0 0 255 
0 0 255 
0 0 255 
0 0 254 
0 0 254 
0 0 254 
0 0 254 
0 0 255 
0 0 255 
0 0 254 
0 0 255 
0 0 255 
0 0 253 
0 0 253 
0 0 255 
0 0 255 
0 0 253 
0 0 254 
0 0 255 
0 0 255 
0 0 254 
0 0 255 
0 0 255 
0 0 254 
0 0 254 
0 0 253 
0 0 253 
0 0 255 
0 0 254 
0 0 255 
0 0 253 
0 0 255 
0 0 255 
0 0 254 
0 0 254 
0 0 253 
0 0 255 
0 0 254 
0 0 253 
0 0 252 
0 0 253 
0 0 255 
0 0 254 
0 0 253 
0 0 255 
0 0 250 
0 0 253 
0 0 252 
0 0 252 
0 0 252 
0 0 254 
0 0 253 
0 0 255 
0 0 250 
0 0 253 
0 0 254 
0 0 255 
0 0 253 
0 0 255 
0 0 252 
0 0 253 
0 0 250 
0 0 250 
0 0 253 
0 0 253 
0 0 254 
0 0 252 
0 0 255 
0 0 252 
0 0 253 
0 0 255 
0 0 248 
0 0 253 
0 0 253 
0 0 252 
0 0 250 
0 0 254 
0 0 252 
0 0 249 
0 0 254 
0 0 254 
0 0 252 
0 0 250 
0 0 252 
0 0 253 
0 0 249 
0 0 253 
0 0 252 
0 0 250 
0 0 255 
0 0 253 
0 0 253 
0 0 249 
0 0 253 
0 0 249 
0 0 252 
0 0 250 
0 0 248 
0 0 249 
0 0 252 
0 0 249 
0 0 249 
0 0 248 
0 0 246 
0 0 246 
0 0 249 
0 0 248 
0 0 252 
0 0 248 
0 0 246 
0 0 248 
0 0 248 
0 0 250 
0 0 244 
0 0 250 
0 0 246 
0 0 249 
0 0 240 
0 0 246 
0 0 245 
0 0 245 
0 0 242 
0 0 249 
0 0 246 
0 0 246 
0 0 244 
0 0 242 
0 0 246 
0 0 242 
0 0 238 
0 0 245 
0 0 244 
0 0 246 
0 0 244 
0 0 234 
0 0 234 
0 0 238 
0 0 238 
0 0 240 
0 0 230 
0 0 238 
0 0 230 
0 0 241 
0 0 233 
0 0 233 
0 0 230 
0 0 244 
0 0 242 
0 0 233 
0 0 231 
0 0 237 
0 0 237 
0 0 237 
0 0 226 
0 0 231 
0 0 224 
0 0 242 
0 0 230 
0 0 233 
0 0 233 
0 0 228 
0 0 217 
0 0 223 
0 0 220 
0 0 223 
0 0 226 
0 0 224 
0 0 217 
0 0 214 
0 0 217 
0 0 214 
0 0 226 
0 0 214 
0 0 203 
0 0 211 
0 0 207 
0 0 214 
0 0 206 
0 0 204 
0 0 209 
0 0 193 
0 0 186 
0 0 191 
0 0 193 
0 0 186 
0 0 184 
0 0 167 
0 0 165 
0 0 157 
0 0 173 
0 0 161 
132 138 179 
229 240 255 
229 240 255 
229 240 255 
229 240 255 
229 240 255 
229 240 255 
229 240 255 
229 240 255 
170 127 135 
145 0 0 
162 0 0 
152 0 0 
152 0 0 
157 0 0 
181 0 0 
168 0 0 
168 0 0 
161 0 0 
175 0 0 
188 0 0 
171 0 0 
186 0 0 
190 0 0 
187 0 0 
184 0 0 
171 0 0 
192 0 0 
196 0 0 
195 0 0 
194 0 0 
195 0 0 
199 0 0 
203 0 0 
208 0 0 
200 0 0 
206 0 0 
206 0 0 
184 0 0 
203 0 0 
208 0 0 
205 0 0 
207 0 0 
199 0 0 
200 0 0 
206 0 0 
205 0 0 
203 0 0 
212 0 0 
214 0 0 
206 0 0 
209 0 0 
206 0 0 
213 0 0 
207 0 0 
207 0 0 
210 0 0 
210 0 0 
209 0 0 
208 0 0 
219 0 0 
209 0 0 
214 0 0 
214 0 0 
208 0 0 
210 0 0 
213 0 0 
223 0 0 
210 0 0 
218 0 0 
208 0 0 
213 0 0 
213 0 0 
215 0 0 
214 0 0 
214 0 0 
210 0 0 
213 0 0 
221 0 0 
218 0 0 
218 0 0 
211 0 0 
212 0 0 
216 0 0 
223 0 0 
217 0 0 
215 0 0 
218 0 0 
218 0 0 
219 0 0 
212 0 0 
218 0 0 
222 0 0 
217 0 0 
218 0 0 
222 0 0 
208 0 0 
220 0 0 
223 0 0 
219 0 0 
221 0 0 
225 0 0 
222 0 0 
218 0 0 
216 0 0 
222 0 0 
219 0 0 
218 0 0 
225 0 0 
221 0 0 
219 0 0 
220 0 0 
221 0 0 
224 0 0 
222 0 0 
223 0 0 
221 0 0 
217 0 0 
224 0 0 
224 0 0 
222 0 0 
223 0 0 
223 0 0 
217 0 0 
224 0 0 
222 0 0 
224 0 0 
220 0 0 
218 0 0 
217 0 0 
220 0 0 
221 0 0 
220 0 0 
214 0 0 
223 0 0 
221 0 0 
219 0 0 
219 0 0 
219 0 0 
218 0 0 
223 0 0 
223 0 0 
223 0 0 
219 0 0 
224 0 0 
221 0 0 
222 0 0 
221 0 0 
219 0 0 
221 0 0 
221 0 0 
221 0 0 
220 0 0 
225 0 0 
227 0 0 
221 0 0 
223 0 0 
223 0 0 
222 0 0 
225 0 0 
227 0 0 
222 0 0 
221 0 0 
222 0 0 
222 0 0 
222 0 0 
223 0 0 
221 0 0 
224 0 0 
220 0 0 
220 0 0 
226 0 0 
222 0 0 
222 0 0 
222 0 0 
221 0 0 
222 0 0 
224 0 0 
225 0 0 
222 0 0 
226 0 0 
222 0 0 
225 0 0 
225 0 0 
223 0 0 
222 0 0 
223 0 0 
225 0 0 
224 0 0 
223 0 0 
226 0 0 
223 0 0 
226 0 0 
227 0 0 
222 0 0 
222 0 0 
224 0 0 
223 0 0 
227 0 0 
222 0 0 
220 0 0 
218 0 0 
222 0 0 
224 0 0 
223 0 0 
0 0 254 
0 0 255 
0 0 254 
0 0 255 
0 0 254 
0 0 253 
0 0 255 
0 0 255 
0 0 255 
0 0 255 
0 0 253 
0 0 255 
0 0 253 
0 0 255 
0 0 255 
0 0 255 
0 0 254 
0 0 254 
0 0 254 
0 0 255 
0 0 254 
0 0 254 
0 0 255 
0 0 253 
0 0 255 
0 0 255 
0 0 255 
0 0 253 
0 0 255 
0 0 254 
0 0 254 
0 0 254 
0 0 252 
0 0 252 
0 0 253 
0 0 253 
0 0 255 
0 0 253 
0 0 254 
0 0 255 
0 0 250 
0 0 252 
0 0 253 
0 0 254 
0 0 254 
0 0 254 
0 0 254 
0 0 254 
0 0 253 
0 0 255 
0 0 254 
0 0 255 
0 0 254 
0 0 255 
0 0 253 
0 0 250 
0 0 252 
0 0 253 
0 0 254 
0 0 252 
0 0 254 
0 0 250 
0 0 250 
0 0 252 
0 0 254 
0 0 246 
0 0 254 
0 0 253 
0 0 255 
0 0 252 
0 0 254 
0 0 252 
0 0 253 
0 0 255 
0 0 248 
0 0 254 
0 0 255 
0 0 250 
0 0 252 
0 0 254 
0 0 250 
0 0 252 
0 0 255 
0 0 254 
0 0 253 
0 0 250 
0 0 249 
0 0 250 
0 0 252 
0 0 253 
0 0 248 
0 0 249 
0 0 253 
0 0 250 
0 0 248 
0 0 246 
0 0 250 
0 0 252 
0 0 253 
0 0 250 
0 0 248 
0 0 248 
0 0 246 
0 0 242 
0 0 253 
0 0 242 
0 0 250 
0 0 246 
0 0 253 
0 0 250 
0 0 246 
0 0 252 
0 0 249 
0 0 245 
0 0 249 
0 0 249 
0 0 246 
0 0 253 
0 0 245 
0 0 244 
0 0 244 
0 0 249 
0 0 250 
0 0 246 
0 0 246 
0 0 240 
0 0 246 
0 0 245 
0 0 246 
0 0 240 
0 0 246 
0 0 244 
0 0 244 
0 0 246 
0 0 242 
0 0 241 
0 0 245 
0 0 241 
0 0 248 
0 0 237 
0 0 240 
0 0 237 
0 0 238 
0 0 244 
0 0 236 
0 0 241 
0 0 244 
0 0 233 
0 0 231 
0 0 233 
0 0 240 
0 0 237 
0 0 250 
0 0 238 
0 0 236 
0 0 236 
0 0 238 
0 0 228 
0 0 220 
0 0 223 
0 0 238 
0 0 227 
0 0 227 
0 0 218 
0 0 234 
0 0 221 
0 0 224 
0 0 221 
0 0 224 
0 0 228 
0 0 230 
0 0 214 
0 0 215 
0 0 218 
0 0 215 
0 0 212 
0 0 211 
0 0 212 
0 0 215 
0 0 203 
0 0 204 
0 0 203 
0 0 204 
0 0 198 
0 0 194 
0 0 194 
0 0 189 
0 0 189 
0 0 191 
0 0 169 
0 0 163 
0 0 173 
0 0 159 
0 0 163 
0 0 159 
199 208 231 
230 240 255 
230 240 255 
230 240 255 
230 240 255 
230 240 255 
230 240 255 
230 240 255 
230 240 255 
211 200 212 
138 0 0 
150 0 0 
151 0 0 
175 0 0 
158 0 0 
174 0 0 
170 0 0 
172 0 0 
176 0 0 
175 0 0 
179 0 0 
187 0 0 
183 0 0 
187 0 0 
185 0 0 
189 0 0 
191 0 0 
193 0 0 
188 0 0 
198 0 0 
191 0 0 
189 0 0 
194 0 0 
200 0 0 
196 0 0 
211 0 0 
186 0 0 
211 0 0 
198 0 0 
208 0 0 
202 0 0 
201 0 0 
210 0 0 
203 0 0 
207 0 0 
195 0 0 
197 0 0 
220 0 0 
208 0 0 
206 0 0 
211 0 0 
207 0 0 
212 0 0 
198 0 0 
210 0 0 
216 0 0 
211 0 0 
210 0 0 
209 0 0 
204 0 0 
207 0 0 
214 0 0 
213 0 0 
208 0 0 
209 0 0 
214 0 0 
208 0 0 
215 0 0 
216 0 0 
212 0 0 
220 0 0 
216 0 0 
206 0 0 
204 0 0 
211 0 0 
219 0 0 
221 0 0 
223 0 0 
216 0 0 
218 0 0 
211 0 0 
218 0 0 
221 0 0 
214 0 0 
223 0 0 
223 0 0 
224 0 0 
220 0 0 
213 0 0 
218 0 0 
218 0 0 
214 0 0 
223 0 0 
219 0 0 
221 0 0 
218 0 0 
220 0 0 
215 0 0 
221 0 0 
223 0 0 
221 0 0 
219 0 0 
218 0 0 
223 0 0 
222 0 0 
219 0 0 
220 0 0 
218 0 0 
220 0 0 
221 0 0 
218 0 0 
219 0 0 
221 0 0 
223 0 0 
217 0 0 
219 0 0 
224 0 0 
221 0 0 
217 0 0 
216 0 0 
221 0 0 
217 0 0 
222 0 0 
225 0 0 
220 0 0 
220 0 0 
219 0 0 
218 0 0 
225 0 0 
217 0 0 
223 0 0 
222 0 0 
219 0 0 
222 0 0 
223 0 0 
224 0 0 
222 0 0 
220 0 0 
219 0 0 
225 0 0 
225 0 0 
219 0 0 
217 0 0 
220 0 0 
222 0 0 
221 0 0 
225 0 0 
219 0 0 
219 0 0 
223 0 0 
223 0 0 
223 0 0 
221 0 0 
221 0 0 
219 0 0 
222 0 0 
225 0 0 
226 0 0 
222 0 0 
222 0 0 
223 0 0 
226 0 0 
221 0 0 
224 0 0 
219 0 0 
221 0 0 
225 0 0 
220 0 0 
221 0 0 
221 0 0 
219 0 0 
222 0 0 
224 0 0 
219 0 0 
222 0 0 
220 0 0 
227 0 0 
221 0 0 
228 0 0 
223 0 0 
223 0 0 
225 0 0 
224 0 0 
219 0 0 
223 0 0 
226 0 0 
222 0 0 
223 0 0 
223 0 0 
224 0 0 
225 0 0 
226 0 0 
222 0 0 
225 0 0 
228 0 0 
219 0 0 
223 0 0 
219 0 0 
224 0 0 
224 0 0 
223 0 0 
221 0 0 
222 0 0 
224 0 0 
222 0 0 
0 0 254 
0 0 255 
0 0 255 
0 0 255 
0 0 254 
0 0 255 
0 0 254 
0 0 255 
0 0 254 
0 0 254 
0 0 255 
0 0 254 
0 0 254 
0 0 254 
0 0 254 
0 0 255 
0 0 255 
0 0 254 
0 0 255 
0 0 255 
0 0 254 
0 0 254 
0 0 255 
0 0 252 
0 0 255 
0 0 255 
0 0 255 
0 0 254 
0 0 253 
0 0 254 
0 0 253 
0 0 254 
0 0 254 
0 0 254 
0 0 255 
0 0 255 
0 0 255 
0 0 254 
0 0 254 
0 0 254 
0 0 255 
0 0 250 
0 0 254 
0 0 252 
0 0 253 
0 0 254 
0 0 255 
0 0 254 
0 0 250 
0 0 253 
0 0 252 
0 0 255 
0 0 254 
0 0 253 
0 0 254 
0 0 255 
0 0 250 
0 0 253 
0 0 252 
0 0 254 
0 0 250 
0 0 255 
0 0 255 
0 0 253 
0 0 254 
0 0 250 
0 0 253 
0 0 253 
0 0 250 
0 0 253 
0 0 255 
0 0 252 
0 0 252 
0 0 254 
0 0 254 
0 0 254 
0 0 249 
0 0 250 
0 0 250 
0 0 253 
0 0 252 
0 0 254 
0 0 252 
0 0 254 
0 0 253 
0 0 249 
0 0 252 
0 0 248 
0 0 249 
0 0 250 
0 0 252 
0 0 245 
0 0 246 
0 0 252 
0 0 253 
0 0 250 
0 0 249 
0 0 250 
0 0 249 
0 0 250 
0 0 252 
0 0 253 
0 0 250 
0 0 252 
0 0 250 
0 0 253 
0 0 250 
0 0 246 
0 0 244 
0 0 245 
0 0 246 
0 0 244 
0 0 248 
0 0 244 
0 0 250 
0 0 248 
0 0 250 
0 0 246 
0 0 245 
0 0 248 
0 0 250 
0 0 250 
0 0 244 
0 0 238 
0 0 245 
0 0 246 
0 0 246 
0 0 248 
0 0 244 
0 0 246 
0 0 252 
0 0 240 
0 0 242 
0 0 242 
0 0 234 
0 0 246 
0 0 237 
0 0 249 
0 0 245 
0 0 248 
0 0 244 
0 0 240 
0 0 252 
0 0 231 
0 0 233 
0 0 244 
0 0 238 
0 0 234 
0 0 228 
0 0 231 
0 0 242 
0 0 241 
0 0 234 
0 0 238 
0 0 237 
0 0 234 
0 0 224 
0 0 231 
0 0 227 
0 0 228 
0 0 236 
0 0 227 
0 0 224 
0 0 223 
0 0 223 
0 0 236 
0 0 228 
0 0 230 
0 0 228 
0 0 231 
0 0 227 
0 0 217 
0 0 220 
0 0 212 
0 0 215 
0 0 227 
0 0 217 
0 0 209 
0 0 212 
0 0 226 
0 0 211 
0 0 204 
0 0 199 
0 0 209 
0 0 207 
0 0 209 
0 0 186 
0 0 193 
0 0 189 
0 0 179 
0 0 184 
0 0 177 
0 0 165 
0 0 177 
46 48 167 
228 238 253 
230 240 255 
230 240 255 
230 240 255 
230 240 255 
230 241 255 
230 240 255 
230 240 255 
230 240 255 
226 231 245 
153 59 62 
154 0 0 
147 0 0 
165 0 0 
161 0 0 
160 0 0 
160 0 0 
175 0 0 
169 0 0 
178 0 0 
177 0 0 
176 0 0 
195 0 0 
177 0 0 
188 0 0 
182 0 0 
196 0 0 
191 0 0 
191 0 0 
201 0 0 
196 0 0 
197 0 0 
201 0 0 
193 0 0 
193 0 0 
193 0 0 
199 0 0 
204 0 0 
213 0 0 
203 0 0 
202 0 0 
207 0 0 
204 0 0 
198 0 0 
197 0 0 
204 0 0 
198 0 0 
206 0 0 
201 0 0 
204 0 0 
208 0 0 
203 0 0 
212 0 0 
210 0 0 
207 0 0 
207 0 0 
214 0 0 
201 0 0 
211 0 0 
206 0 0 
216 0 0 
214 0 0 
211 0 0 
216 0 0 
213 0 0 
211 0 0 
213 0 0 
221 0 0 
209 0 0 
211 0 0 
220 0 0 
214 0 0 
210 0 0 
211 0 0 
216 0 0 
215 0 0 
218 0 0 
210 0 0 
210 0 0 
215 0 0 
213 0 0 
210 0 0 
218 0 0 
220 0 0 
220 0 0 
214 0 0 
218 0 0 
222 0 0 
216 0 0 
219 0 0 
216 0 0 
219 0 0 
216 0 0 
220 0 0 
224 0 0 
221 0 0 
221 0 0 
213 0 0 
222 0 0 
213 0 0 
218 0 0 
216 0 0 
220 0 0 
219 0 0 
214 0 0 
223 0 0 
217 0 0 
219 0 0 
219 0 0 
224 0 0 
224 0 0 
221 0 0 
225 0 0 
221 0 0 
224 0 0 
217 0 0 
216 0 0 
225 0 0 
224 0 0 
223 0 0 
220 0 0 
217 0 0 
224 0 0 
220 0 0 
224 0 0 
219 0 0 
221 0 0 
218 0 0 
219 0 0 
225 0 0 
226 0 0 
220 0 0 
221 0 0 
224 0 0 
223 0 0 
224 0 0 
219 0 0 
225 0 0 
217 0 0 
220 0 0 
218 0 0 
222 0 0 
223 0 0 
222 0 0 
223 0 0 
227 0 0 
220 0 0 
224 0 0 
220 0 0 
223 0 0 
220 0 0 
222 0 0 
222 0 0 
220 0 0 
222 0 0 
221 0 0 
224 0 0 
222 0 0 
225 0 0 
219 0 0 
222 0 0 
220 0 0 
225 0 0 
225 0 0 
225 0 0 
224 0 0 
220 0 0 
220 0 0 
222 0 0 
226 0 0 
221 0 0 
223 0 0 
223 0 0 
222 0 0 
223 0 0 
220 0 0 
224 0 0 
224 0 0 
226 0 0 
225 0 0 
220 0 0 
225 0 0 
223 0 0 
223 0 0 
222 0 0 
226 0 0 
220 0 0 
225 0 0 
226 0 0 
230 0 0 
224 0 0 
225 0 0 
223 0 0 
226 0 0 
221 0 0 
224 0 0 
224 0 0 
225 0 0 
223 0 0 
225 0 0 
222 0 0 
223 0 0 
225 0 0 
224 0 0 
223 0 0 
0 0 254 
0 0 255 
0 0 254 
0 0 255 
0 0 255 
0 0 254 
0 0 255 
0 0 255 
0 0 255 
0 0 255 
0 0 255 
0 0 255 
0 0 253 
0 0 255 
0 0 254 
0 0 254 
0 0 255 
0 0 255 
0 0 252 
0 0 254 
0 0 253 
0 0 255 
0 0 255 
0 0 255 
0 0 252 
0 0 254 
0 0 253 
0 0 255 
0 0 255 
0 0 254 
0 0 254 
0 0 253 
0 0 255 
0 0 253 
0 0 254 
0 0 255 
0 0 255 
0 0 254 
0 0 254 
0 0 255 
0 0 255 
0 0 253 
0 0 255 
0 0 253 
0 0 253 
0 0 254 
0 0 255 
0 0 254 
0 0 255 
0 0 254 
0 0 255 
0 0 254 
0 0 253 
0 0 250 
0 0 253 
0 0 255 
0 0 255 
0 0 254 
0 0 253 
0 0 254 
0 0 252 
0 0 250 
0 0 255 
0 0 254 
0 0 255 
0 0 255 
0 0 249 
0 0 254 
0 0 254 
0 0 253 
0 0 254 
0 0 252 
0 0 252 
0 0 253 
0 0 252 
0 0 252 
0 0 253 
0 0 254 
0 0 250 
0 0 255 
0 0 254 
0 0 252 
0 0 250 
0 0 254 
0 0 254 
0 0 254 
0 0 241 
0 0 249 
0 0 252 
0 0 250 
0 0 252 
0 0 248 
0 0 252 
0 0 253 
0 0 252 
0 0 250 
0 0 250 
0 0 248 
0 0 248 
0 0 252 
0 0 253 
0 0 249 
0 0 249 
0 0 248 
0 0 248 
0 0 252 
0 0 248 
0 0 252 
0 0 246 
0 0 246 
0 0 249 
0 0 245 
0 0 248 
0 0 249 
0 0 248 
0 0 246 
0 0 248 
0 0 248 
0 0 249 
0 0 244 
0 0 238 
0 0 252 
0 0 246 
0 0 252 
0 0 244 
0 0 246 
0 0 250 
0 0 248 
0 0 246 
0 0 242 
0 0 246 
0 0 238 
0 0 245 
0 0 240 
0 0 241 
0 0 250 
0 0 242 
0 0 245 
0 0 245 
0 0 237 
0 0 240 
0 0 244 
0 0 238 
0 0 233 
0 0 238 
0 0 242 
0 0 238 
0 0 230 
0 0 237 
0 0 231 
0 0 240 
0 0 238 
0 0 241 
0 0 233 
0 0 238 
0 0 240 
0 0 231 
0 0 237 
0 0 236 
0 0 236 
0 0 226 
0 0 230 
0 0 231 
0 0 226 
0 0 220 
0 0 220 
0 0 237 
0 0 223 
0 0 214 
0 0 221 
0 0 220 
0 0 224 
0 0 223 
0 0 215 
0 0 215 
0 0 209 
0 0 217 
0 0 206 
0 0 203 
0 0 206 
0 0 204 
0 0 196 
0 0 199 
0 0 212 
0 0 193 
0 0 209 
0 0 198 
0 0 196 
0 0 179 
0 0 191 
0 0 186 
0 0 165 
0 0 163 
0 0 188 
140 146 201 
230 241 255 
230 241 255 
230 241 255 
230 241 255 
230 241 255 
230 241 255 
230 241 255 
230 241 255 
230 241 255 
230 241 255 
177 134 142 
153 0 0 
162 0 0 
160 0 0 
162 0 0 
162 0 0 
168 0 0 
164 0 0 
172 0 0 
189 0 0 
186 0 0 
191 0 0 
185 0 0 
194 0 0 
200 0 0 
176 0 0 
198 0 0 
196 0 0 
189 0 0 
197 0 0 
191 0 0 
192 0 0 
195 0 0 
197 0 0 
202 0 0 
200 0 0 
208 0 0 
210 0 0 
192 0 0 
202 0 0 
201 0 0 
208 0 0 
208 0 0 
196 0 0 
208 0 0 
203 0 0 
210 0 0 
215 0 0 
204 0 0 
212 0 0 
211 0 0 
211 0 0 
208 0 0 
206 0 0 
216 0 0 
216 0 0 
208 0 0 
211 0 0 
215 0 0 
203 0 0 
209 0 0 
218 0 0 
215 0 0 
210 0 0 
210 0 0 
207 0 0 
218 0 0 
218 0 0 
216 0 0 
212 0 0 
220 0 0 
209 0 0 
217 0 0 
220 0 0 
218 0 0 
217 0 0 
218 0 0 
217 0 0 
212 0 0 
212 0 0 
212 0 0 
224 0 0 
216 0 0 
215 0 0 
215 0 0 
218 0 0 
213 0 0 
210 0 0 
216 0 0 
216 0 0 
215 0 0 
219 0 0 
221 0 0 
215 0 0 
219 0 0 
221 0 0 
224 0 0 
222 0 0 
219 0 0 
216 0 0 
216 0 0 
214 0 0 
215 0 0 
217 0 0 
218 0 0 
222 0 0 
216 0 0 
219 0 0 
224 0 0 
225 0 0 
217 0 0 
222 0 0 
219 0 0 
220 0 0 
216 0 0 
220 0 0 
223 0 0 
221 0 0 
220 0 0 
219 0 0 
218 0 0 
223 0 0 
225 0 0 
222 0 0 
221 0 0 
222 0 0 
218 0 0 
225 0 0 
219 0 0 
225 0 0 
220 0 0 
221 0 0 
223 0 0 
226 0 0 
222 0 0 
219 0 0 
219 0 0 
222 0 0 
222 0 0 
224 0 0 
220 0 0 
223 0 0 
219 0 0 
226 0 0 
219 0 0 
223 0 0 
225 0 0 
228 0 0 
221 0 0 
223 0 0 
223 0 0 
220 0 0 
222 0 0 
217 0 0 
216 0 0 
221 0 0 
222 0 0 
226 0 0 
223 0 0 
224 0 0 
224 0 0 
224 0 0 
221 0 0 
222 0 0 
224 0 0 
222 0 0 
225 0 0 
223 0 0 
222 0 0 
220 0 0 
222 0 0 
225 0 0 
224 0 0 
222 0 0 
221 0 0 
221 0 0 
228 0 0 
221 0 0 
221 0 0 
223 0 0 
226 0 0 
224 0 0 
223 0 0 
225 0 0 
223 0 0 
225 0 0 
222 0 0 
222 0 0 
224 0 0 
225 0 0 
219 0 0 
223 0 0 
222 0 0 
218 0 0 
222 0 0 
226 0 0 
223 0 0 
225 0 0 
221 0 0 
226 0 0 
223 0 0 
226 0 0 
224 0 0 
225 0 0 
225 0 0 
0 0 255 
0 0 253 
0 0 254 
0 0 254 
0 0 255 
0 0 254 
0 0 255 
0 0 254 
0 0 254 
0 0 254 
0 0 255 
0 0 255 
0 0 253 
0 0 253 
0 0 255 
0 0 255 
0 0 254 
0 0 254 
0 0 254 
0 0 255 
0 0 255 
0 0 254 
0 0 253 
0 0 254 
0 0 253 
0 0 255 
0 0 254 
0 0 253 
0 0 254 
0 0 255 
0 0 254 
0 0 253 
0 0 253 
0 0 254 
0 0 255 
0 0 254 
0 0 254 
0 0 254 
0 0 254 
0 0 254 
0 0 252 
0 0 255 
0 0 255 
0 0 253 
0 0 254 
0 0 255 
0 0 253 
0 0 255 
0 0 254 
0 0 253 
0 0 252 
0 0 255 
0 0 252 
0 0 254 
0 0 254 
0 0 254 
0 0 255 
0 0 253 
0 0 252 
0 0 250 
0 0 252 
0 0 250 
0 0 254 
0 0 254 
0 0 252 
0 0 254 
0 0 253 
0 0 252 
0 0 250 
0 0 253 
0 0 252 
0 0 249 
0 0 253 
0 0 253 
0 0 253 
0 0 254 
0 0 253 
0 0 250 
0 0 250 
0 0 252 
0 0 250 
0 0 252 
0 0 255 
0 0 254 
0 0 252 
0 0 249 
0 0 252 
0 0 249 
0 0 246 
0 0 252 
0 0 253 
0 0 249 
0 0 252 
0 0 252 
0 0 248 
0 0 252 
0 0 248 
0 0 249 
0 0 248 
0 0 249 
0 0 253 
0 0 246 
0 0 250 
0 0 248 
0 0 245 
0 0 249 
0 0 248 
0 0 249 
0 0 242 
0 0 250 
0 0 253 
0 0 249 
0 0 250 
0 0 248 
0 0 246 
0 0 245 
0 0 250 
0 0 252 
0 0 244 
0 0 250 
0 0 246 
0 0 249 
0 0 244 
0 0 245 
0 0 245 
0 0 244 
0 0 241 
0 0 248 
0 0 248 
0 0 245 
0 0 248 
0 0 246 
0 0 249 
0 0 241 
0 0 248 
0 0 242 
0 0 236 
0 0 246 
0 0 241 
0 0 246 
0 0 237 
0 0 240 
0 0 237 
0 0 233 
0 0 242 
0 0 244 
0 0 233 
0 0 234 
0 0 240 
0 0 234 
0 0 238 
0 0 233 
0 0 238 
0 0 241 
0 0 231 
0 0 236 
0 0 237 
0 0 237 
0 0 237 
0 0 228 
0 0 224 
0 0 236 
0 0 226 
0 0 231 
0 0 224 
0 0 230 
0 0 234 
0 0 217 
0 0 206 
0 0 218 
0 0 207 
0 0 217 
0 0 221 
0 0 223 
0 0 221 
0 0 212 
0 0 215 
0 0 209 
0 0 215 
0 0 204 
0 0 218 
0 0 211 
0 0 206 
0 0 203 
0 0 188 
0 0 198 
0 0 196 
0 0 199 
0 0 193 
0 0 175 
0 0 169 
0 0 179 
0 0 175 
0 0 161 
202 211 236 
231 241 255 
231 241 255 
231 241 255 
231 241 255 
231 241 255 
231 241 255 
231 241 255 
231 241 255 
231 241 255 
231 241 255 
213 213 226 
148 0 0 
167 0 0 
166 0 0 
172 0 0 
173 0 0 
168 0 0 
160 0 0 
179 0 0 
193 0 0 
178 0 0 
179 0 0 
174 0 0 
190 0 0 
180 0 0 
178 0 0 
193 0 0 
200 0 0 
196 0 0 
186 0 0 
187 0 0 
199 0 0 
206 0 0 
192 0 0 
204 0 0 
188 0 0 
201 0 0 
187 0 0 
204 0 0 
210 0 0 
200 0 0 
206 0 0 
202 0 0 
197 0 0 
204 0 0 
209 0 0 
214 0 0 
215 0 0 
212 0 0 
209 0 0 
198 0 0 
217 0 0 
213 0 0 
202 0 0 
209 0 0 
204 0 0 
210 0 0 
201 0 0 
221 0 0 
218 0 0 
208 0 0 
210 0 0 
210 0 0 
209 0 0 
217 0 0 
219 0 0 
219 0 0 
215 0 0 
212 0 0 
223 0 0 
216 0 0 
216 0 0 
213 0 0 
220 0 0 
217 0 0 
211 0 0 
213 0 0 
207 0 0 
213 0 0 
219 0 0 
214 0 0 
214 0 0 
212 0 0 
217 0 0 
221 0 0 
219 0 0 
216 0 0 
218 0 0 
219 0 0 
214 0 0 
218 0 0 
223 0 0 
219 0 0 
223 0 0 
216 0 0 
214 0 0 
219 0 0 
218 0 0 
217 0 0 
224 0 0 
219 0 0 
223 0 0 
222 0 0 
222 0 0 
221 0 0 
225 0 0 
225 0 0 
224 0 0 
221 0 0 
221 0 0 
216 0 0 
221 0 0 
220 0 0 
222 0 0 
217 0 0 
221 0 0 
220 0 0 
221 0 0 
223 0 0 
225 0 0 
221 0 0 
217 0 0 
222 0 0 
222 0 0 
225 0 0 
217 0 0 
218 0 0 
223 0 0 
223 0 0 
225 0 0 
221 0 0 
219 0 0 
222 0 0 
215 0 0 
221 0 0 
224 0 0 
219 0 0 
219 0 0 
222 0 0 
220 0 0 
223 0 0 
223 0 0 
221 0 0 
221 0 0 
223 0 0 
226 0 0 
222 0 0 
221 0 0 
221 0 0 
225 0 0 
222 0 0 
222 0 0 
222 0 0 
221 0 0 
223 0 0 
217 0 0 
227 0 0 
218 0 0 
223 0 0 
220 0 0 
228 0 0 
222 0 0 
224 0 0 
218 0 0 
224 0 0 
223 0 0 
225 0 0 
218 0 0 
224 0 0 
224 0 0 
224 0 0 
224 0 0 
222 0 0 
222 0 0 
222 0 0 
224 0 0 
225 0 0 
223 0 0 
223 0 0 
222 0 0 
223 0 0 
220 0 0 
218 0 0 
225 0 0 
223 0 0 
225 0 0 
226 0 0 
224 0 0 
226 0 0 
227 0 0 
225 0 0 
225 0 0 
225 0 0 
225 0 0 
224 0 0 
224 0 0 
222 0 0 
223 0 0 
226 0 0 
225 0 0 
220 0 0 
224 0 0 
222 0 0 
222 0 0 
224 0 0 
0 0 255 
0 0 255 
0 0 255 
0 0 255 
0 0 254 
0 0 255 
0 0 254 
0 0 255 
0 0 255 
0 0 255 
0 0 254 
0 0 255 
0 0 255 
0 0 254 
0 0 254 
0 0 253 
0 0 255 
0 0 253 
0 0 253 
0 0 254 
0 0 255 
0 0 255 
0 0 253 
0 0 254 
0 0 254 
0 0 253 
0 0 255 
0 0 254 
0 0 254 
0 0 255 
0 0 255 
0 0 255 
0 0 255 
0 0 255 
0 0 253 
0 0 254 
0 0 254 
0 0 254 
0 0 255 
0 0 253 
0 0 254 
0 0 252 
0 0 253 
0 0 255 
0 0 254 
0 0 254 
0 0 253 
0 0 255 
0 0 255 
0 0 255 
0 0 253 
0 0 254 
0 0 254 
0 0 255 
0 0 253 
0 0 254 
0 0 254 
0 0 255 
0 0 255 
0 0 254 
0 0 253 
0 0 254 
0 0 255 
0 0 253 
0 0 254 
0 0 253 
0 0 252 
0 0 253 
0 0 254 
0 0 253 
0 0 254 
0 0 252 
0 0 252 
0 0 252 
0 0 253 
0 0 250 
0 0 253 
0 0 253 
0 0 250 
0 0 250 
0 0 254 
0 0 249 
0 0 252 
0 0 252 
0 0 252 
0 0 253 
0 0 250 
0 0 250 
0 0 252 
0 0 248 
0 0 253 
0 0 248 
0 0 253 
0 0 248 
0 0 252 
0 0 246 
0 0 252 
0 0 249 
0 0 250 
0 0 249 
0 0 244 
0 0 252 
0 0 250 
0 0 246 
0 0 245 
0 0 249 
0 0 249 
0 0 250 
0 0 250 
0 0 246 
0 0 246 
0 0 248 
0 0 248 
0 0 245 
0 0 240 
0 0 249 
0 0 248 
0 0 244 
0 0 250 
0 0 244 
0 0 252 
0 0 244 
0 0 250 
0 0 245 
0 0 248 
0 0 242 
0 0 253 
0 0 250 
0 0 244 
0 0 242 
0 0 245 
0 0 244 
0 0 246 
0 0 249 
0 0 241 
0 0 249 
0 0 236 
0 0 246 
0 0 241 
0 0 238 
0 0 241 
0 0 240 
0 0 244 
0 0 244 
0 0 238 
0 0 237 
0 0 236 
0 0 240 
0 0 237 
0 0 230 
0 0 231 
0 0 233 
0 0 237 
0 0 234 
0 0 238 
0 0 230 
0 0 234 
0 0 241 
0 0 244 
0 0 234 
0 0 233 
0 0 223 
0 0 233 
0 0 234 
0 0 220 
0 0 238 
0 0 234 
0 0 233 
0 0 221 
0 0 234 
0 0 224 
0 0 220 
0 0 217 
0 0 211 
0 0 217 
0 0 218 
0 0 218 
0 0 228 
0 0 223 
0 0 221 
0 0 189 
0 0 193 
0 0 204 
0 0 198 
0 0 199 
0 0 189 
0 0 194 
0 0 198 
0 0 198 
0 0 188 
0 0 173 
0 0 184 
0 0 173 
69 72 194 
231 241 255 
231 241 255 
231 241 255 
231 241 255 
231 241 255 
231 241 255 
231 241 255 
231 241 255 
231 241 255 
231 241 255 
231 241 255 
231 241 255 
171 99 105 
158 0 0 
169 0 0 
159 0 0 
156 0 0 
182 0 0 
174 0 0 
184 0 0 
193 0 0 
186 0 0 
188 0 0 
178 0 0 
182 0 0 
187 0 0 
190 0 0 
183 0 0 
199 0 0 
194 0 0 
199 0 0 
188 0 0 
207 0 0 
198 0 0 
189 0 0 
198 0 0 
204 0 0 
206 0 0 
204 0 0 
206 0 0 
203 0 0 
200 0 0 
193 0 0 
200 0 0 
203 0 0 
208 0 0 
205 0 0 
214 0 0 
211 0 0 
222 0 0 
209 0 0 
212 0 0 
206 0 0 
211 0 0 
217 0 0 
208 0 0 
218 0 0 
205 0 0 
208 0 0 
216 0 0 
214 0 0 
211 0 0 
210 0 0 
217 0 0 
219 0 0 
208 0 0 
211 0 0 
217 0 0 
216 0 0 
219 0 0 
217 0 0 
216 0 0 
208 0 0 
214 0 0 
215 0 0 
214 0 0 
215 0 0 
225 0 0 
219 0 0 
220 0 0 
214 0 0 
215 0 0 
218 0 0 
210 0 0 
224 0 0 
217 0 0 
218 0 0 
216 0 0 
217 0 0 
222 0 0 
221 0 0 
215 0 0 
217 0 0 
214 0 0 
220 0 0 
218 0 0 
221 0 0 
213 0 0 
219 0 0 
218 0 0 
217 0 0 
223 0 0 
218 0 0 
221 0 0 
217 0 0 
221 0 0 
219 0 0 
221 0 0 
220 0 0 
218 0 0 
221 0 0 
223 0 0 
219 0 0 
223 0 0 
217 0 0 
220 0 0 
218 0 0 
225 0 0 
221 0 0 
223 0 0 
226 0 0 
215 0 0 
225 0 0 
224 0 0 
215 0 0 
219 0 0 
217 0 0 
221 0 0 
222 0 0 
221 0 0 
225 0 0 
222 0 0 
222 0 0 
219 0 0 
221 0 0 
222 0 0 
220 0 0 
222 0 0 
226 0 0 
220 0 0 
224 0 0 
224 0 0 
223 0 0 
225 0 0 
222 0 0 
223 0 0 
222 0 0 
225 0 0 
221 0 0 
224 0 0 
222 0 0 
226 0 0 
220 0 0 
220 0 0 
222 0 0 
219 0 0 
224 0 0 
221 0 0 
218 0 0 
222 0 0 
222 0 0 
219 0 0 
224 0 0 
225 0 0 
225 0 0 
218 0 0 
223 0 0 
223 0 0 
221 0 0 
225 0 0 
224 0 0 
222 0 0 
227 0 0 
225 0 0 
223 0 0 
220 0 0 
223 0 0 
223 0 0 
225 0 0 
224 0 0 
224 0 0 
225 0 0 
225 0 0 
225 0 0 
221 0 0 
223 0 0 
221 0 0 
225 0 0 
223 0 0 
225 0 0 
223 0 0 
220 0 0 
223 0 0 
222 0 0 
226 0 0 
222 0 0 
225 0 0 
222 0 0 
225 0 0 
223 0 0 
224 0 0 
225 0 0 
222 0 0 
227 0 0 
223 0 0 
224 0 0 
0 0 255 
0 0 255 
0 0 255 
0 0 254 
0 0 255 
0 0 255 
0 0 255 
0 0 255 
0 0 255 
0 0 255 
0 0 255 
0 0 255 
0 0 255 
0 0 255 
0 0 253 
0 0 255 
0 0 252 
0 0 255 
0 0 255 
0 0 254 
0 0 254 
0 0 255 
0 0 255 
0 0 254 
0 0 254 
0 0 255 
0 0 255 
0 0 254 
0 0 255 
0 0 253 
0 0 253 
0 0 252 
0 0 254 
0 0 254 
0 0 254 
0 0 255 
0 0 253 
0 0 253 
0 0 252 
0 0 254 
0 0 254 
0 0 253 
0 0 255 
0 0 255 
0 0 255 
0 0 255 
0 0 250 
0 0 254 
0 0 254 
0 0 254 
0 0 252 
0 0 255 
0 0 255 
0 0 252 
0 0 255 
0 0 255 
0 0 254 
0 0 252 
0 0 254 
0 0 252 
0 0 253 
0 0 254 
0 0 254 
0 0 254 
0 0 254 
0 0 252 
0 0 253 
0 0 254 
0 0 254 
0 0 254 
0 0 253 
0 0 255 
0 0 255 
0 0 254 
0 0 252 
0 0 249 
0 0 246 
0 0 248 
0 0 253 
0 0 250 
0 0 252 
0 0 253 
0 0 250 
0 0 255 
0 0 252 
0 0 250 
0 0 253 
0 0 252 
0 0 250 
0 0 250 
0 0 252 
0 0 252 
0 0 246 
0 0 250 
0 0 250 
0 0 254 
0 0 249 
0 0 249 
0 0 250 
0 0 245 
0 0 249 
0 0 249 
0 0 252 
0 0 252 
0 0 255 
0 0 250 
0 0 250 
0 0 252 
0 0 246 
0 0 246 
0 0 248 
0 0 250 
0 0 245 
0 0 250 
0 0 245 
0 0 249 
0 0 241 
0 0 246 
0 0 246 
0 0 245 
0 0 242 
0 0 245 
0 0 249 
0 0 244 
0 0 237 
0 0 250 
0 0 241 
0 0 248 
0 0 238 
0 0 241 
0 0 245 
0 0 245 
0 0 241 
0 0 238 
0 0 240 
0 0 236 
0 0 246 
0 0 248 
0 0 245 
0 0 242 
0 0 242 
0 0 246 
0 0 240 
0 0 238 
0 0 245 
0 0 237 
0 0 238 
0 0 236 
0 0 242 
0 0 241 
0 0 240 
0 0 238 
0 0 240 
0 0 227 
0 0 237 
0 0 231 
0 0 237 
0 0 227 
0 0 237 
0 0 238 
0 0 228 
0 0 231 
0 0 231 
0 0 237 
0 0 227 
0 0 231 
0 0 228 
0 0 224 
0 0 221 
0 0 228 
0 0 227 
0 0 217 
0 0 214 
0 0 220 
0 0 214 
0 0 218 
0 0 209 
0 0 215 
0 0 224 
0 0 217 
0 0 220 
0 0 201 
0 0 194 
0 0 199 
0 0 199 
0 0 196 
0 0 204 
0 0 199 
0 0 186 
0 0 188 
0 0 175 
0 0 182 
0 0 167 
183 191 231 
231 241 255 
231 241 255 
231 241 255 
231 241 255 
231 241 255 
231 241 255 
231 241 255 
231 241 255 
231 241 255 
231 241 255 
231 241 255 
231 241 255 
200 179 189 
159 0 0 
168 0 0 
168 0 0 
156 0 0 
193 0 0 
180 0 0 
179 0 0 
187 0 0 
181 0 0 
180 0 0 
180 0 0 
185 0 0 
194 0 0 
177 0 0 
193 0 0 
205 0 0 
202 0 0 
199 0 0 
192 0 0 
198 0 0 
210 0 0 
202 0 0 
196 0 0 
207 0 0 
201 0 0 
206 0 0 
212 0 0 
184 0 0 
197 0 0 
211 0 0 
206 0 0 
211 0 0 
201 0 0 
202 0 0 
198 0 0 
199 0 0 
206 0 0 
203 0 0 
213 0 0 
206 0 0 
217 0 0 
208 0 0 
208 0 0 
208 0 0 
213 0 0 
211 0 0 
207 0 0 
211 0 0 
215 0 0 
218 0 0 
209 0 0 
215 0 0 
213 0 0 
211 0 0 
219 0 0 
219 0 0 
206 0 0 
215 0 0 
212 0 0 
214 0 0 
217 0 0 
217 0 0 
223 0 0 
218 0 0 
217 0 0 
217 0 0 
213 0 0 
217 0 0 
217 0 0 
214 0 0 
219 0 0 
221 0 0 
214 0 0 
214 0 0 
225 0 0 
221 0 0 
220 0 0 
225 0 0 
225 0 0 
225 0 0 
224 0 0 
225 0 0 
219 0 0 
225 0 0 
219 0 0 
220 0 0 
219 0 0 
221 0 0 
219 0 0 
219 0 0 
218 0 0 
215 0 0 
218 0 0 
219 0 0 
220 0 0 
222 0 0 
222 0 0 
218 0 0 
219 0 0 
226 0 0 
220 0 0 
218 0 0 
219 0 0 
215 0 0 
221 0 0 
220 0 0 
227 0 0 
225 0 0 
221 0 0 
221 0 0 
219 0 0 
224 0 0 
226 0 0 
225 0 0 
225 0 0 
222 0 0 
224 0 0 
218 0 0 
225 0 0 
219 0 0 
219 0 0 
229 0 0 
220 0 0 
219 0 0 
220 0 0 
221 0 0 
220 0 0 
222 0 0 
222 0 0 
224 0 0 
222 0 0 
221 0 0 
226 0 0 
218 0 0 
223 0 0 
224 0 0 
221 0 0 
222 0 0 
223 0 0 
221 0 0 
224 0 0 
225 0 0 
224 0 0 
223 0 0 
220 0 0 
223 0 0 
223 0 0 
220 0 0 
222 0 0 
222 0 0 
225 0 0 
225 0 0 
224 0 0 
223 0 0 
228 0 0 
224 0 0 
221 0 0 
226 0 0 
222 0 0 
225 0 0 
220 0 0 
223 0 0 
226 0 0 
221 0 0 
221 0 0 
227 0 0 
226 0 0 
224 0 0 
221 0 0 
222 0 0 
226 0 0 
222 0 0 
220 0 0 
221 0 0 
223 0 0 
221 0 0 
227 0 0 
223 0 0 
224 0 0 
223 0 0 
224 0 0 
224 0 0 
223 0 0 
225 0 0 
226 0 0 
220 0 0 
224 0 0 
223 0 0 
228 0 0 
224 0 0 
225 0 0 
223 0 0 
224 0 0 
0 0 255 
0 0 255 
0 0 254 
0 0 255 
0 0 253 
0 0 255 
0 0 254 
0 0 254 
0 0 255 
0 0 255 
0 0 254 
0 0 255 
0 0 254 
0 0 255 
0 0 255 
0 0 254 
0 0 255 
0 0 255 
0 0 255 
0 0 254 
0 0 255 
0 0 252 
0 0 254 
0 0 255 
0 0 252 
0 0 255 
0 0 252 
0 0 254 
0 0 254 
0 0 255 
0 0 255 
0 0 254 
0 0 255 
0 0 255 
0 0 253 
0 0 254 
0 0 254 
0 0 253 
0 0 254 
0 0 254 
0 0 255 
0 0 255 
0 0 250 
0 0 255 
0 0 252 
0 0 253 
0 0 254 
0 0 255 
0 0 254 
0 0 255 
0 0 255 
0 0 252 
0 0 253 
0 0 255 
0 0 252 
0 0 253 
0 0 254 
0 0 252 
0 0 253 
0 0 253 
0 0 254 
0 0 254 
0 0 252 
0 0 253 
0 0 253 
0 0 249 
0 0 249 
0 0 253 
0 0 252 
0 0 250 
0 0 254 
0 0 250 
0 0 254 
0 0 254 
0 0 252 
0 0 252 
0 0 250 
0 0 253 
0 0 254 
0 0 255 
0 0 250 
0 0 252 
0 0 250 
0 0 252 
0 0 253 
0 0 250 
0 0 249 
0 0 249 
0 0 246 
0 0 252 
0 0 249 
0 0 253 
0 0 250 
0 0 252 
0 0 246 
0 0 250 
0 0 252 
0 0 248 
0 0 244 
0 0 242 
0 0 245 
0 0 249 
0 0 249 
0 0 250 
0 0 252 
0 0 248 
0 0 255 
0 0 249 
0 0 250 
0 0 252 
0 0 253 
0 0 245 
0 0 254 
0 0 249 
0 0 248 
0 0 253 
0 0 238 
0 0 252 
0 0 245 
0 0 250 
0 0 244 
0 0 249 
0 0 237 
0 0 244 
0 0 249 
0 0 248 
0 0 242 
0 0 245 
0 0 245 
0 0 244 
0 0 241 
0 0 242 
0 0 244 
0 0 244 
0 0 231 
0 0 249 
0 0 244 
0 0 252 
0 0 237 
0 0 242 
0 0 236 
0 0 248 
0 0 240 
0 0 244 
0 0 234 
0 0 230 
0 0 238 
0 0 244 
0 0 238 
0 0 245 
0 0 248 
0 0 244 
0 0 234 
0 0 227 
0 0 240 
0 0 237 
0 0 234 
0 0 234 
0 0 233 
0 0 217 
0 0 236 
0 0 230 
0 0 242 
0 0 226 
0 0 223 
0 0 223 
0 0 221 
0 0 231 
0 0 220 
0 0 230 
0 0 215 
0 0 217 
0 0 220 
0 0 224 
0 0 226 
0 0 209 
0 0 209 
0 0 217 
0 0 214 
0 0 211 
0 0 203 
0 0 212 
0 0 206 
0 0 196 
0 0 191 
0 0 191 
0 0 189 
0 0 196 
0 0 184 
0 0 181 
0 0 182 
0 0 186 
61 63 186 
221 230 249 
231 241 255 
231 241 255 
231 241 255 
231 241 255 
231 241 255 
231 241 255 
231 241 255 
231 241 255 
231 241 255 
231 241 255 
231 241 255 
231 241 255 
229 235 249 
178 54 57 
166 0 0 
175 0 0 
178 0 0 
173 0 0 
169 0 0 
186 0 0 
182 0 0 
185 0 0 
182 0 0 
190 0 0 
190 0 0 
191 0 0 
195 0 0 
189 0 0 
194 0 0 
189 0 0 
191 0 0 
199 0 0 
202 0 0 
202 0 0 
201 0 0 
202 0 0 
208 0 0 
197 0 0 
209 0 0 
212 0 0 
198 0 0 
205 0 0 
198 0 0 
207 0 0 
191 0 0 
212 0 0 
211 0 0 
208 0 0 
203 0 0 
206 0 0 
214 0 0 
202 0 0 
205 0 0 
220 0 0 
219 0 0 
209 0 0 
214 0 0 
212 0 0 
210 0 0 
217 0 0 
216 0 0 
217 0 0 
208 0 0 
210 0 0 
215 0 0 
215 0 0 
214 0 0 
214 0 0 
215 0 0 
218 0 0 
212 0 0 
224 0 0 
215 0 0 
223 0 0 
224 0 0 
219 0 0 
215 0 0 
214 0 0 
212 0 0 
219 0 0 
221 0 0 
211 0 0 
217 0 0 
221 0 0 
222 0 0 
218 0 0 
217 0 0 
221 0 0 
215 0 0 
220 0 0 
217 0 0 
221 0 0 
221 0 0 
218 0 0 
221 0 0 
224 0 0 
220 0 0 
221 0 0 
220 0 0 
218 0 0 
217 0 0 
228 0 0 
214 0 0 
223 0 0 
219 0 0 
221 0 0 
223 0 0 
224 0 0 
225 0 0 
216 0 0 
219 0 0 
223 0 0 
220 0 0 
220 0 0 
218 0 0 
219 0 0 
220 0 0 
218 0 0 
221 0 0 
215 0 0 
220 0 0 
224 0 0 
221 0 0 
221 0 0 
223 0 0 
220 0 0 
223 0 0 
220 0 0 
223 0 0 
219 0 0 
220 0 0 
218 0 0 
221 0 0 
224 0 0 
225 0 0 
217 0 0 
222 0 0 
223 0 0 
225 0 0 
222 0 0 
225 0 0 
223 0 0 
221 0 0 
225 0 0 
225 0 0 
223 0 0 
220 0 0 
221 0 0 
226 0 0 
219 0 0 
225 0 0 
225 0 0 
222 0 0 
225 0 0 
225 0 0 
225 0 0 
227 0 0 
224 0 0 
223 0 0 
223 0 0 
224 0 0 
221 0 0 
225 0 0 
223 0 0 
224 0 0 
221 0 0 
223 0 0 
221 0 0 
223 0 0 
224 0 0 
225 0 0 
222 0 0 
227 0 0 
226 0 0 
222 0 0 
220 0 0 
220 0 0 
224 0 0 
225 0 0 
227 0 0 
223 0 0 
223 0 0 
223 0 0 
222 0 0 
222 0 0 
223 0 0 
222 0 0 
223 0 0 
225 0 0 
224 0 0 
224 0 0 
223 0 0 
231 0 0 
227 0 0 
224 0 0 
224 0 0 
224 0 0 
225 0 0 
218 0 0 
222 0 0 
226 0 0 
226 0 0 
224 0 0 
224 0 0 
227 0 0 
220 0 0 
0 0 255 
0 0 254 
0 0 255 
0 0 253 
0 0 255 
0 0 255 
0 0 255 
0 0 255 
0 0 255 
0 0 255 
0 0 255 
0 0 254 
0 0 255 
0 0 255 
0 0 255 
0 0 253 
0 0 255 
0 0 255 
0 0 255 
0 0 254 
0 0 255 
0 0 255 
0 0 255 
0 0 253 
0 0 255 
0 0 253 
0 0 255 
0 0 255 
0 0 254 
0 0 250 
0 0 255 
0 0 254 
0 0 253 
0 0 254 
0 0 254 
0 0 255 
0 0 255 
0 0 253 
0 0 254 
0 0 255 
0 0 255 
0 0 253 
0 0 254 
0 0 255 
0 0 254 
0 0 254 
0 0 255 
0 0 252 
0 0 254 
0 0 255 
0 0 255 
0 0 254 
0 0 249 
0 0 249 
0 0 254 
0 0 255 
0 0 246 
0 0 253 
0 0 254 
0 0 255 
0 0 254 
0 0 253 
0 0 254 
0 0 253 
0 0 253 
0 0 254 
0 0 254 
0 0 253 
0 0 254 
0 0 254 
0 0 253 
0 0 254 
0 0 254 
0 0 253 
0 0 249 
0 0 255 
0 0 250 
0 0 248 
0 0 254 
0 0 253 
0 0 252 
0 0 254 
0 0 252 
0 0 252 
0 0 253 
0 0 254 
0 0 252 
0 0 254 
0 0 252 
0 0 250 
0 0 246 
0 0 246 
0 0 254 
0 0 245 
0 0 254 
0 0 250 
0 0 250 
0 0 250 
0 0 249 
0 0 246 
0 0 248 
0 0 250 
0 0 252 
0 0 252 
0 0 248 
0 0 250 
0 0 249 
0 0 248 
0 0 250 
0 0 246 
0 0 244 
0 0 252 
0 0 245 
0 0 249 
0 0 252 
0 0 241 
0 0 249 
0 0 248 
0 0 240 
0 0 248 
0 0 248 
0 0 248 
0 0 242 
0 0 246 
0 0 242 
0 0 246 
0 0 246 
0 0 248 
0 0 241 
0 0 242 
0 0 242 
0 0 250 
0 0 241 
0 0 250 
0 0 248 
0 0 248 
0 0 242 
0 0 242 
0 0 240 
0 0 240 
0 0 241 
0 0 245 
0 0 241 
0 0 244 
0 0 237 
0 0 237 
0 0 242 
0 0 242 
0 0 234 
0 0 237 
0 0 230 
0 0 240 
0 0 231 
0 0 227 
0 0 238 
0 0 237 
0 0 238 
0 0 231 
0 0 231 
0 0 238 
0 0 228 
0 0 234 
0 0 228 
0 0 226 
0 0 218 
0 0 233 
0 0 223 
0 0 227 
0 0 220 
0 0 207 
0 0 234 
0 0 231 
0 0 220 
0 0 217 
0 0 221 
0 0 215 
0 0 223 
0 0 221 
0 0 214 
0 0 215 
0 0 220 
0 0 188 
0 0 217 
0 0 203 
0 0 201 
0 0 191 
0 0 181 
0 0 173 
0 0 184 
0 0 182 
0 0 181 
0 0 179 
157 164 217 
232 241 255 
232 241 255 
232 241 255 
232 241 255 
232 241 255 
232 241 255 
232 241 255 
232 241 255 
232 241 255 
232 241 255 
232 241 255 
232 241 255 
232 241 255 
232 241 255 
207 165 175 
177 0 0 
188 0 0 
175 0 0 
184 0 0 
198 0 0 
188 0 0 
176 0 0 
177 0 0 
190 0 0 
190 0 0 
190 0 0 
195 0 0 
198 0 0 
186 0 0 
200 0 0 
189 0 0 
202 0 0 
195 0 0 
205 0 0 
207 0 0 
207 0 0 
198 0 0 
214 0 0 
207 0 0 
215 0 0 
212 0 0 
199 0 0 
206 0 0 
201 0 0 
207 0 0 
211 0 0 
215 0 0 
202 0 0 
215 0 0 
203 0 0 
208 0 0 
208 0 0 
214 0 0 
211 0 0 
209 0 0 
203 0 0 
210 0 0 
211 0 0 
216 0 0 
216 0 0 
214 0 0 
206 0 0 
218 0 0 
211 0 0 
215 0 0 
222 0 0 
210 0 0 
216 0 0 
213 0 0 
218 0 0 
213 0 0 
219 0 0 
216 0 0 
220 0 0 
214 0 0 
222 0 0 
213 0 0 
214 0 0 
216 0 0 
218 0 0 
222 0 0 
221 0 0 
214 0 0 
212 0 0 
222 0 0 
220 0 0 
216 0 0 
224 0 0 
222 0 0 
223 0 0 
218 0 0 
221 0 0 
223 0 0 
223 0 0 
217 0 0 
219 0 0 
222 0 0 
223 0 0 
218 0 0 
220 0 0 
216 0 0 
221 0 0 
218 0 0 
218 0 0 
217 0 0 
223 0 0 
220 0 0 
223 0 0 
217 0 0 
222 0 0 
222 0 0 
224 0 0 
220 0 0 
223 0 0 
222 0 0 
227 0 0 
220 0 0 
222 0 0 
219 0 0 
223 0 0 
221 0 0 
225 0 0 
221 0 0 
218 0 0 
225 0 0 
220 0 0 
221 0 0 
213 0 0 
221 0 0 
223 0 0 
219 0 0 
223 0 0 
221 0 0 
221 0 0 
223 0 0 
220 0 0 
224 0 0 
221 0 0 
223 0 0 
224 0 0 
223 0 0 
225 0 0 
220 0 0 
226 0 0 
225 0 0 
225 0 0 
225 0 0 
217 0 0 
220 0 0 
218 0 0 
225 0 0 
219 0 0 
224 0 0 
224 0 0 
222 0 0 
226 0 0 
223 0 0 
225 0 0 
223 0 0 
225 0 0 
224 0 0 
226 0 0 
223 0 0 
223 0 0 
223 0 0 
220 0 0 
223 0 0 
223 0 0 
225 0 0 
221 0 0 
221 0 0 
225 0 0 
228 0 0 
223 0 0 
229 0 0 
225 0 0 
223 0 0 
225 0 0 
224 0 0 
224 0 0 
225 0 0 
221 0 0 
225 0 0 
228 0 0 
227 0 0 
221 0 0 
225 0 0 
224 0 0 
222 0 0 
224 0 0 
220 0 0 
226 0 0 
226 0 0 
222 0 0 
222 0 0 
222 0 0 
226 0 0 
221 0 0 
223 0 0 
229 0 0 
223 0 0 
224 0 0 
222 0 0 
226 0 0 
222 0 0 
223 0 0 
224 0 0 
0 0 255 
0 0 253 
0 0 255 
0 0 255 
0 0 254 
0 0 255 
0 0 254 
0 0 254 
0 0 254 
0 0 254 
0 0 255 
0 0 254 
0 0 255 
0 0 255 
0 0 253 
0 0 255 
0 0 255 
0 0 255 
0 0 255 
0 0 254 
0 0 255 
0 0 254 
0 0 253 
0 0 255 
0 0 254 
0 0 253 
0 0 254 
0 0 254 
0 0 255 
0 0 255 
0 0 255 
0 0 255 
0 0 254 
0 0 254 
0 0 254 
0 0 255 
0 0 254 
0 0 255 
0 0 255 
0 0 253 
0 0 253 
0 0 254 
0 0 255 
0 0 254 
0 0 254 
0 0 255 
0 0 255 
0 0 255 
0 0 254 
0 0 255 
0 0 250 
0 0 253 
0 0 252 
0 0 250 
0 0 250 
0 0 254 
0 0 254 
0 0 252 
0 0 255 
0 0 253 
0 0 253 
0 0 255 
0 0 250 
0 0 252 
0 0 252 
0 0 253 
0 0 252 
0 0 255 
0 0 253 
0 0 252 
0 0 253 
0 0 253 
0 0 254 
0 0 252 
0 0 252 
0 0 253 
0 0 255 
0 0 253 
0 0 252 
0 0 250 
0 0 253 
0 0 253 
0 0 253 
0 0 254 
0 0 248 
0 0 250 
0 0 252 
0 0 252 
0 0 254 
0 0 254 
0 0 252 
0 0 250 
0 0 252 
0 0 248 
0 0 250 
0 0 250 
0 0 252 
0 0 250 
0 0 254 
0 0 252 
0 0 249 
0 0 246 
0 0 245 
0 0 250 
0 0 252 
0 0 250 
0 0 246 
0 0 238 
0 0 246 
0 0 252 
0 0 246 
0 0 244 
0 0 249 
0 0 248 
0 0 246 
0 0 250 
0 0 248 
0 0 246 
0 0 246 
0 0 246 
0 0 240 
0 0 242 
0 0 246 
0 0 250 
0 0 250 
0 0 244 
0 0 245 
0 0 248 
0 0 253 
0 0 246 
0 0 249 
0 0 240 
0 0 249 
0 0 241 
0 0 244 
0 0 238 
0 0 245 
0 0 245 
0 0 245 
0 0 242 
0 0 240 
0 0 240 
0 0 237 
0 0 244 
0 0 244 
0 0 238 
0 0 234 
0 0 234 
0 0 228 
0 0 230 
0 0 241 
0 0 244 
0 0 240 
0 0 238 
0 0 231 
0 0 221 
0 0 236 
0 0 228 
0 0 226 
0 0 236 
0 0 221 
0 0 233 
0 0 224 
0 0 233 
0 0 233 
0 0 231 
0 0 224 
0 0 227 
0 0 207 
0 0 224 
0 0 215 
0 0 224 
0 0 221 
0 0 207 
0 0 211 
0 0 211 
0 0 217 
0 0 214 
0 0 211 
0 0 215 
0 0 203 
0 0 206 
0 0 212 
0 0 198 
0 0 204 
0 0 193 
0 0 189 
0 0 173 
0 0 184 
0 0 199 
0 0 173 
51 54 194 
214 223 248 
232 242 255 
232 242 255 
232 242 255 
232 242 255 
232 242 255 
232 242 255 
232 242 255 
232 242 255 
232 242 255 
232 242 255 
232 242 255 
232 242 255 
232 242 255 
232 242 255 
226 230 244 
179 24 25 
175 0 0 
179 0 0 
179 0 0 
169 0 0 
180 0 0 
174 0 0 
180 0 0 
199 0 0 
192 0 0 
184 0 0 
190 0 0 
192 0 0 
195 0 0 
202 0 0 
199 0 0 
196 0 0 
189 0 0 
184 0 0 
200 0 0 
199 0 0 
208 0 0 
212 0 0 
193 0 0 
210 0 0 
204 0 0 
197 0 0 
203 0 0 
203 0 0 
208 0 0 
208 0 0 
212 0 0 
213 0 0 
210 0 0 
204 0 0 
201 0 0 
213 0 0 
207 0 0 
210 0 0 
206 0 0 
217 0 0 
216 0 0 
213 0 0 
208 0 0 
212 0 0 
212 0 0 
204 0 0 
213 0 0 
214 0 0 
207 0 0 
215 0 0 
218 0 0 
217 0 0 
213 0 0 
215 0 0 
220 0 0 
217 0 0 
210 0 0 
214 0 0 
217 0 0 
217 0 0 
217 0 0 
214 0 0 
218 0 0 
217 0 0 
217 0 0 
217 0 0 
213 0 0 
214 0 0 
218 0 0 
222 0 0 
217 0 0 
213 0 0 
219 0 0 
219 0 0 
219 0 0 
221 0 0 
219 0 0 
219 0 0 
215 0 0 
219 0 0 
218 0 0 
219 0 0 
226 0 0 
220 0 0 
212 0 0 
220 0 0 
217 0 0 
219 0 0 
214 0 0 
218 0 0 
222 0 0 
221 0 0 
222 0 0 
217 0 0 
219 0 0 
219 0 0 
219 0 0 
224 0 0 
220 0 0 
220 0 0 
225 0 0 
221 0 0 
220 0 0 
223 0 0 
224 0 0 
225 0 0 
221 0 0 
226 0 0 
221 0 0 
224 0 0 
221 0 0 
224 0 0 
221 0 0 
221 0 0 
225 0 0 
219 0 0 
227 0 0 
219 0 0 
222 0 0 
218 0 0 
222 0 0 
223 0 0 
220 0 0 
219 0 0 
224 0 0 
228 0 0 
220 0 0 
219 0 0 
224 0 0 
222 0 0 
221 0 0 
223 0 0 
227 0 0 
226 0 0 
223 0 0 
222 0 0 
221 0 0 
224 0 0 
222 0 0 
224 0 0 
222 0 0 
221 0 0 
223 0 0 
226 0 0 
223 0 0 
224 0 0 
223 0 0 
225 0 0 
224 0 0 
224 0 0 
221 0 0 
222 0 0 
223 0 0 
223 0 0 
223 0 0 
222 0 0 
225 0 0 
223 0 0 
226 0 0 
223 0 0 
225 0 0 
225 0 0 
222 0 0 
227 0 0 
225 0 0 
223 0 0 
226 0 0 
224 0 0 
224 0 0 
223 0 0 
224 0 0 
223 0 0 
223 0 0 
224 0 0 
221 0 0 
222 0 0 
224 0 0 
224 0 0 
224 0 0 
225 0 0 
225 0 0 
223 0 0 
226 0 0 
224 0 0 
226 0 0 
223 0 0 
223 0 0 
220 0 0 
222 0 0 
224 0 0 
226 0 0 
0 0 254 
0 0 254 
0 0 254 
0 0 255 
0 0 255 
0 0 255 
0 0 255 
0 0 255 
0 0 253 
0 0 255 
0 0 255 
0 0 255 
0 0 255 
0 0 255 
0 0 253 
0 0 252 
0 0 255 
0 0 254 
0 0 255 
0 0 254 
0 0 255 
0 0 254 
0 0 255 
0 0 250 
0 0 254 
0 0 252 
0 0 255 
0 0 253 
0 0 254 
0 0 254 
0 0 254 
0 0 253 
0 0 255 
0 0 255 
0 0 254 
0 0 249 
0 0 252 
0 0 254 
0 0 254 
0 0 255 
0 0 253 
0 0 255 
0 0 255 
0 0 253 
0 0 252 
0 0 254 
0 0 254 
0 0 254 
0 0 254 
0 0 254 
0 0 255 
0 0 254 
0 0 253 
0 0 254 
0 0 252 
0 0 254 
0 0 249 
0 0 253 
0 0 252 
0 0 255 
0 0 253 
0 0 253 
0 0 253 
0 0 255 
0 0 253 
0 0 254 
0 0 252 
0 0 249 
0 0 248 
0 0 248 
0 0 254 
0 0 253 
0 0 255 
0 0 254 
0 0 253 
0 0 255 
0 0 253 
0 0 253 
0 0 250 
0 0 249 
0 0 248 
0 0 255 
0 0 246 
0 0 249 
0 0 252 
0 0 252 
0 0 252 
0 0 252 
0 0 252 
0 0 254 
0 0 253 
0 0 252 
0 0 250 
0 0 250 
0 0 253 
0 0 253 
0 0 248 
0 0 252 
0 0 252 
0 0 245 
0 0 248 
0 0 253 
0 0 253 
0 0 252 
0 0 246 
0 0 248 
0 0 252 
0 0 248 
0 0 248 
0 0 242 
0 0 248 
0 0 241 
0 0 249 
0 0 245 
0 0 252 
0 0 244 
0 0 242 
0 0 249 
0 0 244 
0 0 245 
0 0 242 
0 0 249 
0 0 242 
0 0 240 
0 0 246 
0 0 248 
0 0 245 
0 0 246 
0 0 250 
0 0 244 
0 0 248 
0 0 249 
0 0 249 
0 0 246 
0 0 240 
0 0 241 
0 0 237 
0 0 242 
0 0 241 
0 0 245 
0 0 246 
0 0 238 
0 0 238 
0 0 240 
0 0 244 
0 0 233 
0 0 236 
0 0 237 
0 0 240 
0 0 231 
0 0 237 
0 0 241 
0 0 236 
0 0 238 
0 0 223 
0 0 242 
0 0 236 
0 0 228 
0 0 226 
0 0 231 
0 0 237 
0 0 233 
0 0 234 
0 0 231 
0 0 227 
0 0 226 
0 0 212 
0 0 230 
0 0 237 
0 0 220 
0 0 220 
0 0 223 
0 0 226 
0 0 215 
0 0 204 
0 0 226 
0 0 204 
0 0 217 
0 0 207 
0 0 217 
0 0 207 
0 0 191 
0 0 220 
0 0 201 
0 0 203 
0 0 198 
0 0 193 
0 0 193 
0 0 182 
0 0 191 
0 0 171 
143 149 212 
232 242 255 
232 242 255 
232 242 255 
232 242 255 
232 242 255 
232 242 255 
232 242 255 
232 242 255 
232 242 255 
232 242 255 
232 242 255 
232 242 255 
232 242 255 
232 242 255 
232 242 255 
232 242 255 
187 145 153 
180 0 0 
201 0 0 
160 0 0 
174 0 0 
184 0 0 
173 0 0 
183 0 0 
193 0 0 
187 0 0 
195 0 0 
194 0 0 
192 0 0 
193 0 0 
200 0 0 
194 0 0 
204 0 0 
200 0 0 
214 0 0 
201 0 0 
201 0 0 
199 0 0 
198 0 0 
209 0 0 
197 0 0 
210 0 0 
210 0 0 
217 0 0 
200 0 0 
203 0 0 
206 0 0 
210 0 0 
212 0 0 
207 0 0 
207 0 0 
214 0 0 
202 0 0 
216 0 0 
208 0 0 
206 0 0 
214 0 0 
206 0 0 
209 0 0 
206 0 0 
215 0 0 
210 0 0 
214 0 0 
216 0 0 
218 0 0 
217 0 0 
210 0 0 
217 0 0 
215 0 0 
215 0 0 
213 0 0 
215 0 0 
211 0 0 
220 0 0 
219 0 0 
215 0 0 
219 0 0 
215 0 0 
219 0 0 
218 0 0 
225 0 0 
216 0 0 
220 0 0 
218 0 0 
223 0 0 
220 0 0 
219 0 0 
218 0 0 
216 0 0 
221 0 0 
219 0 0 
219 0 0 
219 0 0 
217 0 0 
225 0 0 
219 0 0 
224 0 0 
222 0 0 
221 0 0 
220 0 0 
220 0 0 
222 0 0 
221 0 0 
222 0 0 
217 0 0 
216 0 0 
223 0 0 
216 0 0 
220 0 0 
221 0 0 
220 0 0 
224 0 0 
220 0 0 
226 0 0 
216 0 0 
226 0 0 
222 0 0 
216 0 0 
219 0 0 
216 0 0 
223 0 0 
219 0 0 
227 0 0 
223 0 0 
225 0 0 
221 0 0 
222 0 0 
221 0 0 
221 0 0 
223 0 0 
222 0 0 
222 0 0 
219 0 0 
227 0 0 
220 0 0 
221 0 0 
226 0 0 
218 0 0 
224 0 0 
221 0 0 
224 0 0 
221 0 0 
222 0 0 
219 0 0 
221 0 0 
223 0 0 
223 0 0 
225 0 0 
218 0 0 
224 0 0 
225 0 0 
221 0 0 
225 0 0 
226 0 0 
222 0 0 
223 0 0 
223 0 0 
226 0 0 
225 0 0 
220 0 0 
222 0 0 
225 0 0 
219 0 0 
228 0 0 
222 0 0 
221 0 0 
223 0 0 
219 0 0 
222 0 0 
229 0 0 
222 0 0 
223 0 0 
226 0 0 
220 0 0 
222 0 0 
225 0 0 
221 0 0 
226 0 0 
227 0 0 
225 0 0 
223 0 0 
224 0 0 
221 0 0 
224 0 0 
221 0 0 
223 0 0 
224 0 0 
220 0 0 
222 0 0 
226 0 0 
226 0 0 
228 0 0 
226 0 0 
225 0 0 
230 0 0 
224 0 0 
226 0 0 
225 0 0 
223 0 0 
225 0 0 
223 0 0 
226 0 0 
221 0 0 
226 0 0 
225 0 0 
227 0 0 
224 0 0 
225 0 0 
0 0 255 
0 0 255 
0 0 255 
0 0 255 
0 0 255 
0 0 255 
0 0 254 
0 0 255 
0 0 254 
0 0 254 
0 0 253 
0 0 255 
0 0 254 
0 0 255 
0 0 255 
0 0 254 
0 0 253 
0 0 254 
0 0 255 
0 0 253 
0 0 254 
0 0 255 
0 0 255 
0 0 254 
0 0 255 
0 0 255 
0 0 253 
0 0 255 
0 0 254 
0 0 254 
0 0 255 
0 0 255 
0 0 255 
0 0 255 
0 0 255 
0 0 254 
0 0 254 
0 0 252 
0 0 255 
0 0 254 
0 0 255 
0 0 253 
0 0 253 
0 0 254 
0 0 254 
0 0 250 
0 0 252 
0 0 255 
0 0 255 
0 0 253 
0 0 254 
0 0 255 
0 0 255 
0 0 255 
0 0 254 
0 0 254 
0 0 254 
0 0 253 
0 0 252 
0 0 253 
0 0 254 
0 0 250 
0 0 253 
0 0 254 
0 0 249 
0 0 254 
0 0 250 
0 0 253 
0 0 250 
0 0 255 
0 0 253 
0 0 252 
0 0 252 
0 0 250 
0 0 253 
0 0 253 
0 0 253 
0 0 253 
0 0 252 
0 0 249 
0 0 248 
0 0 249 
0 0 254 
0 0 253 
0 0 250 
0 0 252 
0 0 245 
0 0 250 
0 0 248 
0 0 253 
0 0 253 
0 0 245 
0 0 249 
0 0 241 
0 0 252 
0 0 250 
0 0 252 
0 0 252 
0 0 248 
0 0 252 
0 0 249 
0 0 245 
0 0 245 
0 0 245 
0 0 250 
0 0 248 
0 0 249 
0 0 254 
0 0 245 
0 0 252 
0 0 246 
0 0 250 
0 0 248 
0 0 248 
0 0 245 
0 0 246 
0 0 245 
0 0 246 
0 0 248 
0 0 242 
0 0 245 
0 0 250 
0 0 250 
0 0 242 
0 0 244 
0 0 249 
0 0 238 
0 0 252 
0 0 242 
0 0 246 
0 0 241 
0 0 249 
0 0 240 
0 0 245 
0 0 236 
0 0 246 
0 0 246 
0 0 249 
0 0 240 
0 0 238 
0 0 248 
0 0 244 
0 0 242 
0 0 241 
0 0 234 
0 0 236 
0 0 238 
0 0 236 
0 0 241 
0 0 242 
0 0 234 
0 0 230 
0 0 241 
0 0 240 
0 0 228 
0 0 234 
0 0 234 
0 0 242 
0 0 237 
0 0 223 
0 0 236 
0 0 241 
0 0 223 
0 0 226 
0 0 226 
0 0 236 
0 0 223 
0 0 217 
0 0 227 
0 0 221 
0 0 218 
0 0 230 
0 0 220 
0 0 207 
0 0 231 
0 0 220 
0 0 218 
0 0 215 
0 0 214 
0 0 215 
0 0 223 
0 0 204 
0 0 203 
0 0 193 
0 0 186 
0 0 209 
0 0 194 
0 0 201 
0 0 182 
0 0 173 
0 0 194 
217 226 246 
232 242 255 
232 242 255 
232 242 255 
232 242 255 
232 242 255 
232 242 255 
232 242 255 
232 242 255 
232 242 255 
232 242 255 
232 242 255 
232 242 255 
232 242 255 
232 242 255 
232 242 255 
232 242 255 
225 224 237 
166 0 0 
191 0 0 
177 0 0 
188 0 0 
176 0 0 
199 0 0 
180 0 0 
189 0 0 
186 0 0 
189 0 0 
196 0 0 
190 0 0 
208 0 0 
192 0 0 
184 0 0 
202 0 0 
200 0 0 
197 0 0 
207 0 0 
195 0 0 
199 0 0 
196 0 0 
202 0 0 
208 0 0 
196 0 0 
197 0 0 
204 0 0 
207 0 0 
212 0 0 
208 0 0 
211 0 0 
204 0 0 
208 0 0 
205 0 0 
209 0 0 
208 0 0 
211 0 0 
209 0 0 
206 0 0 
213 0 0 
215 0 0 
215 0 0 
209 0 0 
210 0 0 
212 0 0 
210 0 0 
219 0 0 
212 0 0 
220 0 0 
216 0 0 
207 0 0 
208 0 0 
215 0 0 
210 0 0 
214 0 0 
212 0 0 
216 0 0 
215 0 0 
219 0 0 
219 0 0 
224 0 0 
220 0 0 
215 0 0 
218 0 0 
217 0 0 
224 0 0 
215 0 0 
222 0 0 
223 0 0 
217 0 0 
219 0 0 
220 0 0 
217 0 0 
222 0 0 
218 0 0 
214 0 0 
225 0 0 
225 0 0 
222 0 0 
220 0 0 
222 0 0 
218 0 0 
223 0 0 
218 0 0 
218 0 0 
224 0 0 
222 0 0 
225 0 0 
219 0 0 
222 0 0 
221 0 0 
217 0 0 
221 0 0 
221 0 0 
220 0 0 
219 0 0 
225 0 0 
221 0 0 
220 0 0 
224 0 0 
223 0 0 
222 0 0 
223 0 0 
219 0 0 
222 0 0 
220 0 0 
225 0 0 
221 0 0 
220 0 0 
220 0 0 
223 0 0 
223 0 0 
224 0 0 
222 0 0 
219 0 0 
220 0 0 
222 0 0 
222 0 0 
225 0 0 
226 0 0 
222 0 0 
221 0 0 
221 0 0 
223 0 0 
228 0 0 
222 0 0 
220 0 0 
220 0 0 
221 0 0 
218 0 0 
223 0 0 
218 0 0 
219 0 0 
221 0 0 
221 0 0 
223 0 0 
221 0 0 
225 0 0 
227 0 0 
226 0 0 
220 0 0 
226 0 0 
226 0 0 
226 0 0 
225 0 0 
220 0 0 
223 0 0 
222 0 0 
226 0 0 
223 0 0 
228 0 0 
227 0 0 
224 0 0 
223 0 0 
223 0 0 
224 0 0 
223 0 0 
223 0 0 
224 0 0 
224 0 0 
223 0 0 
229 0 0 
226 0 0 
226 0 0 
225 0 0 
223 0 0 
224 0 0 
225 0 0 
222 0 0 
226 0 0 
223 0 0 
222 0 0 
222 0 0 
222 0 0 
222 0 0 
224 0 0 
225 0 0 
225 0 0 
225 0 0 
225 0 0 
227 0 0 
225 0 0 
227 0 0 
223 0 0 
227 0 0 
222 0 0 
219 0 0 
228 0 0 
224 0 0 
225 0 0 
225 0 0 
0 0 255 
0 0 255 
0 0 255 
0 0 255 
0 0 255 
0 0 255 
0 0 254 
0 0 255 
0 0 253 
0 0 255 
0 0 255 
0 0 254 
0 0 255 
0 0 255 
0 0 254 
0 0 254 
0 0 255 
0 0 255 
0 0 253 
0 0 255 
0 0 254 
0 0 253 
0 0 255 
0 0 254 
0 0 254 
0 0 255 
0 0 255 
0 0 255 
0 0 255 
0 0 253 
0 0 255 
0 0 255 
0 0 254 
0 0 254 
0 0 255 
0 0 254 
0 0 254 
0 0 253 
0 0 255 
0 0 252 
0 0 253 
0 0 255 
0 0 255 
0 0 254 
0 0 255 
0 0 255 
0 0 255 
0 0 254 
0 0 253 
0 0 254 
0 0 253 
0 0 254 
0 0 253 
0 0 250 
0 0 255 
0 0 252 
0 0 253 
0 0 254 
0 0 254 
0 0 252 
0 0 252 
0 0 254 
0 0 255 
0 0 253 
0 0 253 
0 0 252 
0 0 252 
0 0 254 
0 0 255 
0 0 253 
0 0 249 
0 0 254 
0 0 253 
0 0 252 
0 0 254 
0 0 250 
0 0 245 
0 0 250 
0 0 253 
0 0 253 
0 0 250 
0 0 248 
0 0 253 
0 0 253 
0 0 248 
0 0 253 
0 0 252 
0 0 254 
0 0 254 
0 0 254 
0 0 254 
0 0 249 
0 0 253 
0 0 254 
0 0 250 
0 0 248 
0 0 248 
0 0 254 
0 0 252 
0 0 250 
0 0 250 
0 0 237 
0 0 252 
0 0 248 
0 0 253 
0 0 249 
0 0 246 
0 0 250 
0 0 250 
0 0 250 
0 0 248 
0 0 249 
0 0 248 
0 0 242 
0 0 249 
0 0 242 
0 0 246 
0 0 246 
0 0 245 
0 0 248 
0 0 242 
0 0 249 
0 0 250 
0 0 245 
0 0 241 
0 0 246 
0 0 246 
0 0 250 
0 0 248 
0 0 242 
0 0 248 
0 0 242 
0 0 242 
0 0 242 
0 0 246 
0 0 242 
0 0 246 
0 0 248 
0 0 244 
0 0 242 
0 0 220 
0 0 242 
0 0 242 
0 0 241 
0 0 240 
0 0 236 
0 0 238 
0 0 240 
0 0 242 
0 0 238 
0 0 237 
0 0 238 
0 0 238 
0 0 241 
0 0 234 
0 0 234 
0 0 234 
0 0 233 
0 0 234 
0 0 223 
0 0 244 
0 0 224 
0 0 238 
0 0 224 
0 0 228 
0 0 231 
0 0 226 
0 0 224 
0 0 230 
0 0 228 
0 0 223 
0 0 220 
0 0 237 
0 0 223 
0 0 218 
0 0 224 
0 0 212 
0 0 212 
0 0 209 
0 0 211 
0 0 201 
0 0 224 
0 0 194 
0 0 196 
0 0 196 
0 0 196 
0 0 188 
0 0 199 
0 0 189 
0 0 182 
145 151 218 
233 242 255 
233 242 255 
233 242 255 
233 242 255 
233 242 255 
233 242 255 
233 242 255 
233 242 255 
233 242 255 
233 242 255 
233 242 255 
233 242 255 
233 242 255 
233 242 255 
233 242 255 
233 242 255 
233 242 255 
233 242 255 
190 137 144 
192 0 0 
188 0 0 
185 0 0 
177 0 0 
195 0 0 
191 0 0 
166 0 0 
191 0 0 
181 0 0 
193 0 0 
192 0 0 
201 0 0 
202 0 0 
191 0 0 
196 0 0 
203 0 0 
197 0 0 
193 0 0 
201 0 0 
201 0 0 
197 0 0 
208 0 0 
211 0 0 
203 0 0 
217 0 0 
203 0 0 
195 0 0 
204 0 0 
207 0 0 
203 0 0 
216 0 0 
209 0 0 
204 0 0 
215 0 0 
207 0 0 
212 0 0 
209 0 0 
207 0 0 
209 0 0 
212 0 0 
210 0 0 
212 0 0 
215 0 0 
205 0 0 
211 0 0 
212 0 0 
217 0 0 
215 0 0 
218 0 0 
219 0 0 
209 0 0 
205 0 0 
220 0 0 
226 0 0 
213 0 0 
218 0 0 
216 0 0 
219 0 0 
215 0 0 
222 0 0 
214 0 0 
216 0 0 
223 0 0 
216 0 0 
219 0 0 
217 0 0 
214 0 0 
218 0 0 
224 0 0 
215 0 0 
219 0 0 
221 0 0 
214 0 0 
217 0 0 
224 0 0 
217 0 0 
224 0 0 
220 0 0 
217 0 0 
214 0 0 
219 0 0 
219 0 0 
224 0 0 
224 0 0 
218 0 0 
224 0 0 
220 0 0 
225 0 0 
226 0 0 
224 0 0 
222 0 0 
220 0 0 
222 0 0 
222 0 0 
223 0 0 
223 0 0 
225 0 0 
226 0 0 
221 0 0 
221 0 0 
225 0 0 
222 0 0 
223 0 0 
220 0 0 
221 0 0 
224 0 0 
219 0 0 
225 0 0 
222 0 0 
221 0 0 
226 0 0 
220 0 0 
225 0 0 
219 0 0 
220 0 0 
220 0 0 
224 0 0 
228 0 0 
222 0 0 
220 0 0 
217 0 0 
221 0 0 
223 0 0 
222 0 0 
224 0 0 
221 0 0 
221 0 0 
224 0 0 
220 0 0 
225 0 0 
221 0 0 
222 0 0 
221 0 0 
227 0 0 
225 0 0 
224 0 0 
222 0 0 
225 0 0 
224 0 0 
227 0 0 
224 0 0 
220 0 0 
222 0 0 
226 0 0 
223 0 0 
225 0 0 
222 0 0 
222 0 0 
228 0 0 
226 0 0 
227 0 0 
222 0 0 
227 0 0 
221 0 0 
223 0 0 
227 0 0 
225 0 0 
221 0 0 
229 0 0 
228 0 0 
227 0 0 
225 0 0 
227 0 0 
226 0 0 
224 0 0 
221 0 0 
224 0 0 
227 0 0 
222 0 0 
226 0 0 
226 0 0 
227 0 0 
223 0 0 
223 0 0 
225 0 0 
225 0 0 
223 0 0 
226 0 0 
223 0 0 
223 0 0 
225 0 0 
220 0 0 
224 0 0 
222 0 0 
218 0 0 
227 0 0 
225 0 0 
226 0 0 
225 0 0 
221 0 0 
0 0 255 
0 0 254 
0 0 254 
0 0 255 
0 0 255 
0 0 255 
0 0 255 
0 0 255 
0 0 253 
0 0 254 
0 0 255 
0 0 255 
0 0 255 
0 0 255 
0 0 255 
0 0 255 
0 0 255 
0 0 254 
0 0 255 
0 0 254 
0 0 254 
0 0 254 
0 0 255 
0 0 254 
0 0 253 
0 0 254 
0 0 253 
0 0 255 
0 0 254 
0 0 253 
0 0 255 
0 0 253 
0 0 255 
0 0 255 
0 0 254 
0 0 255 
0 0 252 
0 0 255 
0 0 253 
0 0 255 
0 0 255 
0 0 255 
0 0 250 
0 0 255 
0 0 253 
0 0 253 
0 0 253 
0 0 254 
0 0 249 
0 0 255 
0 0 254 
0 0 253 
0 0 255 
0 0 252 
0 0 252 
0 0 254 
0 0 253 
0 0 254 
0 0 255 
0 0 250 
0 0 252 
0 0 253 
0 0 253 
0 0 253 
0 0 253 
0 0 250 
0 0 253 
0 0 254 
0 0 249 
0 0 250 
0 0 252 
0 0 253 
0 0 254 
0 0 253 
0 0 250 
0 0 253 
0 0 255 
0 0 253 
0 0 255 
0 0 253 
0 0 252 
0 0 253 
0 0 252 
0 0 252 
0 0 253 
0 0 249 
0 0 255 
0 0 254 
0 0 249 
0 0 250 
0 0 249 
0 0 252 
0 0 253 
0 0 250 
0 0 249 
0 0 253 
0 0 248 
0 0 254 
0 0 249 
0 0 254 
0 0 248 
0 0 246 
0 0 253 
0 0 254 
0 0 250 
0 0 241 
0 0 254 
0 0 249 
0 0 249 
0 0 250 
0 0 249 
0 0 249 
0 0 246 
0 0 250 
0 0 248 
0 0 248 
0 0 252 
0 0 253 
0 0 250 
0 0 244 
0 0 252 
0 0 245 
0 0 249 
0 0 248 
0 0 244 
0 0 240 
0 0 244 
0 0 249 
0 0 236 
0 0 238 
0 0 246 
0 0 242 
0 0 246 
0 0 244 
0 0 244 
0 0 238 
0 0 237 
0 0 233 
0 0 237 
0 0 241 
0 0 240 
0 0 246 
0 0 248 
0 0 242 
0 0 233 
0 0 244 
0 0 236 
0 0 241 
0 0 248 
0 0 238 
0 0 236 
0 0 240 
0 0 231 
0 0 230 
0 0 237 
0 0 231 
0 0 228 
0 0 227 
0 0 238 
0 0 228 
0 0 227 
0 0 233 
0 0 236 
0 0 224 
0 0 236 
0 0 218 
0 0 228 
0 0 227 
0 0 223 
0 0 223 
0 0 230 
0 0 226 
0 0 224 
0 0 212 
0 0 203 
0 0 221 
0 0 206 
0 0 230 
0 0 206 
0 0 217 
0 0 206 
0 0 189 
0 0 212 
0 0 214 
0 0 209 
0 0 199 
0 0 184 
0 0 191 
0 0 189 
0 0 189 
217 226 252 
233 242 255 
233 242 255 
233 242 255 
233 242 255 
233 242 255 
233 242 255 
233 242 255 
233 242 255 
233 242 255 
233 242 255 
233 242 255 
233 242 255 
233 242 255 
233 242 255 
233 242 255 
233 242 255 
233 242 255 
233 242 255 
228 227 240 
182 0 0 
173 0 0 
190 0 0 
172 0 0 
177 0 0 
176 0 0 
200 0 0 
198 0 0 
189 0 0 
204 0 0 
197 0 0 
192 0 0 
209 0 0 
203 0 0 
199 0 0 
192 0 0 
193 0 0 
200 0 0 
188 0 0 
210 0 0 
206 0 0 
207 0 0 
214 0 0 
209 0 0 
199 0 0 
202 0 0 
204 0 0 
209 0 0 
217 0 0 
209 0 0 
213 0 0 
220 0 0 
217 0 0 
213 0 0 
209 0 0 
213 0 0 
211 0 0 
215 0 0 
215 0 0 
217 0 0 
204 0 0 
214 0 0 
209 0 0 
209 0 0 
211 0 0 
212 0 0 
219 0 0 
217 0 0 
217 0 0 
213 0 0 
216 0 0 
219 0 0 
205 0 0 
215 0 0 
211 0 0 
216 0 0 
213 0 0 
213 0 0 
215 0 0 
212 0 0 
213 0 0 
217 0 0 
223 0 0 
225 0 0 
222 0 0 
217 0 0 
212 0 0 
216 0 0 
224 0 0 
222 0 0 
223 0 0 
219 0 0 
221 0 0 
217 0 0 
223 0 0 
222 0 0 
217 0 0 
221 0 0 
221 0 0 
216 0 0 
220 0 0 
218 0 0 
220 0 0 
214 0 0 
216 0 0 
223 0 0 
217 0 0 
220 0 0 
213 0 0 
224 0 0 
224 0 0 
217 0 0 
220 0 0 
226 0 0 
221 0 0 
220 0 0 
225 0 0 
222 0 0 
223 0 0 
222 0 0 
222 0 0 
225 0 0 
220 0 0 
223 0 0 
224 0 0 
224 0 0 
225 0 0 
213 0 0 
222 0 0 
220 0 0 
227 0 0 
223 0 0 
227 0 0 
226 0 0 
221 0 0 
228 0 0 
220 0 0 
224 0 0 
222 0 0 
228 0 0 
224 0 0 
226 0 0 
220 0 0 
229 0 0 
222 0 0 
227 0 0 
221 0 0 
223 0 0 
224 0 0 
226 0 0 
221 0 0 
225 0 0 
223 0 0 
223 0 0 
226 0 0 
227 0 0 
225 0 0 
225 0 0 
221 0 0 
223 0 0 
227 0 0 
223 0 0 
228 0 0 
223 0 0 
224 0 0 
220 0 0 
220 0 0 
226 0 0 
224 0 0 
222 0 0 
221 0 0 
226 0 0 
224 0 0 
225 0 0 
225 0 0 
226 0 0 
223 0 0 
222 0 0 
226 0 0 
222 0 0 
226 0 0 
227 0 0 
225 0 0 
224 0 0 
222 0 0 
226 0 0 
221 0 0 
223 0 0 
222 0 0 
225 0 0 
226 0 0 
226 0 0 
222 0 0 
227 0 0 
223 0 0 
226 0 0 
225 0 0 
224 0 0 
225 0 0 
222 0 0 
224 0 0 
223 0 0 
225 0 0 
224 0 0 
228 0 0 
225 0 0 
225 0 0 
225 0 0 
222 0 0 
221 0 0 
0 0 255 
0 0 255 
0 0 253 
0 0 255 
0 0 254 
0 0 253 
0 0 255 
0 0 254 
0 0 255 
0 0 254 
0 0 254 
0 0 255 
0 0 255 
0 0 254 
0 0 255 
0 0 255 
0 0 255 
0 0 255 
0 0 254 
0 0 254 
0 0 254 
0 0 255 
0 0 252 
0 0 255 
0 0 255 
0 0 254 
0 0 254 
0 0 254 
0 0 255 
0 0 255 
0 0 254 
0 0 254 
0 0 255 
0 0 255 
0 0 253 
0 0 255 
0 0 252 
0 0 255 
0 0 255 
0 0 255 
0 0 255 
0 0 254 
0 0 253 
0 0 254 
0 0 252 
0 0 255 
0 0 255 
0 0 254 
0 0 255 
0 0 253 
0 0 253 
0 0 254 
0 0 254 
0 0 253 
0 0 254 
0 0 254 
0 0 250 
0 0 255 
0 0 255 
0 0 254 
0 0 255 
0 0 252 
0 0 253 
0 0 250 
0 0 252 
0 0 249 
0 0 253 
0 0 253 
0 0 252 
0 0 254 
0 0 250 
0 0 255 
0 0 254 
0 0 252 
0 0 253 
0 0 254 
0 0 254 
0 0 249 
0 0 253 
0 0 252 
0 0 252 
0 0 252 
0 0 253 
0 0 250 
0 0 249 
0 0 250 
0 0 248 
0 0 253 
0 0 254 
0 0 252 
0 0 249 
0 0 248 
0 0 250 
0 0 253 
0 0 252 
0 0 252 
0 0 249 
0 0 253 
0 0 248 
0 0 248 
0 0 253 
0 0 249 
0 0 244 
0 0 253 
0 0 248 
0 0 254 
0 0 254 
0 0 241 
0 0 250 
0 0 245 
0 0 242 
0 0 253 
0 0 246 
0 0 244 
0 0 250 
0 0 252 
0 0 248 
0 0 253 
0 0 252 
0 0 245 
0 0 252 
0 0 248 
0 0 248 
0 0 246 
0 0 249 
0 0 241 
0 0 245 
0 0 250 
0 0 246 
0 0 246 
0 0 246 
0 0 246 
0 0 246 
0 0 241 
0 0 245 
0 0 248 
0 0 244 
0 0 241 
0 0 242 
0 0 233 
0 0 248 
0 0 245 
0 0 238 
0 0 242 
0 0 244 
0 0 240 
0 0 244 
0 0 238 
0 0 238 
0 0 237 
0 0 240 
0 0 241 
0 0 233 
0 0 236 
0 0 236 
0 0 242 
0 0 233 
0 0 241 
0 0 228 
0 0 233 
0 0 234 
0 0 231 
0 0 228 
0 0 226 
0 0 230 
0 0 238 
0 0 218 
0 0 223 
0 0 224 
0 0 223 
0 0 228 
0 0 236 
0 0 226 
0 0 226 
0 0 214 
0 0 223 
0 0 228 
0 0 224 
0 0 218 
0 0 223 
0 0 204 
0 0 207 
0 0 217 
0 0 206 
0 0 214 
0 0 201 
0 0 199 
0 0 217 
0 0 186 
142 147 214 
233 242 255 
233 242 255 
233 242 255 
233 242 255 
233 242 255 
233 242 255 
233 242 255 
233 242 255 
233 242 255 
233 242 255 
233 242 255 
233 242 255 
233 242 255 
233 242 255 
233 242 255 
233 242 255 
233 242 255 
233 242 255 
233 242 255 
233 242 255 
202 159 167 
185 0 0 
186 0 0 
177 0 0 
185 0 0 
197 0 0 
187 0 0 
201 0 0 
192 0 0 
189 0 0 
205 0 0 
194 0 0 
198 0 0 
190 0 0 
202 0 0 
199 0 0 
196 0 0 
201 0 0 
194 0 0 
203 0 0 
206 0 0 
215 0 0 
209 0 0 
205 0 0 
209 0 0 
202 0 0 
212 0 0 
211 0 0 
218 0 0 
196 0 0 
210 0 0 
207 0 0 
219 0 0 
209 0 0 
210 0 0 
202 0 0 
211 0 0 
214 0 0 
216 0 0 
212 0 0 
206 0 0 
211 0 0 
209 0 0 
213 0 0 
216 0 0 
220 0 0 
213 0 0 
209 0 0 
216 0 0 
211 0 0 
212 0 0 
217 0 0 
209 0 0 
216 0 0 
210 0 0 
216 0 0 
219 0 0 
217 0 0 
217 0 0 
215 0 0 
220 0 0 
218 0 0 
219 0 0 
221 0 0 
215 0 0 
219 0 0 
218 0 0 
220 0 0 
217 0 0 
218 0 0 
218 0 0 
219 0 0 
215 0 0 
217 0 0 
221 0 0 
224 0 0 
216 0 0 
221 0 0 
213 0 0 
219 0 0 
224 0 0 
220 0 0 
217 0 0 
226 0 0 
222 0 0 
220 0 0 
221 0 0 
220 0 0 
216 0 0 
219 0 0 
221 0 0 
223 0 0 
224 0 0 
225 0 0 
218 0 0 
217 0 0 
222 0 0 
220 0 0 
219 0 0 
222 0 0 
220 0 0 
227 0 0 
223 0 0 
220 0 0 
223 0 0 
218 0 0 
222 0 0 
220 0 0 
223 0 0 
223 0 0 
222 0 0 
224 0 0 
226 0 0 
224 0 0 
227 0 0 
225 0 0 
217 0 0 
228 0 0 
224 0 0 
226 0 0 
225 0 0 
228 0 0 
224 0 0 
219 0 0 
227 0 0 
225 0 0 
226 0 0 
220 0 0 
220 0 0 
222 0 0 
224 0 0 
225 0 0 
224 0 0 
222 0 0 
221 0 0 
220 0 0 
226 0 0 
226 0 0 
222 0 0 
222 0 0 
223 0 0 
224 0 0 
219 0 0 
225 0 0 
225 0 0 
226 0 0 
227 0 0 
223 0 0 
225 0 0 
226 0 0 
223 0 0 
221 0 0 
226 0 0 
224 0 0 
226 0 0 
225 0 0 
228 0 0 
226 0 0 
227 0 0 
228 0 0 
224 0 0 
228 0 0 
221 0 0 
226 0 0 
225 0 0 
224 0 0 
224 0 0 
226 0 0 
228 0 0 
225 0 0 
223 0 0 
223 0 0 
226 0 0 
224 0 0 
223 0 0 
224 0 0 
226 0 0 
224 0 0 
227 0 0 
226 0 0 
228 0 0 
227 0 0 
227 0 0 
225 0 0 
224 0 0 
222 0 0 
226 0 0 
229 0 0 
223 0 0 
224 0 0 
0 0 255 
0 0 255 
0 0 254 
0 0 255 
0 0 255 
0 0 254 
0 0 254 
0 0 255 
0 0 254 
0 0 254 
0 0 255 
0 0 255 
0 0 255 
0 0 255 
0 0 255 
0 0 253 
0 0 255 
0 0 255 
0 0 255 
0 0 255 
0 0 255 
0 0 255 
0 0 254 
0 0 253 
0 0 255 
0 0 253 
0 0 255 
0 0 254 
0 0 253 
0 0 253 
0 0 255 
0 0 255 
0 0 254 
0 0 254 
0 0 253 
0 0 253 
0 0 255 
0 0 255 
0 0 250 
0 0 252 
0 0 255 
0 0 255 
0 0 254 
0 0 253 
0 0 255 
0 0 254 
0 0 255 
0 0 253 
0 0 254 
0 0 253 
0 0 253 
0 0 250 
0 0 254 
0 0 253 
0 0 254 
0 0 252 
0 0 254 
0 0 253 
0 0 254 
0 0 254 
0 0 249 
0 0 253 
0 0 253 
0 0 255 
0 0 252 
0 0 252 
0 0 250 
0 0 253 
0 0 254 
0 0 255 
0 0 252 
0 0 253 
0 0 253 
0 0 254 
0 0 253 
0 0 253 
0 0 250 
0 0 248 
0 0 252 
0 0 248 
0 0 255 
0 0 249 
0 0 252 
0 0 252 
0 0 248 
0 0 253 
0 0 250 
0 0 250 
0 0 252 
0 0 253 
0 0 252 
0 0 253 
0 0 250 
0 0 253 
0 0 253 
0 0 250 
0 0 253 
0 0 253 
0 0 252 
0 0 249 
0 0 252 
0 0 248 
0 0 253 
0 0 249 
0 0 246 
0 0 246 
0 0 245 
0 0 253 
0 0 250 
0 0 253 
0 0 248 
0 0 252 
0 0 245 
0 0 255 
0 0 250 
0 0 248 
0 0 249 
0 0 248 
0 0 252 
0 0 241 
0 0 244 
0 0 238 
0 0 250 
0 0 245 
0 0 245 
0 0 248 
0 0 249 
0 0 236 
0 0 240 
0 0 245 
0 0 244 
0 0 241 
0 0 241 
0 0 242 
0 0 250 
0 0 241 
0 0 240 
0 0 242 
0 0 241 
0 0 240 
0 0 242 
0 0 245 
0 0 236 
0 0 241 
0 0 241 
0 0 240 
0 0 244 
0 0 242 
0 0 245 
0 0 236 
0 0 241 
0 0 240 
0 0 241 
0 0 236 
0 0 237 
0 0 231 
0 0 233 
0 0 236 
0 0 227 
0 0 231 
0 0 236 
0 0 233 
0 0 231 
0 0 228 
0 0 236 
0 0 224 
0 0 228 
0 0 224 
0 0 231 
0 0 241 
0 0 217 
0 0 223 
0 0 220 
0 0 218 
0 0 227 
0 0 209 
0 0 209 
0 0 226 
0 0 212 
0 0 209 
0 0 211 
0 0 209 
0 0 204 
0 0 198 
0 0 215 
0 0 191 
0 0 204 
0 0 196 
40 42 191 
221 230 248 
233 243 255 
233 243 255 
233 243 255 
233 243 255 
234 243 255 
233 243 255 
234 243 255 
234 243 255 
234 243 255 
234 243 255 
234 243 255 
234 243 255 
234 243 255 
234 243 255 
234 243 255 
233 243 255 
233 243 255 
234 243 255 
233 243 255 
233 243 255 
226 227 240 
173 59 62 
164 0 0 
186 0 0 
186 0 0 
191 0 0 
187 0 0 
182 0 0 
195 0 0 
195 0 0 
205 0 0 
198 0 0 
204 0 0 
201 0 0 
202 0 0 
208 0 0 
199 0 0 
199 0 0 
208 0 0 
196 0 0 
210 0 0 
206 0 0 
207 0 0 
213 0 0 
219 0 0 
209 0 0 
216 0 0 
212 0 0 
207 0 0 
210 0 0 
200 0 0 
206 0 0 
215 0 0 
213 0 0 
202 0 0 
212 0 0 
211 0 0 
214 0 0 
210 0 0 
215 0 0 
214 0 0 
208 0 0 
208 0 0 
211 0 0 
213 0 0 
213 0 0 
213 0 0 
215 0 0 
218 0 0 
220 0 0 
220 0 0 
222 0 0 
220 0 0 
216 0 0 
222 0 0 
216 0 0 
211 0 0 
220 0 0 
217 0 0 
217 0 0 
221 0 0 
214 0 0 
224 0 0 
219 0 0 
223 0 0 
223 0 0 
215 0 0 
219 0 0 
211 0 0 
218 0 0 
220 0 0 
224 0 0 
218 0 0 
222 0 0 
224 0 0 
216 0 0 
219 0 0 
219 0 0 
223 0 0 
223 0 0 
219 0 0 
216 0 0 
225 0 0 
222 0 0 
225 0 0 
221 0 0 
224 0 0 
224 0 0 
220 0 0 
225 0 0 
223 0 0 
223 0 0 
225 0 0 
220 0 0 
218 0 0 
222 0 0 
217 0 0 
225 0 0 
225 0 0 
220 0 0 
227 0 0 
222 0 0 
222 0 0 
223 0 0 
227 0 0 
222 0 0 
221 0 0 
218 0 0 
223 0 0 
224 0 0 
222 0 0 
228 0 0 
217 0 0 
223 0 0 
222 0 0 
225 0 0 
218 0 0 
224 0 0 
228 0 0 
222 0 0 
224 0 0 
227 0 0 
221 0 0 
226 0 0 
223 0 0 
226 0 0 
219 0 0 
226 0 0 
222 0 0 
225 0 0 
221 0 0 
223 0 0 
228 0 0 
226 0 0 
222 0 0 
226 0 0 
224 0 0 
222 0 0 
223 0 0 
226 0 0 
223 0 0 
227 0 0 
224 0 0 
227 0 0 
225 0 0 
223 0 0 
219 0 0 
225 0 0 
224 0 0 
222 0 0 
226 0 0 
225 0 0 
220 0 0 
221 0 0 
223 0 0 
221 0 0 
224 0 0 
223 0 0 
222 0 0 
221 0 0 
224 0 0 
226 0 0 
224 0 0 
228 0 0 
226 0 0 
224 0 0 
220 0 0 
223 0 0 
224 0 0 
223 0 0 
226 0 0 
223 0 0 
220 0 0 
221 0 0 
225 0 0 
227 0 0 
225 0 0 
226 0 0 
225 0 0 
224 0 0 
224 0 0 
227 0 0 
224 0 0 
224 0 0 
225 0 0 
227 0 0 
225 0 0 
223 0 0 
225 0 0 
229 0 0 
0 0 255 
0 0 253 
0 0 255 
0 0 255 
0 0 254 
0 0 253 
0 0 254 
0 0 254 
0 0 254 
0 0 255 
0 0 255 
0 0 255 
0 0 255 
0 0 254 
0 0 253 
0 0 255 
0 0 253 
0 0 254 
0 0 254 
0 0 255 
0 0 255 
0 0 253 
0 0 254 
0 0 254 
0 0 255 
0 0 253 
0 0 254 
0 0 253 
0 0 255 
0 0 255 
0 0 255 
0 0 255 
0 0 255 
0 0 255 
0 0 255 
0 0 254 
0 0 254 
0 0 254 
0 0 253 
0 0 253 
0 0 255 
0 0 254 
0 0 253 
0 0 252 
0 0 254 
0 0 252 
0 0 255 
0 0 255 
0 0 254 
0 0 255 
0 0 253 
0 0 254 
0 0 255 
0 0 254 
0 0 254 
0 0 253 
0 0 249 
0 0 252 
0 0 249 
0 0 252 
0 0 250 
0 0 250 
0 0 253 
0 0 250 
0 0 250 
0 0 255 
0 0 249 
0 0 248 
0 0 250 
0 0 253 
0 0 252 
0 0 254 
0 0 250 
0 0 252 
0 0 252 
0 0 250 
0 0 255 
0 0 252 
0 0 255 
0 0 252 
0 0 253 
0 0 249 
0 0 254 
0 0 254 
0 0 253 
0 0 252 
0 0 252 
0 0 253 
0 0 249 
0 0 253 
0 0 250 
0 0 252 
0 0 248 
0 0 252 
0 0 252 
0 0 252 
0 0 250 
0 0 254 
0 0 246 
0 0 242 
0 0 252 
0 0 246 
0 0 242 
0 0 246 
0 0 248 
0 0 246 
0 0 244 
0 0 242 
0 0 254 
0 0 244 
0 0 249 
0 0 253 
0 0 244 
0 0 250 
0 0 249 
0 0 245 
0 0 242 
0 0 246 
0 0 248 
0 0 246 
0 0 249 
0 0 245 
0 0 244 
0 0 246 
0 0 242 
0 0 241 
0 0 237 
0 0 244 
0 0 246 
0 0 245 
0 0 244 
0 0 246 
0 0 246 
0 0 241 
0 0 241 
0 0 245 
0 0 242 
0 0 245 
0 0 237 
0 0 237 
0 0 242 
0 0 241 
0 0 245 
0 0 236 
0 0 237 
0 0 244 
0 0 228 
0 0 240 
0 0 231 
0 0 238 
0 0 231 
0 0 233 
0 0 245 
0 0 241 
0 0 233 
0 0 238 
0 0 242 
0 0 234 
0 0 245 
0 0 234 
0 0 240 
0 0 226 
0 0 228 
0 0 228 
0 0 234 
0 0 238 
0 0 221 
0 0 228 
0 0 226 
0 0 224 
0 0 220 
0 0 228 
0 0 212 
0 0 217 
0 0 214 
0 0 217 
0 0 227 
0 0 217 
0 0 223 
0 0 217 
0 0 220 
0 0 209 
0 0 207 
0 0 209 
0 0 188 
0 0 198 
0 0 203 
0 0 207 
181 188 241 
234 243 255 
234 243 255 
234 243 255 
234 243 255 
234 243 255 
234 243 255 
234 243 255 
234 243 255 
234 243 255 
234 243 255 
234 243 255 
234 243 255 
234 243 255 
234 243 255 
234 243 255 
234 243 255 
234 243 255 
234 243 255 
234 243 255 
234 243 255 
234 243 255 
234 243 255 
214 168 177 
185 0 0 
185 0 0 
182 0 0 
191 0 0 
190 0 0 
188 0 0 
186 0 0 
191 0 0 
195 0 0 
191 0 0 
199 0 0 
199 0 0 
198 0 0 
196 0 0 
203 0 0 
205 0 0 
207 0 0 
209 0 0 
213 0 0 
207 0 0 
200 0 0 
210 0 0 
205 0 0 
212 0 0 
205 0 0 
211 0 0 
213 0 0 
205 0 0 
205 0 0 
214 0 0 
215 0 0 
212 0 0 
208 0 0 
213 0 0 
209 0 0 
203 0 0 
213 0 0 
205 0 0 
209 0 0 
211 0 0 
215 0 0 
210 0 0 
208 0 0 
213 0 0 
215 0 0 
207 0 0 
219 0 0 
216 0 0 
218 0 0 
222 0 0 
209 0 0 
214 0 0 
214 0 0 
218 0 0 
216 0 0 
214 0 0 
217 0 0 
221 0 0 
207 0 0 
217 0 0 
217 0 0 
214 0 0 
225 0 0 
219 0 0 
225 0 0 
223 0 0 
221 0 0 
218 0 0 
223 0 0 
225 0 0 
223 0 0 
220 0 0 
220 0 0 
226 0 0 
221 0 0 
218 0 0 
222 0 0 
215 0 0 
219 0 0 
220 0 0 
223 0 0 
219 0 0 
217 0 0 
227 0 0 
216 0 0 
223 0 0 
221 0 0 
223 0 0 
224 0 0 
220 0 0 
223 0 0 
222 0 0 
219 0 0 
220 0 0 
222 0 0 
223 0 0 
222 0 0 
222 0 0 
222 0 0 
222 0 0 
221 0 0 
220 0 0 
224 0 0 
223 0 0 
221 0 0 
226 0 0 
229 0 0 
223 0 0 
219 0 0 
223 0 0 
225 0 0 
224 0 0 
227 0 0 
221 0 0 
218 0 0 
223 0 0 
221 0 0 
226 0 0 
222 0 0 
226 0 0 
220 0 0 
220 0 0 
225 0 0 
221 0 0 
221 0 0 
224 0 0 
224 0 0 
220 0 0 
227 0 0 
223 0 0 
218 0 0 
224 0 0 
221 0 0 
223 0 0 
225 0 0 
224 0 0 
226 0 0 
226 0 0 
226 0 0 
226 0 0 
227 0 0 
225 0 0 
225 0 0 
223 0 0 
228 0 0 
226 0 0 
222 0 0 
226 0 0 
222 0 0 
226 0 0 
222 0 0 
225 0 0 
225 0 0 
224 0 0 
221 0 0 
219 0 0 
227 0 0 
228 0 0 
226 0 0 
224 0 0 
225 0 0 
225 0 0 
230 0 0 
225 0 0 
227 0 0 
228 0 0 
226 0 0 
225 0 0 
225 0 0 
227 0 0 
223 0 0 
222 0 0 
223 0 0 
223 0 0 
224 0 0 
225 0 0 
228 0 0 
225 0 0 
226 0 0 
224 0 0 
227 0 0 
224 0 0 
225 0 0 
222 0 0 
222 0 0 
225 0 0 
222 0 0 
223 0 0 
0 0 254 
0 0 255 
0 0 254 
0 0 255 
0 0 255 
0 0 255 
0 0 255 
0 0 255 
0 0 255 
0 0 254 
0 0 254 
0 0 253 
0 0 255 
0 0 255 
0 0 255 
0 0 255 
0 0 255 
0 0 255 
0 0 254 
0 0 255 
0 0 255 
0 0 254 
0 0 254 
0 0 255 
0 0 254 
0 0 255 
0 0 253 
0 0 255 
0 0 255 
0 0 254 
0 0 254 
0 0 253 
0 0 254 
0 0 255 
0 0 254 
0 0 255 
0 0 255 
0 0 255 
0 0 252 
0 0 254 
0 0 255 
0 0 255 
0 0 255 
0 0 254 
0 0 250 
0 0 254 
0 0 255 
0 0 254 
0 0 255 
0 0 255 
0 0 254 
0 0 253 
0 0 253 
0 0 253 
0 0 250 
0 0 252 
0 0 252 
0 0 252 
0 0 253 
0 0 249 
0 0 252 
0 0 255 
0 0 252 
0 0 254 
0 0 253 
0 0 250 
0 0 253 
0 0 254 
0 0 252 
0 0 252 
0 0 253 
0 0 253 
0 0 253 
0 0 252 
0 0 249 
0 0 254 
0 0 254 
0 0 253 
0 0 253 
0 0 249 
0 0 252 
0 0 249 
0 0 254 
0 0 250 
0 0 245 
0 0 250 
0 0 252 
0 0 254 
0 0 253 
0 0 253 
0 0 252 
0 0 252 
0 0 253 
0 0 254 
0 0 254 
0 0 245 
0 0 250 
0 0 250 
0 0 250 
0 0 248 
0 0 244 
0 0 249 
0 0 253 
0 0 246 
0 0 242 
0 0 250 
0 0 248 
0 0 245 
0 0 252 
0 0 245 
0 0 245 
0 0 249 
0 0 248 
0 0 248 
0 0 246 
0 0 250 
0 0 240 
0 0 248 
0 0 241 
0 0 246 
0 0 238 
0 0 252 
0 0 246 
0 0 245 
0 0 248 
0 0 242 
0 0 245 
0 0 241 
0 0 244 
0 0 249 
0 0 244 
0 0 248 
0 0 240 
0 0 242 
0 0 248 
0 0 240 
0 0 248 
0 0 245 
0 0 246 
0 0 241 
0 0 242 
0 0 245 
0 0 245 
0 0 244 
0 0 244 
0 0 241 
0 0 241 
0 0 234 
0 0 241 
0 0 248 
0 0 238 
0 0 236 
0 0 238 
0 0 240 
0 0 233 
0 0 230 
0 0 242 
0 0 230 
0 0 240 
0 0 224 
0 0 237 
0 0 238 
0 0 241 
0 0 233 
0 0 228 
0 0 223 
0 0 238 
0 0 234 
0 0 224 
0 0 230 
0 0 233 
0 0 228 
0 0 231 
0 0 212 
0 0 218 
0 0 233 
0 0 206 
0 0 215 
0 0 220 
0 0 207 
0 0 214 
0 0 209 
0 0 209 
0 0 209 
0 0 215 
0 0 199 
0 0 204 
93 97 209 
233 242 255 
234 243 255 
234 243 255 
234 243 255 
234 243 255 
234 243 255 
234 243 255 
234 243 255 
234 243 255 
234 243 255 
234 243 255 
234 243 255 
234 243 255 
234 243 255 
234 243 255 
234 243 255 
234 243 255 
234 243 255 
234 243 255 
234 243 255 
234 243 255 
234 243 255 
234 243 255 
233 239 252 
202 73 76 
194 0 0 
195 0 0 
170 0 0 
190 0 0 
200 0 0 
193 0 0 
190 0 0 
207 0 0 
204 0 0 
209 0 0 
193 0 0 
205 0 0 
203 0 0 
207 0 0 
187 0 0 
204 0 0 
206 0 0 
205 0 0 
200 0 0 
202 0 0 
205 0 0 
204 0 0 
203 0 0 
215 0 0 
205 0 0 
208 0 0 
205 0 0 
203 0 0 
204 0 0 
203 0 0 
207 0 0 
208 0 0 
206 0 0 
224 0 0 
214 0 0 
211 0 0 
212 0 0 
211 0 0 
213 0 0 
215 0 0 
219 0 0 
219 0 0 
212 0 0 
216 0 0 
219 0 0 
224 0 0 
216 0 0 
221 0 0 
219 0 0 
217 0 0 
220 0 0 
217 0 0 
219 0 0 
222 0 0 
220 0 0 
223 0 0 
219 0 0 
218 0 0 
224 0 0 
219 0 0 
219 0 0 
220 0 0 
221 0 0 
220 0 0 
222 0 0 
222 0 0 
224 0 0 
223 0 0 
221 0 0 
223 0 0 
219 0 0 
211 0 0 
221 0 0 
217 0 0 
223 0 0 
225 0 0 
221 0 0 
221 0 0 
217 0 0 
218 0 0 
220 0 0 
225 0 0 
219 0 0 
219 0 0 
220 0 0 
223 0 0 
223 0 0 
223 0 0 
221 0 0 
224 0 0 
219 0 0 
228 0 0 
223 0 0 
220 0 0 
223 0 0 
220 0 0 
222 0 0 
221 0 0 
224 0 0 
221 0 0 
223 0 0 
227 0 0 
224 0 0 
220 0 0 
217 0 0 
221 0 0 
216 0 0 
226 0 0 
225 0 0 
225 0 0 
223 0 0 
218 0 0 
220 0 0 
225 0 0 
224 0 0 
225 0 0 
227 0 0 
225 0 0 
224 0 0 
227 0 0 
222 0 0 
224 0 0 
223 0 0 
227 0 0 
227 0 0 
224 0 0 
226 0 0 
220 0 0 
221 0 0 
223 0 0 
224 0 0 
228 0 0 
220 0 0 
227 0 0 
218 0 0 
223 0 0 
227 0 0 
227 0 0 
226 0 0 
226 0 0 
227 0 0 
225 0 0 
223 0 0 
227 0 0 
226 0 0 
224 0 0 
221 0 0 
223 0 0 
226 0 0 
224 0 0 
222 0 0 
227 0 0 
226 0 0 
225 0 0 
225 0 0 
225 0 0 
225 0 0 
227 0 0 
225 0 0 
224 0 0 
227 0 0 
223 0 0 
221 0 0 
226 0 0 
226 0 0 
227 0 0 
226 0 0 
225 0 0 
227 0 0 
225 0 0 
224 0 0 
224 0 0 
230 0 0 
222 0 0 
221 0 0 
226 0 0 
226 0 0 
229 0 0 
224 0 0 
229 0 0 
226 0 0 
227 0 0 
226 0 0 
221 0 0 
228 0 0 
228 0 0 
225 0 0 
0 0 254 
0 0 255 
0 0 254 
0 0 254 
0 0 255 
0 0 255 
0 0 253 
0 0 255 
0 0 255 
0 0 254 
0 0 255 
0 0 255 
0 0 253 
0 0 255 
0 0 255 
0 0 253 
0 0 255 
0 0 253 
0 0 254 
0 0 255 
0 0 255 
0 0 255 
0 0 254 
0 0 255 
0 0 255 
0 0 254 
0 0 255 
0 0 255 
0 0 253 
0 0 253 
0 0 255 
0 0 253 
0 0 252 
0 0 252 
0 0 253 
0 0 254 
0 0 255 
0 0 254 
0 0 252 
0 0 255 
0 0 255 
0 0 252 
0 0 253 
0 0 254 
0 0 255 
0 0 252 
0 0 253 
0 0 254 
0 0 255 
0 0 255 
0 0 255 
0 0 254 
0 0 249 
0 0 253 
0 0 252 
0 0 255 
0 0 254 
0 0 254 
0 0 254 
0 0 254 
0 0 253 
0 0 252 
0 0 253 
0 0 253 
0 0 249 
0 0 253 
0 0 253 
0 0 250 
0 0 254 
0 0 250 
0 0 254 
0 0 250 
0 0 253 
0 0 253 
0 0 254 
0 0 255 
0 0 250 
0 0 253 
0 0 252 
0 0 249 
0 0 249 
0 0 252 
0 0 249 
0 0 254 
0 0 253 
0 0 254 
0 0 250 
0 0 252 
0 0 249 
0 0 249 
0 0 249 
0 0 252 
0 0 252 
0 0 252 
0 0 253 
0 0 246 
0 0 250 
0 0 248 
0 0 246 
0 0 249 
0 0 244 
0 0 248 
0 0 250 
0 0 252 
0 0 249 
0 0 246 
0 0 250 
0 0 248 
0 0 252 
0 0 246 
0 0 249 
0 0 252 
0 0 253 
0 0 250 
0 0 246 
0 0 245 
0 0 246 
0 0 248 
0 0 252 
0 0 245 
0 0 248 
0 0 248 
0 0 252 
0 0 240 
0 0 245 
0 0 245 
0 0 245 
0 0 245 
0 0 246 
0 0 238 
0 0 245 
0 0 248 
0 0 244 
0 0 242 
0 0 242 
0 0 245 
0 0 236 
0 0 244 
0 0 240 
0 0 250 
0 0 245 
0 0 244 
0 0 236 
0 0 245 
0 0 241 
0 0 245 
0 0 242 
0 0 238 
0 0 234 
0 0 240 
0 0 241 
0 0 224 
0 0 233 
0 0 236 
0 0 241 
0 0 233 
0 0 241 
0 0 242 
0 0 231 
0 0 226 
0 0 238 
0 0 234 
0 0 237 
0 0 233 
0 0 227 
0 0 231 
0 0 231 
0 0 226 
0 0 231 
0 0 221 
0 0 223 
0 0 227 
0 0 224 
0 0 223 
0 0 211 
0 0 215 
0 0 212 
0 0 209 
0 0 214 
0 0 217 
0 0 218 
0 0 217 
0 0 203 
0 0 201 
0 0 211 
0 0 198 
0 0 196 
181 188 237 
234 243 255 
234 243 255 
234 243 255 
234 243 255 
234 243 255 
234 243 255 
234 243 255 
234 243 255 
234 243 255 
234 243 255 
234 243 255 
234 243 255 
234 243 255 
234 243 255 
234 243 255 
234 243 255 
234 243 255 
234 243 255 
234 243 255 
234 243 255 
234 243 255 
234 243 255 
234 243 255 
234 243 255 
227 205 215 
196 0 0 
186 0 0 
201 0 0 
199 0 0 
183 0 0 
186 0 0 
185 0 0 
192 0 0 
203 0 0 
208 0 0 
202 0 0 
204 0 0 
203 0 0 
209 0 0 
196 0 0 
206 0 0 
200 0 0 
213 0 0 
201 0 0 
211 0 0 
202 0 0 
219 0 0 
212 0 0 
207 0 0 
210 0 0 
208 0 0 
208 0 0 
213 0 0 
208 0 0 
211 0 0 
212 0 0 
213 0 0 
217 0 0 
220 0 0 
212 0 0 
217 0 0 
212 0 0 
216 0 0 
215 0 0 
215 0 0 
217 0 0 
216 0 0 
211 0 0 
220 0 0 
218 0 0 
214 0 0 
215 0 0 
213 0 0 
211 0 0 
212 0 0 
213 0 0 
223 0 0 
219 0 0 
218 0 0 
220 0 0 
219 0 0 
219 0 0 
213 0 0 
218 0 0 
214 0 0 
221 0 0 
209 0 0 
218 0 0 
220 0 0 
215 0 0 
223 0 0 
220 0 0 
218 0 0 
218 0 0 
219 0 0 
220 0 0 
213 0 0 
225 0 0 
217 0 0 
222 0 0 
220 0 0 
220 0 0 
221 0 0 
225 0 0 
223 0 0 
221 0 0 
221 0 0 
219 0 0 
226 0 0 
226 0 0 
222 0 0 
224 0 0 
222 0 0 
222 0 0 
222 0 0 
225 0 0 
228 0 0 
220 0 0 
227 0 0 
223 0 0 
222 0 0 
221 0 0 
223 0 0 
222 0 0 
222 0 0 
225 0 0 
223 0 0 
222 0 0 
224 0 0 
222 0 0 
226 0 0 
223 0 0 
226 0 0 
224 0 0 
227 0 0 
223 0 0 
223 0 0 
223 0 0 
222 0 0 
226 0 0 
225 0 0 
222 0 0 
223 0 0 
224 0 0 
227 0 0 
226 0 0 
222 0 0 
223 0 0 
227 0 0 
223 0 0 
225 0 0 
223 0 0 
227 0 0 
222 0 0 
223 0 0 
223 0 0 
224 0 0 
225 0 0 
221 0 0 
226 0 0 
222 0 0 
225 0 0 
223 0 0 
223 0 0 
227 0 0 
229 0 0 
223 0 0 
226 0 0 
222 0 0 
226 0 0 
225 0 0 
229 0 0 
225 0 0 
224 0 0 
221 0 0 
225 0 0 
228 0 0 
222 0 0 
224 0 0 
226 0 0 
226 0 0 
225 0 0 
224 0 0 
227 0 0 
226 0 0 
225 0 0 
224 0 0 
227 0 0 
224 0 0 
221 0 0 
223 0 0 
224 0 0 
224 0 0 
226 0 0 
227 0 0 
221 0 0 
226 0 0 
228 0 0 
222 0 0 
224 0 0 
223 0 0 
223 0 0 
224 0 0 
228 0 0 
224 0 0 
222 0 0 
229 0 0 
222 0 0 
222 0 0 
226 0 0 
225 0 0 
224 0 0 
0 0 255 
0 0 255 
0 0 255 
0 0 254 
0 0 255 
0 0 255 
0 0 255 
0 0 254 
0 0 255 
0 0 255 
0 0 255 
0 0 255 
0 0 255 
0 0 254 
0 0 254 
0 0 254 
0 0 254 
0 0 253 
0 0 255 
0 0 254 
0 0 255 
0 0 255 
0 0 254 
0 0 252 
0 0 254 
0 0 254 
0 0 254 
0 0 255 
0 0 255 
0 0 255 
0 0 254 
0 0 255 
0 0 255 
0 0 255 
0 0 254 
0 0 255 
0 0 250 
0 0 254 
0 0 255 
0 0 255 
0 0 255 
0 0 252 
0 0 255 
0 0 255 
0 0 253 
0 0 254 
0 0 253 
0 0 255 
0 0 255 
0 0 253 
0 0 254 
0 0 252 
0 0 252 
0 0 254 
0 0 255 
0 0 254 
0 0 255 
0 0 252 
0 0 253 
0 0 252 
0 0 254 
0 0 255 
0 0 254 
0 0 254 
0 0 254 
0 0 253 
0 0 252 
0 0 253 
0 0 250 
0 0 253 
0 0 252 
0 0 252 
0 0 255 
0 0 252 
0 0 250 
0 0 250 
0 0 252 
0 0 253 
0 0 255 
0 0 252 
0 0 254 
0 0 249 
0 0 254 
0 0 250 
0 0 249 
0 0 254 
0 0 255 
0 0 253 
0 0 253 
0 0 248 
0 0 252 
0 0 254 
0 0 250 
0 0 254 
0 0 248 
0 0 249 
0 0 250 
0 0 249 
0 0 252 
0 0 246 
0 0 245 
0 0 252 
0 0 252 
0 0 250 
0 0 253 
0 0 246 
0 0 253 
0 0 246 
0 0 253 
0 0 246 
0 0 252 
0 0 250 
0 0 248 
0 0 245 
0 0 244 
0 0 249 
0 0 250 
0 0 250 
0 0 246 
0 0 249 
0 0 254 
0 0 245 
0 0 248 
0 0 248 
0 0 252 
0 0 241 
0 0 246 
0 0 242 
0 0 244 
0 0 242 
0 0 250 
0 0 249 
0 0 241 
0 0 242 
0 0 245 
0 0 238 
0 0 245 
0 0 242 
0 0 244 
0 0 244 
0 0 242 
0 0 244 
0 0 248 
0 0 240 
0 0 236 
0 0 242 
0 0 244 
0 0 240 
0 0 230 
0 0 248 
0 0 240 
0 0 240 
0 0 241 
0 0 236 
0 0 233 
0 0 238 
0 0 241 
0 0 234 
0 0 237 
0 0 236 
0 0 240 
0 0 236 
0 0 242 
0 0 240 
0 0 227 
0 0 227 
0 0 236 
0 0 224 
0 0 226 
0 0 221 
0 0 227 
0 0 217 
0 0 220 
0 0 226 
0 0 218 
0 0 204 
0 0 223 
0 0 220 
0 0 214 
0 0 214 
0 0 217 
0 0 217 
0 0 215 
0 0 207 
0 0 212 
0 0 188 
119 124 223 
234 243 255 
234 243 255 
234 243 255 
234 243 255 
235 243 255 
234 243 255 
235 243 255 
234 243 255 
235 243 255 
235 243 255 
235 243 255 
235 243 255 
235 243 255 
235 243 255 
235 243 255 
235 243 255 
235 243 255 
235 243 255 
235 243 255 
235 243 255 
234 243 255 
234 243 255 
234 243 255 
234 243 255 
234 243 255 
234 243 255 
206 135 142 
194 0 0 
192 0 0 
195 0 0 
193 0 0 
187 0 0 
201 0 0 
195 0 0 
200 0 0 
192 0 0 
191 0 0 
204 0 0 
198 0 0 
209 0 0 
204 0 0 
198 0 0 
195 0 0 
207 0 0 
205 0 0 
211 0 0 
208 0 0 
209 0 0 
212 0 0 
206 0 0 
204 0 0 
218 0 0 
215 0 0 
202 0 0 
215 0 0 
208 0 0 
211 0 0 
209 0 0 
210 0 0 
215 0 0 
210 0 0 
204 0 0 
218 0 0 
219 0 0 
218 0 0 
224 0 0 
224 0 0 
217 0 0 
212 0 0 
219 0 0 
214 0 0 
215 0 0 
218 0 0 
207 0 0 
221 0 0 
219 0 0 
217 0 0 
214 0 0 
215 0 0 
221 0 0 
225 0 0 
219 0 0 
221 0 0 
223 0 0 
218 0 0 
222 0 0 
218 0 0 
222 0 0 
218 0 0 
217 0 0 
217 0 0 
218 0 0 
228 0 0 
222 0 0 
219 0 0 
214 0 0 
222 0 0 
224 0 0 
218 0 0 
224 0 0 
224 0 0 
219 0 0 
223 0 0 
224 0 0 
216 0 0 
223 0 0 
218 0 0 
220 0 0 
221 0 0 
223 0 0 
221 0 0 
224 0 0 
224 0 0 
220 0 0 
225 0 0 
216 0 0 
224 0 0 
226 0 0 
222 0 0 
221 0 0 
222 0 0 
224 0 0 
222 0 0 
224 0 0 
223 0 0 
230 0 0 
225 0 0 
224 0 0 
228 0 0 
224 0 0 
223 0 0 
225 0 0 
225 0 0 
225 0 0 
223 0 0 
227 0 0 
226 0 0 
223 0 0 
221 0 0 
224 0 0 
225 0 0 
224 0 0 
222 0 0 
220 0 0 
227 0 0 
223 0 0 
219 0 0 
223 0 0 
226 0 0 
225 0 0 
225 0 0 
227 0 0 
228 0 0 
221 0 0 
225 0 0 
223 0 0 
225 0 0 
223 0 0 
225 0 0 
220 0 0 
227 0 0 
218 0 0 
224 0 0 
225 0 0 
222 0 0 
226 0 0 
227 0 0 
222 0 0 
226 0 0 
224 0 0 
223 0 0 
227 0 0 
223 0 0 
226 0 0 
223 0 0 
227 0 0 
229 0 0 
228 0 0 
224 0 0 
225 0 0 
229 0 0 
226 0 0 
227 0 0 
223 0 0 
227 0 0 
227 0 0 
224 0 0 
226 0 0 
228 0 0 
224 0 0 
223 0 0 
221 0 0 
221 0 0 
227 0 0 
221 0 0 
227 0 0 
223 0 0 
225 0 0 
226 0 0 
225 0 0 
226 0 0 
225 0 0 
222 0 0 
230 0 0 
225 0 0 
226 0 0 
226 0 0 
223 0 0 
226 0 0 
228 0 0 
228 0 0 
224 0 0 
227 0 0 
0 0 255 
0 0 255 
0 0 254 
0 0 254 
0 0 255 
0 0 255 
0 0 255 
0 0 254 
0 0 254 
0 0 254 
0 0 254 
0 0 255 
0 0 254 
0 0 254 
0 0 255 
0 0 255 
0 0 254 
0 0 255 
0 0 254 
0 0 255 
0 0 254 
0 0 254 
0 0 254 
0 0 255 
0 0 255 
0 0 255 
0 0 254 
0 0 250 
0 0 255 
0 0 254 
0 0 254 
0 0 254 
0 0 255 
0 0 254 
0 0 255 
0 0 252 
0 0 255 
0 0 255 
0 0 252 
0 0 250 
0 0 254 
0 0 252 
0 0 255 
0 0 254 
0 0 253 
0 0 255 
0 0 252 
0 0 255 
0 0 254 
0 0 255 
0 0 254 
0 0 254 
0 0 255 
0 0 254 
0 0 253 
0 0 253 
0 0 255 
0 0 254 
0 0 253 
0 0 253 
0 0 254 
0 0 255 
0 0 254 
0 0 253 
0 0 254 
0 0 253 
0 0 252 
0 0 250 
0 0 254 
0 0 254 
0 0 252 
0 0 253 
0 0 253 
0 0 254 
0 0 254 
0 0 250 
0 0 249 
0 0 253 
0 0 253 
0 0 246 
0 0 253 
0 0 252 
0 0 255 
0 0 252 
0 0 252 
0 0 255 
0 0 249 
0 0 254 
0 0 253 
0 0 248 
0 0 255 
0 0 252 
0 0 253 
0 0 252 
0 0 246 
0 0 250 
0 0 248 
0 0 254 
0 0 250 
0 0 250 
0 0 254 
0 0 252 
0 0 249 
0 0 246 
0 0 252 
0 0 253 
0 0 249 
0 0 246 
0 0 246 
0 0 246 
0 0 250 
0 0 248 
0 0 248 
0 0 249 
0 0 249 
0 0 253 
0 0 249 
0 0 242 
0 0 250 
0 0 246 
0 0 248 
0 0 245 
0 0 248 
0 0 238 
0 0 250 
0 0 244 
0 0 240 
0 0 249 
0 0 242 
0 0 242 
0 0 246 
0 0 244 
0 0 245 
0 0 241 
0 0 249 
0 0 241 
0 0 250 
0 0 245 
0 0 248 
0 0 246 
0 0 236 
0 0 242 
0 0 245 
0 0 237 
0 0 242 
0 0 241 
0 0 248 
0 0 240 
0 0 236 
0 0 241 
0 0 237 
0 0 238 
0 0 238 
0 0 240 
0 0 238 
0 0 237 
0 0 244 
0 0 238 
0 0 242 
0 0 231 
0 0 240 
0 0 231 
0 0 228 
0 0 234 
0 0 227 
0 0 234 
0 0 231 
0 0 214 
0 0 220 
0 0 233 
0 0 227 
0 0 218 
0 0 221 
0 0 224 
0 0 217 
0 0 217 
0 0 227 
0 0 211 
0 0 217 
0 0 221 
0 0 215 
0 0 220 
0 0 212 
0 0 211 
0 0 203 
23 24 212 
219 227 250 
235 243 255 
235 243 255 
235 243 255 
235 243 255 
235 243 255 
235 243 255 
235 243 255 
235 243 255 
235 243 255 
235 243 255 
235 243 255 
235 243 255 
235 243 255 
235 243 255 
235 243 255 
235 243 255 
235 243 255 
235 243 255 
235 243 255 
235 243 255 
235 243 255 
235 243 255 
235 243 255 
235 243 255 
235 243 255 
235 243 255 
229 218 228 
209 73 76 
186 0 0 
185 0 0 
178 0 0 
195 0 0 
197 0 0 
202 0 0 
207 0 0 
201 0 0 
200 0 0 
215 0 0 
199 0 0 
203 0 0 
199 0 0 
198 0 0 
209 0 0 
200 0 0 
216 0 0 
203 0 0 
209 0 0 
207 0 0 
204 0 0 
221 0 0 
208 0 0 
210 0 0 
202 0 0 
213 0 0 
211 0 0 
210 0 0 
211 0 0 
213 0 0 
209 0 0 
211 0 0 
213 0 0 
217 0 0 
212 0 0 
216 0 0 
212 0 0 
215 0 0 
211 0 0 
214 0 0 
219 0 0 
221 0 0 
218 0 0 
219 0 0 
218 0 0 
220 0 0 
223 0 0 
221 0 0 
219 0 0 
217 0 0 
217 0 0 
212 0 0 
217 0 0 
227 0 0 
223 0 0 
221 0 0 
219 0 0 
213 0 0 
213 0 0 
220 0 0 
223 0 0 
225 0 0 
223 0 0 
221 0 0 
215 0 0 
221 0 0 
217 0 0 
222 0 0 
221 0 0 
215 0 0 
223 0 0 
225 0 0 
227 0 0 
221 0 0 
222 0 0 
224 0 0 
221 0 0 
225 0 0 
224 0 0 
217 0 0 
222 0 0 
223 0 0 
225 0 0 
223 0 0 
227 0 0 
219 0 0 
224 0 0 
226 0 0 
223 0 0 
220 0 0 
220 0 0 
218 0 0 
219 0 0 
223 0 0 
225 0 0 
219 0 0 
226 0 0 
219 0 0 
226 0 0 
228 0 0 
224 0 0 
226 0 0 
221 0 0 
224 0 0 
225 0 0 
226 0 0 
228 0 0 
222 0 0 
225 0 0 
222 0 0 
222 0 0 
222 0 0 
225 0 0 
225 0 0 
224 0 0 
219 0 0 
221 0 0 
222 0 0 
224 0 0 
223 0 0 
225 0 0 
225 0 0 
224 0 0 
225 0 0 
223 0 0 
222 0 0 
222 0 0 
227 0 0 
222 0 0 
225 0 0 
226 0 0 
229 0 0 
225 0 0 
223 0 0 
225 0 0 
225 0 0 
223 0 0 
224 0 0 
225 0 0 
221 0 0 
228 0 0 
226 0 0 
224 0 0 
227 0 0 
224 0 0 
226 0 0 
226 0 0 
221 0 0 
226 0 0 
229 0 0 
230 0 0 
227 0 0 
227 0 0 
225 0 0 
223 0 0 
225 0 0 
227 0 0 
226 0 0 
227 0 0 
225 0 0 
224 0 0 
222 0 0 
226 0 0 
226 0 0 
223 0 0 
225 0 0 
226 0 0 
227 0 0 
225 0 0 
225 0 0 
225 0 0 
227 0 0 
226 0 0 
226 0 0 
224 0 0 
226 0 0 
228 0 0 
226 0 0 
226 0 0 
224 0 0 
228 0 0 
225 0 0 
226 0 0 
225 0 0 
229 0 0 
0 0 255 
0 0 254 
0 0 255 
0 0 255 
0 0 255 
0 0 254 
0 0 254 
0 0 254 
0 0 255 
0 0 255 
0 0 254 
0 0 255 
0 0 255 
0 0 255 
0 0 254 
0 0 254 
0 0 254 
0 0 255 
0 0 253 
0 0 254 
0 0 254 
0 0 254 
0 0 254 
0 0 255 
0 0 255 
0 0 252 
0 0 254 
0 0 253 
0 0 255 
0 0 255 
0 0 255 
0 0 255 
0 0 254 
0 0 255 
0 0 253 
0 0 255 
0 0 254 
0 0 254 
0 0 252 
0 0 252 
0 0 255 
0 0 255 
0 0 254 
0 0 254 
0 0 252 
0 0 253 
0 0 255 
0 0 254 
0 0 254 
0 0 252 
0 0 253 
0 0 253 
0 0 253 
0 0 252 
0 0 252 
0 0 254 
0 0 254 
0 0 254 
0 0 253 
0 0 254 
0 0 255 
0 0 254 
0 0 254 
0 0 253 
0 0 254 
0 0 252 
0 0 254 
0 0 250 
0 0 253 
0 0 252 
0 0 254 
0 0 254 
0 0 253 
0 0 252 
0 0 252 
0 0 252 
0 0 254 
0 0 255 
0 0 249 
0 0 252 
0 0 253 
0 0 253 
0 0 252 
0 0 253 
0 0 253 
0 0 249 
0 0 248 
0 0 253 
0 0 252 
0 0 250 
0 0 253 
0 0 254 
0 0 253 
0 0 254 
0 0 246 
0 0 244 
0 0 253 
0 0 254 
0 0 252 
0 0 246 
0 0 252 
0 0 252 
0 0 252 
0 0 253 
0 0 248 
0 0 248 
0 0 253 
0 0 252 
0 0 249 
0 0 244 
0 0 250 
0 0 248 
0 0 245 
0 0 248 
0 0 246 
0 0 246 
0 0 248 
0 0 246 
0 0 244 
0 0 246 
0 0 248 
0 0 252 
0 0 250 
0 0 250 
0 0 244 
0 0 248 
0 0 248 
0 0 250 
0 0 248 
0 0 241 
0 0 237 
0 0 246 
0 0 244 
0 0 238 
0 0 244 
0 0 246 
0 0 244 
0 0 240 
0 0 240 
0 0 250 
0 0 240 
0 0 245 
0 0 245 
0 0 237 
0 0 238 
0 0 246 
0 0 241 
0 0 246 
0 0 240 
0 0 230 
0 0 245 
0 0 240 
0 0 242 
0 0 244 
0 0 241 
0 0 231 
0 0 236 
0 0 241 
0 0 231 
0 0 238 
0 0 236 
0 0 228 
0 0 234 
0 0 230 
0 0 230 
0 0 221 
0 0 236 
0 0 240 
0 0 228 
0 0 217 
0 0 230 
0 0 224 
0 0 231 
0 0 231 
0 0 220 
0 0 209 
0 0 218 
0 0 220 
0 0 212 
0 0 215 
0 0 201 
0 0 218 
0 0 218 
0 0 207 
0 0 207 
182 188 237 
235 243 255 
235 243 255 
235 243 255 
235 243 255 
235 243 255 
235 243 255 
235 243 255 
235 243 255 
235 243 255 
235 243 255 
235 243 255 
235 243 255 
235 243 255 
235 243 255 
235 243 255 
235 243 255 
235 243 255 
235 243 255 
235 243 255 
235 243 255 
235 243 255 
235 243 255 
235 243 255 
235 243 255 
235 243 255 
235 243 255 
235 243 255 
235 243 255 
220 180 189 
198 0 0 
201 0 0 
199 0 0 
185 0 0 
213 0 0 
190 0 0 
199 0 0 
206 0 0 
210 0 0 
204 0 0 
197 0 0 
211 0 0 
207 0 0 
204 0 0 
202 0 0 
211 0 0 
207 0 0 
207 0 0 
209 0 0 
210 0 0 
209 0 0 
211 0 0 
219 0 0 
212 0 0 
214 0 0 
209 0 0 
212 0 0 
216 0 0 
223 0 0 
213 0 0 
213 0 0 
215 0 0 
209 0 0 
217 0 0 
221 0 0 
216 0 0 
211 0 0 
218 0 0 
217 0 0 
225 0 0 
216 0 0 
215 0 0 
217 0 0 
222 0 0 
220 0 0 
217 0 0 
214 0 0 
213 0 0 
213 0 0 
220 0 0 
216 0 0 
221 0 0 
221 0 0 
216 0 0 
221 0 0 
216 0 0 
217 0 0 
215 0 0 
222 0 0 
214 0 0 
219 0 0 
221 0 0 
221 0 0 
217 0 0 
219 0 0 
214 0 0 
222 0 0 
219 0 0 
221 0 0 
220 0 0 
221 0 0 
221 0 0 
220 0 0 
221 0 0 
221 0 0 
221 0 0 
223 0 0 
224 0 0 
225 0 0 
225 0 0 
223 0 0 
221 0 0 
225 0 0 
223 0 0 
219 0 0 
225 0 0 
224 0 0 
221 0 0 
222 0 0 
223 0 0 
223 0 0 
218 0 0 
221 0 0 
225 0 0 
225 0 0 
227 0 0 
221 0 0 
223 0 0 
225 0 0 
220 0 0 
225 0 0 
219 0 0 
226 0 0 
225 0 0 
227 0 0 
223 0 0 
225 0 0 
226 0 0 
219 0 0 
226 0 0 
227 0 0 
226 0 0 
224 0 0 
228 0 0 
220 0 0 
223 0 0 
221 0 0 
222 0 0 
226 0 0 
224 0 0 
222 0 0 
224 0 0 
224 0 0 
222 0 0 
219 0 0 
223 0 0 
226 0 0 
224 0 0 
228 0 0 
223 0 0 
224 0 0 
225 0 0 
225 0 0 
218 0 0 
229 0 0 
225 0 0 
223 0 0 
225 0 0 
222 0 0 
226 0 0 
224 0 0 
225 0 0 
225 0 0 
226 0 0 
224 0 0 
228 0 0 
224 0 0 
223 0 0 
226 0 0 
226 0 0 
228 0 0 
226 0 0 
225 0 0 
222 0 0 
225 0 0 
227 0 0 
225 0 0 
225 0 0 
228 0 0 
229 0 0 
228 0 0 
223 0 0 
227 0 0 
222 0 0 
225 0 0 
224 0 0 
227 0 0 
224 0 0 
220 0 0 
223 0 0 
219 0 0 
226 0 0 
224 0 0 
225 0 0 
227 0 0 
227 0 0 
226 0 0 
223 0 0 
227 0 0 
229 0 0 
230 0 0 
226 0 0 
227 0 0 
224 0 0 
227 0 0 
0 0 255 
0 0 255 
0 0 255 
0 0 254 
0 0 255 
0 0 254 
0 0 254 
0 0 255 
0 0 255 
0 0 254 
0 0 254 
0 0 254 
0 0 254 
0 0 254 
0 0 253 
0 0 254 
0 0 255 
0 0 255 
0 0 255 
0 0 254 
0 0 255 
0 0 253 
0 0 253 
0 0 252 
0 0 253 
0 0 254 
0 0 253 
0 0 255 
0 0 253 
0 0 255 
0 0 253 
0 0 254 
0 0 253 
0 0 253 
0 0 255 
0 0 253 
0 0 255 
0 0 255 
0 0 254 
0 0 255 
0 0 253 
0 0 252 
0 0 252 
0 0 252 
0 0 255 
0 0 254 
0 0 253 
0 0 253 
0 0 253 
0 0 253 
0 0 250 
0 0 255 
0 0 255 
0 0 253 
0 0 255 
0 0 252 
0 0 253 
0 0 252 
0 0 254 
0 0 253 
0 0 253 
0 0 250 
0 0 253 
0 0 253 
0 0 253 
0 0 254 
0 0 254 
0 0 254 
0 0 250 
0 0 250 
0 0 254 
0 0 254 
0 0 250 
0 0 252 
0 0 253 
0 0 252 
0 0 249 
0 0 250 
0 0 253 
0 0 252 
0 0 255 
0 0 250 
0 0 252 
0 0 253 
0 0 254 
0 0 253 
0 0 249 
0 0 250 
0 0 249 
0 0 250 
0 0 249 
0 0 248 
0 0 253 
0 0 249 
0 0 253 
0 0 253 
0 0 254 
0 0 254 
0 0 249 
0 0 249 
0 0 246 
0 0 248 
0 0 249 
0 0 249 
0 0 254 
0 0 245 
0 0 250 
0 0 252 
0 0 246 
0 0 244 
0 0 250 
0 0 249 
0 0 252 
0 0 252 
0 0 254 
0 0 248 
0 0 246 
0 0 252 
0 0 241 
0 0 245 
0 0 244 
0 0 244 
0 0 246 
0 0 245 
0 0 249 
0 0 241 
0 0 248 
0 0 244 
0 0 245 
0 0 246 
0 0 248 
0 0 242 
0 0 242 
0 0 252 
0 0 237 
0 0 245 
0 0 249 
0 0 245 
0 0 246 
0 0 244 
0 0 244 
0 0 244 
0 0 250 
0 0 242 
0 0 240 
0 0 242 
0 0 244 
0 0 234 
0 0 248 
0 0 231 
0 0 228 
0 0 231 
0 0 227 
0 0 236 
0 0 245 
0 0 236 
0 0 230 
0 0 230 
0 0 226 
0 0 224 
0 0 236 
0 0 231 
0 0 228 
0 0 244 
0 0 223 
0 0 231 
0 0 223 
0 0 231 
0 0 217 
0 0 228 
0 0 224 
0 0 223 
0 0 234 
0 0 227 
0 0 234 
0 0 221 
0 0 234 
0 0 207 
0 0 226 
0 0 206 
0 0 214 
0 0 201 
0 0 211 
0 0 215 
100 103 223 
234 242 255 
235 244 255 
235 244 255 
235 244 255 
235 244 255 
235 244 255 
235 244 255 
235 244 255 
235 244 255 
235 244 255 
235 244 255 
235 244 255 
235 244 255 
235 244 255 
235 244 255 
235 244 255 
235 244 255 
235 244 255 
235 244 255 
235 244 255 
235 244 255 
235 244 255 
235 244 255 
235 244 255 
235 244 255 
235 244 255 
235 244 255 
235 244 255 
235 244 255 
235 244 255 
206 109 114 
201 0 0 
206 0 0 
202 0 0 
192 0 0 
199 0 0 
211 0 0 
190 0 0 
201 0 0 
204 0 0 
213 0 0 
220 0 0 
200 0 0 
211 0 0 
198 0 0 
218 0 0 
209 0 0 
212 0 0 
209 0 0 
209 0 0 
207 0 0 
217 0 0 
212 0 0 
211 0 0 
219 0 0 
209 0 0 
214 0 0 
209 0 0 
218 0 0 
221 0 0 
209 0 0 
218 0 0 
215 0 0 
215 0 0 
214 0 0 
214 0 0 
211 0 0 
215 0 0 
214 0 0 
214 0 0 
219 0 0 
216 0 0 
222 0 0 
217 0 0 
219 0 0 
217 0 0 
219 0 0 
224 0 0 
213 0 0 
217 0 0 
214 0 0 
220 0 0 
219 0 0 
228 0 0 
221 0 0 
225 0 0 
211 0 0 
220 0 0 
218 0 0 
217 0 0 
221 0 0 
217 0 0 
220 0 0 
224 0 0 
219 0 0 
226 0 0 
217 0 0 
228 0 0 
221 0 0 
226 0 0 
221 0 0 
221 0 0 
221 0 0 
224 0 0 
220 0 0 
224 0 0 
220 0 0 
221 0 0 
222 0 0 
223 0 0 
220 0 0 
226 0 0 
217 0 0 
222 0 0 
224 0 0 
223 0 0 
226 0 0 
223 0 0 
221 0 0 
226 0 0 
220 0 0 
226 0 0 
223 0 0 
222 0 0 
216 0 0 
222 0 0 
222 0 0 
223 0 0 
223 0 0 
222 0 0 
218 0 0 
222 0 0 
228 0 0 
224 0 0 
225 0 0 
223 0 0 
225 0 0 
222 0 0 
223 0 0 
223 0 0 
227 0 0 
223 0 0 
223 0 0 
218 0 0 
221 0 0 
225 0 0 
227 0 0 
225 0 0 
224 0 0 
221 0 0 
221 0 0 
221 0 0 
226 0 0 
222 0 0 
224 0 0 
221 0 0 
226 0 0 
228 0 0 
228 0 0 
223 0 0 
227 0 0 
226 0 0 
226 0 0 
227 0 0 
223 0 0 
223 0 0 
223 0 0 
226 0 0 
226 0 0 
221 0 0 
223 0 0 
222 0 0 
225 0 0 
226 0 0 
221 0 0 
229 0 0 
224 0 0 
226 0 0 
225 0 0 
225 0 0 
225 0 0 
227 0 0 
226 0 0 
219 0 0 
229 0 0 
227 0 0 
227 0 0 
222 0 0 
223 0 0 
225 0 0 
226 0 0 
224 0 0 
225 0 0 
226 0 0 
227 0 0 
225 0 0 
227 0 0 
225 0 0 
222 0 0 
227 0 0 
228 0 0 
226 0 0 
224 0 0 
225 0 0 
224 0 0 
225 0 0 
226 0 0 
231 0 0 
227 0 0 
225 0 0 
221 0 0 
223 0 0 
225 0 0 
224 0 0 
225 0 0 
0 0 255 
0 0 254 
0 0 255 
0 0 253 
0 0 254 
0 0 253 
0 0 255 
0 0 255 
0 0 255 
0 0 255 
0 0 255 
0 0 255 
0 0 255 
0 0 253 
0 0 253 
0 0 254 
0 0 255 
0 0 254 
0 0 254 
0 0 255 
0 0 254 
0 0 255 
0 0 254 
0 0 253 
0 0 254 
0 0 255 
0 0 254 
0 0 253 
0 0 254 
0 0 252 
0 0 254 
0 0 252 
0 0 255 
0 0 255 
0 0 252 
0 0 255 
0 0 255 
0 0 255 
0 0 254 
0 0 254 
0 0 255 
0 0 255 
0 0 254 
0 0 253 
0 0 254 
0 0 254 
0 0 255 
0 0 254 
0 0 253 
0 0 255 
0 0 250 
0 0 254 
0 0 254 
0 0 252 
0 0 255 
0 0 253 
0 0 250 
0 0 254 
0 0 252 
0 0 254 
0 0 253 
0 0 250 
0 0 253 
0 0 250 
0 0 252 
0 0 252 
0 0 252 
0 0 253 
0 0 254 
0 0 250 
0 0 253 
0 0 254 
0 0 253 
0 0 252 
0 0 250 
0 0 253 
0 0 252 
0 0 252 
0 0 253 
0 0 249 
0 0 253 
0 0 249 
0 0 253 
0 0 253 
0 0 253 
0 0 254 
0 0 250 
0 0 252 
0 0 250 
0 0 254 
0 0 253 
0 0 250 
0 0 249 
0 0 249 
0 0 248 
0 0 252 
0 0 253 
0 0 252 
0 0 250 
0 0 250 
0 0 250 
0 0 250 
0 0 248 
0 0 246 
0 0 249 
0 0 250 
0 0 246 
0 0 249 
0 0 253 
0 0 248 
0 0 249 
0 0 241 
0 0 242 
0 0 249 
0 0 252 
0 0 250 
0 0 250 
0 0 242 
0 0 246 
0 0 248 
0 0 244 
0 0 246 
0 0 250 
0 0 249 
0 0 248 
0 0 248 
0 0 253 
0 0 250 
0 0 249 
0 0 240 
0 0 246 
0 0 245 
0 0 249 
0 0 240 
0 0 248 
0 0 241 
0 0 240 
0 0 244 
0 0 245 
0 0 241 
0 0 246 
0 0 242 
0 0 236 
0 0 246 
0 0 236 
0 0 245 
0 0 240 
0 0 238 
0 0 237 
0 0 248 
0 0 238 
0 0 244 
0 0 244 
0 0 234 
0 0 241 
0 0 241 
0 0 237 
0 0 226 
0 0 237 
0 0 237 
0 0 234 
0 0 240 
0 0 227 
0 0 226 
0 0 236 
0 0 227 
0 0 233 
0 0 223 
0 0 231 
0 0 230 
0 0 228 
0 0 234 
0 0 227 
0 0 226 
0 0 221 
0 0 228 
0 0 212 
0 0 228 
0 0 218 
0 0 224 
0 0 221 
0 0 211 
0 0 211 
33 34 207 
221 229 253 
235 244 255 
235 244 255 
235 244 255 
235 244 255 
235 244 255 
235 244 255 
235 244 255 
235 244 255 
235 244 255 
235 244 255 
235 244 255 
235 244 255 
235 244 255 
235 244 255 
235 244 255 
235 244 255 
236 244 255 
235 244 255 
235 244 255 
235 244 255 
235 244 255 
235 244 255 
235 244 255 
235 244 255 
235 244 255 
235 244 255 
235 244 255 
235 244 255 
235 244 255 
235 244 255 
229 218 228 
198 0 0 
193 0 0 
203 0 0 
193 0 0 
200 0 0 
203 0 0 
210 0 0 
204 0 0 
212 0 0 
208 0 0 
206 0 0 
211 0 0 
205 0 0 
214 0 0 
207 0 0 
214 0 0 
212 0 0 
210 0 0 
207 0 0 
210 0 0 
212 0 0 
219 0 0 
212 0 0 
207 0 0 
214 0 0 
214 0 0 
215 0 0 
206 0 0 
214 0 0 
212 0 0 
217 0 0 
217 0 0 
207 0 0 
216 0 0 
216 0 0 
216 0 0 
218 0 0 
218 0 0 
209 0 0 
220 0 0 
209 0 0 
209 0 0 
211 0 0 
212 0 0 
211 0 0 
219 0 0 
211 0 0 
220 0 0 
223 0 0 
223 0 0 
223 0 0 
213 0 0 
211 0 0 
216 0 0 
219 0 0 
221 0 0 
221 0 0 
220 0 0 
221 0 0 
227 0 0 
223 0 0 
222 0 0 
219 0 0 
223 0 0 
214 0 0 
220 0 0 
221 0 0 
220 0 0 
218 0 0 
226 0 0 
222 0 0 
221 0 0 
218 0 0 
222 0 0 
222 0 0 
224 0 0 
220 0 0 
222 0 0 
220 0 0 
222 0 0 
222 0 0 
218 0 0 
219 0 0 
224 0 0 
223 0 0 
219 0 0 
227 0 0 
226 0 0 
224 0 0 
229 0 0 
228 0 0 
225 0 0 
222 0 0 
221 0 0 
219 0 0 
223 0 0 
221 0 0 
219 0 0 
223 0 0 
218 0 0 
226 0 0 
224 0 0 
220 0 0 
219 0 0 
224 0 0 
223 0 0 
223 0 0 
225 0 0 
226 0 0 
231 0 0 
224 0 0 
226 0 0 
223 0 0 
227 0 0 
227 0 0 
228 0 0 
224 0 0 
225 0 0 
224 0 0 
221 0 0 
225 0 0 
225 0 0 
224 0 0 
228 0 0 
223 0 0 
223 0 0 
227 0 0 
225 0 0 
223 0 0 
222 0 0 
222 0 0 
226 0 0 
224 0 0 
227 0 0 
225 0 0 
223 0 0 
224 0 0 
225 0 0 
225 0 0 
230 0 0 
222 0 0 
224 0 0 
227 0 0 
228 0 0 
226 0 0 
224 0 0 
225 0 0 
230 0 0 
228 0 0 
227 0 0 
226 0 0 
226 0 0 
228 0 0 
226 0 0 
231 0 0 
227 0 0 
224 0 0 
228 0 0 
226 0 0 
223 0 0 
228 0 0 
223 0 0 
227 0 0 
226 0 0 
226 0 0 
225 0 0 
225 0 0 
223 0 0 
224 0 0 
225 0 0 
224 0 0 
226 0 0 
226 0 0 
222 0 0 
227 0 0 
226 0 0 
226 0 0 
229 0 0 
223 0 0 
224 0 0 
224 0 0 
223 0 0 
228 0 0 
226 0 0 
0 0 254 
0 0 254 
0 0 255 
0 0 255 
0 0 255 
0 0 253 
0 0 255 
0 0 255 
0 0 255 
0 0 254 
0 0 255 
0 0 255 
0 0 253 
0 0 255 
0 0 255 
0 0 255 
0 0 255 
0 0 255 
0 0 255 
0 0 252 
0 0 255 
0 0 254 
0 0 255 
0 0 255 
0 0 254 
0 0 255 
0 0 254 
0 0 253 
0 0 254 
0 0 255 
0 0 254 
0 0 255 
0 0 253 
0 0 254 
0 0 255 
0 0 255 
0 0 255 
0 0 254 
0 0 254 
0 0 252 
0 0 252 
0 0 254 
0 0 254 
0 0 253 
0 0 254 
0 0 255 
0 0 250 
0 0 255 
0 0 254 
0 0 254 
0 0 255 
0 0 255 
0 0 253 
0 0 254 
0 0 254 
0 0 254 
0 0 255 
0 0 253 
0 0 253 
0 0 253 
0 0 255 
0 0 252 
0 0 254 
0 0 253 
0 0 250 
0 0 253 
0 0 255 
0 0 252 
0 0 255 
0 0 253 
0 0 253 
0 0 253 
0 0 253 
0 0 252 
0 0 252 
0 0 253 
0 0 255 
0 0 253 
0 0 253 
0 0 252 
0 0 249 
0 0 250 
0 0 254 
0 0 250 
0 0 246 
0 0 253 
0 0 250 
0 0 250 
0 0 250 
0 0 253 
0 0 250 
0 0 254 
0 0 253 
0 0 250 
0 0 250 
0 0 254 
0 0 249 
0 0 244 
0 0 245 
0 0 252 
0 0 244 
0 0 249 
0 0 245 
0 0 252 
0 0 254 
0 0 250 
0 0 246 
0 0 250 
0 0 252 
0 0 250 
0 0 246 
0 0 248 
0 0 245 
0 0 253 
0 0 253 
0 0 252 
0 0 248 
0 0 252 
0 0 246 
0 0 250 
0 0 245 
0 0 244 
0 0 249 
0 0 248 
0 0 248 
0 0 250 
0 0 245 
0 0 244 
0 0 241 
0 0 246 
0 0 246 
0 0 238 
0 0 241 
0 0 248 
0 0 246 
0 0 244 
0 0 246 
0 0 245 
0 0 244 
0 0 241 
0 0 248 
0 0 237 
0 0 241 
0 0 252 
0 0 242 
0 0 244 
0 0 238 
0 0 238 
0 0 242 
0 0 240 
0 0 238 
0 0 242 
0 0 237 
0 0 241 
0 0 242 
0 0 234 
0 0 236 
0 0 237 
0 0 241 
0 0 233 
0 0 240 
0 0 238 
0 0 224 
0 0 230 
0 0 238 
0 0 230 
0 0 224 
0 0 237 
0 0 240 
0 0 223 
0 0 221 
0 0 224 
0 0 230 
0 0 218 
0 0 224 
0 0 221 
0 0 226 
0 0 227 
0 0 215 
0 0 206 
0 0 221 
0 0 217 
0 0 204 
188 195 241 
236 244 255 
236 244 255 
236 244 255 
236 244 255 
236 244 255 
236 244 255 
236 244 255 
236 244 255 
236 244 255 
236 244 255 
236 244 255 
236 244 255 
236 244 255 
236 244 255 
236 244 255 
236 244 255 
236 244 255 
236 244 255 
236 244 255 
236 244 255 
236 244 255 
236 244 255 
236 244 255 
236 244 255 
236 244 255 
236 244 255 
236 244 255 
236 244 255 
236 244 255 
236 244 255 
236 244 255 
236 244 255 
220 189 198 
189 0 0 
195 0 0 
197 0 0 
193 0 0 
212 0 0 
206 0 0 
205 0 0 
200 0 0 
203 0 0 
207 0 0 
196 0 0 
206 0 0 
209 0 0 
217 0 0 
212 0 0 
209 0 0 
211 0 0 
217 0 0 
211 0 0 
210 0 0 
217 0 0 
211 0 0 
216 0 0 
214 0 0 
211 0 0 
215 0 0 
218 0 0 
212 0 0 
217 0 0 
215 0 0 
209 0 0 
215 0 0 
221 0 0 
216 0 0 
221 0 0 
210 0 0 
216 0 0 
212 0 0 
218 0 0 
218 0 0 
220 0 0 
214 0 0 
220 0 0 
220 0 0 
215 0 0 
212 0 0 
215 0 0 
222 0 0 
223 0 0 
219 0 0 
214 0 0 
208 0 0 
221 0 0 
219 0 0 
218 0 0 
220 0 0 
225 0 0 
224 0 0 
224 0 0 
220 0 0 
225 0 0 
225 0 0 
221 0 0 
219 0 0 
222 0 0 
222 0 0 
225 0 0 
222 0 0 
222 0 0 
221 0 0 
225 0 0 
218 0 0 
226 0 0 
219 0 0 
221 0 0 
222 0 0 
225 0 0 
223 0 0 
220 0 0 
224 0 0 
224 0 0 
225 0 0 
222 0 0 
221 0 0 
222 0 0 
219 0 0 
223 0 0 
223 0 0 
225 0 0 
225 0 0 
216 0 0 
221 0 0 
220 0 0 
224 0 0 
219 0 0 
226 0 0 
220 0 0 
226 0 0 
226 0 0 
224 0 0 
224 0 0 
221 0 0 
226 0 0 
222 0 0 
227 0 0 
222 0 0 
225 0 0 
228 0 0 
222 0 0 
223 0 0 
222 0 0 
224 0 0 
223 0 0 
222 0 0 
222 0 0 
224 0 0 
226 0 0 
225 0 0 
223 0 0 
225 0 0 
226 0 0 
226 0 0 
223 0 0 
227 0 0 
220 0 0 
225 0 0 
226 0 0 
225 0 0 
224 0 0 
225 0 0 
222 0 0 
228 0 0 
226 0 0 
226 0 0 
225 0 0 
225 0 0 
226 0 0 
223 0 0 
223 0 0 
225 0 0 
223 0 0 
228 0 0 
225 0 0 
224 0 0 
231 0 0 
222 0 0 
229 0 0 
223 0 0 
224 0 0 
225 0 0 
225 0 0 
224 0 0 
226 0 0 
227 0 0 
227 0 0 
223 0 0 
222 0 0 
228 0 0 
226 0 0 
226 0 0 
225 0 0 
226 0 0 
228 0 0 
227 0 0 
223 0 0 
228 0 0 
230 0 0 
222 0 0 
224 0 0 
229 0 0 
225 0 0 
226 0 0 
226 0 0 
226 0 0 
225 0 0 
226 0 0 
229 0 0 
228 0 0 
226 0 0 
224 0 0 
224 0 0 
226 0 0 
228 0 0 
0 0 255 
0 0 254 
0 0 255 
0 0 255 
0 0 255 
0 0 255 
0 0 255 
0 0 254 
0 0 255 
0 0 255 
0 0 255 
0 0 255 
0 0 255 
0 0 253 
0 0 255 
0 0 254 
0 0 255 
0 0 255 
0 0 255 
0 0 255 
0 0 254 
0 0 255 
0 0 255 
0 0 253 
0 0 255 
0 0 255 
0 0 254 
0 0 255 
0 0 250 
0 0 254 
0 0 255 
0 0 255 
0 0 253 
0 0 254 
0 0 255 
0 0 253 
0 0 254 
0 0 255 
0 0 255 
0 0 253 
0 0 255 
0 0 255 
0 0 255 
0 0 253 
0 0 254 
0 0 254 
0 0 253 
0 0 255 
0 0 253 
0 0 252 
0 0 253 
0 0 253 
0 0 255 
0 0 254 
0 0 252 
0 0 253 
0 0 254 
0 0 252 
0 0 252 
0 0 254 
0 0 252 
0 0 255 
0 0 249 
0 0 255 
0 0 253 
0 0 255 
0 0 253 
0 0 254 
0 0 250 
0 0 250 
0 0 249 
0 0 254 
0 0 250 
0 0 254 
0 0 252 
0 0 252 
0 0 252 
0 0 253 
0 0 252 
0 0 252 
0 0 250 
0 0 253 
0 0 250 
0 0 253 
0 0 252 
0 0 252 
0 0 254 
0 0 253 
0 0 249 
0 0 250 
0 0 250 
0 0 250 
0 0 248 
0 0 254 
0 0 250 
0 0 252 
0 0 253 
0 0 250 
0 0 252 
0 0 253 
0 0 252 
0 0 253 
0 0 249 
0 0 246 
0 0 245 
0 0 242 
0 0 252 
0 0 254 
0 0 250 
0 0 248 
0 0 252 
0 0 253 
0 0 250 
0 0 245 
0 0 248 
0 0 246 
0 0 250 
0 0 245 
0 0 248 
0 0 245 
0 0 244 
0 0 250 
0 0 248 
0 0 246 
0 0 245 
0 0 250 
0 0 242 
0 0 238 
0 0 249 
0 0 245 
0 0 242 
0 0 246 
0 0 238 
0 0 242 
0 0 236 
0 0 240 
0 0 248 
0 0 244 
0 0 246 
0 0 242 
0 0 245 
0 0 237 
0 0 238 
0 0 244 
0 0 237 
0 0 237 
0 0 238 
0 0 244 
0 0 245 
0 0 231 
0 0 234 
0 0 237 
0 0 238 
0 0 245 
0 0 233 
0 0 241 
0 0 236 
0 0 241 
0 0 244 
0 0 231 
0 0 240 
0 0 230 
0 0 241 
0 0 221 
0 0 224 
0 0 217 
0 0 228 
0 0 221 
0 0 233 
0 0 223 
0 0 228 
0 0 227 
0 0 233 
0 0 226 
0 0 224 
0 0 228 
0 0 223 
0 0 207 
0 0 221 
0 0 215 
0 0 214 
0 0 223 
108 112 220 
236 244 255 
236 244 255 
236 244 255 
236 244 255 
236 244 255 
236 244 255 
236 244 255 
236 244 255 
236 244 255 
236 244 255 
236 244 255 
236 244 255 
236 244 255 
236 244 255 
236 244 255 
236 244 255 
236 244 255 
236 244 255 
236 244 255 
236 244 255 
236 244 255 
236 244 255 
236 244 255 
236 244 255 
236 244 255 
236 244 255 
236 244 255 
236 244 255 
236 244 255 
236 244 255 
236 244 255 
236 244 255 
236 244 255 
236 243 254 
215 142 149 
199 0 0 
213 0 0 
205 0 0 
205 0 0 
215 0 0 
201 0 0 
215 0 0 
208 0 0 
207 0 0 
207 0 0 
205 0 0 
206 0 0 
209 0 0 
203 0 0 
216 0 0 
209 0 0 
215 0 0 
212 0 0 
211 0 0 
214 0 0 
215 0 0 
215 0 0 
207 0 0 
207 0 0 
206 0 0 
214 0 0 
216 0 0 
220 0 0 
214 0 0 
216 0 0 
221 0 0 
214 0 0 
215 0 0 
226 0 0 
216 0 0 
219 0 0 
214 0 0 
218 0 0 
218 0 0 
218 0 0 
221 0 0 
219 0 0 
226 0 0 
223 0 0 
217 0 0 
218 0 0 
215 0 0 
220 0 0 
216 0 0 
220 0 0 
219 0 0 
221 0 0 
221 0 0 
217 0 0 
225 0 0 
224 0 0 
219 0 0 
220 0 0 
221 0 0 
223 0 0 
229 0 0 
226 0 0 
222 0 0 
220 0 0 
222 0 0 
224 0 0 
225 0 0 
215 0 0 
224 0 0 
220 0 0 
222 0 0 
224 0 0 
217 0 0 
228 0 0 
221 0 0 
224 0 0 
222 0 0 
226 0 0 
226 0 0 
223 0 0 
219 0 0 
225 0 0 
224 0 0 
222 0 0 
226 0 0 
227 0 0 
224 0 0 
227 0 0 
224 0 0 
224 0 0 
232 0 0 
222 0 0 
226 0 0 
216 0 0 
227 0 0 
226 0 0 
222 0 0 
222 0 0 
226 0 0 
221 0 0 
224 0 0 
222 0 0 
229 0 0 
220 0 0 
225 0 0 
223 0 0 
222 0 0 
226 0 0 
225 0 0 
231 0 0 
227 0 0 
222 0 0 
225 0 0 
224 0 0 
222 0 0 
227 0 0 
226 0 0 
225 0 0 
221 0 0 
228 0 0 
222 0 0 
223 0 0 
225 0 0 
219 0 0 
229 0 0 
224 0 0 
224 0 0 
226 0 0 
226 0 0 
225 0 0 
229 0 0 
225 0 0 
225 0 0 
225 0 0 
226 0 0 
224 0 0 
225 0 0 
228 0 0 
230 0 0 
226 0 0 
226 0 0 
225 0 0 
230 0 0 
223 0 0 
226 0 0 
219 0 0 
225 0 0 
225 0 0 
224 0 0 
227 0 0 
227 0 0 
225 0 0 
227 0 0 
225 0 0 
228 0 0 
227 0 0 
226 0 0 
227 0 0 
228 0 0 
222 0 0 
225 0 0 
224 0 0 
226 0 0 
226 0 0 
224 0 0 
225 0 0 
224 0 0 
225 0 0 
227 0 0 
225 0 0 
226 0 0 
226 0 0 
223 0 0 
227 0 0 
224 0 0 
225 0 0 
225 0 0 
227 0 0 
228 0 0 
223 0 0 
224 0 0 
227 0 0 
0 0 255 
0 0 255 
0 0 254 
0 0 253 
0 0 255 
0 0 254 
0 0 255 
0 0 255 
0 0 255 
0 0 255 
0 0 255 
0 0 255 
0 0 252 
0 0 252 
0 0 255 
0 0 254 
0 0 254 
0 0 255 
0 0 254 
0 0 253 
0 0 254 
0 0 255 
0 0 253 
0 0 254 
0 0 254 
0 0 254 
0 0 255 
0 0 254 
0 0 254 
0 0 255 
0 0 254 
0 0 253 
0 0 255 
0 0 255 
0 0 255 
0 0 253 
0 0 254 
0 0 253 
0 0 255 
0 0 252 
0 0 255 
0 0 254 
0 0 253 
0 0 254 
0 0 252 
0 0 253 
0 0 253 
0 0 250 
0 0 255 
0 0 254 
0 0 254 
0 0 250 
0 0 255 
0 0 254 
0 0 250 
0 0 255 
0 0 253 
0 0 250 
0 0 252 
0 0 252 
0 0 253 
0 0 252 
0 0 252 
0 0 254 
0 0 250 
0 0 253 
0 0 250 
0 0 254 
0 0 253 
0 0 250 
0 0 250 
0 0 250 
0 0 255 
0 0 253 
0 0 253 
0 0 253 
0 0 252 
0 0 249 
0 0 254 
0 0 254 
0 0 249 
0 0 250 
0 0 254 
0 0 253 
0 0 253 
0 0 252 
0 0 254 
0 0 255 
0 0 249 
0 0 248 
0 0 252 
0 0 249 
0 0 252 
0 0 250 
0 0 249 
0 0 250 
0 0 253 
0 0 254 
0 0 252 
0 0 250 
0 0 246 
0 0 250 
0 0 246 
0 0 249 
0 0 252 
0 0 250 
0 0 245 
0 0 250 
0 0 250 
0 0 248 
0 0 248 
0 0 240 
0 0 246 
0 0 250 
0 0 250 
0 0 246 
0 0 249 
0 0 246 
0 0 250 
0 0 249 
0 0 249 
0 0 240 
0 0 249 
0 0 248 
0 0 249 
0 0 248 
0 0 245 
0 0 254 
0 0 242 
0 0 246 
0 0 246 
0 0 245 
0 0 248 
0 0 248 
0 0 244 
0 0 241 
0 0 253 
0 0 244 
0 0 241 
0 0 245 
0 0 245 
0 0 246 
0 0 240 
0 0 241 
0 0 242 
0 0 237 
0 0 242 
0 0 231 
0 0 230 
0 0 237 
0 0 230 
0 0 240 
0 0 237 
0 0 240 
0 0 233 
0 0 238 
0 0 236 
0 0 236 
0 0 233 
0 0 240 
0 0 230 
0 0 240 
0 0 236 
0 0 224 
0 0 227 
0 0 231 
0 0 226 
0 0 237 
0 0 233 
0 0 230 
0 0 230 
0 0 224 
0 0 226 
0 0 223 
0 0 227 
0 0 215 
0 0 227 
0 0 217 
0 0 220 
0 0 215 
0 0 220 
57 59 218 
232 240 255 
236 244 255 
236 244 255 
236 244 255 
236 244 255 
236 244 255 
236 244 255 
236 244 255 
236 244 255 
236 244 255 
236 244 255 
236 244 255 
236 244 255 
236 244 255 
236 244 255 
236 244 255 
236 244 255 
236 244 255 
236 244 255 
236 244 255 
236 244 255 
236 244 255 
236 244 255 
236 244 255 
236 244 255 
236 244 255 
236 244 255 
236 244 255 
236 244 255 
236 244 255 
236 244 255 
236 244 255 
236 244 255 
236 244 255 
236 244 255 
233 233 244 
212 88 92 
215 0 0 
208 0 0 
218 0 0 
203 0 0 
206 0 0 
216 0 0 
202 0 0 
204 0 0 
200 0 0 
202 0 0 
207 0 0 
214 0 0 
214 0 0 
214 0 0 
210 0 0 
211 0 0 
200 0 0 
213 0 0 
214 0 0 
208 0 0 
216 0 0 
214 0 0 
212 0 0 
212 0 0 
216 0 0 
208 0 0 
220 0 0 
212 0 0 
214 0 0 
214 0 0 
220 0 0 
213 0 0 
214 0 0 
222 0 0 
215 0 0 
214 0 0 
213 0 0 
215 0 0 
215 0 0 
224 0 0 
216 0 0 
217 0 0 
218 0 0 
216 0 0 
225 0 0 
222 0 0 
217 0 0 
216 0 0 
221 0 0 
226 0 0 
219 0 0 
219 0 0 
221 0 0 
224 0 0 
227 0 0 
223 0 0 
214 0 0 
222 0 0 
223 0 0 
224 0 0 
224 0 0 
215 0 0 
226 0 0 
221 0 0 
219 0 0 
223 0 0 
218 0 0 
220 0 0 
224 0 0 
223 0 0 
227 0 0 
227 0 0 
223 0 0 
220 0 0 
222 0 0 
218 0 0 
219 0 0 
225 0 0 
218 0 0 
225 0 0 
221 0 0 
222 0 0 
225 0 0 
225 0 0 
224 0 0 
225 0 0 
222 0 0 
229 0 0 
222 0 0 
221 0 0 
228 0 0 
221 0 0 
224 0 0 
221 0 0 
218 0 0 
222 0 0 
227 0 0 
219 0 0 
224 0 0 
224 0 0 
222 0 0 
220 0 0 
226 0 0 
227 0 0 
227 0 0 
219 0 0 
227 0 0 
222 0 0 
231 0 0 
222 0 0 
225 0 0 
223 0 0 
227 0 0 
227 0 0 
225 0 0 
227 0 0 
224 0 0 
220 0 0 
225 0 0 
225 0 0 
224 0 0 
225 0 0 
223 0 0 
221 0 0 
225 0 0 
228 0 0 
226 0 0 
229 0 0 
223 0 0 
225 0 0 
227 0 0 
220 0 0 
227 0 0 
226 0 0 
224 0 0 
229 0 0 
225 0 0 
225 0 0 
226 0 0 
229 0 0 
225 0 0 
223 0 0 
227 0 0 
223 0 0 
224 0 0 
226 0 0 
229 0 0 
227 0 0 
228 0 0 
226 0 0 
224 0 0 
227 0 0 
227 0 0 
228 0 0 
223 0 0 
226 0 0 
228 0 0 
226 0 0 
227 0 0 
224 0 0 
223 0 0 
226 0 0 
227 0 0 
225 0 0 
227 0 0 
229 0 0 
227 0 0 
226 0 0 
225 0 0 
224 0 0 
225 0 0 
225 0 0 
225 0 0 
227 0 0 
225 0 0 
228 0 0 
229 0 0 
227 0 0 
229 0 0 
227 0 0 
227 0 0 
0 0 255 
0 0 255 
0 0 255 
0 0 254 
0 0 255 
0 0 254 
0 0 255 
0 0 255 
0 0 255 
0 0 255 
0 0 255 
0 0 255 
0 0 254 
0 0 254 
0 0 254 
0 0 255 
0 0 255 
0 0 254 
0 0 255 
0 0 255 
0 0 255 
0 0 255 
0 0 255 
0 0 255 
0 0 255 
0 0 255 
0 0 254 
0 0 254 
0 0 255 
0 0 255 
0 0 254 
0 0 255 
0 0 254 
0 0 254 
0 0 253 
0 0 254 
0 0 255 
0 0 254 
0 0 255 
0 0 250 
0 0 255 
0 0 254 
0 0 253 
0 0 253 
0 0 254 
0 0 255 
0 0 254 
0 0 254 
0 0 254 
0 0 254 
0 0 254 
0 0 254 
0 0 254 
0 0 254 
0 0 255 
0 0 252 
0 0 254 
0 0 253 
0 0 255 
0 0 252 
0 0 254 
0 0 252 
0 0 255 
0 0 254 
0 0 248 
0 0 255 
0 0 254 
0 0 252 
0 0 250 
0 0 254 
0 0 255 
0 0 252 
0 0 253 
0 0 253 
0 0 255 
0 0 253 
0 0 254 
0 0 252 
0 0 252 
0 0 250 
0 0 252 
0 0 255 
0 0 250 
0 0 250 
0 0 250 
0 0 252 
0 0 249 
0 0 254 
0 0 253 
0 0 249 
0 0 252 
0 0 250 
0 0 249 
0 0 249 
0 0 252 
0 0 250 
0 0 248 
0 0 255 
0 0 253 
0 0 252 
0 0 245 
0 0 253 
0 0 248 
0 0 245 
0 0 253 
0 0 245 
0 0 253 
0 0 249 
0 0 248 
0 0 249 
0 0 241 
0 0 248 
0 0 248 
0 0 246 
0 0 248 
0 0 246 
0 0 240 
0 0 252 
0 0 245 
0 0 244 
0 0 252 
0 0 245 
0 0 252 
0 0 250 
0 0 240 
0 0 246 
0 0 246 
0 0 242 
0 0 242 
0 0 246 
0 0 245 
0 0 246 
0 0 253 
0 0 244 
0 0 246 
0 0 248 
0 0 237 
0 0 246 
0 0 237 
0 0 242 
0 0 241 
0 0 249 
0 0 245 
0 0 236 
0 0 238 
0 0 242 
0 0 240 
0 0 246 
0 0 236 
0 0 236 
0 0 237 
0 0 236 
0 0 242 
0 0 242 
0 0 240 
0 0 231 
0 0 237 
0 0 238 
0 0 230 
0 0 233 
0 0 237 
0 0 240 
0 0 231 
0 0 227 
0 0 237 
0 0 228 
0 0 230 
0 0 240 
0 0 230 
0 0 223 
0 0 238 
0 0 230 
0 0 211 
0 0 211 
0 0 227 
0 0 217 
0 0 227 
0 0 231 
0 0 218 
0 0 212 
0 0 215 
206 213 253 
236 244 255 
236 244 255 
236 244 255 
236 244 255 
236 244 255 
236 244 255 
236 244 255 
236 244 255 
236 244 255 
236 244 255 
236 244 255 
236 244 255 
236 244 255 
236 244 255 
236 244 255 
236 244 255 
236 244 255 
236 244 255 
236 244 255 
236 244 255 
236 244 255 
236 244 255 
236 244 255 
236 244 255 
236 244 255 
236 244 255 
236 244 255 
236 244 255 
236 244 255 
236 244 255 
236 244 255 
236 244 255 
236 244 255 
236 244 255 
236 244 255 
236 244 255 
232 206 215 
211 48 51 
205 0 0 
198 0 0 
208 0 0 
196 0 0 
205 0 0 
211 0 0 
206 0 0 
211 0 0 
205 0 0 
207 0 0 
203 0 0 
211 0 0 
211 0 0 
208 0 0 
212 0 0 
223 0 0 
217 0 0 
217 0 0 
205 0 0 
215 0 0 
217 0 0 
211 0 0 
218 0 0 
215 0 0 
210 0 0 
208 0 0 
217 0 0 
217 0 0 
213 0 0 
217 0 0 
216 0 0 
219 0 0 
225 0 0 
215 0 0 
216 0 0 
211 0 0 
216 0 0 
213 0 0 
228 0 0 
218 0 0 
224 0 0 
216 0 0 
212 0 0 
222 0 0 
215 0 0 
217 0 0 
219 0 0 
216 0 0 
223 0 0 
219 0 0 
223 0 0 
217 0 0 
223 0 0 
218 0 0 
227 0 0 
220 0 0 
218 0 0 
222 0 0 
227 0 0 
223 0 0 
229 0 0 
218 0 0 
220 0 0 
215 0 0 
224 0 0 
220 0 0 
223 0 0 
220 0 0 
219 0 0 
229 0 0 
225 0 0 
217 0 0 
220 0 0 
223 0 0 
223 0 0 
229 0 0 
221 0 0 
225 0 0 
221 0 0 
224 0 0 
225 0 0 
220 0 0 
221 0 0 
223 0 0 
222 0 0 
224 0 0 
222 0 0 
216 0 0 
225 0 0 
222 0 0 
224 0 0 
223 0 0 
221 0 0 
223 0 0 
222 0 0 
223 0 0 
225 0 0 
223 0 0 
225 0 0 
221 0 0 
219 0 0 
229 0 0 
225 0 0 
225 0 0 
222 0 0 
225 0 0 
223 0 0 
222 0 0 
229 0 0 
225 0 0 
226 0 0 
222 0 0 
228 0 0 
228 0 0 
226 0 0 
223 0 0 
227 0 0 
228 0 0 
225 0 0 
226 0 0 
225 0 0 
227 0 0 
225 0 0 
226 0 0 
223 0 0 
226 0 0 
226 0 0 
229 0 0 
229 0 0 
228 0 0 
226 0 0 
224 0 0 
225 0 0 
222 0 0 
225 0 0 
224 0 0 
227 0 0 
223 0 0 
222 0 0 
226 0 0 
227 0 0 
224 0 0 
227 0 0 
228 0 0 
225 0 0 
228 0 0 
224 0 0 
224 0 0 
224 0 0 
231 0 0 
228 0 0 
228 0 0 
224 0 0 
227 0 0 
226 0 0 
223 0 0 
225 0 0 
226 0 0 
227 0 0 
224 0 0 
225 0 0 
227 0 0 
224 0 0 
221 0 0 
226 0 0 
225 0 0 
227 0 0 
229 0 0 
228 0 0 
222 0 0 
228 0 0 
224 0 0 
229 0 0 
227 0 0 
226 0 0 
223 0 0 
225 0 0 
225 0 0 
225 0 0 
227 0 0 
0 0 254 
0 0 254 
0 0 255 
0 0 253 
0 0 255 
0 0 255 
0 0 254 
0 0 255 
0 0 255 
0 0 254 
0 0 254 
0 0 255 
0 0 255 
0 0 255 
0 0 255 
0 0 255 
0 0 255 
0 0 255 
0 0 254 
0 0 252 
0 0 255 
0 0 254 
0 0 255 
0 0 254 
0 0 255 
0 0 255 
0 0 255 
0 0 255 
0 0 253 
0 0 255 
0 0 254 
0 0 254 
0 0 254 
0 0 253 
0 0 254 
0 0 253 
0 0 255 
0 0 253 
0 0 254 
0 0 255 
0 0 254 
0 0 253 
0 0 255 
0 0 254 
0 0 254 
0 0 253 
0 0 255 
0 0 253 
0 0 253 
0 0 253 
0 0 254 
0 0 254 
0 0 250 
0 0 254 
0 0 255 
0 0 253 
0 0 254 
0 0 255 
0 0 255 
0 0 250 
0 0 254 
0 0 254 
0 0 254 
0 0 253 
0 0 252 
0 0 252 
0 0 254 
0 0 252 
0 0 252 
0 0 255 
0 0 254 
0 0 254 
0 0 253 
0 0 254 
0 0 254 
0 0 254 
0 0 255 
0 0 252 
0 0 252 
0 0 246 
0 0 254 
0 0 254 
0 0 253 
0 0 249 
0 0 252 
0 0 254 
0 0 249 
0 0 252 
0 0 250 
0 0 250 
0 0 252 
0 0 249 
0 0 252 
0 0 254 
0 0 249 
0 0 252 
0 0 252 
0 0 249 
0 0 253 
0 0 254 
0 0 253 
0 0 252 
0 0 246 
0 0 248 
0 0 244 
0 0 252 
0 0 254 
0 0 245 
0 0 249 
0 0 252 
0 0 246 
0 0 252 
0 0 248 
0 0 246 
0 0 246 
0 0 252 
0 0 249 
0 0 249 
0 0 253 
0 0 248 
0 0 244 
0 0 248 
0 0 242 
0 0 250 
0 0 241 
0 0 245 
0 0 250 
0 0 249 
0 0 249 
0 0 246 
0 0 245 
0 0 241 
0 0 241 
0 0 248 
0 0 245 
0 0 240 
0 0 248 
0 0 245 
0 0 249 
0 0 244 
0 0 242 
0 0 241 
0 0 248 
0 0 246 
0 0 246 
0 0 244 
0 0 246 
0 0 240 
0 0 238 
0 0 236 
0 0 244 
0 0 237 
0 0 237 
0 0 236 
0 0 237 
0 0 233 
0 0 237 
0 0 240 
0 0 233 
0 0 234 
0 0 224 
0 0 230 
0 0 230 
0 0 231 
0 0 233 
0 0 238 
0 0 228 
0 0 221 
0 0 230 
0 0 218 
0 0 234 
0 0 226 
0 0 228 
0 0 230 
0 0 231 
0 0 223 
0 0 238 
0 0 217 
0 0 224 
0 0 227 
170 176 240 
236 244 255 
237 244 255 
237 244 255 
237 244 255 
237 244 255 
237 244 255 
237 244 255 
237 244 255 
237 244 255 
237 244 255 
237 244 255 
237 244 255 
237 244 255 
237 244 255 
237 244 255 
237 244 255 
237 244 255 
237 244 255 
237 244 255 
237 244 255 
237 244 255 
237 244 255 
237 244 255 
237 244 255 
237 244 255 
237 244 255 
237 244 255 
237 244 255 
237 244 255 
237 244 255 
237 244 255 
237 244 255 
237 244 255 
237 244 255 
237 244 255 
237 244 255 
237 244 255 
236 244 255 
220 179 188 
209 0 0 
212 0 0 
200 0 0 
209 0 0 
211 0 0 
218 0 0 
203 0 0 
204 0 0 
204 0 0 
215 0 0 
201 0 0 
210 0 0 
215 0 0 
214 0 0 
219 0 0 
212 0 0 
210 0 0 
202 0 0 
209 0 0 
220 0 0 
208 0 0 
219 0 0 
214 0 0 
207 0 0 
217 0 0 
217 0 0 
214 0 0 
221 0 0 
219 0 0 
217 0 0 
225 0 0 
215 0 0 
217 0 0 
222 0 0 
213 0 0 
219 0 0 
218 0 0 
215 0 0 
220 0 0 
217 0 0 
223 0 0 
224 0 0 
221 0 0 
214 0 0 
217 0 0 
226 0 0 
218 0 0 
221 0 0 
221 0 0 
225 0 0 
219 0 0 
222 0 0 
217 0 0 
224 0 0 
221 0 0 
223 0 0 
223 0 0 
220 0 0 
226 0 0 
220 0 0 
218 0 0 
223 0 0 
222 0 0 
213 0 0 
223 0 0 
226 0 0 
224 0 0 
224 0 0 
230 0 0 
224 0 0 
225 0 0 
220 0 0 
224 0 0 
224 0 0 
224 0 0 
227 0 0 
224 0 0 
222 0 0 
222 0 0 
220 0 0 
218 0 0 
225 0 0 
230 0 0 
225 0 0 
225 0 0 
222 0 0 
219 0 0 
220 0 0 
225 0 0 
225 0 0 
221 0 0 
223 0 0 
223 0 0 
223 0 0 
225 0 0 
228 0 0 
222 0 0 
221 0 0 
227 0 0 
222 0 0 
225 0 0 
223 0 0 
227 0 0 
226 0 0 
221 0 0 
227 0 0 
223 0 0 
230 0 0 
223 0 0 
221 0 0 
225 0 0 
227 0 0 
224 0 0 
224 0 0 
228 0 0 
222 0 0 
225 0 0 
224 0 0 
226 0 0 
222 0 0 
224 0 0 
225 0 0 
228 0 0 
228 0 0 
232 0 0 
226 0 0 
227 0 0 
225 0 0 
231 0 0 
228 0 0 
227 0 0 
226 0 0 
228 0 0 
224 0 0 
230 0 0 
228 0 0 
227 0 0 
230 0 0 
223 0 0 
228 0 0 
229 0 0 
222 0 0 
226 0 0 
224 0 0 
221 0 0 
228 0 0 
228 0 0 
229 0 0 
223 0 0 
229 0 0 
224 0 0 
226 0 0 
226 0 0 
232 0 0 
230 0 0 
224 0 0 
226 0 0 
225 0 0 
227 0 0 
228 0 0 
225 0 0 
227 0 0 
226 0 0 
227 0 0 
223 0 0 
228 0 0 
224 0 0 
226 0 0 
229 0 0 
228 0 0 
224 0 0 
226 0 0 
223 0 0 
225 0 0 
227 0 0 
226 0 0 
225 0 0 
227 0 0 
229 0 0 
226 0 0 
0 0 255 
0 0 255 
0 0 255 
0 0 255 
0 0 255 
0 0 254 
0 0 254 
0 0 255 
0 0 254 
0 0 255 
0 0 254 
0 0 254 
0 0 254 
0 0 255 
0 0 254 
0 0 254 
0 0 254 
0 0 255 
0 0 255 
0 0 254 
0 0 255 
0 0 254 
0 0 255 
0 0 254 
0 0 255 
0 0 254 
0 0 255 
0 0 255 
0 0 255 
0 0 253 
0 0 254 
0 0 254 
0 0 252 
0 0 254 
0 0 255 
0 0 254 
0 0 255 
0 0 255 
0 0 253 
0 0 255 
0 0 254 
0 0 252 
0 0 255 
0 0 254 
0 0 254 
0 0 255 
0 0 254 
0 0 255 
0 0 254 
0 0 255 
0 0 252 
0 0 254 
0 0 255 
0 0 250 
0 0 253 
0 0 255 
0 0 254 
0 0 252 
0 0 254 
0 0 254 
0 0 254 
0 0 249 
0 0 253 
0 0 254 
0 0 255 
0 0 253 
0 0 253 
0 0 253 
0 0 253 
0 0 255 
0 0 253 
0 0 255 
0 0 250 
0 0 249 
0 0 252 
0 0 254 
0 0 254 
0 0 254 
0 0 253 
0 0 255 
0 0 250 
0 0 254 
0 0 253 
0 0 253 
0 0 254 
0 0 249 
0 0 252 
0 0 254 
0 0 252 
0 0 250 
0 0 249 
0 0 249 
0 0 252 
0 0 248 
0 0 252 
0 0 249 
0 0 250 
0 0 249 
0 0 252 
0 0 248 
0 0 250 
0 0 253 
0 0 252 
0 0 250 
0 0 250 
0 0 252 
0 0 252 
0 0 246 
0 0 252 
0 0 249 
0 0 254 
0 0 250 
0 0 245 
0 0 245 
0 0 246 
0 0 252 
0 0 246 
0 0 252 
0 0 253 
0 0 252 
0 0 246 
0 0 244 
0 0 248 
0 0 248 
0 0 249 
0 0 248 
0 0 242 
0 0 244 
0 0 246 
0 0 244 
0 0 252 
0 0 244 
0 0 248 
0 0 241 
0 0 246 
0 0 245 
0 0 248 
0 0 245 
0 0 244 
0 0 245 
0 0 246 
0 0 240 
0 0 242 
0 0 240 
0 0 237 
0 0 238 
0 0 240 
0 0 236 
0 0 237 
0 0 237 
0 0 246 
0 0 234 
0 0 238 
0 0 242 
0 0 237 
0 0 234 
0 0 237 
0 0 238 
0 0 233 
0 0 241 
0 0 237 
0 0 224 
0 0 238 
0 0 231 
0 0 233 
0 0 237 
0 0 228 
0 0 227 
0 0 221 
0 0 215 
0 0 223 
0 0 224 
0 0 241 
0 0 231 
0 0 236 
0 0 217 
0 0 234 
0 0 228 
0 0 226 
138 142 227 
237 244 255 
237 244 255 
237 244 255 
237 244 255 
237 244 255 
237 244 255 
237 244 255 
237 244 255 
237 244 255 
237 244 255 
237 244 255 
237 244 255 
237 244 255 
237 244 255 
237 244 255 
237 244 255 
237 244 255 
237 244 255 
237 244 255 
237 244 255 
237 244 255 
237 244 255 
237 244 255 
237 244 255 
237 244 255 
237 244 255 
237 244 255 
237 244 255 
237 244 255 
237 244 255 
237 244 255 
237 244 255 
237 244 255 
237 244 255 
237 244 255 
237 244 255 
237 244 255 
237 244 255 
237 244 255 
237 243 254 
221 156 163 
221 0 0 
207 0 0 
209 0 0 
204 0 0 
210 0 0 
206 0 0 
212 0 0 
211 0 0 
217 0 0 
205 0 0 
210 0 0 
213 0 0 
213 0 0 
216 0 0 
216 0 0 
204 0 0 
218 0 0 
216 0 0 
217 0 0 
213 0 0 
216 0 0 
208 0 0 
204 0 0 
212 0 0 
221 0 0 
211 0 0 
214 0 0 
212 0 0 
213 0 0 
220 0 0 
213 0 0 
216 0 0 
222 0 0 
218 0 0 
214 0 0 
223 0 0 
220 0 0 
220 0 0 
225 0 0 
221 0 0 
218 0 0 
215 0 0 
215 0 0 
219 0 0 
221 0 0 
215 0 0 
217 0 0 
221 0 0 
224 0 0 
224 0 0 
223 0 0 
219 0 0 
223 0 0 
225 0 0 
227 0 0 
223 0 0 
228 0 0 
223 0 0 
224 0 0 
223 0 0 
224 0 0 
222 0 0 
225 0 0 
224 0 0 
223 0 0 
225 0 0 
221 0 0 
218 0 0 
226 0 0 
226 0 0 
223 0 0 
223 0 0 
228 0 0 
221 0 0 
224 0 0 
225 0 0 
226 0 0 
228 0 0 
224 0 0 
225 0 0 
221 0 0 
228 0 0 
221 0 0 
225 0 0 
220 0 0 
225 0 0 
227 0 0 
224 0 0 
224 0 0 
223 0 0 
220 0 0 
227 0 0 
228 0 0 
226 0 0 
224 0 0 
222 0 0 
224 0 0 
223 0 0 
225 0 0 
225 0 0 
229 0 0 
227 0 0 
225 0 0 
221 0 0 
225 0 0 
229 0 0 
222 0 0 
227 0 0 
226 0 0 
225 0 0 
227 0 0 
226 0 0 
225 0 0 
228 0 0 
226 0 0 
224 0 0 
221 0 0 
229 0 0 
225 0 0 
224 0 0 
223 0 0 
219 0 0 
226 0 0 
227 0 0 
224 0 0 
228 0 0 
226 0 0 
228 0 0 
227 0 0 
226 0 0 
228 0 0 
225 0 0 
224 0 0 
225 0 0 
225 0 0 
227 0 0 
230 0 0 
224 0 0 
223 0 0 
228 0 0 
226 0 0 
226 0 0 
226 0 0 
226 0 0 
224 0 0 
223 0 0 
224 0 0 
222 0 0 
225 0 0 
225 0 0 
223 0 0 
223 0 0 
230 0 0 
228 0 0 
225 0 0 
227 0 0 
229 0 0 
226 0 0 
228 0 0 
227 0 0 
228 0 0 
227 0 0 
223 0 0 
226 0 0 
228 0 0 
226 0 0 
227 0 0 
228 0 0 
228 0 0 
228 0 0 
226 0 0 
227 0 0 
229 0 0 
231 0 0 
225 0 0 
228 0 0 
228 0 0 
224 0 0 
231 0 0 
0 0 254 
0 0 254 
0 0 255 
0 0 253 
0 0 255 
0 0 255 
0 0 255 
0 0 252 
0 0 255 
0 0 255 
0 0 253 
0 0 255 
0 0 255 
0 0 254 
0 0 255 
0 0 255 
0 0 254 
0 0 253 
0 0 255 
0 0 255 
0 0 254 
0 0 255 
0 0 254 
0 0 255 
0 0 254 
0 0 254 
0 0 254 
0 0 255 
0 0 255 
0 0 254 
0 0 255 
0 0 254 
0 0 255 
0 0 255 
0 0 254 
0 0 254 
0 0 255 
0 0 255 
0 0 255 
0 0 253 
0 0 254 
0 0 254 
0 0 254 
0 0 254 
0 0 255 
0 0 255 
0 0 253 
0 0 255 
0 0 254 
0 0 253 
0 0 252 
0 0 252 
0 0 253 
0 0 253 
0 0 255 
0 0 254 
0 0 254 
0 0 248 
0 0 255 
0 0 250 
0 0 252 
0 0 252 
0 0 253 
0 0 252 
0 0 254 
0 0 250 
0 0 253 
0 0 252 
0 0 253 
0 0 252 
0 0 253 
0 0 252 
0 0 253 
0 0 253 
0 0 254 
0 0 252 
0 0 254 
0 0 252 
0 0 255 
0 0 255 
0 0 252 
0 0 250 
0 0 252 
0 0 248 
0 0 250 
0 0 253 
0 0 252 
0 0 253 
0 0 252 
0 0 253 
0 0 253 
0 0 254 
0 0 248 
0 0 249 
0 0 253 
0 0 253 
0 0 250 
0 0 252 
0 0 249 
0 0 250 
0 0 249 
0 0 250 
0 0 252 
0 0 252 
0 0 250 
0 0 249 
0 0 253 
0 0 253 
0 0 253 
0 0 249 
0 0 250 
0 0 248 
0 0 244 
0 0 249 
0 0 252 
0 0 248 
0 0 252 
0 0 250 
0 0 250 
0 0 249 
0 0 246 
0 0 252 
0 0 248 
0 0 250 
0 0 244 
0 0 248 
0 0 248 
0 0 250 
0 0 248 
0 0 246 
0 0 245 
0 0 242 
0 0 245 
0 0 244 
0 0 241 
0 0 249 
0 0 249 
0 0 240 
0 0 242 
0 0 240 
0 0 238 
0 0 236 
0 0 242 
0 0 242 
0 0 246 
0 0 240 
0 0 241 
0 0 240 
0 0 236 
0 0 241 
0 0 237 
0 0 240 
0 0 236 
0 0 236 
0 0 242 
0 0 234 
0 0 237 
0 0 233 
0 0 233 
0 0 231 
0 0 238 
0 0 237 
0 0 234 
0 0 234 
0 0 230 
0 0 233 
0 0 223 
0 0 234 
0 0 226 
0 0 233 
0 0 233 
0 0 224 
0 0 226 
0 0 228 
0 0 230 
0 0 226 
0 0 231 
0 0 224 
85 88 227 
231 238 255 
237 245 255 
237 245 255 
237 245 255 
237 245 255 
237 245 255 
237 245 255 
237 245 255 
237 245 255 
237 245 255 
237 245 255 
237 245 255 
237 245 255 
237 245 255 
237 245 255 
237 245 255 
237 245 255 
237 245 255 
237 245 255 
237 245 255 
237 245 255 
237 245 255 
237 245 255 
237 245 255 
237 245 255 
237 245 255 
237 245 255 
237 245 255 
237 245 255 
237 245 255 
237 245 255 
237 245 255 
237 245 255 
237 245 255 
237 245 255 
237 245 255 
237 245 255 
237 245 255 
237 245 255 
237 245 255 
237 245 255 
236 237 248 
211 114 120 
213 0 0 
218 0 0 
216 0 0 
212 0 0 
217 0 0 
219 0 0 
209 0 0 
217 0 0 
208 0 0 
220 0 0 
220 0 0 
218 0 0 
208 0 0 
207 0 0 
215 0 0 
210 0 0 
213 0 0 
221 0 0 
218 0 0 
216 0 0 
223 0 0 
215 0 0 
215 0 0 
215 0 0 
215 0 0 
216 0 0 
212 0 0 
220 0 0 
214 0 0 
209 0 0 
217 0 0 
216 0 0 
221 0 0 
220 0 0 
221 0 0 
212 0 0 
216 0 0 
220 0 0 
215 0 0 
227 0 0 
220 0 0 
221 0 0 
223 0 0 
215 0 0 
224 0 0 
226 0 0 
214 0 0 
220 0 0 
223 0 0 
221 0 0 
226 0 0 
216 0 0 
222 0 0 
227 0 0 
225 0 0 
219 0 0 
222 0 0 
221 0 0 
228 0 0 
225 0 0 
222 0 0 
225 0 0 
227 0 0 
222 0 0 
228 0 0 
225 0 0 
220 0 0 
222 0 0 
221 0 0 
221 0 0 
219 0 0 
222 0 0 
218 0 0 
225 0 0 
224 0 0 
224 0 0 
218 0 0 
228 0 0 
224 0 0 
228 0 0 
223 0 0 
225 0 0 
225 0 0 
226 0 0 
225 0 0 
228 0 0 
224 0 0 
229 0 0 
227 0 0 
224 0 0 
224 0 0 
229 0 0 
226 0 0 
225 0 0 
228 0 0 
226 0 0 
228 0 0 
220 0 0 
224 0 0 
225 0 0 
224 0 0 
222 0 0 
226 0 0 
228 0 0 
227 0 0 
223 0 0 
223 0 0 
229 0 0 
222 0 0 
225 0 0 
224 0 0 
223 0 0 
228 0 0 
225 0 0 
226 0 0 
225 0 0 
222 0 0 
224 0 0 
226 0 0 
224 0 0 
224 0 0 
226 0 0 
230 0 0 
232 0 0 
224 0 0 
225 0 0 
223 0 0 
223 0 0 
227 0 0 
227 0 0 
224 0 0 
225 0 0 
226 0 0 
227 0 0 
225 0 0 
228 0 0 
224 0 0 
225 0 0 
226 0 0 
226 0 0 
224 0 0 
224 0 0 
225 0 0 
227 0 0 
228 0 0 
225 0 0 
226 0 0 
228 0 0 
230 0 0 
227 0 0 
224 0 0 
227 0 0 
228 0 0 
228 0 0 
227 0 0 
227 0 0 
225 0 0 
226 0 0 
227 0 0 
229 0 0 
226 0 0 
227 0 0 
223 0 0 
226 0 0 
227 0 0 
226 0 0 
227 0 0 
224 0 0 
229 0 0 
223 0 0 
225 0 0 
226 0 0 
228 0 0 
227 0 0 
227 0 0 
225 0 0 
227 0 0 
227 0 0 
0 0 255 
0 0 254 
0 0 255 
0 0 255 
0 0 255 
0 0 255 
0 0 254 
0 0 254 
0 0 254 
0 0 255 
0 0 254 
0 0 255 
0 0 254 
0 0 255 
0 0 255 
0 0 254 
0 0 255 
0 0 255 
0 0 255 
0 0 255 
0 0 255 
0 0 255 
0 0 255 
0 0 255 
0 0 255 
0 0 254 
0 0 253 
0 0 254 
0 0 255 
0 0 255 
0 0 254 
0 0 252 
0 0 255 
0 0 255 
0 0 255 
0 0 254 
0 0 254 
0 0 255 
0 0 254 
0 0 255 
0 0 254 
0 0 252 
0 0 255 
0 0 255 
0 0 254 
0 0 253 
0 0 253 
0 0 255 
0 0 253 
0 0 255 
0 0 250 
0 0 250 
0 0 252 
0 0 255 
0 0 253 
0 0 255 
0 0 253 
0 0 254 
0 0 254 
0 0 250 
0 0 253 
0 0 250 
0 0 254 
0 0 254 
0 0 254 
0 0 253 
0 0 252 
0 0 255 
0 0 255 
0 0 253 
0 0 253 
0 0 254 
0 0 252 
0 0 254 
0 0 252 
0 0 252 
0 0 252 
0 0 253 
0 0 253 
0 0 250 
0 0 255 
0 0 254 
0 0 252 
0 0 254 
0 0 250 
0 0 253 
0 0 250 
0 0 246 
0 0 253 
0 0 252 
0 0 250 
0 0 249 
0 0 254 
0 0 248 
0 0 250 
0 0 249 
0 0 248 
0 0 252 
0 0 252 
0 0 255 
0 0 249 
0 0 253 
0 0 250 
0 0 252 
0 0 250 
0 0 246 
0 0 253 
0 0 248 
0 0 246 
0 0 252 
0 0 248 
0 0 254 
0 0 241 
0 0 254 
0 0 250 
0 0 252 
0 0 250 
0 0 248 
0 0 248 
0 0 245 
0 0 249 
0 0 249 
0 0 249 
0 0 245 
0 0 246 
0 0 242 
0 0 248 
0 0 245 
0 0 252 
0 0 253 
0 0 250 
0 0 244 
0 0 246 
0 0 249 
0 0 244 
0 0 238 
0 0 242 
0 0 241 
0 0 250 
0 0 238 
0 0 249 
0 0 248 
0 0 244 
0 0 245 
0 0 242 
0 0 242 
0 0 240 
0 0 242 
0 0 241 
0 0 236 
0 0 240 
0 0 240 
0 0 248 
0 0 236 
0 0 237 
0 0 240 
0 0 241 
0 0 237 
0 0 240 
0 0 234 
0 0 241 
0 0 227 
0 0 230 
0 0 240 
0 0 244 
0 0 230 
0 0 224 
0 0 218 
0 0 230 
0 0 237 
0 0 217 
0 0 230 
0 0 230 
0 0 236 
0 0 221 
0 0 221 
0 0 228 
58 60 228 
220 227 252 
237 245 255 
237 245 255 
237 245 255 
237 245 255 
237 245 255 
237 245 255 
237 245 255 
237 245 255 
237 245 255 
237 245 255 
237 245 255 
237 245 255 
237 245 255 
237 245 255 
237 245 255 
237 245 255 
237 245 255 
237 245 255 
237 245 255 
237 245 255 
237 245 255 
237 245 255 
237 245 255 
237 245 255 
237 245 255 
237 245 255 
237 245 255 
237 245 255 
237 245 255 
237 245 255 
237 245 255 
237 245 255 
237 245 255 
237 245 255 
237 245 255 
237 245 255 
237 245 255 
237 245 255 
237 245 255 
237 245 255 
237 245 255 
237 245 255 
225 220 230 
216 69 72 
205 0 0 
214 0 0 
210 0 0 
210 0 0 
209 0 0 
213 0 0 
211 0 0 
210 0 0 
216 0 0 
216 0 0 
214 0 0 
211 0 0 
215 0 0 
216 0 0 
214 0 0 
214 0 0 
218 0 0 
214 0 0 
217 0 0 
217 0 0 
211 0 0 
208 0 0 
224 0 0 
220 0 0 
225 0 0 
211 0 0 
217 0 0 
223 0 0 
223 0 0 
224 0 0 
224 0 0 
219 0 0 
220 0 0 
214 0 0 
220 0 0 
211 0 0 
210 0 0 
221 0 0 
220 0 0 
225 0 0 
215 0 0 
220 0 0 
221 0 0 
222 0 0 
224 0 0 
222 0 0 
226 0 0 
223 0 0 
220 0 0 
220 0 0 
226 0 0 
218 0 0 
219 0 0 
223 0 0 
217 0 0 
220 0 0 
224 0 0 
225 0 0 
223 0 0 
227 0 0 
224 0 0 
223 0 0 
221 0 0 
219 0 0 
227 0 0 
223 0 0 
225 0 0 
225 0 0 
230 0 0 
222 0 0 
227 0 0 
228 0 0 
223 0 0 
227 0 0 
225 0 0 
226 0 0 
222 0 0 
221 0 0 
222 0 0 
222 0 0 
223 0 0 
224 0 0 
222 0 0 
222 0 0 
226 0 0 
224 0 0 
224 0 0 
225 0 0 
223 0 0 
226 0 0 
221 0 0 
229 0 0 
223 0 0 
224 0 0 
228 0 0 
230 0 0 
226 0 0 
224 0 0 
221 0 0 
228 0 0 
228 0 0 
222 0 0 
226 0 0 
223 0 0 
226 0 0 
223 0 0 
228 0 0 
223 0 0 
225 0 0 
229 0 0 
226 0 0 
225 0 0 
231 0 0 
227 0 0 
225 0 0 
229 0 0 
227 0 0 
225 0 0 
229 0 0 
226 0 0 
223 0 0 
228 0 0 
228 0 0 
227 0 0 
225 0 0 
230 0 0 
224 0 0 
228 0 0 
227 0 0 
231 0 0 
229 0 0 
227 0 0 
227 0 0 
227 0 0 
226 0 0 
227 0 0 
227 0 0 
226 0 0 
225 0 0 
226 0 0 
230 0 0 
229 0 0 
227 0 0 
228 0 0 
228 0 0 
221 0 0 
227 0 0 
228 0 0 
226 0 0 
228 0 0 
228 0 0 
225 0 0 
222 0 0 
228 0 0 
226 0 0 
227 0 0 
223 0 0 
228 0 0 
230 0 0 
227 0 0 
225 0 0 
226 0 0 
226 0 0 
227 0 0 
228 0 0 
225 0 0 
228 0 0 
225 0 0 
227 0 0 
227 0 0 
228 0 0 
224 0 0 
228 0 0 
226 0 0 
227 0 0 
227 0 0 
222 0 0 
0 0 255 
0 0 254 
0 0 255 
0 0 255 
0 0 255 
0 0 255 
0 0 255 
0 0 254 
0 0 255 
0 0 255 
0 0 254 
0 0 255 
0 0 254 
0 0 255 
0 0 255 
0 0 255 
0 0 255 
0 0 255 
0 0 255 
0 0 254 
0 0 255 
0 0 255 
0 0 254 
0 0 255 
0 0 254 
0 0 255 
0 0 255 
0 0 255 
0 0 254 
0 0 255 
0 0 255 
0 0 254 
0 0 252 
0 0 255 
0 0 254 
0 0 255 
0 0 255 
0 0 253 
0 0 255 
0 0 254 
0 0 253 
0 0 255 
0 0 255 
0 0 254 
0 0 254 
0 0 254 
0 0 255 
0 0 253 
0 0 253 
0 0 252 
0 0 253 
0 0 252 
0 0 253 
0 0 255 
0 0 253 
0 0 255 
0 0 254 
0 0 255 
0 0 254 
0 0 255 
0 0 255 
0 0 254 
0 0 255 
0 0 254 
0 0 253 
0 0 254 
0 0 254 
0 0 254 
0 0 252 
0 0 253 
0 0 250 
0 0 255 
0 0 255 
0 0 254 
0 0 250 
0 0 253 
0 0 252 
0 0 250 
0 0 252 
0 0 249 
0 0 250 
0 0 252 
0 0 252 
0 0 249 
0 0 252 
0 0 250 
0 0 249 
0 0 246 
0 0 250 
0 0 255 
0 0 248 
0 0 249 
0 0 252 
0 0 246 
0 0 253 
0 0 253 
0 0 252 
0 0 252 
0 0 253 
0 0 248 
0 0 250 
0 0 245 
0 0 253 
0 0 252 
0 0 253 
0 0 249 
0 0 250 
0 0 250 
0 0 249 
0 0 246 
0 0 248 
0 0 252 
0 0 246 
0 0 250 
0 0 249 
0 0 252 
0 0 250 
0 0 248 
0 0 250 
0 0 249 
0 0 245 
0 0 244 
0 0 246 
0 0 249 
0 0 248 
0 0 246 
0 0 245 
0 0 252 
0 0 245 
0 0 245 
0 0 249 
0 0 245 
0 0 246 
0 0 244 
0 0 244 
0 0 249 
0 0 249 
0 0 240 
0 0 241 
0 0 254 
0 0 242 
0 0 234 
0 0 237 
0 0 244 
0 0 242 
0 0 249 
0 0 250 
0 0 244 
0 0 234 
0 0 237 
0 0 242 
0 0 245 
0 0 238 
0 0 240 
0 0 224 
0 0 244 
0 0 228 
0 0 234 
0 0 240 
0 0 238 
0 0 236 
0 0 246 
0 0 242 
0 0 231 
0 0 223 
0 0 228 
0 0 237 
0 0 224 
0 0 234 
0 0 228 
0 0 226 
0 0 228 
0 0 220 
0 0 227 
0 0 221 
0 0 228 
41 42 228 
211 217 252 
237 245 255 
237 245 255 
237 245 255 
237 245 255 
237 245 255 
237 245 255 
237 245 255 
237 245 255 
237 245 255 
237 245 255 
237 245 255 
237 245 255 
237 245 255 
237 245 255 
238 245 255 
238 245 255 
238 245 255 
238 245 255 
238 245 255 
238 245 255 
238 245 255 
238 245 255 
238 245 255 
238 245 255 
238 245 255 
238 245 255 
238 245 255 
238 245 255 
238 245 255 
238 245 255 
237 245 255 
237 245 255 
237 245 255 
237 245 255 
237 245 255 
237 245 255 
237 245 255 
237 245 255 
237 245 255 
237 245 255 
237 245 255 
237 245 255 
237 245 255 
237 245 255 
231 215 224 
205 49 51 
213 0 0 
214 0 0 
214 0 0 
215 0 0 
209 0 0 
213 0 0 
219 0 0 
211 0 0 
217 0 0 
212 0 0 
216 0 0 
214 0 0 
213 0 0 
211 0 0 
219 0 0 
212 0 0 
219 0 0 
218 0 0 
209 0 0 
218 0 0 
221 0 0 
215 0 0 
209 0 0 
220 0 0 
224 0 0 
205 0 0 
219 0 0 
223 0 0 
222 0 0 
211 0 0 
220 0 0 
220 0 0 
223 0 0 
224 0 0 
221 0 0 
224 0 0 
222 0 0 
222 0 0 
220 0 0 
225 0 0 
231 0 0 
217 0 0 
215 0 0 
224 0 0 
213 0 0 
220 0 0 
218 0 0 
219 0 0 
216 0 0 
230 0 0 
226 0 0 
217 0 0 
221 0 0 
227 0 0 
226 0 0 
224 0 0 
225 0 0 
219 0 0 
214 0 0 
229 0 0 
226 0 0 
223 0 0 
223 0 0 
218 0 0 
221 0 0 
225 0 0 
229 0 0 
224 0 0 
224 0 0 
228 0 0 
219 0 0 
221 0 0 
224 0 0 
220 0 0 
227 0 0 
226 0 0 
226 0 0 
222 0 0 
227 0 0 
225 0 0 
223 0 0 
223 0 0 
221 0 0 
223 0 0 
226 0 0 
223 0 0 
225 0 0 
225 0 0 
222 0 0 
225 0 0 
226 0 0 
226 0 0 
225 0 0 
226 0 0 
220 0 0 
223 0 0 
229 0 0 
227 0 0 
227 0 0 
225 0 0 
225 0 0 
230 0 0 
224 0 0 
227 0 0 
225 0 0 
226 0 0 
225 0 0 
225 0 0 
229 0 0 
225 0 0 
228 0 0 
231 0 0 
224 0 0 
226 0 0 
230 0 0 
225 0 0 
225 0 0 
226 0 0 
230 0 0 
222 0 0 
226 0 0 
220 0 0 
228 0 0 
225 0 0 
227 0 0 
229 0 0 
227 0 0 
226 0 0 
226 0 0 
230 0 0 
228 0 0 
226 0 0 
227 0 0 
226 0 0 
228 0 0 
224 0 0 
228 0 0 
225 0 0 
230 0 0 
225 0 0 
226 0 0 
225 0 0 
227 0 0 
226 0 0 
226 0 0 
226 0 0 
229 0 0 
229 0 0 
230 0 0 
229 0 0 
226 0 0 
227 0 0 
226 0 0 
227 0 0 
229 0 0 
229 0 0 
225 0 0 
227 0 0 
227 0 0 
226 0 0 
227 0 0 
226 0 0 
229 0 0 
225 0 0 
228 0 0 
228 0 0 
228 0 0 
222 0 0 
228 0 0 
230 0 0 
222 0 0 
229 0 0 
226 0 0 
227 0 0 
229 0 0 
226 0 0 
0 0 253 
0 0 255 
0 0 255 
0 0 254 
0 0 254 
0 0 255 
0 0 255 
0 0 254 
0 0 255 
0 0 254 
0 0 255 
0 0 254 
0 0 255 
0 0 255 
0 0 254 
0 0 254 
0 0 255 
0 0 253 
0 0 255 
0 0 255 
0 0 255 
0 0 255 
0 0 255 
0 0 254 
0 0 254 
0 0 255 
0 0 254 
0 0 255 
0 0 255 
0 0 253 
0 0 254 
0 0 255 
0 0 254 
0 0 253 
0 0 255 
0 0 254 
0 0 255 
0 0 255 
0 0 254 
0 0 255 
0 0 254 
0 0 254 
0 0 255 
0 0 255 
0 0 255 
0 0 255 
0 0 254 
0 0 255 
0 0 253 
0 0 253 
0 0 255 
0 0 255 
0 0 254 
0 0 252 
0 0 254 
0 0 254 
0 0 252 
0 0 253 
0 0 254 
0 0 254 
0 0 252 
0 0 254 
0 0 252 
0 0 250 
0 0 254 
0 0 252 
0 0 254 
0 0 254 
0 0 254 
0 0 253 
0 0 254 
0 0 252 
0 0 248 
0 0 255 
0 0 253 
0 0 254 
0 0 254 
0 0 253 
0 0 254 
0 0 255 
0 0 253 
0 0 253 
0 0 255 
0 0 252 
0 0 249 
0 0 252 
0 0 252 
0 0 249 
0 0 252 
0 0 254 
0 0 252 
0 0 252 
0 0 249 
0 0 253 
0 0 249 
0 0 250 
0 0 249 
0 0 253 
0 0 249 
0 0 254 
0 0 250 
0 0 253 
0 0 254 
0 0 249 
0 0 252 
0 0 246 
0 0 249 
0 0 252 
0 0 245 
0 0 252 
0 0 250 
0 0 248 
0 0 244 
0 0 249 
0 0 252 
0 0 244 
0 0 245 
0 0 252 
0 0 248 
0 0 249 
0 0 248 
0 0 238 
0 0 245 
0 0 246 
0 0 246 
0 0 249 
0 0 249 
0 0 250 
0 0 246 
0 0 248 
0 0 248 
0 0 248 
0 0 242 
0 0 245 
0 0 240 
0 0 249 
0 0 241 
0 0 240 
0 0 241 
0 0 238 
0 0 245 
0 0 242 
0 0 241 
0 0 245 
0 0 238 
0 0 246 
0 0 241 
0 0 241 
0 0 244 
0 0 244 
0 0 244 
0 0 242 
0 0 242 
0 0 245 
0 0 237 
0 0 240 
0 0 231 
0 0 241 
0 0 233 
0 0 244 
0 0 236 
0 0 238 
0 0 233 
0 0 228 
0 0 234 
0 0 233 
0 0 233 
0 0 230 
0 0 221 
0 0 227 
0 0 230 
0 0 230 
0 0 240 
0 0 227 
0 0 226 
0 0 227 
194 200 249 
238 245 255 
238 245 255 
238 245 255 
238 245 255 
238 245 255 
238 245 255 
238 245 255 
238 245 255 
238 245 255 
238 245 255 
238 245 255 
238 245 255 
238 245 255 
238 245 255 
238 245 255 
238 245 255 
238 245 255 
238 245 255 
238 245 255 
238 245 255 
238 245 255 
238 245 255 
238 245 255 
238 245 255 
238 245 255 
238 245 255 
238 245 255 
238 245 255 
238 245 255 
238 245 255 
238 245 255 
238 245 255 
238 245 255 
238 245 255 
238 245 255 
238 245 255 
238 245 255 
238 245 255 
238 245 255 
238 245 255 
238 245 255 
238 245 255 
238 245 255 
238 245 255 
238 245 255 
237 245 255 
228 181 189 
215 0 0 
211 0 0 
211 0 0 
219 0 0 
211 0 0 
204 0 0 
207 0 0 
218 0 0 
210 0 0 
209 0 0 
216 0 0 
220 0 0 
222 0 0 
221 0 0 
216 0 0 
214 0 0 
203 0 0 
214 0 0 
223 0 0 
217 0 0 
220 0 0 
215 0 0 
217 0 0 
216 0 0 
218 0 0 
211 0 0 
212 0 0 
220 0 0 
227 0 0 
221 0 0 
222 0 0 
215 0 0 
215 0 0 
222 0 0 
225 0 0 
221 0 0 
220 0 0 
221 0 0 
222 0 0 
218 0 0 
221 0 0 
220 0 0 
227 0 0 
223 0 0 
226 0 0 
221 0 0 
228 0 0 
222 0 0 
227 0 0 
221 0 0 
219 0 0 
227 0 0 
228 0 0 
224 0 0 
225 0 0 
228 0 0 
226 0 0 
224 0 0 
226 0 0 
221 0 0 
224 0 0 
228 0 0 
221 0 0 
227 0 0 
225 0 0 
226 0 0 
222 0 0 
224 0 0 
222 0 0 
224 0 0 
224 0 0 
222 0 0 
230 0 0 
225 0 0 
224 0 0 
227 0 0 
223 0 0 
222 0 0 
225 0 0 
226 0 0 
224 0 0 
227 0 0 
222 0 0 
228 0 0 
222 0 0 
224 0 0 
226 0 0 
226 0 0 
226 0 0 
226 0 0 
224 0 0 
226 0 0 
223 0 0 
226 0 0 
226 0 0 
221 0 0 
227 0 0 
223 0 0 
224 0 0 
224 0 0 
228 0 0 
224 0 0 
227 0 0 
225 0 0 
232 0 0 
225 0 0 
223 0 0 
225 0 0 
229 0 0 
229 0 0 
224 0 0 
225 0 0 
228 0 0 
227 0 0 
224 0 0 
225 0 0 
222 0 0 
224 0 0 
226 0 0 
227 0 0 
225 0 0 
228 0 0 
227 0 0 
230 0 0 
226 0 0 
230 0 0 
224 0 0 
227 0 0 
229 0 0 
223 0 0 
225 0 0 
225 0 0 
227 0 0 
228 0 0 
224 0 0 
229 0 0 
227 0 0 
225 0 0 
224 0 0 
227 0 0 
225 0 0 
228 0 0 
226 0 0 
228 0 0 
229 0 0 
228 0 0 
225 0 0 
230 0 0 
228 0 0 
227 0 0 
224 0 0 
228 0 0 
226 0 0 
228 0 0 
226 0 0 
227 0 0 
230 0 0 
227 0 0 
226 0 0 
227 0 0 
224 0 0 
227 0 0 
226 0 0 
227 0 0 
230 0 0 
228 0 0 
224 0 0 
229 0 0 
223 0 0 
227 0 0 
226 0 0 
229 0 0 
229 0 0 
226 0 0 
227 0 0 
227 0 0 
0 0 254 
0 0 255 
0 0 255 
0 0 255 
0 0 255 
0 0 255 
0 0 255 
0 0 254 
0 0 255 
0 0 255 
0 0 254 
0 0 254 
0 0 255 
0 0 255 
0 0 255 
0 0 255 
0 0 255 
0 0 255 
0 0 255 
0 0 255 
0 0 255 
0 0 254 
0 0 255 
0 0 253 
0 0 254 
0 0 253 
0 0 255 
0 0 255 
0 0 254 
0 0 252 
0 0 254 
0 0 255 
0 0 255 
0 0 255 
0 0 255 
0 0 254 
0 0 254 
0 0 255 
0 0 255 
0 0 254 
0 0 254 
0 0 254 
0 0 255 
0 0 255 
0 0 255 
0 0 252 
0 0 255 
0 0 253 
0 0 252 
0 0 254 
0 0 254 
0 0 249 
0 0 253 
0 0 254 
0 0 254 
0 0 254 
0 0 253 
0 0 255 
0 0 253 
0 0 253 
0 0 253 
0 0 255 
0 0 252 
0 0 253 
0 0 255 
0 0 253 
0 0 253 
0 0 253 
0 0 254 
0 0 253 
0 0 255 
0 0 252 
0 0 253 
0 0 254 
0 0 253 
0 0 249 
0 0 255 
0 0 250 
0 0 255 
0 0 249 
0 0 254 
0 0 253 
0 0 250 
0 0 254 
0 0 249 
0 0 249 
0 0 253 
0 0 248 
0 0 250 
0 0 245 
0 0 253 
0 0 250 
0 0 249 
0 0 252 
0 0 252 
0 0 252 
0 0 249 
0 0 253 
0 0 252 
0 0 250 
0 0 249 
0 0 253 
0 0 249 
0 0 250 
0 0 246 
0 0 250 
0 0 250 
0 0 252 
0 0 250 
0 0 244 
0 0 254 
0 0 253 
0 0 249 
0 0 250 
0 0 249 
0 0 250 
0 0 248 
0 0 246 
0 0 242 
0 0 248 
0 0 250 
0 0 248 
0 0 249 
0 0 246 
0 0 240 
0 0 245 
0 0 240 
0 0 248 
0 0 248 
0 0 240 
0 0 245 
0 0 249 
0 0 242 
0 0 248 
0 0 244 
0 0 248 
0 0 242 
0 0 244 
0 0 237 
0 0 244 
0 0 242 
0 0 246 
0 0 250 
0 0 245 
0 0 242 
0 0 249 
0 0 234 
0 0 241 
0 0 246 
0 0 245 
0 0 241 
0 0 245 
0 0 236 
0 0 241 
0 0 240 
0 0 233 
0 0 240 
0 0 234 
0 0 238 
0 0 241 
0 0 241 
0 0 233 
0 0 230 
0 0 236 
0 0 242 
0 0 230 
0 0 227 
0 0 236 
0 0 227 
0 0 228 
0 0 233 
0 0 226 
0 0 234 
0 0 238 
0 0 223 
163 168 238 
238 245 255 
238 245 255 
238 245 255 
238 245 255 
238 245 255 
238 245 255 
238 245 255 
238 245 255 
238 245 255 
238 245 255 
238 245 255 
238 245 255 
238 245 255 
238 245 255 
238 245 255 
238 245 255 
238 245 255 
238 245 255 
238 245 255 
238 245 255 
238 245 255 
238 245 255 
238 245 255 
238 245 255 
238 245 255 
238 245 255 
238 245 255 
238 245 255 
238 245 255 
238 245 255 
238 245 255 
238 245 255 
238 245 255 
238 245 255 
238 245 255 
238 245 255 
238 245 255 
238 245 255 
238 245 255 
238 245 255 
238 245 255 
238 245 255 
238 245 255 
238 245 255 
238 245 255 
238 245 255 
238 245 255 
238 245 255 
225 157 163 
212 0 0 
220 0 0 
201 0 0 
219 0 0 
210 0 0 
204 0 0 
218 0 0 
209 0 0 
218 0 0 
219 0 0 
217 0 0 
216 0 0 
211 0 0 
220 0 0 
221 0 0 
222 0 0 
221 0 0 
211 0 0 
216 0 0 
223 0 0 
216 0 0 
223 0 0 
216 0 0 
217 0 0 
217 0 0 
221 0 0 
222 0 0 
213 0 0 
220 0 0 
216 0 0 
227 0 0 
219 0 0 
215 0 0 
219 0 0 
218 0 0 
216 0 0 
223 0 0 
225 0 0 
219 0 0 
222 0 0 
224 0 0 
218 0 0 
226 0 0 
220 0 0 
220 0 0 
229 0 0 
217 0 0 
227 0 0 
220 0 0 
226 0 0 
219 0 0 
226 0 0 
221 0 0 
227 0 0 
223 0 0 
220 0 0 
229 0 0 
225 0 0 
225 0 0 
222 0 0 
224 0 0 
228 0 0 
222 0 0 
224 0 0 
222 0 0 
228 0 0 
222 0 0 
224 0 0 
224 0 0 
230 0 0 
225 0 0 
221 0 0 
225 0 0 
228 0 0 
223 0 0 
222 0 0 
221 0 0 
222 0 0 
224 0 0 
221 0 0 
229 0 0 
223 0 0 
228 0 0 
224 0 0 
227 0 0 
227 0 0 
222 0 0 
224 0 0 
232 0 0 
227 0 0 
223 0 0 
224 0 0 
224 0 0 
225 0 0 
230 0 0 
220 0 0 
228 0 0 
230 0 0 
229 0 0 
225 0 0 
231 0 0 
224 0 0 
229 0 0 
230 0 0 
227 0 0 
231 0 0 
224 0 0 
226 0 0 
227 0 0 
229 0 0 
226 0 0 
230 0 0 
227 0 0 
232 0 0 
225 0 0 
227 0 0 
227 0 0 
227 0 0 
223 0 0 
229 0 0 
225 0 0 
227 0 0 
226 0 0 
228 0 0 
226 0 0 
226 0 0 
227 0 0 
226 0 0 
225 0 0 
226 0 0 
225 0 0 
226 0 0 
227 0 0 
228 0 0 
223 0 0 
228 0 0 
223 0 0 
225 0 0 
228 0 0 
224 0 0 
226 0 0 
228 0 0 
228 0 0 
224 0 0 
224 0 0 
227 0 0 
227 0 0 
225 0 0 
225 0 0 
225 0 0 
229 0 0 
227 0 0 
225 0 0 
225 0 0 
227 0 0 
227 0 0 
227 0 0 
224 0 0 
224 0 0 
228 0 0 
226 0 0 
228 0 0 
223 0 0 
227 0 0 
227 0 0 
224 0 0 
229 0 0 
227 0 0 
228 0 0 
229 0 0 
222 0 0 
226 0 0 
225 0 0 
225 0 0 
229 0 0 
0 0 255 
0 0 255 
0 0 254 
0 0 255 
0 0 254 
0 0 254 
0 0 254 
0 0 255 
0 0 255 
0 0 253 
0 0 255 
0 0 254 
0 0 255 
0 0 254 
0 0 255 
0 0 255 
0 0 255 
0 0 254 
0 0 255 
0 0 254 
0 0 254 
0 0 255 
0 0 255 
0 0 255 
0 0 254 
0 0 254 
0 0 253 
0 0 255 
0 0 254 
0 0 255 
0 0 255 
0 0 255 
0 0 254 
0 0 255 
0 0 254 
0 0 253 
0 0 254 
0 0 255 
0 0 254 
0 0 254 
0 0 254 
0 0 254 
0 0 255 
0 0 253 
0 0 254 
0 0 253 
0 0 254 
0 0 255 
0 0 254 
0 0 253 
0 0 254 
0 0 254 
0 0 253 
0 0 250 
0 0 255 
0 0 252 
0 0 252 
0 0 253 
0 0 255 
0 0 254 
0 0 253 
0 0 253 
0 0 252 
0 0 253 
0 0 253 
0 0 248 
0 0 253 
0 0 250 
0 0 254 
0 0 255 
0 0 254 
0 0 253 
0 0 254 
0 0 253 
0 0 252 
0 0 254 
0 0 253 
0 0 252 
0 0 252 
0 0 254 
0 0 255 
0 0 250 
0 0 254 
0 0 253 
0 0 253 
0 0 253 
0 0 253 
0 0 244 
0 0 250 
0 0 246 
0 0 254 
0 0 246 
0 0 253 
0 0 252 
0 0 248 
0 0 252 
0 0 249 
0 0 252 
0 0 248 
0 0 250 
0 0 253 
0 0 252 
0 0 252 
0 0 250 
0 0 250 
0 0 248 
0 0 253 
0 0 242 
0 0 248 
0 0 250 
0 0 249 
0 0 254 
0 0 252 
0 0 242 
0 0 246 
0 0 249 
0 0 246 
0 0 252 
0 0 254 
0 0 245 
0 0 252 
0 0 250 
0 0 250 
0 0 244 
0 0 245 
0 0 241 
0 0 253 
0 0 248 
0 0 248 
0 0 242 
0 0 249 
0 0 248 
0 0 244 
0 0 245 
0 0 240 
0 0 244 
0 0 246 
0 0 245 
0 0 234 
0 0 242 
0 0 248 
0 0 246 
0 0 245 
0 0 236 
0 0 244 
0 0 244 
0 0 246 
0 0 237 
0 0 241 
0 0 240 
0 0 236 
0 0 236 
0 0 246 
0 0 240 
0 0 241 
0 0 234 
0 0 241 
0 0 238 
0 0 234 
0 0 240 
0 0 236 
0 0 237 
0 0 230 
0 0 238 
0 0 231 
0 0 234 
0 0 238 
0 0 237 
0 0 236 
0 0 238 
0 0 238 
0 0 237 
0 0 234 
0 0 227 
146 151 242 
238 245 255 
238 245 255 
238 245 255 
238 245 255 
238 245 255 
238 245 255 
238 245 255 
238 245 255 
238 245 255 
238 245 255 
238 245 255 
238 245 255 
238 245 255 
238 245 255 
238 245 255 
238 245 255 
238 245 255 
238 245 255 
238 245 255 
238 245 255 
238 245 255 
238 245 255 
238 245 255 
238 245 255 
238 245 255 
238 245 255 
238 245 255 
238 245 255 
238 245 255 
238 245 255 
238 245 255 
238 245 255 
238 245 255 
238 245 255 
238 245 255 
238 245 255 
238 245 255 
238 245 255 
238 245 255 
238 245 255 
238 245 255 
238 245 255 
238 245 255 
238 245 255 
238 245 255 
238 245 255 
238 245 255 
238 245 255 
238 245 255 
238 245 255 
231 173 181 
215 0 0 
217 0 0 
210 0 0 
214 0 0 
211 0 0 
220 0 0 
217 0 0 
214 0 0 
220 0 0 
215 0 0 
215 0 0 
219 0 0 
217 0 0 
209 0 0 
220 0 0 
217 0 0 
223 0 0 
223 0 0 
226 0 0 
216 0 0 
217 0 0 
224 0 0 
229 0 0 
225 0 0 
224 0 0 
224 0 0 
223 0 0 
225 0 0 
221 0 0 
217 0 0 
223 0 0 
224 0 0 
222 0 0 
227 0 0 
222 0 0 
223 0 0 
225 0 0 
221 0 0 
221 0 0 
217 0 0 
225 0 0 
218 0 0 
217 0 0 
224 0 0 
230 0 0 
224 0 0 
225 0 0 
221 0 0 
223 0 0 
220 0 0 
223 0 0 
223 0 0 
224 0 0 
227 0 0 
223 0 0 
226 0 0 
227 0 0 
224 0 0 
227 0 0 
218 0 0 
220 0 0 
220 0 0 
224 0 0 
227 0 0 
227 0 0 
226 0 0 
226 0 0 
224 0 0 
221 0 0 
220 0 0 
228 0 0 
225 0 0 
228 0 0 
221 0 0 
225 0 0 
229 0 0 
228 0 0 
227 0 0 
229 0 0 
229 0 0 
225 0 0 
225 0 0 
223 0 0 
227 0 0 
221 0 0 
224 0 0 
229 0 0 
225 0 0 
220 0 0 
225 0 0 
227 0 0 
225 0 0 
225 0 0 
226 0 0 
227 0 0 
224 0 0 
226 0 0 
226 0 0 
226 0 0 
226 0 0 
228 0 0 
229 0 0 
222 0 0 
224 0 0 
222 0 0 
224 0 0 
219 0 0 
225 0 0 
229 0 0 
226 0 0 
227 0 0 
230 0 0 
228 0 0 
225 0 0 
222 0 0 
225 0 0 
231 0 0 
226 0 0 
226 0 0 
230 0 0 
227 0 0 
224 0 0 
227 0 0 
226 0 0 
228 0 0 
227 0 0 
228 0 0 
228 0 0 
227 0 0 
228 0 0 
227 0 0 
232 0 0 
226 0 0 
226 0 0 
228 0 0 
224 0 0 
227 0 0 
227 0 0 
226 0 0 
229 0 0 
227 0 0 
227 0 0 
232 0 0 
230 0 0 
227 0 0 
229 0 0 
229 0 0 
230 0 0 
227 0 0 
227 0 0 
229 0 0 
229 0 0 
229 0 0 
226 0 0 
227 0 0 
228 0 0 
226 0 0 
231 0 0 
227 0 0 
231 0 0 
226 0 0 
224 0 0 
226 0 0 
226 0 0 
227 0 0 
228 0 0 
228 0 0 
224 0 0 
226 0 0 
228 0 0 
229 0 0 
230 0 0 
228 0 0 
223 0 0 
0 0 254 
0 0 255 
0 0 254 
0 0 255 
0 0 255 
0 0 254 
0 0 254 
0 0 255 
0 0 255 
0 0 254 
0 0 255 
0 0 255 
0 0 254 
0 0 255 
0 0 255 
0 0 255 
0 0 254 
0 0 255 
0 0 255 
0 0 254 
0 0 254 
0 0 255 
0 0 255 
0 0 255 
0 0 255 
0 0 255 
0 0 253 
0 0 255 
0 0 254 
0 0 250 
0 0 254 
0 0 255 
0 0 255 
0 0 255 
0 0 255 
0 0 255 
0 0 255 
0 0 254 
0 0 253 
0 0 254 
0 0 253 
0 0 254 
0 0 253 
0 0 253 
0 0 253 
0 0 253 
0 0 252 
0 0 254 
0 0 255 
0 0 253 
0 0 250 
0 0 253 
0 0 255 
0 0 254 
0 0 254 
0 0 253 
0 0 254 
0 0 255 
0 0 253 
0 0 255 
0 0 253 
0 0 252 
0 0 252 
0 0 254 
0 0 252 
0 0 254 
0 0 253 
0 0 254 
0 0 253 
0 0 255 
0 0 248 
0 0 253 
0 0 253 
0 0 253 
0 0 252 
0 0 253 
0 0 252 
0 0 254 
0 0 253 
0 0 252 
0 0 250 
0 0 254 
0 0 254 
0 0 254 
0 0 254 
0 0 253 
0 0 253 
0 0 253 
0 0 252 
0 0 245 
0 0 253 
0 0 252 
0 0 254 
0 0 253 
0 0 250 
0 0 252 
0 0 245 
0 0 252 
0 0 252 
0 0 253 
0 0 250 
0 0 245 
0 0 253 
0 0 250 
0 0 246 
0 0 253 
0 0 253 
0 0 248 
0 0 248 
0 0 244 
0 0 250 
0 0 249 
0 0 248 
0 0 249 
0 0 249 
0 0 254 
0 0 246 
0 0 248 
0 0 252 
0 0 252 
0 0 248 
0 0 245 
0 0 255 
0 0 250 
0 0 242 
0 0 241 
0 0 241 
0 0 246 
0 0 246 
0 0 250 
0 0 246 
0 0 245 
0 0 245 
0 0 244 
0 0 249 
0 0 241 
0 0 244 
0 0 242 
0 0 250 
0 0 248 
0 0 248 
0 0 244 
0 0 241 
0 0 241 
0 0 244 
0 0 245 
0 0 240 
0 0 242 
0 0 236 
0 0 244 
0 0 244 
0 0 238 
0 0 241 
0 0 233 
0 0 242 
0 0 231 
0 0 237 
0 0 249 
0 0 234 
0 0 237 
0 0 238 
0 0 237 
0 0 237 
0 0 241 
0 0 236 
0 0 234 
0 0 226 
0 0 228 
0 0 236 
0 0 221 
0 0 230 
0 0 238 
0 0 238 
134 138 245 
238 245 255 
238 245 255 
238 245 255 
238 245 255 
238 245 255 
238 245 255 
238 245 255 
238 245 255 
238 245 255 
238 245 255 
238 245 255 
238 245 255 
238 245 255 
238 245 255 
238 245 255 
238 245 255 
238 245 255 
238 245 255 
238 245 255 
238 245 255 
238 245 255 
238 245 255 
238 245 255 
238 245 255 
238 245 255 
238 245 255 
238 245 255 
238 245 255 
238 245 255 
238 245 255 
238 245 255 
238 245 255 
238 245 255 
238 245 255 
238 245 255 
238 245 255 
238 245 255 
238 245 255 
238 245 255 
238 245 255 
238 245 255 
238 245 255 
238 245 255 
238 245 255 
238 245 255 
238 245 255 
238 245 255 
238 245 255 
238 245 255 
238 245 255 
238 245 255 
238 245 255 
228 162 169 
224 0 0 
220 0 0 
219 0 0 
224 0 0 
219 0 0 
216 0 0 
223 0 0 
220 0 0 
220 0 0 
217 0 0 
225 0 0 
226 0 0 
226 0 0 
206 0 0 
219 0 0 
220 0 0 
215 0 0 
220 0 0 
216 0 0 
219 0 0 
225 0 0 
222 0 0 
221 0 0 
225 0 0 
223 0 0 
223 0 0 
224 0 0 
222 0 0 
217 0 0 
218 0 0 
225 0 0 
225 0 0 
223 0 0 
214 0 0 
222 0 0 
216 0 0 
228 0 0 
223 0 0 
221 0 0 
223 0 0 
227 0 0 
219 0 0 
220 0 0 
221 0 0 
221 0 0 
228 0 0 
220 0 0 
228 0 0 
221 0 0 
222 0 0 
218 0 0 
223 0 0 
223 0 0 
224 0 0 
225 0 0 
222 0 0 
220 0 0 
229 0 0 
230 0 0 
223 0 0 
225 0 0 
223 0 0 
232 0 0 
221 0 0 
227 0 0 
222 0 0 
225 0 0 
225 0 0 
224 0 0 
226 0 0 
227 0 0 
227 0 0 
224 0 0 
223 0 0 
227 0 0 
224 0 0 
228 0 0 
227 0 0 
226 0 0 
230 0 0 
229 0 0 
222 0 0 
226 0 0 
220 0 0 
226 0 0 
222 0 0 
227 0 0 
218 0 0 
228 0 0 
231 0 0 
230 0 0 
227 0 0 
226 0 0 
230 0 0 
226 0 0 
226 0 0 
226 0 0 
224 0 0 
223 0 0 
227 0 0 
224 0 0 
225 0 0 
230 0 0 
224 0 0 
221 0 0 
228 0 0 
229 0 0 
228 0 0 
223 0 0 
227 0 0 
226 0 0 
226 0 0 
225 0 0 
230 0 0 
225 0 0 
225 0 0 
231 0 0 
222 0 0 
225 0 0 
225 0 0 
226 0 0 
229 0 0 
225 0 0 
229 0 0 
228 0 0 
225 0 0 
225 0 0 
226 0 0 
226 0 0 
225 0 0 
229 0 0 
227 0 0 
222 0 0 
229 0 0 
224 0 0 
228 0 0 
228 0 0 
226 0 0 
226 0 0 
230 0 0 
227 0 0 
226 0 0 
230 0 0 
223 0 0 
226 0 0 
226 0 0 
224 0 0 
227 0 0 
223 0 0 
230 0 0 
229 0 0 
226 0 0 
231 0 0 
226 0 0 
226 0 0 
229 0 0 
227 0 0 
227 0 0 
228 0 0 
228 0 0 
228 0 0 
228 0 0 
225 0 0 
225 0 0 
225 0 0 
229 0 0 
225 0 0 
224 0 0 
229 0 0 
226 0 0 
228 0 0 
227 0 0 
225 0 0 
0 0 255 
0 0 255 
0 0 255 
0 0 254 
0 0 255 
0 0 254 
0 0 255 
0 0 255 
0 0 255 
0 0 252 
0 0 253 
0 0 255 
0 0 255 
0 0 254 
0 0 254 
0 0 255 
0 0 255 
0 0 255 
0 0 255 
0 0 253 
0 0 254 
0 0 255 
0 0 254 
0 0 255 
0 0 255 
0 0 254 
0 0 254 
0 0 254 
0 0 254 
0 0 254 
0 0 255 
0 0 255 
0 0 253 
0 0 255 
0 0 253 
0 0 255 
0 0 254 
0 0 255 
0 0 254 
0 0 254 
0 0 254 
0 0 254 
0 0 254 
0 0 255 
0 0 252 
0 0 254 
0 0 254 
0 0 255 
0 0 255 
0 0 254 
0 0 254 
0 0 252 
0 0 255 
0 0 253 
0 0 254 
0 0 253 
0 0 255 
0 0 254 
0 0 250 
0 0 254 
0 0 255 
0 0 254 
0 0 252 
0 0 254 
0 0 252 
0 0 254 
0 0 254 
0 0 255 
0 0 253 
0 0 253 
0 0 250 
0 0 254 
0 0 254 
0 0 254 
0 0 252 
0 0 250 
0 0 253 
0 0 253 
0 0 252 
0 0 246 
0 0 250 
0 0 250 
0 0 254 
0 0 252 
0 0 253 
0 0 253 
0 0 254 
0 0 250 
0 0 250 
0 0 252 
0 0 249 
0 0 250 
0 0 254 
0 0 253 
0 0 254 
0 0 244 
0 0 250 
0 0 252 
0 0 250 
0 0 249 
0 0 246 
0 0 252 
0 0 255 
0 0 250 
0 0 250 
0 0 249 
0 0 254 
0 0 254 
0 0 250 
0 0 253 
0 0 244 
0 0 248 
0 0 249 
0 0 250 
0 0 253 
0 0 253 
0 0 249 
0 0 250 
0 0 246 
0 0 249 
0 0 254 
0 0 253 
0 0 246 
0 0 248 
0 0 250 
0 0 248 
0 0 244 
0 0 246 
0 0 249 
0 0 248 
0 0 244 
0 0 246 
0 0 248 
0 0 255 
0 0 244 
0 0 245 
0 0 245 
0 0 246 
0 0 237 
0 0 241 
0 0 248 
0 0 248 
0 0 245 
0 0 249 
0 0 240 
0 0 242 
0 0 242 
0 0 249 
0 0 245 
0 0 233 
0 0 248 
0 0 244 
0 0 248 
0 0 245 
0 0 244 
0 0 241 
0 0 242 
0 0 228 
0 0 238 
0 0 237 
0 0 226 
0 0 230 
0 0 241 
0 0 234 
0 0 241 
0 0 238 
0 0 231 
0 0 236 
0 0 227 
0 0 231 
0 0 234 
0 0 230 
135 139 233 
237 244 255 
238 245 255 
238 245 255 
238 245 255 
238 245 255 
238 245 255 
238 245 255 
238 245 255 
238 245 255 
238 245 255 
238 245 255 
238 245 255 
238 245 255 
238 245 255 
238 245 255 
239 245 255 
239 245 255 
239 245 255 
239 245 255 
239 245 255 
239 245 255 
239 245 255 
239 245 255 
239 245 255 
239 245 255 
239 245 255 
239 245 255 
239 245 255 
239 245 255 
239 245 255 
239 245 255 
239 245 255 
239 245 255 
239 245 255 
239 245 255 
239 245 255 
239 245 255 
239 245 255 
239 245 255 
238 245 255 
238 245 255 
238 245 255 
238 245 255 
238 245 255 
238 245 255 
238 245 255 
238 245 255 
238 245 255 
238 245 255 
238 245 255 
238 245 255 
238 245 255 
238 245 255 
238 244 254 
225 125 130 
224 0 0 
222 0 0 
217 0 0 
215 0 0 
223 0 0 
220 0 0 
213 0 0 
213 0 0 
214 0 0 
218 0 0 
224 0 0 
223 0 0 
211 0 0 
217 0 0 
230 0 0 
218 0 0 
224 0 0 
215 0 0 
215 0 0 
215 0 0 
224 0 0 
223 0 0 
220 0 0 
225 0 0 
222 0 0 
224 0 0 
223 0 0 
220 0 0 
226 0 0 
224 0 0 
218 0 0 
228 0 0 
217 0 0 
225 0 0 
217 0 0 
223 0 0 
220 0 0 
218 0 0 
221 0 0 
219 0 0 
218 0 0 
223 0 0 
222 0 0 
224 0 0 
224 0 0 
222 0 0 
226 0 0 
227 0 0 
218 0 0 
225 0 0 
225 0 0 
231 0 0 
219 0 0 
220 0 0 
221 0 0 
222 0 0 
220 0 0 
226 0 0 
226 0 0 
228 0 0 
222 0 0 
224 0 0 
227 0 0 
224 0 0 
224 0 0 
223 0 0 
224 0 0 
224 0 0 
223 0 0 
227 0 0 
225 0 0 
223 0 0 
230 0 0 
224 0 0 
220 0 0 
226 0 0 
228 0 0 
230 0 0 
223 0 0 
225 0 0 
227 0 0 
225 0 0 
226 0 0 
216 0 0 
225 0 0 
227 0 0 
225 0 0 
223 0 0 
228 0 0 
224 0 0 
226 0 0 
226 0 0 
226 0 0 
223 0 0 
221 0 0 
225 0 0 
227 0 0 
228 0 0 
227 0 0 
222 0 0 
224 0 0 
224 0 0 
221 0 0 
225 0 0 
223 0 0 
229 0 0 
226 0 0 
222 0 0 
225 0 0 
225 0 0 
225 0 0 
224 0 0 
225 0 0 
228 0 0 
226 0 0 
228 0 0 
224 0 0 
231 0 0 
228 0 0 
228 0 0 
226 0 0 
220 0 0 
224 0 0 
223 0 0 
225 0 0 
223 0 0 
226 0 0 
230 0 0 
228 0 0 
226 0 0 
228 0 0 
225 0 0 
225 0 0 
223 0 0 
228 0 0 
226 0 0 
228 0 0 
227 0 0 
226 0 0 
225 0 0 
229 0 0 
226 0 0 
228 0 0 
228 0 0 
229 0 0 
228 0 0 
227 0 0 
227 0 0 
228 0 0 
227 0 0 
226 0 0 
227 0 0 
229 0 0 
229 0 0 
228 0 0 
227 0 0 
226 0 0 
227 0 0 
225 0 0 
226 0 0 
225 0 0 
228 0 0 
224 0 0 
228 0 0 
228 0 0 
228 0 0 
226 0 0 
227 0 0 
225 0 0 
229 0 0 
231 0 0 
224 0 0 
0 0 254 
0 0 255 
0 0 255 
0 0 254 
0 0 255 
0 0 254 
0 0 255 
0 0 254 
0 0 255 
0 0 254 
0 0 255 
0 0 255 
0 0 255 
0 0 255 
0 0 255 
0 0 254 
0 0 255 
0 0 255 
0 0 255 
0 0 253 
0 0 253 
0 0 253 
0 0 254 
0 0 255 
0 0 254 
0 0 255 
0 0 254 
0 0 252 
0 0 252 
0 0 255 
0 0 254 
0 0 254 
0 0 253 
0 0 255 
0 0 255 
0 0 253 
0 0 255 
0 0 254 
0 0 252 
0 0 254 
0 0 255 
0 0 255 
0 0 254 
0 0 253 
0 0 255 
0 0 254 
0 0 255 
0 0 255 
0 0 252 
0 0 255 
0 0 255 
0 0 254 
0 0 252 
0 0 255 
0 0 254 
0 0 254 
0 0 254 
0 0 249 
0 0 255 
0 0 252 
0 0 253 
0 0 254 
0 0 255 
0 0 252 
0 0 252 
0 0 253 
0 0 254 
0 0 255 
0 0 255 
0 0 250 
0 0 254 
0 0 255 
0 0 250 
0 0 254 
0 0 253 
0 0 252 
0 0 254 
0 0 254 
0 0 253 
0 0 249 
0 0 254 
0 0 252 
0 0 254 
0 0 255 
0 0 246 
0 0 253 
0 0 253 
0 0 249 
0 0 249 
0 0 252 
0 0 254 
0 0 253 
0 0 249 
0 0 253 
0 0 250 
0 0 248 
0 0 250 
0 0 252 
0 0 249 
0 0 252 
0 0 248 
0 0 248 
0 0 252 
0 0 249 
0 0 250 
0 0 249 
0 0 249 
0 0 252 
0 0 252 
0 0 253 
0 0 248 
0 0 248 
0 0 253 
0 0 246 
0 0 246 
0 0 249 
0 0 248 
0 0 248 
0 0 248 
0 0 249 
0 0 241 
0 0 240 
0 0 249 
0 0 253 
0 0 246 
0 0 252 
0 0 253 
0 0 246 
0 0 252 
0 0 248 
0 0 238 
0 0 245 
0 0 245 
0 0 241 
0 0 252 
0 0 244 
0 0 240 
0 0 241 
0 0 242 
0 0 244 
0 0 245 
0 0 245 
0 0 248 
0 0 248 
0 0 246 
0 0 242 
0 0 241 
0 0 241 
0 0 245 
0 0 242 
0 0 238 
0 0 242 
0 0 237 
0 0 241 
0 0 236 
0 0 240 
0 0 248 
0 0 240 
0 0 237 
0 0 237 
0 0 238 
0 0 238 
0 0 242 
0 0 236 
0 0 238 
0 0 234 
0 0 238 
0 0 227 
0 0 238 
0 0 237 
0 0 234 
126 130 238 
232 239 254 
238 245 255 
238 245 255 
238 245 255 
239 245 255 
239 245 255 
239 245 255 
239 245 255 
239 245 255 
239 246 255 
239 246 255 
239 246 255 
239 246 255 
239 246 255 
239 246 255 
239 246 255 
239 246 255 
239 246 255 
239 246 255 
239 246 255 
239 246 255 
239 246 255 
239 246 255 
239 246 255 
239 246 255 
239 246 255 
239 246 255 
239 246 255 
239 246 255 
239 246 255 
239 246 255 
239 246 255 
239 246 255 
239 246 255 
239 246 255 
239 246 255 
239 246 255 
239 246 255 
239 246 255 
239 246 255 
239 246 255 
239 246 255 
239 246 255 
239 246 255 
239 246 255 
239 246 255 
239 246 255 
239 245 255 
239 245 255 
239 245 255 
239 245 255 
238 245 255 
238 245 255 
238 245 255 
238 245 255 
237 242 252 
224 101 105 
210 0 0 
220 0 0 
222 0 0 
220 0 0 
219 0 0 
218 0 0 
211 0 0 
214 0 0 
228 0 0 
203 0 0 
217 0 0 
212 0 0 
208 0 0 
216 0 0 
225 0 0 
215 0 0 
219 0 0 
215 0 0 
225 0 0 
226 0 0 
211 0 0 
218 0 0 
217 0 0 
215 0 0 
223 0 0 
222 0 0 
220 0 0 
221 0 0 
226 0 0 
225 0 0 
223 0 0 
224 0 0 
220 0 0 
224 0 0 
225 0 0 
223 0 0 
223 0 0 
223 0 0 
224 0 0 
226 0 0 
223 0 0 
223 0 0 
222 0 0 
226 0 0 
227 0 0 
223 0 0 
217 0 0 
226 0 0 
229 0 0 
225 0 0 
228 0 0 
225 0 0 
224 0 0 
226 0 0 
223 0 0 
219 0 0 
225 0 0 
223 0 0 
226 0 0 
224 0 0 
225 0 0 
226 0 0 
225 0 0 
224 0 0 
222 0 0 
229 0 0 
226 0 0 
223 0 0 
226 0 0 
226 0 0 
227 0 0 
229 0 0 
223 0 0 
225 0 0 
229 0 0 
225 0 0 
229 0 0 
227 0 0 
226 0 0 
231 0 0 
224 0 0 
228 0 0 
229 0 0 
223 0 0 
226 0 0 
228 0 0 
229 0 0 
226 0 0 
227 0 0 
225 0 0 
227 0 0 
228 0 0 
227 0 0 
223 0 0 
229 0 0 
225 0 0 
224 0 0 
224 0 0 
225 0 0 
226 0 0 
223 0 0 
221 0 0 
227 0 0 
228 0 0 
225 0 0 
228 0 0 
227 0 0 
226 0 0 
228 0 0 
225 0 0 
222 0 0 
226 0 0 
228 0 0 
222 0 0 
228 0 0 
227 0 0 
226 0 0 
228 0 0 
230 0 0 
227 0 0 
223 0 0 
227 0 0 
229 0 0 
223 0 0 
228 0 0 
226 0 0 
225 0 0 
227 0 0 
226 0 0 
226 0 0 
228 0 0 
226 0 0 
232 0 0 
231 0 0 
229 0 0 
231 0 0 
226 0 0 
227 0 0 
225 0 0 
227 0 0 
229 0 0 
228 0 0 
229 0 0 
229 0 0 
226 0 0 
225 0 0 
230 0 0 
228 0 0 
230 0 0 
226 0 0 
228 0 0 
227 0 0 
228 0 0 
231 0 0 
224 0 0 
225 0 0 
228 0 0 
234 0 0 
227 0 0 
227 0 0 
231 0 0 
231 0 0 
225 0 0 
227 0 0 
226 0 0 
228 0 0 
230 0 0 
230 0 0 
228 0 0 
230 0 0 
225 0 0 
0 0 254 
0 0 255 
0 0 254 
0 0 255 
0 0 255 
0 0 255 
0 0 254 
0 0 254 
0 0 255 
0 0 255 
0 0 255 
0 0 255 
0 0 255 
0 0 254 
0 0 254 
0 0 255 
0 0 255 
0 0 255 
0 0 254 
0 0 255 
0 0 255 
0 0 254 
0 0 255 
0 0 255 
0 0 255 
0 0 253 
0 0 255 
0 0 255 
0 0 254 
0 0 254 
0 0 255 
0 0 254 
0 0 253 
0 0 255 
0 0 255 
0 0 254 
0 0 254 
0 0 254 
0 0 253 
0 0 254 
0 0 254 
0 0 253 
0 0 253 
0 0 254 
0 0 253 
0 0 255 
0 0 254 
0 0 255 
0 0 255 
0 0 253 
0 0 250 
0 0 255 
0 0 255 
0 0 254 
0 0 254 
0 0 254 
0 0 253 
0 0 254 
0 0 254 
0 0 253 
0 0 253 
0 0 250 
0 0 253 
0 0 250 
0 0 254 
0 0 250 
0 0 252 
0 0 252 
0 0 252 
0 0 254 
0 0 252 
0 0 254 
0 0 255 
0 0 252 
0 0 253 
0 0 254 
0 0 254 
0 0 248 
0 0 253 
0 0 252 
0 0 253 
0 0 254 
0 0 252 
0 0 252 
0 0 253 
0 0 254 
0 0 250 
0 0 249 
0 0 255 
0 0 248 
0 0 255 
0 0 250 
0 0 250 
0 0 252 
0 0 250 
0 0 254 
0 0 250 
0 0 249 
0 0 248 
0 0 246 
0 0 250 
0 0 254 
0 0 254 
0 0 250 
0 0 248 
0 0 250 
0 0 250 
0 0 246 
0 0 250 
0 0 249 
0 0 252 
0 0 252 
0 0 250 
0 0 249 
0 0 242 
0 0 249 
0 0 249 
0 0 241 
0 0 250 
0 0 245 
0 0 241 
0 0 248 
0 0 242 
0 0 245 
0 0 242 
0 0 248 
0 0 249 
0 0 248 
0 0 241 
0 0 248 
0 0 242 
0 0 252 
0 0 249 
0 0 245 
0 0 242 
0 0 242 
0 0 246 
0 0 246 
0 0 249 
0 0 244 
0 0 250 
0 0 246 
0 0 245 
0 0 238 
0 0 245 
0 0 241 
0 0 246 
0 0 240 
0 0 244 
0 0 244 
0 0 244 
0 0 246 
0 0 244 
0 0 244 
0 0 237 
0 0 240 
0 0 240 
0 0 231 
0 0 246 
0 0 236 
0 0 231 
0 0 242 
0 0 231 
0 0 234 
0 0 237 
0 0 224 
0 0 230 
0 0 234 
0 0 245 
0 0 238 
133 136 240 
233 239 254 
239 246 255 
239 246 255 
239 246 255 
239 246 255 
239 246 255 
239 246 255 
239 246 255 
239 246 255 
239 246 255 
239 246 255 
239 246 255 
239 246 255 
239 246 255 
239 246 255 
239 246 255 
239 246 255 
239 246 255 
239 246 255 
239 246 255 
239 246 255 
239 246 255 
239 246 255 
239 246 255 
239 246 255 
239 246 255 
239 246 255 
239 246 255 
239 246 255 
239 246 255 
239 246 255 
239 246 255 
239 246 255 
239 246 255 
239 246 255 
239 246 255 
239 246 255 
239 246 255 
239 246 255 
239 246 255 
239 246 255 
239 246 255 
239 246 255 
239 246 255 
239 246 255 
239 246 255 
239 246 255 
239 246 255 
239 246 255 
239 246 255 
239 246 255 
239 246 255 
239 246 255 
239 246 255 
239 246 255 
239 246 255 
239 245 255 
239 241 250 
230 141 147 
219 0 0 
221 0 0 
222 0 0 
222 0 0 
216 0 0 
217 0 0 
219 0 0 
212 0 0 
217 0 0 
216 0 0 
219 0 0 
222 0 0 
224 0 0 
216 0 0 
214 0 0 
214 0 0 
216 0 0 
219 0 0 
222 0 0 
218 0 0 
215 0 0 
214 0 0 
225 0 0 
227 0 0 
221 0 0 
229 0 0 
221 0 0 
226 0 0 
217 0 0 
225 0 0 
224 0 0 
224 0 0 
217 0 0 
225 0 0 
220 0 0 
226 0 0 
223 0 0 
229 0 0 
225 0 0 
230 0 0 
229 0 0 
228 0 0 
223 0 0 
222 0 0 
221 0 0 
226 0 0 
224 0 0 
221 0 0 
226 0 0 
225 0 0 
223 0 0 
222 0 0 
223 0 0 
228 0 0 
228 0 0 
228 0 0 
225 0 0 
229 0 0 
226 0 0 
227 0 0 
225 0 0 
226 0 0 
224 0 0 
226 0 0 
226 0 0 
225 0 0 
230 0 0 
230 0 0 
228 0 0 
223 0 0 
229 0 0 
227 0 0 
223 0 0 
223 0 0 
227 0 0 
227 0 0 
221 0 0 
228 0 0 
223 0 0 
222 0 0 
227 0 0 
224 0 0 
229 0 0 
224 0 0 
226 0 0 
228 0 0 
225 0 0 
227 0 0 
229 0 0 
224 0 0 
225 0 0 
228 0 0 
224 0 0 
225 0 0 
226 0 0 
227 0 0 
224 0 0 
225 0 0 
226 0 0 
227 0 0 
227 0 0 
226 0 0 
229 0 0 
228 0 0 
225 0 0 
230 0 0 
226 0 0 
230 0 0 
228 0 0 
227 0 0 
230 0 0 
224 0 0 
225 0 0 
227 0 0 
227 0 0 
224 0 0 
227 0 0 
229 0 0 
227 0 0 
231 0 0 
227 0 0 
224 0 0 
228 0 0 
226 0 0 
222 0 0 
227 0 0 
230 0 0 
229 0 0 
229 0 0 
230 0 0 
230 0 0 
227 0 0 
226 0 0 
229 0 0 
226 0 0 
231 0 0 
229 0 0 
225 0 0 
227 0 0 
224 0 0 
230 0 0 
230 0 0 
227 0 0 
227 0 0 
226 0 0 
229 0 0 
229 0 0 
224 0 0 
225 0 0 
226 0 0 
226 0 0 
227 0 0 
227 0 0 
227 0 0 
225 0 0 
231 0 0 
228 0 0 
229 0 0 
230 0 0 
226 0 0 
229 0 0 
229 0 0 
224 0 0 
229 0 0 
227 0 0 
230 0 0 
228 0 0 
228 0 0 
230 0 0 
228 0 0 
0 0 254 
0 0 255 
0 0 255 
0 0 255 
0 0 255 
0 0 255 
0 0 255 
0 0 255 
0 0 254 
0 0 254 
0 0 255 
0 0 255 
0 0 255 
0 0 255 
0 0 254 
0 0 255 
0 0 255 
0 0 255 
0 0 255 
0 0 255 
0 0 254 
0 0 255 
0 0 254 
0 0 255 
0 0 255 
0 0 254 
0 0 252 
0 0 255 
0 0 254 
0 0 254 
0 0 255 
0 0 254 
0 0 252 
0 0 254 
0 0 254 
0 0 254 
0 0 255 
0 0 253 
0 0 255 
0 0 254 
0 0 253 
0 0 253 
0 0 254 
0 0 255 
0 0 254 
0 0 255 
0 0 254 
0 0 255 
0 0 252 
0 0 255 
0 0 254 
0 0 252 
0 0 255 
0 0 254 
0 0 254 
0 0 254 
0 0 253 
0 0 254 
0 0 254 
0 0 252 
0 0 253 
0 0 252 
0 0 255 
0 0 255 
0 0 253 
0 0 253 
0 0 254 
0 0 254 
0 0 254 
0 0 254 
0 0 255 
0 0 253 
0 0 252 
0 0 253 
0 0 249 
0 0 255 
0 0 253 
0 0 250 
0 0 253 
0 0 253 
0 0 252 
0 0 253 
0 0 253 
0 0 254 
0 0 255 
0 0 252 
0 0 253 
0 0 252 
0 0 253 
0 0 250 
0 0 250 
0 0 253 
0 0 250 
0 0 250 
0 0 255 
0 0 252 
0 0 248 
0 0 253 
0 0 252 
0 0 252 
0 0 253 
0 0 254 
0 0 254 
0 0 254 
0 0 246 
0 0 253 
0 0 253 
0 0 253 
0 0 248 
0 0 244 
0 0 246 
0 0 248 
0 0 249 
0 0 246 
0 0 253 
0 0 250 
0 0 244 
0 0 246 
0 0 245 
0 0 244 
0 0 252 
0 0 242 
0 0 252 
0 0 245 
0 0 250 
0 0 248 
0 0 242 
0 0 248 
0 0 242 
0 0 245 
0 0 248 
0 0 248 
0 0 245 
0 0 241 
0 0 250 
0 0 238 
0 0 245 
0 0 249 
0 0 245 
0 0 245 
0 0 242 
0 0 250 
0 0 250 
0 0 248 
0 0 250 
0 0 237 
0 0 238 
0 0 246 
0 0 249 
0 0 242 
0 0 245 
0 0 240 
0 0 241 
0 0 238 
0 0 246 
0 0 240 
0 0 242 
0 0 241 
0 0 240 
0 0 245 
0 0 246 
0 0 244 
0 0 238 
0 0 234 
0 0 237 
0 0 238 
0 0 241 
0 0 238 
0 0 236 
131 134 240 
236 243 254 
239 246 255 
239 246 255 
239 246 255 
239 246 255 
239 246 255 
239 246 255 
239 246 255 
239 246 255 
239 246 255 
239 246 255 
239 246 255 
239 246 255 
239 246 255 
239 246 255 
239 246 255 
239 246 255 
239 246 255 
239 246 255 
239 246 255 
239 246 255 
239 246 255 
239 246 255 
239 246 255 
239 246 255 
239 246 255 
239 246 255 
239 246 255 
239 246 255 
239 246 255 
239 246 255 
239 246 255 
239 246 255 
239 246 255 
239 246 255 
239 246 255 
239 246 255 
239 246 255 
239 246 255 
239 246 255 
239 246 255 
239 246 255 
239 246 255 
239 246 255 
239 246 255 
239 246 255 
239 246 255 
239 246 255 
239 246 255 
239 246 255 
239 246 255 
239 246 255 
239 246 255 
239 246 255 
239 246 255 
239 246 255 
239 246 255 
239 246 255 
239 246 255 
235 241 250 
228 134 140 
219 0 0 
231 0 0 
223 0 0 
217 0 0 
220 0 0 
226 0 0 
218 0 0 
217 0 0 
228 0 0 
224 0 0 
217 0 0 
213 0 0 
222 0 0 
223 0 0 
219 0 0 
218 0 0 
219 0 0 
216 0 0 
219 0 0 
224 0 0 
217 0 0 
226 0 0 
224 0 0 
223 0 0 
223 0 0 
217 0 0 
220 0 0 
220 0 0 
222 0 0 
226 0 0 
219 0 0 
221 0 0 
219 0 0 
223 0 0 
227 0 0 
222 0 0 
225 0 0 
231 0 0 
226 0 0 
223 0 0 
225 0 0 
219 0 0 
225 0 0 
229 0 0 
232 0 0 
228 0 0 
226 0 0 
223 0 0 
226 0 0 
222 0 0 
227 0 0 
223 0 0 
217 0 0 
228 0 0 
224 0 0 
221 0 0 
227 0 0 
224 0 0 
226 0 0 
223 0 0 
222 0 0 
227 0 0 
223 0 0 
226 0 0 
225 0 0 
229 0 0 
225 0 0 
221 0 0 
221 0 0 
221 0 0 
220 0 0 
230 0 0 
231 0 0 
227 0 0 
227 0 0 
226 0 0 
224 0 0 
229 0 0 
226 0 0 
229 0 0 
224 0 0 
227 0 0 
228 0 0 
228 0 0 
227 0 0 
223 0 0 
223 0 0 
226 0 0 
225 0 0 
228 0 0 
227 0 0 
227 0 0 
231 0 0 
228 0 0 
226 0 0 
228 0 0 
224 0 0 
226 0 0 
223 0 0 
229 0 0 
226 0 0 
227 0 0 
227 0 0 
224 0 0 
225 0 0 
231 0 0 
228 0 0 
223 0 0 
229 0 0 
229 0 0 
225 0 0 
229 0 0 
225 0 0 
227 0 0 
226 0 0 
230 0 0 
228 0 0 
225 0 0 
224 0 0 
229 0 0 
227 0 0 
226 0 0 
231 0 0 
227 0 0 
222 0 0 
227 0 0 
229 0 0 
229 0 0 
227 0 0 
230 0 0 
230 0 0 
224 0 0 
223 0 0 
229 0 0 
228 0 0 
227 0 0 
229 0 0 
225 0 0 
228 0 0 
225 0 0 
230 0 0 
230 0 0 
231 0 0 
228 0 0 
225 0 0 
225 0 0 
228 0 0 
225 0 0 
229 0 0 
230 0 0 
229 0 0 
226 0 0 
228 0 0 
230 0 0 
230 0 0 
227 0 0 
226 0 0 
233 0 0 
229 0 0 
226 0 0 
228 0 0 
229 0 0 
226 0 0 
225 0 0 
227 0 0 
228 0 0 
228 0 0 
231 0 0 
227 0 0 
0 0 255 
0 0 255 
0 0 255 
0 0 254 
0 0 255 
0 0 254 
0 0 255 
0 0 255 
0 0 255 
0 0 252 
0 0 255 
0 0 254 
0 0 254 
0 0 255 
0 0 255 
0 0 254 
0 0 253 
0 0 254 
0 0 254 
0 0 255 
0 0 254 
0 0 254 
0 0 255 
0 0 255 
0 0 252 
0 0 254 
0 0 255 
0 0 255 
0 0 254 
0 0 255 
0 0 250 
0 0 255 
0 0 255 
0 0 255 
0 0 254 
0 0 255 
0 0 255 
0 0 252 
0 0 255 
0 0 254 
0 0 254 
0 0 254 
0 0 252 
0 0 252 
0 0 254 
0 0 255 
0 0 254 
0 0 254 
0 0 255 
0 0 255 
0 0 252 
0 0 255 
0 0 254 
0 0 253 
0 0 254 
0 0 254 
0 0 255 
0 0 252 
0 0 250 
0 0 255 
0 0 254 
0 0 253 
0 0 255 
0 0 252 
0 0 253 
0 0 254 
0 0 255 
0 0 252 
0 0 252 
0 0 253 
0 0 253 
0 0 253 
0 0 253 
0 0 254 
0 0 254 
0 0 255 
0 0 248 
0 0 252 
0 0 255 
0 0 253 
0 0 253 
0 0 253 
0 0 249 
0 0 249 
0 0 255 
0 0 249 
0 0 252 
0 0 254 
0 0 253 
0 0 253 
0 0 255 
0 0 249 
0 0 250 
0 0 249 
0 0 253 
0 0 250 
0 0 252 
0 0 252 
0 0 250 
0 0 250 
0 0 253 
0 0 250 
0 0 253 
0 0 250 
0 0 252 
0 0 250 
0 0 248 
0 0 248 
0 0 252 
0 0 250 
0 0 250 
0 0 245 
0 0 249 
0 0 244 
0 0 249 
0 0 249 
0 0 246 
0 0 249 
0 0 248 
0 0 249 
0 0 249 
0 0 248 
0 0 249 
0 0 245 
0 0 246 
0 0 249 
0 0 252 
0 0 249 
0 0 250 
0 0 237 
0 0 249 
0 0 249 
0 0 245 
0 0 248 
0 0 248 
0 0 245 
0 0 252 
0 0 242 
0 0 249 
0 0 242 
0 0 241 
0 0 250 
0 0 249 
0 0 242 
0 0 240 
0 0 241 
0 0 244 
0 0 244 
0 0 244 
0 0 244 
0 0 245 
0 0 244 
0 0 240 
0 0 238 
0 0 244 
0 0 241 
0 0 233 
0 0 240 
0 0 237 
0 0 237 
0 0 241 
0 0 240 
0 0 240 
0 0 226 
0 0 238 
0 0 237 
0 0 231 
0 0 236 
119 123 249 
239 246 255 
239 246 255 
239 246 255 
239 246 255 
239 246 255 
239 246 255 
239 246 255 
239 246 255 
239 246 255 
239 246 255 
239 246 255 
239 246 255 
239 246 255 
239 246 255 
239 246 255 
239 246 255 
239 246 255 
239 246 255 
239 246 255 
239 246 255 
239 246 255 
239 246 255 
239 246 255 
239 246 255 
239 246 255 
239 246 255 
239 246 255 
239 246 255 
239 246 255 
239 246 255 
239 246 255 
239 246 255 
239 246 255 
239 246 255 
239 246 255 
239 246 255 
239 246 255 
239 246 255 
239 246 255 
239 246 255 
239 246 255 
239 246 255 
239 246 255 
239 246 255 
239 246 255 
239 246 255 
239 246 255 
239 246 255 
239 246 255 
239 246 255 
239 246 255 
239 246 255 
239 246 255 
239 246 255 
239 246 255 
239 246 255 
239 246 255 
239 246 255 
239 246 255 
239 246 255 
239 246 255 
239 241 250 
222 145 151 
222 0 0 
232 0 0 
225 0 0 
221 0 0 
224 0 0 
219 0 0 
214 0 0 
218 0 0 
222 0 0 
223 0 0 
220 0 0 
228 0 0 
219 0 0 
216 0 0 
222 0 0 
222 0 0 
217 0 0 
223 0 0 
222 0 0 
232 0 0 
226 0 0 
230 0 0 
220 0 0 
221 0 0 
221 0 0 
222 0 0 
223 0 0 
227 0 0 
226 0 0 
227 0 0 
222 0 0 
228 0 0 
226 0 0 
225 0 0 
227 0 0 
225 0 0 
229 0 0 
223 0 0 
228 0 0 
225 0 0 
231 0 0 
226 0 0 
223 0 0 
225 0 0 
226 0 0 
220 0 0 
228 0 0 
223 0 0 
225 0 0 
227 0 0 
229 0 0 
223 0 0 
221 0 0 
223 0 0 
219 0 0 
228 0 0 
225 0 0 
225 0 0 
226 0 0 
226 0 0 
223 0 0 
227 0 0 
223 0 0 
225 0 0 
230 0 0 
221 0 0 
231 0 0 
223 0 0 
225 0 0 
222 0 0 
225 0 0 
226 0 0 
225 0 0 
224 0 0 
226 0 0 
221 0 0 
225 0 0 
230 0 0 
228 0 0 
225 0 0 
225 0 0 
224 0 0 
227 0 0 
230 0 0 
223 0 0 
226 0 0 
225 0 0 
226 0 0 
230 0 0 
224 0 0 
226 0 0 
226 0 0 
224 0 0 
225 0 0 
227 0 0 
231 0 0 
227 0 0 
228 0 0 
230 0 0 
232 0 0 
231 0 0 
231 0 0 
229 0 0 
226 0 0 
230 0 0 
226 0 0 
227 0 0 
221 0 0 
227 0 0 
229 0 0 
229 0 0 
226 0 0 
229 0 0 
224 0 0 
226 0 0 
226 0 0 
226 0 0 
230 0 0 
227 0 0 
229 0 0 
229 0 0 
227 0 0 
230 0 0 
227 0 0 
223 0 0 
225 0 0 
225 0 0 
230 0 0 
226 0 0 
223 0 0 
225 0 0 
227 0 0 
226 0 0 
225 0 0 
227 0 0 
229 0 0 
229 0 0 
228 0 0 
232 0 0 
228 0 0 
227 0 0 
227 0 0 
229 0 0 
230 0 0 
227 0 0 
229 0 0 
232 0 0 
225 0 0 
230 0 0 
232 0 0 
228 0 0 
230 0 0 
227 0 0 
228 0 0 
231 0 0 
231 0 0 
230 0 0 
226 0 0 
225 0 0 
227 0 0 
227 0 0 
228 0 0 
227 0 0 
231 0 0 
228 0 0 
226 0 0 
231 0 0 
229 0 0 
0 0 255 
0 0 255 
0 0 255 
0 0 255 
0 0 255 
0 0 255 
0 0 255 
0 0 254 
0 0 255 
0 0 254 
0 0 255 
0 0 255 
0 0 253 
0 0 255 
0 0 254 
0 0 255 
0 0 255 
0 0 254 
0 0 254 
0 0 252 
0 0 255 
0 0 255 
0 0 254 
0 0 255 
0 0 254 
0 0 255 
0 0 254 
0 0 255 
0 0 255 
0 0 254 
0 0 254 
0 0 254 
0 0 254 
0 0 253 
0 0 255 
0 0 255 
0 0 255 
0 0 254 
0 0 255 
0 0 255 
0 0 254 
0 0 255 
0 0 255 
0 0 255 
0 0 255 
0 0 255 
0 0 253 
0 0 254 
0 0 255 
0 0 254 
0 0 254 
0 0 254 
0 0 253 
0 0 254 
0 0 255 
0 0 254 
0 0 250 
0 0 255 
0 0 252 
0 0 255 
0 0 253 
0 0 252 
0 0 253 
0 0 250 
0 0 255 
0 0 254 
0 0 254 
0 0 252 
0 0 254 
0 0 254 
0 0 254 
0 0 253 
0 0 254 
0 0 253 
0 0 253 
0 0 252 
0 0 254 
0 0 255 
0 0 254 
0 0 255 
0 0 253 
0 0 250 
0 0 253 
0 0 255 
0 0 252 
0 0 250 
0 0 250 
0 0 252 
0 0 250 
0 0 244 
0 0 252 
0 0 249 
0 0 250 
0 0 249 
0 0 252 
0 0 254 
0 0 252 
0 0 252 
0 0 250 
0 0 250 
0 0 253 
0 0 253 
0 0 252 
0 0 249 
0 0 253 
0 0 248 
0 0 253 
0 0 252 
0 0 253 
0 0 248 
0 0 249 
0 0 252 
0 0 248 
0 0 252 
0 0 250 
0 0 249 
0 0 249 
0 0 250 
0 0 252 
0 0 245 
0 0 245 
0 0 249 
0 0 252 
0 0 248 
0 0 248 
0 0 244 
0 0 242 
0 0 245 
0 0 245 
0 0 252 
0 0 240 
0 0 241 
0 0 252 
0 0 250 
0 0 250 
0 0 250 
0 0 245 
0 0 252 
0 0 246 
0 0 246 
0 0 242 
0 0 242 
0 0 240 
0 0 245 
0 0 244 
0 0 234 
0 0 248 
0 0 241 
0 0 238 
0 0 237 
0 0 249 
0 0 246 
0 0 245 
0 0 231 
0 0 236 
0 0 237 
0 0 244 
0 0 238 
0 0 245 
0 0 237 
0 0 244 
0 0 234 
0 0 238 
0 0 236 
0 0 236 
0 0 238 
0 0 240 
158 163 236 
234 241 255 
239 246 255 
239 246 255 
239 246 255 
239 246 255 
239 246 255 
239 246 255 
239 246 255 
239 246 255 
239 246 255 
239 246 255 
239 246 255 
239 246 255 
239 246 255 
239 246 255 
239 246 255 
239 246 255 
239 246 255 
239 246 255 
239 246 255 
239 246 255 
240 246 255 
240 246 255 
240 246 255 
240 246 255 
240 246 255 
240 246 255 
240 246 255 
240 246 255 
240 246 255 
240 246 255 
240 246 255 
240 246 255 
240 246 255 
240 246 255 
240 246 255 
240 246 255 
240 246 255 
240 246 255 
240 246 255 
240 246 255 
240 246 255 
240 246 255 
239 246 255 
239 246 255 
239 246 255 
239 246 255 
239 246 255 
239 246 255 
239 246 255 
239 246 255 
239 246 255 
239 246 255 
239 246 255 
239 246 255 
239 246 255 
239 246 255 
239 246 255 
239 246 255 
239 246 255 
239 246 255 
239 246 255 
239 246 255 
238 245 254 
235 134 140 
222 0 0 
210 0 0 
227 0 0 
221 0 0 
216 0 0 
231 0 0 
219 0 0 
212 0 0 
225 0 0 
218 0 0 
221 0 0 
221 0 0 
219 0 0 
225 0 0 
227 0 0 
221 0 0 
213 0 0 
225 0 0 
223 0 0 
220 0 0 
227 0 0 
217 0 0 
222 0 0 
222 0 0 
218 0 0 
218 0 0 
222 0 0 
225 0 0 
222 0 0 
220 0 0 
225 0 0 
222 0 0 
223 0 0 
218 0 0 
224 0 0 
228 0 0 
229 0 0 
225 0 0 
225 0 0 
225 0 0 
225 0 0 
222 0 0 
222 0 0 
226 0 0 
223 0 0 
226 0 0 
222 0 0 
222 0 0 
228 0 0 
221 0 0 
224 0 0 
226 0 0 
226 0 0 
224 0 0 
224 0 0 
227 0 0 
227 0 0 
226 0 0 
227 0 0 
228 0 0 
225 0 0 
228 0 0 
228 0 0 
229 0 0 
226 0 0 
217 0 0 
225 0 0 
220 0 0 
233 0 0 
230 0 0 
224 0 0 
227 0 0 
227 0 0 
229 0 0 
226 0 0 
226 0 0 
227 0 0 
222 0 0 
224 0 0 
229 0 0 
227 0 0 
228 0 0 
231 0 0 
225 0 0 
228 0 0 
229 0 0 
227 0 0 
227 0 0 
226 0 0 
228 0 0 
230 0 0 
225 0 0 
230 0 0 
223 0 0 
229 0 0 
224 0 0 
230 0 0 
227 0 0 
228 0 0 
227 0 0 
225 0 0 
226 0 0 
228 0 0 
228 0 0 
223 0 0 
228 0 0 
230 0 0 
231 0 0 
225 0 0 
225 0 0 
228 0 0 
224 0 0 
230 0 0 
229 0 0 
231 0 0 
224 0 0 
226 0 0 
223 0 0 
227 0 0 
226 0 0 
228 0 0 
229 0 0 
225 0 0 
228 0 0 
229 0 0 
229 0 0 
233 0 0 
230 0 0 
225 0 0 
230 0 0 
229 0 0 
225 0 0 
229 0 0 
226 0 0 
230 0 0 
229 0 0 
227 0 0 
224 0 0 
229 0 0 
228 0 0 
230 0 0 
227 0 0 
228 0 0 
230 0 0 
228 0 0 
226 0 0 
227 0 0 
229 0 0 
228 0 0 
225 0 0 
229 0 0 
226 0 0 
227 0 0 
227 0 0 
228 0 0 
228 0 0 
227 0 0 
227 0 0 
228 0 0 
226 0 0 
228 0 0 
227 0 0 
231 0 0 
227 0 0 
228 0 0 
228 0 0 
229 0 0 
0 0 255 
0 0 255 
0 0 255 
0 0 255 
0 0 255 
0 0 255 
0 0 255 
0 0 254 
0 0 255 
0 0 255 
0 0 255 
0 0 255 
0 0 254 
0 0 255 
0 0 254 
0 0 254 
0 0 255 
0 0 255 
0 0 255 
0 0 254 
0 0 255 
0 0 253 
0 0 254 
0 0 255 
0 0 255 
0 0 254 
0 0 255 
0 0 254 
0 0 254 
0 0 255 
0 0 255 
0 0 255 
0 0 254 
0 0 255 
0 0 255 
0 0 253 
0 0 252 
0 0 255 
0 0 255 
0 0 255 
0 0 253 
0 0 254 
0 0 253 
0 0 254 
0 0 252 
0 0 254 
0 0 255 
0 0 254 
0 0 254 
0 0 255 
0 0 254 
0 0 254 
0 0 253 
0 0 255 
0 0 254 
0 0 254 
0 0 252 
0 0 255 
0 0 252 
0 0 252 
0 0 254 
0 0 253 
0 0 254 
0 0 253 
0 0 253 
0 0 253 
0 0 252 
0 0 254 
0 0 254 
0 0 253 
0 0 254 
0 0 253 
0 0 253 
0 0 255 
0 0 250 
0 0 250 
0 0 253 
0 0 250 
0 0 250 
0 0 252 
0 0 245 
0 0 253 
0 0 254 
0 0 253 
0 0 252 
0 0 250 
0 0 252 
0 0 246 
0 0 253 
0 0 252 
0 0 253 
0 0 254 
0 0 253 
0 0 246 
0 0 254 
0 0 255 
0 0 253 
0 0 248 
0 0 252 
0 0 253 
0 0 246 
0 0 252 
0 0 250 
0 0 252 
0 0 250 
0 0 246 
0 0 246 
0 0 248 
0 0 248 
0 0 250 
0 0 248 
0 0 252 
0 0 250 
0 0 248 
0 0 246 
0 0 248 
0 0 253 
0 0 248 
0 0 249 
0 0 249 
0 0 252 
0 0 250 
0 0 240 
0 0 245 
0 0 244 
0 0 250 
0 0 253 
0 0 250 
0 0 250 
0 0 249 
0 0 246 
0 0 250 
0 0 242 
0 0 242 
0 0 244 
0 0 245 
0 0 248 
0 0 249 
0 0 245 
0 0 250 
0 0 249 
0 0 249 
0 0 238 
0 0 252 
0 0 241 
0 0 240 
0 0 242 
0 0 242 
0 0 244 
0 0 241 
0 0 236 
0 0 240 
0 0 245 
0 0 236 
0 0 244 
0 0 241 
0 0 244 
0 0 245 
0 0 237 
0 0 237 
0 0 240 
0 0 238 
0 0 242 
0 0 238 
0 0 236 
0 0 236 
167 172 242 
238 245 255 
239 246 255 
239 246 255 
239 246 255 
239 246 255 
239 246 255 
239 246 255 
239 246 255 
239 246 255 
239 246 255 
239 246 255 
240 246 255 
240 246 255 
240 246 255 
240 246 255 
240 246 255 
240 246 255 
240 246 255 
240 246 255 
240 246 255 
240 246 255 
240 246 255 
240 246 255 
240 246 255 
240 246 255 
240 246 255 
240 246 255 
240 246 255 
240 246 255 
240 246 255 
240 246 255 
240 246 255 
240 246 255 
240 246 255 
240 246 255 
240 246 255 
240 246 255 
240 246 255 
240 246 255 
240 246 255 
240 246 255 
240 246 255 
240 246 255 
240 246 255 
240 246 255 
240 246 255 
240 246 255 
240 246 255 
240 246 255 
240 246 255 
240 246 255 
240 246 255 
240 246 255 
240 246 255 
240 246 255 
239 246 255 
239 246 255 
239 246 255 
239 246 255 
239 246 255 
239 246 255 
239 246 255 
239 246 255 
239 246 255 
239 246 255 
239 246 255 
235 157 163 
225 0 0 
223 0 0 
219 0 0 
221 0 0 
226 0 0 
231 0 0 
223 0 0 
215 0 0 
218 0 0 
222 0 0 
222 0 0 
223 0 0 
220 0 0 
217 0 0 
224 0 0 
220 0 0 
221 0 0 
225 0 0 
217 0 0 
219 0 0 
221 0 0 
229 0 0 
224 0 0 
226 0 0 
221 0 0 
226 0 0 
223 0 0 
223 0 0 
223 0 0 
217 0 0 
226 0 0 
225 0 0 
223 0 0 
225 0 0 
218 0 0 
227 0 0 
224 0 0 
225 0 0 
226 0 0 
227 0 0 
224 0 0 
219 0 0 
226 0 0 
223 0 0 
220 0 0 
226 0 0 
227 0 0 
229 0 0 
230 0 0 
224 0 0 
229 0 0 
226 0 0 
220 0 0 
228 0 0 
227 0 0 
224 0 0 
220 0 0 
227 0 0 
222 0 0 
226 0 0 
223 0 0 
228 0 0 
223 0 0 
226 0 0 
223 0 0 
221 0 0 
226 0 0 
221 0 0 
232 0 0 
227 0 0 
228 0 0 
225 0 0 
226 0 0 
228 0 0 
230 0 0 
230 0 0 
227 0 0 
226 0 0 
221 0 0 
231 0 0 
229 0 0 
226 0 0 
227 0 0 
226 0 0 
230 0 0 
221 0 0 
227 0 0 
223 0 0 
223 0 0 
227 0 0 
228 0 0 
230 0 0 
229 0 0 
231 0 0 
228 0 0 
231 0 0 
230 0 0 
228 0 0 
231 0 0 
229 0 0 
233 0 0 
226 0 0 
226 0 0 
227 0 0 
226 0 0 
230 0 0 
230 0 0 
227 0 0 
224 0 0 
225 0 0 
230 0 0 
229 0 0 
230 0 0 
232 0 0 
229 0 0 
225 0 0 
229 0 0 
224 0 0 
229 0 0 
226 0 0 
227 0 0 
228 0 0 
229 0 0 
228 0 0 
228 0 0 
227 0 0 
231 0 0 
230 0 0 
230 0 0 
226 0 0 
227 0 0 
228 0 0 
229 0 0 
228 0 0 
228 0 0 
227 0 0 
228 0 0 
224 0 0 
229 0 0 
228 0 0 
229 0 0 
233 0 0 
226 0 0 
223 0 0 
230 0 0 
229 0 0 
230 0 0 
223 0 0 
229 0 0 
226 0 0 
224 0 0 
230 0 0 
229 0 0 
230 0 0 
230 0 0 
228 0 0 
228 0 0 
226 0 0 
224 0 0 
226 0 0 
226 0 0 
229 0 0 
226 0 0 
228 0 0 
228 0 0 
229 0 0 
0 0 255 
0 0 254 
0 0 255 
0 0 255 
0 0 255 
0 0 254 
0 0 255 
0 0 255 
0 0 255 
0 0 255 
0 0 255 
0 0 255 
0 0 255 
0 0 255 
0 0 255 
0 0 254 
0 0 255 
0 0 254 
0 0 255 
0 0 255 
0 0 255 
0 0 255 
0 0 255 
0 0 254 
0 0 254 
0 0 254 
0 0 254 
0 0 254 
0 0 254 
0 0 255 
0 0 255 
0 0 255 
0 0 253 
0 0 254 
0 0 253 
0 0 255 
0 0 255 
0 0 255 
0 0 254 
0 0 255 
0 0 253 
0 0 252 
0 0 255 
0 0 254 
0 0 255 
0 0 253 
0 0 255 
0 0 254 
0 0 254 
0 0 254 
0 0 255 
0 0 254 
0 0 254 
0 0 254 
0 0 255 
0 0 255 
0 0 253 
0 0 253 
0 0 254 
0 0 255 
0 0 254 
0 0 252 
0 0 254 
0 0 253 
0 0 254 
0 0 255 
0 0 252 
0 0 252 
0 0 253 
0 0 254 
0 0 254 
0 0 254 
0 0 254 
0 0 252 
0 0 250 
0 0 252 
0 0 252 
0 0 252 
0 0 250 
0 0 254 
0 0 253 
0 0 254 
0 0 249 
0 0 252 
0 0 252 
0 0 252 
0 0 254 
0 0 252 
0 0 255 
0 0 250 
0 0 253 
0 0 254 
0 0 252 
0 0 255 
0 0 253 
0 0 244 
0 0 249 
0 0 252 
0 0 254 
0 0 253 
0 0 253 
0 0 250 
0 0 249 
0 0 249 
0 0 255 
0 0 252 
0 0 250 
0 0 255 
0 0 248 
0 0 249 
0 0 246 
0 0 246 
0 0 254 
0 0 248 
0 0 248 
0 0 252 
0 0 250 
0 0 250 
0 0 249 
0 0 248 
0 0 248 
0 0 254 
0 0 250 
0 0 245 
0 0 249 
0 0 244 
0 0 249 
0 0 249 
0 0 248 
0 0 250 
0 0 246 
0 0 248 
0 0 248 
0 0 245 
0 0 244 
0 0 246 
0 0 246 
0 0 250 
0 0 241 
0 0 250 
0 0 246 
0 0 245 
0 0 244 
0 0 248 
0 0 236 
0 0 250 
0 0 248 
0 0 242 
0 0 244 
0 0 241 
0 0 245 
0 0 246 
0 0 244 
0 0 240 
0 0 244 
0 0 240 
0 0 241 
0 0 242 
0 0 240 
0 0 241 
0 0 244 
0 0 244 
0 0 234 
0 0 241 
0 0 231 
179 184 250 
239 246 255 
239 246 255 
239 246 255 
239 246 255 
239 246 255 
240 246 255 
240 246 255 
240 246 255 
240 246 255 
240 246 255 
240 246 255 
240 246 255 
240 246 255 
240 246 255 
240 246 255 
240 246 255 
240 246 255 
240 246 255 
240 246 255 
240 246 255 
240 246 255 
240 246 255 
240 246 255 
240 246 255 
240 246 255 
240 246 255 
240 246 255 
240 246 255 
240 246 255 
240 246 255 
240 246 255 
240 246 255 
240 246 255 
240 246 255 
240 246 255 
240 246 255 
240 246 255 
240 246 255 
240 246 255 
240 246 255 
240 246 255 
240 246 255 
240 246 255 
240 246 255 
240 246 255 
240 246 255 
240 246 255 
240 246 255 
240 246 255 
240 246 255 
240 246 255 
240 246 255 
240 246 255 
240 246 255 
240 246 255 
240 246 255 
240 246 255 
240 246 255 
240 246 255 
240 246 255 
240 246 255 
240 246 255 
240 246 255 
239 246 255 
239 246 255 
239 246 255 
239 246 255 
239 246 255 
234 187 194 
230 0 0 
232 0 0 
218 0 0 
231 0 0 
226 0 0 
222 0 0 
223 0 0 
221 0 0 
227 0 0 
221 0 0 
224 0 0 
225 0 0 
214 0 0 
218 0 0 
221 0 0 
228 0 0 
226 0 0 
231 0 0 
228 0 0 
223 0 0 
224 0 0 
222 0 0 
226 0 0 
227 0 0 
223 0 0 
218 0 0 
224 0 0 
223 0 0 
225 0 0 
222 0 0 
223 0 0 
222 0 0 
230 0 0 
227 0 0 
226 0 0 
228 0 0 
224 0 0 
224 0 0 
230 0 0 
230 0 0 
220 0 0 
219 0 0 
229 0 0 
228 0 0 
228 0 0 
231 0 0 
225 0 0 
225 0 0 
225 0 0 
225 0 0 
223 0 0 
227 0 0 
230 0 0 
225 0 0 
226 0 0 
226 0 0 
225 0 0 
228 0 0 
225 0 0 
222 0 0 
223 0 0 
227 0 0 
228 0 0 
226 0 0 
227 0 0 
228 0 0 
224 0 0 
226 0 0 
224 0 0 
229 0 0 
229 0 0 
229 0 0 
227 0 0 
224 0 0 
228 0 0 
228 0 0 
226 0 0 
229 0 0 
231 0 0 
226 0 0 
228 0 0 
230 0 0 
228 0 0 
230 0 0 
223 0 0 
225 0 0 
228 0 0 
227 0 0 
226 0 0 
226 0 0 
228 0 0 
228 0 0 
229 0 0 
229 0 0 
227 0 0 
224 0 0 
231 0 0 
226 0 0 
229 0 0 
229 0 0 
227 0 0 
229 0 0 
225 0 0 
226 0 0 
227 0 0 
230 0 0 
229 0 0 
228 0 0 
228 0 0 
226 0 0 
224 0 0 
225 0 0 
226 0 0 
227 0 0 
229 0 0 
231 0 0 
229 0 0 
224 0 0 
227 0 0 
226 0 0 
225 0 0 
228 0 0 
225 0 0 
229 0 0 
227 0 0 
231 0 0 
225 0 0 
227 0 0 
227 0 0 
227 0 0 
229 0 0 
228 0 0 
231 0 0 
228 0 0 
229 0 0 
229 0 0 
228 0 0 
226 0 0 
225 0 0 
228 0 0 
228 0 0 
230 0 0 
232 0 0 
225 0 0 
227 0 0 
229 0 0 
229 0 0 
227 0 0 
227 0 0 
226 0 0 
226 0 0 
228 0 0 
229 0 0 
228 0 0 
229 0 0 
229 0 0 
231 0 0 
226 0 0 
232 0 0 
230 0 0 
228 0 0 
225 0 0 
231 0 0 
231 0 0 
228 0 0 
0 0 255 
0 0 255 
0 0 255 
0 0 253 
0 0 254 
0 0 255 
0 0 255 
0 0 252 
0 0 255 
0 0 254 
0 0 255 
0 0 255 
0 0 255 
0 0 254 
0 0 254 
0 0 255 
0 0 255 
0 0 255 
0 0 255 
0 0 254 
0 0 254 
0 0 255 
0 0 254 
0 0 254 
0 0 254 
0 0 255 
0 0 254 
0 0 253 
0 0 254 
0 0 253 
0 0 255 
0 0 254 
0 0 255 
0 0 255 
0 0 255 
0 0 253 
0 0 254 
0 0 253 
0 0 255 
0 0 253 
0 0 255 
0 0 254 
0 0 255 
0 0 255 
0 0 254 
0 0 253 
0 0 255 
0 0 253 
0 0 254 
0 0 253 
0 0 254 
0 0 253 
0 0 255 
0 0 254 
0 0 252 
0 0 255 
0 0 255 
0 0 254 
0 0 255 
0 0 254 
0 0 252 
0 0 255 
0 0 253 
0 0 253 
0 0 254 
0 0 254 
0 0 254 
0 0 254 
0 0 253 
0 0 254 
0 0 252 
0 0 255 
0 0 253 
0 0 252 
0 0 252 
0 0 254 
0 0 254 
0 0 253 
0 0 250 
0 0 254 
0 0 252 
0 0 254 
0 0 253 
0 0 254 
0 0 249 
0 0 253 
0 0 253 
0 0 250 
0 0 253 
0 0 253 
0 0 253 
0 0 248 
0 0 252 
0 0 252 
0 0 249 
0 0 253 
0 0 252 
0 0 254 
0 0 255 
0 0 252 
0 0 249 
0 0 252 
0 0 249 
0 0 252 
0 0 253 
0 0 250 
0 0 249 
0 0 248 
0 0 249 
0 0 250 
0 0 254 
0 0 255 
0 0 250 
0 0 249 
0 0 245 
0 0 253 
0 0 250 
0 0 250 
0 0 244 
0 0 244 
0 0 244 
0 0 249 
0 0 249 
0 0 248 
0 0 246 
0 0 246 
0 0 248 
0 0 248 
0 0 245 
0 0 249 
0 0 248 
0 0 249 
0 0 240 
0 0 249 
0 0 245 
0 0 246 
0 0 245 
0 0 246 
0 0 241 
0 0 245 
0 0 242 
0 0 249 
0 0 246 
0 0 237 
0 0 241 
0 0 252 
0 0 241 
0 0 249 
0 0 242 
0 0 242 
0 0 244 
0 0 244 
0 0 241 
0 0 249 
0 0 250 
0 0 244 
0 0 245 
0 0 241 
0 0 245 
0 0 233 
0 0 236 
0 0 237 
0 0 241 
24 24 238 
182 187 246 
240 246 255 
240 246 255 
240 246 255 
240 246 255 
240 246 255 
240 246 255 
240 246 255 
240 246 255 
240 246 255 
240 246 255 
240 246 255 
240 246 255 
240 246 255 
240 246 255 
240 246 255 
240 246 255 
240 246 255 
240 246 255 
240 246 255 
240 246 255 
240 246 255 
240 246 255 
240 246 255 
240 246 255 
240 246 255 
240 246 255 
240 246 255 
240 246 255 
240 246 255 
240 246 255 
240 246 255 
240 246 255 
240 246 255 
240 246 255 
240 246 255 
240 246 255 
240 246 255 
240 246 255 
240 246 255 
240 246 255 
240 246 255 
240 246 255 
240 246 255 
240 246 255 
240 246 255 
240 246 255 
240 246 255 
240 246 255 
240 246 255 
240 246 255 
240 246 255 
240 246 255 
240 246 255 
240 246 255 
240 246 255 
240 246 255 
240 246 255 
240 246 255 
240 246 255 
240 246 255 
240 246 255 
240 246 255 
240 246 255 
240 246 255 
240 246 255 
240 246 255 
240 246 255 
240 246 255 
240 246 255 
240 246 255 
234 203 211 
227 24 25 
231 0 0 
227 0 0 
220 0 0 
227 0 0 
213 0 0 
223 0 0 
225 0 0 
227 0 0 
223 0 0 
223 0 0 
220 0 0 
224 0 0 
226 0 0 
224 0 0 
228 0 0 
220 0 0 
219 0 0 
222 0 0 
227 0 0 
229 0 0 
224 0 0 
228 0 0 
229 0 0 
221 0 0 
229 0 0 
226 0 0 
230 0 0 
226 0 0 
224 0 0 
228 0 0 
218 0 0 
229 0 0 
223 0 0 
223 0 0 
225 0 0 
229 0 0 
231 0 0 
228 0 0 
227 0 0 
228 0 0 
225 0 0 
219 0 0 
229 0 0 
226 0 0 
218 0 0 
228 0 0 
230 0 0 
224 0 0 
224 0 0 
230 0 0 
223 0 0 
225 0 0 
227 0 0 
225 0 0 
220 0 0 
229 0 0 
231 0 0 
229 0 0 
229 0 0 
229 0 0 
230 0 0 
231 0 0 
227 0 0 
225 0 0 
224 0 0 
224 0 0 
228 0 0 
225 0 0 
224 0 0 
231 0 0 
225 0 0 
225 0 0 
227 0 0 
226 0 0 
224 0 0 
226 0 0 
225 0 0 
226 0 0 
228 0 0 
227 0 0 
225 0 0 
228 0 0 
230 0 0 
228 0 0 
225 0 0 
230 0 0 
231 0 0 
228 0 0 
228 0 0 
226 0 0 
227 0 0 
227 0 0 
230 0 0 
227 0 0 
223 0 0 
230 0 0 
227 0 0 
227 0 0 
230 0 0 
228 0 0 
229 0 0 
225 0 0 
229 0 0 
228 0 0 
229 0 0 
226 0 0 
226 0 0 
227 0 0 
226 0 0 
231 0 0 
231 0 0 
229 0 0 
228 0 0 
227 0 0 
227 0 0 
227 0 0 
227 0 0 
229 0 0 
228 0 0 
227 0 0 
230 0 0 
228 0 0 
229 0 0 
230 0 0 
232 0 0 
230 0 0 
226 0 0 
229 0 0 
229 0 0 
227 0 0 
230 0 0 
230 0 0 
229 0 0 
228 0 0 
230 0 0 
230 0 0 
228 0 0 
224 0 0 
226 0 0 
227 0 0 
230 0 0 
231 0 0 
230 0 0 
230 0 0 
232 0 0 
229 0 0 
230 0 0 
230 0 0 
230 0 0 
229 0 0 
227 0 0 
227 0 0 
227 0 0 
229 0 0 
231 0 0 
223 0 0 
228 0 0 
232 0 0 
226 0 0 
229 0 0 
228 0 0 
228 0 0 
230 0 0 
0 0 255 
0 0 255 
0 0 255 
0 0 255 
0 0 255 
0 0 255 
0 0 255 
0 0 255 
0 0 254 
0 0 255 
0 0 254 
0 0 255 
0 0 255 
0 0 255 
0 0 255 
0 0 255 
0 0 255 
0 0 255 
0 0 255 
0 0 254 
0 0 255 
0 0 255 
0 0 255 
0 0 254 
0 0 255 
0 0 255 
0 0 254 
0 0 255 
0 0 255 
0 0 253 
0 0 255 
0 0 255 
0 0 254 
0 0 254 
0 0 255 
0 0 255 
0 0 254 
0 0 253 
0 0 255 
0 0 253 
0 0 254 
0 0 254 
0 0 254 
0 0 253 
0 0 253 
0 0 254 
0 0 253 
0 0 252 
0 0 255 
0 0 254 
0 0 253 
0 0 254 
0 0 255 
0 0 255 
0 0 253 
0 0 252 
0 0 255 
0 0 255 
0 0 254 
0 0 254 
0 0 253 
0 0 255 
0 0 250 
0 0 250 
0 0 255 
0 0 253 
0 0 254 
0 0 255 
0 0 253 
0 0 252 
0 0 255 
0 0 253 
0 0 254 
0 0 253 
0 0 252 
0 0 253 
0 0 253 
0 0 252 
0 0 252 
0 0 254 
0 0 250 
0 0 253 
0 0 253 
0 0 252 
0 0 252 
0 0 253 
0 0 255 
0 0 250 
0 0 252 
0 0 252 
0 0 250 
0 0 248 
0 0 249 
0 0 253 
0 0 249 
0 0 252 
0 0 254 
0 0 248 
0 0 253 
0 0 250 
0 0 253 
0 0 254 
0 0 250 
0 0 246 
0 0 252 
0 0 249 
0 0 252 
0 0 249 
0 0 253 
0 0 250 
0 0 253 
0 0 245 
0 0 245 
0 0 248 
0 0 250 
0 0 252 
0 0 250 
0 0 241 
0 0 246 
0 0 252 
0 0 250 
0 0 244 
0 0 249 
0 0 249 
0 0 250 
0 0 242 
0 0 245 
0 0 248 
0 0 245 
0 0 246 
0 0 244 
0 0 244 
0 0 242 
0 0 245 
0 0 244 
0 0 249 
0 0 237 
0 0 246 
0 0 241 
0 0 245 
0 0 242 
0 0 246 
0 0 246 
0 0 249 
0 0 244 
0 0 242 
0 0 241 
0 0 246 
0 0 244 
0 0 238 
0 0 234 
0 0 240 
0 0 240 
0 0 240 
0 0 241 
0 0 245 
0 0 248 
0 0 245 
0 0 242 
0 0 240 
0 0 242 
0 0 242 
58 60 244 
214 220 253 
240 246 255 
240 246 255 
240 246 255 
240 246 255 
240 246 255 
240 246 255 
240 246 255 
240 246 255 
240 246 255 
240 246 255 
240 246 255 
240 246 255 
240 246 255 
240 246 255 
240 246 255 
240 246 255 
240 246 255 
240 246 255 
240 246 255 
240 246 255 
240 246 255 
240 246 255 
240 246 255 
240 246 255 
240 246 255 
240 246 255 
240 246 255 
240 246 255 
240 246 255 
240 246 255 
240 246 255 
240 246 255 
240 246 255 
240 246 255 
240 246 255 
240 246 255 
240 246 255 
240 246 255 
240 246 255 
240 246 255 
240 246 255 
240 246 255 
240 246 255 
240 246 255 
240 246 255 
240 246 255 
240 246 255 
240 246 255 
240 246 255 
240 246 255 
240 246 255 
240 246 255 
240 246 255 
240 246 255 
240 246 255 
240 246 255 
240 246 255 
240 246 255 
240 246 255 
240 246 255 
240 246 255 
240 246 255 
240 246 255 
240 246 255 
240 246 255 
240 246 255 
240 246 255 
240 246 255 
240 246 255 
240 246 255 
240 246 255 
240 246 255 
235 219 227 
227 85 88 
217 0 0 
226 0 0 
226 0 0 
228 0 0 
225 0 0 
231 0 0 
224 0 0 
222 0 0 
218 0 0 
227 0 0 
226 0 0 
225 0 0 
222 0 0 
227 0 0 
228 0 0 
227 0 0 
224 0 0 
222 0 0 
233 0 0 
222 0 0 
220 0 0 
220 0 0 
230 0 0 
225 0 0 
227 0 0 
224 0 0 
229 0 0 
226 0 0 
229 0 0 
230 0 0 
226 0 0 
228 0 0 
227 0 0 
229 0 0 
229 0 0 
224 0 0 
226 0 0 
227 0 0 
229 0 0 
229 0 0 
223 0 0 
229 0 0 
227 0 0 
227 0 0 
225 0 0 
223 0 0 
228 0 0 
229 0 0 
228 0 0 
231 0 0 
233 0 0 
227 0 0 
228 0 0 
229 0 0 
224 0 0 
224 0 0 
229 0 0 
225 0 0 
225 0 0 
230 0 0 
232 0 0 
230 0 0 
228 0 0 
222 0 0 
226 0 0 
228 0 0 
226 0 0 
225 0 0 
219 0 0 
227 0 0 
226 0 0 
221 0 0 
227 0 0 
232 0 0 
230 0 0 
223 0 0 
224 0 0 
226 0 0 
226 0 0 
228 0 0 
227 0 0 
226 0 0 
230 0 0 
227 0 0 
228 0 0 
224 0 0 
228 0 0 
225 0 0 
232 0 0 
229 0 0 
227 0 0 
228 0 0 
225 0 0 
229 0 0 
231 0 0 
226 0 0 
231 0 0 
230 0 0 
226 0 0 
228 0 0 
229 0 0 
228 0 0 
228 0 0 
227 0 0 
228 0 0 
230 0 0 
228 0 0 
230 0 0 
229 0 0 
228 0 0 
229 0 0 
227 0 0 
223 0 0 
229 0 0 
227 0 0 
229 0 0 
227 0 0 
225 0 0 
223 0 0 
230 0 0 
230 0 0 
232 0 0 
229 0 0 
229 0 0 
227 0 0 
228 0 0 
229 0 0 
225 0 0 
227 0 0 
230 0 0 
231 0 0 
231 0 0 
231 0 0 
229 0 0 
227 0 0 
226 0 0 
229 0 0 
229 0 0 
228 0 0 
226 0 0 
231 0 0 
229 0 0 
230 0 0 
228 0 0 
227 0 0 
229 0 0 
227 0 0 
228 0 0 
229 0 0 
228 0 0 
225 0 0 
228 0 0 
228 0 0 
227 0 0 
231 0 0 
228 0 0 
230 0 0 
231 0 0 
227 0 0 
230 0 0 
227 0 0 
228 0 0 
0 0 255 
0 0 255 
0 0 255 
0 0 255 
0 0 255 
0 0 255 
0 0 255 
0 0 255 
0 0 255 
0 0 255 
0 0 254 
0 0 255 
0 0 254 
0 0 255 
0 0 255 
0 0 253 
0 0 255 
0 0 255 
0 0 255 
0 0 255 
0 0 254 
0 0 254 
0 0 254 
0 0 254 
0 0 254 
0 0 255 
0 0 254 
0 0 254 
0 0 253 
0 0 254 
0 0 252 
0 0 255 
0 0 253 
0 0 255 
0 0 255 
0 0 254 
0 0 253 
0 0 254 
0 0 254 
0 0 255 
0 0 255 
0 0 255 
0 0 254 
0 0 254 
0 0 253 
0 0 254 
0 0 254 
0 0 254 
0 0 254 
0 0 255 
0 0 255 
0 0 254 
0 0 255 
0 0 255 
0 0 254 
0 0 254 
0 0 254 
0 0 255 
0 0 255 
0 0 253 
0 0 254 
0 0 254 
0 0 253 
0 0 254 
0 0 252 
0 0 254 
0 0 252 
0 0 253 
0 0 255 
0 0 250 
0 0 249 
0 0 254 
0 0 254 
0 0 252 
0 0 252 
0 0 253 
0 0 254 
0 0 254 
0 0 252 
0 0 253 
0 0 254 
0 0 250 
0 0 254 
0 0 250 
0 0 254 
0 0 252 
0 0 255 
0 0 253 
0 0 252 
0 0 255 
0 0 253 
0 0 255 
0 0 252 
0 0 249 
0 0 252 
0 0 250 
0 0 249 
0 0 252 
0 0 254 
0 0 254 
0 0 254 
0 0 253 
0 0 252 
0 0 244 
0 0 250 
0 0 253 
0 0 254 
0 0 249 
0 0 248 
0 0 250 
0 0 249 
0 0 246 
0 0 249 
0 0 249 
0 0 245 
0 0 252 
0 0 248 
0 0 248 
0 0 252 
0 0 254 
0 0 248 
0 0 253 
0 0 246 
0 0 252 
0 0 246 
0 0 248 
0 0 248 
0 0 253 
0 0 246 
0 0 245 
0 0 248 
0 0 252 
0 0 250 
0 0 249 
0 0 244 
0 0 252 
0 0 248 
0 0 250 
0 0 248 
0 0 242 
0 0 252 
0 0 245 
0 0 246 
0 0 249 
0 0 242 
0 0 245 
0 0 245 
0 0 246 
0 0 245 
0 0 246 
0 0 240 
0 0 244 
0 0 240 
0 0 238 
0 0 249 
0 0 246 
0 0 245 
0 0 237 
0 0 245 
0 0 241 
0 0 228 
86 88 248 
225 231 250 
240 246 255 
240 246 255 
240 246 255 
240 246 255 
240 246 255 
240 246 255 
240 246 255 
240 246 255 
240 246 255 
240 246 255 
240 246 255 
240 246 255 
240 246 255 
240 246 255 
240 246 255 
240 246 255 
240 246 255 
240 246 255 
240 246 255 
240 246 255 
240 247 255 
240 247 255 
240 247 255 
240 247 255 
240 247 255 
240 247 255 
240 247 255 
240 247 255 
240 247 255 
240 247 255 
240 247 255 
240 247 255 
240 247 255 
240 247 255 
240 247 255 
240 247 255 
240 247 255 
240 247 255 
240 247 255 
240 247 255 
240 247 255 
240 247 255 
240 247 255 
240 247 255 
240 247 255 
240 247 255 
240 247 255 
240 247 255 
240 247 255 
240 247 255 
240 247 255 
240 247 255 
240 247 255 
240 247 255 
240 247 255 
240 246 255 
240 246 255 
240 246 255 
240 246 255 
240 246 255 
240 246 255 
240 246 255 
240 246 255 
240 246 255 
240 246 255 
240 246 255 
240 246 255 
240 246 255 
240 246 255 
240 246 255 
240 246 255 
240 246 255 
240 246 255 
240 246 255 
239 231 240 
227 85 88 
224 0 0 
232 0 0 
221 0 0 
227 0 0 
220 0 0 
222 0 0 
227 0 0 
224 0 0 
227 0 0 
221 0 0 
221 0 0 
222 0 0 
217 0 0 
227 0 0 
228 0 0 
226 0 0 
224 0 0 
229 0 0 
228 0 0 
221 0 0 
224 0 0 
224 0 0 
217 0 0 
226 0 0 
215 0 0 
230 0 0 
223 0 0 
227 0 0 
231 0 0 
224 0 0 
227 0 0 
227 0 0 
229 0 0 
225 0 0 
217 0 0 
230 0 0 
224 0 0 
225 0 0 
225 0 0 
231 0 0 
225 0 0 
226 0 0 
226 0 0 
230 0 0 
227 0 0 
227 0 0 
227 0 0 
224 0 0 
228 0 0 
223 0 0 
228 0 0 
227 0 0 
225 0 0 
229 0 0 
228 0 0 
227 0 0 
229 0 0 
231 0 0 
227 0 0 
228 0 0 
225 0 0 
228 0 0 
232 0 0 
228 0 0 
230 0 0 
229 0 0 
229 0 0 
227 0 0 
227 0 0 
226 0 0 
222 0 0 
229 0 0 
223 0 0 
225 0 0 
225 0 0 
228 0 0 
227 0 0 
225 0 0 
231 0 0 
230 0 0 
229 0 0 
228 0 0 
230 0 0 
232 0 0 
230 0 0 
230 0 0 
232 0 0 
231 0 0 
233 0 0 
228 0 0 
226 0 0 
227 0 0 
227 0 0 
227 0 0 
226 0 0 
228 0 0 
230 0 0 
228 0 0 
229 0 0 
232 0 0 
230 0 0 
232 0 0 
227 0 0 
228 0 0 
230 0 0 
228 0 0 
226 0 0 
231 0 0 
231 0 0 
231 0 0 
228 0 0 
228 0 0 
225 0 0 
227 0 0 
228 0 0 
230 0 0 
232 0 0 
227 0 0 
228 0 0 
229 0 0 
230 0 0 
226 0 0 
228 0 0 
231 0 0 
229 0 0 
226 0 0 
225 0 0 
231 0 0 
228 0 0 
230 0 0 
224 0 0 
227 0 0 
230 0 0 
227 0 0 
229 0 0 
228 0 0 
228 0 0 
227 0 0 
229 0 0 
226 0 0 
229 0 0 
231 0 0 
227 0 0 
231 0 0 
229 0 0 
228 0 0 
228 0 0 
230 0 0 
229 0 0 
226 0 0 
228 0 0 
227 0 0 
228 0 0 
229 0 0 
226 0 0 
226 0 0 
230 0 0 
229 0 0 
229 0 0 
230 0 0 
230 0 0 
0 0 255 
0 0 255 
0 0 255 
0 0 255 
0 0 255 
0 0 255 
0 0 255 
0 0 255 
0 0 255 
0 0 250 
0 0 255 
0 0 255 
0 0 254 
0 0 255 
0 0 255 
0 0 253 
0 0 255 
0 0 255 
0 0 254 
0 0 255 
0 0 255 
0 0 255 
0 0 255 
0 0 255 
0 0 255 
0 0 255 
0 0 254 
0 0 255 
0 0 254 
0 0 254 
0 0 255 
0 0 253 
0 0 254 
0 0 255 
0 0 255 
0 0 254 
0 0 254 
0 0 254 
0 0 255 
0 0 255 
0 0 254 
0 0 252 
0 0 254 
0 0 254 
0 0 255 
0 0 253 
0 0 253 
0 0 254 
0 0 255 
0 0 255 
0 0 250 
0 0 253 
0 0 255 
0 0 254 
0 0 254 
0 0 255 
0 0 253 
0 0 255 
0 0 255 
0 0 255 
0 0 252 
0 0 250 
0 0 255 
0 0 254 
0 0 255 
0 0 253 
0 0 254 
0 0 252 
0 0 253 
0 0 254 
0 0 253 
0 0 252 
0 0 252 
0 0 250 
0 0 249 
0 0 254 
0 0 253 
0 0 250 
0 0 253 
0 0 252 
0 0 250 
0 0 255 
0 0 254 
0 0 252 
0 0 252 
0 0 250 
0 0 254 
0 0 249 
0 0 249 
0 0 252 
0 0 250 
0 0 252 
0 0 252 
0 0 253 
0 0 249 
0 0 255 
0 0 250 
0 0 250 
0 0 254 
0 0 252 
0 0 252 
0 0 252 
0 0 252 
0 0 250 
0 0 250 
0 0 248 
0 0 255 
0 0 253 
0 0 250 
0 0 246 
0 0 249 
0 0 253 
0 0 254 
0 0 249 
0 0 249 
0 0 246 
0 0 248 
0 0 249 
0 0 249 
0 0 246 
0 0 250 
0 0 252 
0 0 250 
0 0 248 
0 0 246 
0 0 250 
0 0 245 
0 0 250 
0 0 250 
0 0 246 
0 0 246 
0 0 241 
0 0 240 
0 0 240 
0 0 252 
0 0 245 
0 0 249 
0 0 245 
0 0 244 
0 0 252 
0 0 248 
0 0 245 
0 0 245 
0 0 241 
0 0 245 
0 0 241 
0 0 249 
0 0 248 
0 0 244 
0 0 245 
0 0 246 
0 0 240 
0 0 240 
0 0 240 
0 0 245 
0 0 248 
0 0 238 
0 0 240 
0 0 242 
0 0 236 
127 130 250 
235 241 255 
240 246 255 
240 246 255 
240 246 255 
240 246 255 
240 246 255 
240 246 255 
240 246 255 
240 246 255 
240 246 255 
240 246 255 
240 246 255 
240 246 255 
240 247 255 
240 247 255 
240 247 255 
240 247 255 
240 247 255 
240 247 255 
240 247 255 
240 247 255 
240 247 255 
241 247 255 
241 247 255 
241 247 255 
241 247 255 
241 247 255 
241 247 255 
241 247 255 
241 247 255 
241 247 255 
241 247 255 
241 247 255 
241 247 255 
241 247 255 
241 247 255 
241 247 255 
241 247 255 
241 247 255 
241 247 255 
241 247 255 
241 247 255 
241 247 255 
241 247 255 
241 247 255 
241 247 255 
241 247 255 
241 247 255 
241 247 255 
241 247 255 
241 247 255 
241 247 255 
241 247 255 
241 247 255 
241 247 255 
241 247 255 
240 247 255 
240 247 255 
240 247 255 
240 247 255 
240 247 255 
240 247 255 
240 247 255 
240 247 255 
240 247 255 
240 246 255 
240 246 255 
240 246 255 
240 246 255 
240 246 255 
240 246 255 
240 246 255 
240 246 255 
240 246 255 
240 246 255 
240 246 255 
240 246 255 
240 240 249 
236 143 149 
231 0 0 
230 0 0 
221 0 0 
230 0 0 
221 0 0 
226 0 0 
228 0 0 
224 0 0 
226 0 0 
222 0 0 
223 0 0 
232 0 0 
231 0 0 
223 0 0 
223 0 0 
219 0 0 
227 0 0 
228 0 0 
227 0 0 
226 0 0 
228 0 0 
226 0 0 
224 0 0 
225 0 0 
223 0 0 
226 0 0 
226 0 0 
230 0 0 
222 0 0 
225 0 0 
227 0 0 
226 0 0 
230 0 0 
227 0 0 
224 0 0 
226 0 0 
227 0 0 
228 0 0 
226 0 0 
231 0 0 
227 0 0 
227 0 0 
227 0 0 
225 0 0 
228 0 0 
223 0 0 
229 0 0 
231 0 0 
228 0 0 
226 0 0 
220 0 0 
229 0 0 
230 0 0 
227 0 0 
230 0 0 
223 0 0 
223 0 0 
229 0 0 
232 0 0 
226 0 0 
226 0 0 
224 0 0 
220 0 0 
227 0 0 
219 0 0 
228 0 0 
225 0 0 
226 0 0 
231 0 0 
229 0 0 
229 0 0 
226 0 0 
227 0 0 
229 0 0 
228 0 0 
224 0 0 
230 0 0 
229 0 0 
231 0 0 
225 0 0 
224 0 0 
224 0 0 
224 0 0 
232 0 0 
223 0 0 
226 0 0 
228 0 0 
231 0 0 
228 0 0 
229 0 0 
228 0 0 
227 0 0 
229 0 0 
229 0 0 
229 0 0 
228 0 0 
230 0 0 
228 0 0 
228 0 0 
228 0 0 
227 0 0 
227 0 0 
230 0 0 
228 0 0 
226 0 0 
231 0 0 
230 0 0 
228 0 0 
225 0 0 
228 0 0 
228 0 0 
230 0 0 
226 0 0 
228 0 0 
232 0 0 
229 0 0 
231 0 0 
230 0 0 
227 0 0 
227 0 0 
227 0 0 
228 0 0 
228 0 0 
229 0 0 
229 0 0 
230 0 0 
232 0 0 
230 0 0 
225 0 0 
227 0 0 
229 0 0 
229 0 0 
227 0 0 
229 0 0 
232 0 0 
229 0 0 
231 0 0 
228 0 0 
228 0 0 
229 0 0 
226 0 0 
231 0 0 
230 0 0 
227 0 0 
225 0 0 
228 0 0 
229 0 0 
226 0 0 
231 0 0 
230 0 0 
229 0 0 
231 0 0 
227 0 0 
227 0 0 
230 0 0 
228 0 0 
227 0 0 
229 0 0 
228 0 0 
229 0 0 
0 0 254 
0 0 255 
0 0 255 
0 0 255 
0 0 255 
0 0 255 
0 0 255 
0 0 255 
0 0 255 
0 0 255 
0 0 254 
0 0 255 
0 0 254 
0 0 254 
0 0 255 
0 0 254 
0 0 255 
0 0 255 
0 0 254 
0 0 254 
0 0 255 
0 0 254 
0 0 255 
0 0 254 
0 0 254 
0 0 254 
0 0 255 
0 0 255 
0 0 254 
0 0 255 
0 0 254 
0 0 255 
0 0 255 
0 0 255 
0 0 254 
0 0 255 
0 0 254 
0 0 254 
0 0 254 
0 0 255 
0 0 255 
0 0 255 
0 0 255 
0 0 255 
0 0 253 
0 0 255 
0 0 255 
0 0 255 
0 0 255 
0 0 253 
0 0 254 
0 0 254 
0 0 253 
0 0 255 
0 0 255 
0 0 254 
0 0 255 
0 0 254 
0 0 255 
0 0 255 
0 0 252 
0 0 254 
0 0 253 
0 0 254 
0 0 254 
0 0 255 
0 0 250 
0 0 255 
0 0 253 
0 0 254 
0 0 252 
0 0 252 
0 0 253 
0 0 255 
0 0 255 
0 0 254 
0 0 252 
0 0 254 
0 0 250 
0 0 254 
0 0 254 
0 0 255 
0 0 254 
0 0 254 
0 0 254 
0 0 249 
0 0 249 
0 0 250 
0 0 250 
0 0 254 
0 0 253 
0 0 253 
0 0 252 
0 0 253 
0 0 253 
0 0 253 
0 0 250 
0 0 253 
0 0 252 
0 0 252 
0 0 250 
0 0 252 
0 0 248 
0 0 253 
0 0 249 
0 0 254 
0 0 248 
0 0 252 
0 0 246 
0 0 252 
0 0 249 
0 0 250 
0 0 248 
0 0 248 
0 0 250 
0 0 248 
0 0 250 
0 0 250 
0 0 246 
0 0 246 
0 0 241 
0 0 252 
0 0 249 
0 0 254 
0 0 249 
0 0 250 
0 0 254 
0 0 249 
0 0 248 
0 0 249 
0 0 245 
0 0 248 
0 0 246 
0 0 242 
0 0 249 
0 0 244 
0 0 248 
0 0 249 
0 0 245 
0 0 241 
0 0 253 
0 0 250 
0 0 240 
0 0 248 
0 0 242 
0 0 246 
0 0 249 
0 0 246 
0 0 248 
0 0 245 
0 0 245 
0 0 244 
0 0 244 
0 0 241 
0 0 241 
0 0 244 
0 0 238 
0 0 244 
24 24 250 
168 172 249 
240 246 255 
240 246 255 
240 246 255 
240 246 255 
240 246 255 
240 246 255 
240 246 255 
240 246 255 
240 247 255 
240 247 255 
240 247 255 
240 247 255 
240 247 255 
240 247 255 
241 247 255 
241 247 255 
241 247 255 
241 247 255 
241 247 255 
241 247 255 
241 247 255 
241 247 255 
241 247 255 
241 247 255 
241 247 255 
241 247 255 
241 247 255 
241 247 255 
241 247 255 
241 247 255 
241 247 255 
241 247 255 
241 247 255 
241 247 255 
241 247 255 
241 247 255 
241 247 255 
241 247 255 
241 247 255 
241 247 255 
241 247 255 
241 247 255 
241 247 255 
241 247 255 
241 247 255 
241 247 255 
241 247 255 
241 247 255 
241 247 255 
241 247 255 
241 247 255 
241 247 255 
241 247 255 
241 247 255 
241 247 255 
241 247 255 
241 247 255 
241 247 255 
241 247 255 
241 247 255 
241 247 255 
241 247 255 
241 247 255 
241 247 255 
241 247 255 
241 247 255 
240 247 255 
240 247 255 
240 247 255 
240 247 255 
240 247 255 
240 247 255 
240 246 255 
240 246 255 
240 246 255 
240 246 255 
240 246 255 
240 246 255 
240 246 255 
240 245 254 
233 156 161 
232 0 0 
224 0 0 
227 0 0 
229 0 0 
233 0 0 
220 0 0 
229 0 0 
224 0 0 
225 0 0 
228 0 0 
223 0 0 
230 0 0 
227 0 0 
226 0 0 
225 0 0 
228 0 0 
223 0 0 
229 0 0 
220 0 0 
227 0 0 
225 0 0 
231 0 0 
220 0 0 
230 0 0 
225 0 0 
228 0 0 
222 0 0 
228 0 0 
223 0 0 
230 0 0 
227 0 0 
231 0 0 
235 0 0 
229 0 0 
232 0 0 
225 0 0 
227 0 0 
226 0 0 
224 0 0 
229 0 0 
230 0 0 
229 0 0 
222 0 0 
227 0 0 
224 0 0 
230 0 0 
227 0 0 
223 0 0 
229 0 0 
229 0 0 
228 0 0 
224 0 0 
233 0 0 
231 0 0 
226 0 0 
229 0 0 
227 0 0 
228 0 0 
228 0 0 
230 0 0 
231 0 0 
230 0 0 
230 0 0 
231 0 0 
229 0 0 
229 0 0 
227 0 0 
227 0 0 
230 0 0 
228 0 0 
228 0 0 
227 0 0 
226 0 0 
228 0 0 
228 0 0 
230 0 0 
230 0 0 
227 0 0 
228 0 0 
230 0 0 
231 0 0 
229 0 0 
230 0 0 
228 0 0 
227 0 0 
227 0 0 
227 0 0 
228 0 0 
226 0 0 
226 0 0 
227 0 0 
229 0 0 
229 0 0 
230 0 0 
227 0 0 
227 0 0 
227 0 0 
226 0 0 
230 0 0 
232 0 0 
229 0 0 
227 0 0 
229 0 0 
230 0 0 
229 0 0 
227 0 0 
229 0 0 
229 0 0 
226 0 0 
226 0 0 
232 0 0 
228 0 0 
230 0 0 
230 0 0 
228 0 0 
231 0 0 
227 0 0 
230 0 0 
231 0 0 
228 0 0 
227 0 0 
230 0 0 
228 0 0 
231 0 0 
226 0 0 
228 0 0 
234 0 0 
230 0 0 
228 0 0 
227 0 0 
229 0 0 
225 0 0 
229 0 0 
225 0 0 
229 0 0 
230 0 0 
229 0 0 
229 0 0 
227 0 0 
229 0 0 
228 0 0 
231 0 0 
231 0 0 
228 0 0 
225 0 0 
230 0 0 
229 0 0 
228 0 0 
225 0 0 
229 0 0 
228 0 0 
227 0 0 
230 0 0 
229 0 0 
227 0 0 
228 0 0 
231 0 0 
228 0 0 
228 0 0 
0 0 255 
0 0 255 
0 0 255 
0 0 255 
0 0 255 
0 0 255 
0 0 255 
0 0 255 
0 0 255 
0 0 255 
0 0 254 
0 0 254 
0 0 255 
0 0 255 
0 0 255 
0 0 255 
0 0 254 
0 0 254 
0 0 255 
0 0 255 
0 0 254 
0 0 255 
0 0 255 
0 0 255 
0 0 255 
0 0 255 
0 0 255 
0 0 255 
0 0 255 
0 0 255 
0 0 255 
0 0 255 
0 0 253 
0 0 255 
0 0 255 
0 0 255 
0 0 254 
0 0 254 
0 0 255 
0 0 254 
0 0 253 
0 0 254 
0 0 254 
0 0 255 
0 0 254 
0 0 253 
0 0 253 
0 0 254 
0 0 254 
0 0 254 
0 0 255 
0 0 254 
0 0 249 
0 0 253 
0 0 252 
0 0 254 
0 0 255 
0 0 255 
0 0 255 
0 0 250 
0 0 254 
0 0 254 
0 0 252 
0 0 255 
0 0 254 
0 0 252 
0 0 254 
0 0 253 
0 0 255 
0 0 254 
0 0 254 
0 0 254 
0 0 254 
0 0 254 
0 0 253 
0 0 255 
0 0 252 
0 0 254 
0 0 250 
0 0 253 
0 0 252 
0 0 253 
0 0 253 
0 0 254 
0 0 250 
0 0 250 
0 0 252 
0 0 254 
0 0 254 
0 0 253 
0 0 254 
0 0 254 
0 0 249 
0 0 252 
0 0 245 
0 0 252 
0 0 250 
0 0 255 
0 0 254 
0 0 254 
0 0 253 
0 0 250 
0 0 253 
0 0 250 
0 0 252 
0 0 245 
0 0 249 
0 0 250 
0 0 252 
0 0 248 
0 0 252 
0 0 248 
0 0 252 
0 0 249 
0 0 252 
0 0 242 
0 0 246 
0 0 249 
0 0 250 
0 0 253 
0 0 249 
0 0 250 
0 0 252 
0 0 250 
0 0 249 
0 0 246 
0 0 248 
0 0 245 
0 0 249 
0 0 250 
0 0 249 
0 0 246 
0 0 245 
0 0 252 
0 0 245 
0 0 252 
0 0 250 
0 0 246 
0 0 242 
0 0 248 
0 0 246 
0 0 249 
0 0 245 
0 0 240 
0 0 250 
0 0 249 
0 0 246 
0 0 248 
0 0 244 
0 0 244 
0 0 242 
0 0 246 
0 0 249 
0 0 246 
0 0 242 
0 0 238 
0 0 233 
58 60 246 
205 210 253 
240 246 255 
240 246 255 
240 246 255 
240 247 255 
240 247 255 
240 247 255 
240 247 255 
240 247 255 
240 247 255 
241 247 255 
241 247 255 
241 247 255 
241 247 255 
241 247 255 
241 247 255 
241 247 255 
241 247 255 
241 247 255 
241 247 255 
241 247 255 
241 247 255 
241 247 255 
241 247 255 
241 247 255 
241 247 255 
241 247 255 
241 247 255 
241 247 255 
241 247 255 
241 247 255 
241 247 255 
241 247 255 
241 247 255 
241 247 255 
241 247 255 
241 247 255 
241 247 255 
241 247 255 
241 247 255 
241 247 255 
241 247 255 
241 247 255 
241 247 255 
241 247 255 
241 247 255 
241 247 255 
241 247 255 
241 247 255 
241 247 255 
241 247 255 
241 247 255 
241 247 255 
241 247 255 
241 247 255 
241 247 255 
241 247 255 
241 247 255 
241 247 255 
241 247 255 
241 247 255 
241 247 255 
241 247 255 
241 247 255 
241 247 255 
241 247 255 
241 247 255 
241 247 255 
241 247 255 
241 247 255 
241 247 255 
241 247 255 
241 247 255 
241 247 255 
240 247 255 
240 247 255 
240 247 255 
240 247 255 
240 247 255 
240 247 255 
240 246 255 
240 246 255 
240 246 255 
239 212 220 
234 69 72 
233 0 0 
229 0 0 
233 0 0 
223 0 0 
230 0 0 
226 0 0 
225 0 0 
229 0 0 
230 0 0 
225 0 0 
230 0 0 
224 0 0 
226 0 0 
229 0 0 
229 0 0 
223 0 0 
230 0 0 
227 0 0 
231 0 0 
225 0 0 
232 0 0 
230 0 0 
224 0 0 
227 0 0 
229 0 0 
231 0 0 
223 0 0 
227 0 0 
222 0 0 
227 0 0 
228 0 0 
227 0 0 
226 0 0 
228 0 0 
233 0 0 
224 0 0 
223 0 0 
222 0 0 
226 0 0 
224 0 0 
227 0 0 
229 0 0 
223 0 0 
225 0 0 
233 0 0 
231 0 0 
223 0 0 
230 0 0 
225 0 0 
226 0 0 
222 0 0 
226 0 0 
227 0 0 
230 0 0 
231 0 0 
229 0 0 
224 0 0 
233 0 0 
231 0 0 
223 0 0 
229 0 0 
226 0 0 
230 0 0 
230 0 0 
236 0 0 
228 0 0 
230 0 0 
230 0 0 
227 0 0 
228 0 0 
227 0 0 
232 0 0 
229 0 0 
229 0 0 
229 0 0 
229 0 0 
227 0 0 
229 0 0 
229 0 0 
226 0 0 
226 0 0 
229 0 0 
227 0 0 
227 0 0 
225 0 0 
230 0 0 
230 0 0 
230 0 0 
228 0 0 
227 0 0 
231 0 0 
228 0 0 
225 0 0 
227 0 0 
231 0 0 
231 0 0 
229 0 0 
229 0 0 
228 0 0 
227 0 0 
226 0 0 
230 0 0 
229 0 0 
233 0 0 
228 0 0 
233 0 0 
226 0 0 
231 0 0 
227 0 0 
225 0 0 
233 0 0 
231 0 0 
232 0 0 
232 0 0 
230 0 0 
225 0 0 
227 0 0 
226 0 0 
227 0 0 
225 0 0 
231 0 0 
228 0 0 
231 0 0 
231 0 0 
229 0 0 
230 0 0 
228 0 0 
228 0 0 
226 0 0 
229 0 0 
226 0 0 
230 0 0 
231 0 0 
230 0 0 
227 0 0 
228 0 0 
231 0 0 
227 0 0 
229 0 0 
229 0 0 
229 0 0 
229 0 0 
225 0 0 
229 0 0 
231 0 0 
229 0 0 
231 0 0 
228 0 0 
228 0 0 
229 0 0 
228 0 0 
228 0 0 
229 0 0 
229 0 0 
230 0 0 
230 0 0 
228 0 0 
0 0 255 
0 0 255 
0 0 255 
0 0 254 
0 0 255 
0 0 253 
0 0 255 
0 0 255 
0 0 255 
0 0 254 
0 0 255 
0 0 255 
0 0 255 
0 0 255 
0 0 255 
0 0 255 
0 0 253 
0 0 255 
0 0 255 
0 0 255 
0 0 254 
0 0 255 
0 0 255 
0 0 254 
0 0 254 
0 0 255 
0 0 254 
0 0 253 
0 0 255 
0 0 255 
0 0 255 
0 0 254 
0 0 255 
0 0 254 
0 0 254 
0 0 255 
0 0 254 
0 0 255 
0 0 253 
0 0 255 
0 0 253 
0 0 255 
0 0 253 
0 0 253 
0 0 253 
0 0 254 
0 0 254 
0 0 253 
0 0 255 
0 0 253 
0 0 254 
0 0 255 
0 0 255 
0 0 255 
0 0 253 
0 0 255 
0 0 253 
0 0 255 
0 0 253 
0 0 253 
0 0 255 
0 0 254 
0 0 255 
0 0 252 
0 0 255 
0 0 253 
0 0 255 
0 0 253 
0 0 254 
0 0 254 
0 0 253 
0 0 253 
0 0 254 
0 0 250 
0 0 246 
0 0 252 
0 0 254 
0 0 253 
0 0 250 
0 0 253 
0 0 255 
0 0 253 
0 0 250 
0 0 255 
0 0 255 
0 0 253 
0 0 252 
0 0 252 
0 0 252 
0 0 253 
0 0 254 
0 0 254 
0 0 250 
0 0 249 
0 0 252 
0 0 255 
0 0 254 
0 0 253 
0 0 250 
0 0 246 
0 0 253 
0 0 252 
0 0 250 
0 0 250 
0 0 252 
0 0 254 
0 0 253 
0 0 255 
0 0 249 
0 0 252 
0 0 250 
0 0 250 
0 0 246 
0 0 244 
0 0 253 
0 0 249 
0 0 249 
0 0 254 
0 0 244 
0 0 246 
0 0 249 
0 0 252 
0 0 249 
0 0 245 
0 0 249 
0 0 253 
0 0 249 
0 0 252 
0 0 248 
0 0 248 
0 0 244 
0 0 250 
0 0 244 
0 0 245 
0 0 250 
0 0 245 
0 0 249 
0 0 246 
0 0 252 
0 0 249 
0 0 250 
0 0 244 
0 0 245 
0 0 241 
0 0 245 
0 0 248 
0 0 242 
0 0 242 
0 0 242 
0 0 233 
0 0 237 
0 0 249 
0 0 245 
0 0 244 
0 0 245 
0 0 249 
117 121 250 
225 231 255 
240 247 255 
240 247 255 
240 247 255 
240 247 255 
240 247 255 
241 247 255 
241 247 255 
241 247 255 
241 247 255 
241 247 255 
241 247 255 
241 247 255 
241 247 255 
241 247 255 
241 247 255 
241 247 255 
241 247 255 
241 247 255 
241 247 255 
241 247 255 
241 247 255 
241 247 255 
241 247 255 
241 247 255 
241 247 255 
241 247 255 
241 247 255 
241 247 255 
241 247 255 
241 247 255 
241 247 255 
241 247 255 
241 247 255 
241 247 255 
241 247 255 
241 247 255 
241 247 255 
241 247 255 
241 247 255 
241 247 255 
241 247 255 
241 247 255 
241 247 255 
241 247 255 
241 247 255 
241 247 255 
241 247 255 
241 247 255 
241 247 255 
241 247 255 
241 247 255 
241 247 255 
241 247 255 
241 247 255 
241 247 255 
241 247 255 
241 247 255 
241 247 255 
241 247 255 
241 247 255 
241 247 255 
241 247 255 
241 247 255 
241 247 255 
241 247 255 
241 247 255 
241 247 255 
241 247 255 
241 247 255 
241 247 255 
241 247 255 
241 247 255 
241 247 255 
241 247 255 
241 247 255 
241 247 255 
241 247 255 
241 247 255 
241 247 255 
240 247 255 
240 247 255 
240 247 255 
240 247 255 
240 247 255 
238 231 240 
234 123 128 
226 0 0 
220 0 0 
229 0 0 
228 0 0 
233 0 0 
223 0 0 
229 0 0 
234 0 0 
232 0 0 
227 0 0 
234 0 0 
223 0 0 
228 0 0 
228 0 0 
226 0 0 
233 0 0 
230 0 0 
227 0 0 
226 0 0 
226 0 0 
224 0 0 
233 0 0 
228 0 0 
230 0 0 
228 0 0 
225 0 0 
227 0 0 
226 0 0 
228 0 0 
230 0 0 
231 0 0 
226 0 0 
232 0 0 
228 0 0 
232 0 0 
229 0 0 
233 0 0 
232 0 0 
227 0 0 
231 0 0 
226 0 0 
229 0 0 
232 0 0 
228 0 0 
228 0 0 
228 0 0 
227 0 0 
231 0 0 
229 0 0 
226 0 0 
232 0 0 
228 0 0 
229 0 0 
225 0 0 
228 0 0 
226 0 0 
228 0 0 
231 0 0 
226 0 0 
228 0 0 
233 0 0 
226 0 0 
226 0 0 
231 0 0 
233 0 0 
228 0 0 
225 0 0 
229 0 0 
225 0 0 
232 0 0 
227 0 0 
231 0 0 
228 0 0 
227 0 0 
228 0 0 
227 0 0 
232 0 0 
229 0 0 
229 0 0 
223 0 0 
230 0 0 
230 0 0 
226 0 0 
226 0 0 
226 0 0 
229 0 0 
226 0 0 
231 0 0 
227 0 0 
228 0 0 
233 0 0 
230 0 0 
225 0 0 
229 0 0 
226 0 0 
231 0 0 
226 0 0 
222 0 0 
229 0 0 
230 0 0 
227 0 0 
231 0 0 
229 0 0 
226 0 0 
224 0 0 
230 0 0 
228 0 0 
229 0 0 
227 0 0 
229 0 0 
229 0 0 
230 0 0 
226 0 0 
229 0 0 
233 0 0 
228 0 0 
227 0 0 
232 0 0 
228 0 0 
229 0 0 
232 0 0 
233 0 0 
230 0 0 
228 0 0 
227 0 0 
228 0 0 
229 0 0 
229 0 0 
228 0 0 
227 0 0 
232 0 0 
231 0 0 
228 0 0 
228 0 0 
230 0 0 
230 0 0 
225 0 0 
226 0 0 
232 0 0 
229 0 0 
230 0 0 
229 0 0 
227 0 0 
229 0 0 
229 0 0 
230 0 0 
231 0 0 
228 0 0 
228 0 0 
224 0 0 
228 0 0 
231 0 0 
229 0 0 
226 0 0 
228 0 0 
225 0 0 
0 0 255 
0 0 255 
0 0 255 
0 0 255 
0 0 255 
0 0 255 
0 0 255 
0 0 255 
0 0 255 
0 0 255 
0 0 254 
0 0 254 
0 0 255 
0 0 254 
0 0 255 
0 0 255 
0 0 255 
0 0 254 
0 0 255 
0 0 255 
0 0 255 
0 0 255 
0 0 255 
0 0 255 
0 0 255 
0 0 255 
0 0 253 
0 0 255 
0 0 254 
0 0 255 
0 0 255 
0 0 255 
0 0 254 
0 0 254 
0 0 255 
0 0 254 
0 0 252 
0 0 253 
0 0 255 
0 0 253 
0 0 254 
0 0 254 
0 0 253 
0 0 254 
0 0 254 
0 0 254 
0 0 254 
0 0 255 
0 0 254 
0 0 255 
0 0 254 
0 0 255 
0 0 255 
0 0 255 
0 0 254 
0 0 253 
0 0 254 
0 0 254 
0 0 255 
0 0 253 
0 0 254 
0 0 254 
0 0 255 
0 0 253 
0 0 252 
0 0 254 
0 0 252 
0 0 254 
0 0 250 
0 0 255 
0 0 255 
0 0 253 
0 0 253 
0 0 255 
0 0 253 
0 0 255 
0 0 253 
0 0 252 
0 0 254 
0 0 254 
0 0 255 
0 0 254 
0 0 254 
0 0 253 
0 0 250 
0 0 252 
0 0 255 
0 0 253 
0 0 253 
0 0 250 
0 0 253 
0 0 253 
0 0 252 
0 0 253 
0 0 252 
0 0 253 
0 0 250 
0 0 254 
0 0 252 
0 0 254 
0 0 254 
0 0 254 
0 0 252 
0 0 252 
0 0 252 
0 0 253 
0 0 252 
0 0 248 
0 0 253 
0 0 246 
0 0 250 
0 0 252 
0 0 248 
0 0 254 
0 0 252 
0 0 249 
0 0 248 
0 0 249 
0 0 248 
0 0 252 
0 0 250 
0 0 253 
0 0 252 
0 0 249 
0 0 252 
0 0 246 
0 0 249 
0 0 250 
0 0 245 
0 0 252 
0 0 248 
0 0 250 
0 0 249 
0 0 250 
0 0 248 
0 0 252 
0 0 248 
0 0 242 
0 0 248 
0 0 252 
0 0 246 
0 0 245 
0 0 244 
0 0 246 
0 0 253 
0 0 248 
0 0 244 
0 0 250 
0 0 241 
0 0 244 
0 0 245 
0 0 246 
0 0 242 
0 0 245 
0 0 250 
161 165 249 
239 245 255 
240 247 255 
241 247 255 
241 247 255 
241 247 255 
241 247 255 
241 247 255 
241 247 255 
241 247 255 
241 247 255 
241 247 255 
241 247 255 
241 247 255 
241 247 255 
241 247 255 
241 247 255 
241 247 255 
241 247 255 
241 247 255 
241 247 255 
241 247 255 
241 247 255 
241 247 255 
241 247 255 
241 247 255 
241 247 255 
241 247 255 
241 247 255 
241 247 255 
241 247 255 
241 247 255 
241 247 255 
241 247 255 
241 247 255 
241 247 255 
241 247 255 
241 247 255 
241 247 255 
241 247 255 
241 247 255 
241 247 255 
241 247 255 
241 247 255 
241 247 255 
241 247 255 
241 247 255 
241 247 255 
241 247 255 
241 247 255 
241 247 255 
241 247 255 
241 247 255 
241 247 255 
241 247 255 
241 247 255 
241 247 255 
241 247 255 
241 247 255 
241 247 255 
241 247 255 
241 247 255 
241 247 255 
241 247 255 
241 247 255 
241 247 255 
241 247 255 
241 247 255 
241 247 255 
241 247 255 
241 247 255 
241 247 255 
241 247 255 
241 247 255 
241 247 255 
241 247 255 
241 247 255 
241 247 255 
241 247 255 
241 247 255 
241 247 255 
241 247 255 
241 247 255 
241 247 255 
241 247 255 
241 247 255 
241 247 255 
240 247 255 
241 245 254 
237 163 169 
231 24 25 
232 0 0 
222 0 0 
236 0 0 
228 0 0 
229 0 0 
230 0 0 
226 0 0 
231 0 0 
230 0 0 
227 0 0 
222 0 0 
226 0 0 
225 0 0 
228 0 0 
234 0 0 
231 0 0 
229 0 0 
224 0 0 
227 0 0 
221 0 0 
230 0 0 
225 0 0 
223 0 0 
226 0 0 
226 0 0 
227 0 0 
230 0 0 
229 0 0 
226 0 0 
230 0 0 
231 0 0 
225 0 0 
227 0 0 
232 0 0 
231 0 0 
222 0 0 
224 0 0 
228 0 0 
232 0 0 
225 0 0 
231 0 0 
226 0 0 
231 0 0 
229 0 0 
229 0 0 
224 0 0 
227 0 0 
229 0 0 
226 0 0 
230 0 0 
229 0 0 
227 0 0 
230 0 0 
230 0 0 
225 0 0 
229 0 0 
230 0 0 
228 0 0 
229 0 0 
225 0 0 
234 0 0 
229 0 0 
232 0 0 
232 0 0 
228 0 0 
229 0 0 
230 0 0 
233 0 0 
224 0 0 
229 0 0 
232 0 0 
228 0 0 
227 0 0 
228 0 0 
227 0 0 
227 0 0 
227 0 0 
228 0 0 
231 0 0 
230 0 0 
226 0 0 
227 0 0 
230 0 0 
226 0 0 
230 0 0 
228 0 0 
230 0 0 
232 0 0 
229 0 0 
230 0 0 
229 0 0 
232 0 0 
227 0 0 
227 0 0 
233 0 0 
230 0 0 
231 0 0 
224 0 0 
222 0 0 
230 0 0 
227 0 0 
231 0 0 
228 0 0 
231 0 0 
227 0 0 
230 0 0 
228 0 0 
226 0 0 
227 0 0 
228 0 0 
224 0 0 
230 0 0 
228 0 0 
231 0 0 
229 0 0 
232 0 0 
231 0 0 
226 0 0 
231 0 0 
228 0 0 
231 0 0 
232 0 0 
227 0 0 
229 0 0 
229 0 0 
223 0 0 
230 0 0 
229 0 0 
233 0 0 
229 0 0 
227 0 0 
229 0 0 
229 0 0 
230 0 0 
228 0 0 
230 0 0 
231 0 0 
227 0 0 
229 0 0 
232 0 0 
229 0 0 
228 0 0 
227 0 0 
230 0 0 
228 0 0 
231 0 0 
229 0 0 
232 0 0 
228 0 0 
230 0 0 
229 0 0 
228 0 0 
229 0 0 
226 0 0 
0 0 255 
0 0 255 
0 0 255 
0 0 254 
0 0 254 
0 0 255 
0 0 255 
0 0 255 
0 0 255 
0 0 254 
0 0 255 
0 0 255 
0 0 255 
0 0 255 
0 0 254 
0 0 255 
0 0 254 
0 0 255 
0 0 255 
0 0 255 
0 0 255 
0 0 255 
0 0 255 
0 0 255 
0 0 255 
0 0 255 
0 0 255 
0 0 254 
0 0 254 
0 0 253 
0 0 255 
0 0 254 
0 0 255 
0 0 254 
0 0 252 
0 0 255 
0 0 254 
0 0 255 
0 0 255 
0 0 254 
0 0 255 
0 0 254 
0 0 253 
0 0 255 
0 0 255 
0 0 255 
0 0 252 
0 0 255 
0 0 255 
0 0 252 
0 0 253 
0 0 255 
0 0 255 
0 0 254 
0 0 249 
0 0 254 
0 0 254 
0 0 254 
0 0 255 
0 0 254 
0 0 254 
0 0 253 
0 0 253 
0 0 252 
0 0 253 
0 0 250 
0 0 252 
0 0 254 
0 0 254 
0 0 254 
0 0 252 
0 0 255 
0 0 250 
0 0 253 
0 0 253 
0 0 250 
0 0 252 
0 0 252 
0 0 252 
0 0 255 
0 0 254 
0 0 254 
0 0 252 
0 0 253 
0 0 254 
0 0 254 
0 0 250 
0 0 252 
0 0 255 
0 0 254 
0 0 250 
0 0 248 
0 0 254 
0 0 252 
0 0 253 
0 0 248 
0 0 252 
0 0 253 
0 0 252 
0 0 252 
0 0 253 
0 0 249 
0 0 252 
0 0 252 
0 0 253 
0 0 252 
0 0 254 
0 0 250 
0 0 254 
0 0 249 
0 0 249 
0 0 253 
0 0 254 
0 0 253 
0 0 248 
0 0 246 
0 0 249 
0 0 244 
0 0 249 
0 0 253 
0 0 246 
0 0 250 
0 0 250 
0 0 250 
0 0 252 
0 0 250 
0 0 250 
0 0 249 
0 0 252 
0 0 242 
0 0 250 
0 0 248 
0 0 250 
0 0 250 
0 0 250 
0 0 245 
0 0 245 
0 0 249 
0 0 248 
0 0 246 
0 0 244 
0 0 250 
0 0 246 
0 0 246 
0 0 241 
0 0 246 
0 0 250 
0 0 237 
0 0 241 
0 0 249 
0 0 246 
0 0 234 
0 0 246 
86 89 252 
197 202 255 
241 247 255 
241 247 255 
241 247 255 
241 247 255 
241 247 255 
241 247 255 
241 247 255 
241 247 255 
241 247 255 
241 247 255 
241 247 255 
241 247 255 
241 247 255 
241 247 255 
241 247 255 
241 247 255 
241 247 255 
241 247 255 
241 247 255 
241 247 255 
241 247 255 
241 247 255 
241 247 255 
241 247 255 
241 247 255 
241 247 255 
241 247 255 
241 247 255 
241 247 255 
241 247 255 
241 247 255 
241 247 255 
241 247 255 
241 247 255 
241 247 255 
241 247 255 
241 247 255 
241 247 255 
241 247 255 
241 247 255 
241 247 255 
241 247 255 
242 247 255 
242 247 255 
242 247 255 
242 247 255 
242 247 255 
242 247 255 
242 247 255 
241 247 255 
241 247 255 
241 247 255 
241 247 255 
241 247 255 
241 247 255 
241 247 255 
241 247 255 
241 247 255 
241 247 255 
241 247 255 
241 247 255 
241 247 255 
241 247 255 
241 247 255 
241 247 255 
241 247 255 
241 247 255 
241 247 255 
241 247 255 
241 247 255 
241 247 255 
241 247 255 
241 247 255 
241 247 255 
241 247 255 
241 247 255 
241 247 255 
241 247 255 
241 247 255 
241 247 255 
241 247 255 
241 247 255 
241 247 255 
241 247 255 
241 247 255 
241 247 255 
241 247 255 
241 247 255 
241 247 255 
241 247 255 
236 203 211 
235 69 72 
230 0 0 
233 0 0 
234 0 0 
237 0 0 
231 0 0 
223 0 0 
229 0 0 
230 0 0 
229 0 0 
231 0 0 
226 0 0 
223 0 0 
228 0 0 
233 0 0 
232 0 0 
231 0 0 
233 0 0 
229 0 0 
231 0 0 
229 0 0 
227 0 0 
227 0 0 
229 0 0 
229 0 0 
222 0 0 
230 0 0 
230 0 0 
231 0 0 
232 0 0 
225 0 0 
230 0 0 
228 0 0 
226 0 0 
230 0 0 
227 0 0 
227 0 0 
228 0 0 
225 0 0 
231 0 0 
227 0 0 
229 0 0 
232 0 0 
230 0 0 
228 0 0 
228 0 0 
226 0 0 
228 0 0 
234 0 0 
222 0 0 
231 0 0 
231 0 0 
229 0 0 
231 0 0 
229 0 0 
224 0 0 
228 0 0 
228 0 0 
224 0 0 
229 0 0 
227 0 0 
228 0 0 
226 0 0 
227 0 0 
227 0 0 
230 0 0 
225 0 0 
228 0 0 
228 0 0 
228 0 0 
230 0 0 
233 0 0 
231 0 0 
232 0 0 
231 0 0 
229 0 0 
232 0 0 
229 0 0 
229 0 0 
227 0 0 
227 0 0 
232 0 0 
230 0 0 
231 0 0 
226 0 0 
225 0 0 
230 0 0 
229 0 0 
227 0 0 
228 0 0 
228 0 0 
227 0 0 
230 0 0 
229 0 0 
229 0 0 
226 0 0 
226 0 0 
229 0 0 
229 0 0 
228 0 0 
230 0 0 
226 0 0 
233 0 0 
228 0 0 
232 0 0 
232 0 0 
229 0 0 
233 0 0 
230 0 0 
226 0 0 
229 0 0 
231 0 0 
228 0 0 
227 0 0 
230 0 0 
231 0 0 
228 0 0 
231 0 0 
230 0 0 
227 0 0 
231 0 0 
232 0 0 
230 0 0 
230 0 0 
228 0 0 
229 0 0 
228 0 0 
230 0 0 
228 0 0 
230 0 0 
230 0 0 
230 0 0 
230 0 0 
228 0 0 
229 0 0 
230 0 0 
232 0 0 
228 0 0 
231 0 0 
230 0 0 
227 0 0 
232 0 0 
228 0 0 
229 0 0 
230 0 0 
229 0 0 
228 0 0 
231 0 0 
229 0 0 
229 0 0 
232 0 0 
230 0 0 
229 0 0 
230 0 0 
0 0 255 
0 0 255 
0 0 255 
0 0 255 
0 0 255 
0 0 255 
0 0 255 
0 0 255 
0 0 255 
0 0 254 
0 0 255 
0 0 255 
0 0 255 
0 0 255 
0 0 254 
0 0 255 
0 0 255 
0 0 255 
0 0 255 
0 0 255 
0 0 255 
0 0 255 
0 0 255 
0 0 255 
0 0 255 
0 0 255 
0 0 255 
0 0 253 
0 0 255 
0 0 255 
0 0 255 
0 0 255 
0 0 254 
0 0 254 
0 0 255 
0 0 254 
0 0 255 
0 0 254 
0 0 255 
0 0 253 
0 0 255 
0 0 253 
0 0 254 
0 0 254 
0 0 254 
0 0 254 
0 0 254 
0 0 254 
0 0 253 
0 0 254 
0 0 255 
0 0 255 
0 0 255 
0 0 254 
0 0 254 
0 0 252 
0 0 255 
0 0 255 
0 0 255 
0 0 254 
0 0 253 
0 0 252 
0 0 254 
0 0 254 
0 0 253 
0 0 255 
0 0 253 
0 0 254 
0 0 254 
0 0 252 
0 0 253 
0 0 255 
0 0 253 
0 0 253 
0 0 253 
0 0 253 
0 0 254 
0 0 252 
0 0 254 
0 0 252 
0 0 255 
0 0 249 
0 0 254 
0 0 250 
0 0 252 
0 0 248 
0 0 254 
0 0 252 
0 0 252 
0 0 253 
0 0 252 
0 0 255 
0 0 255 
0 0 252 
0 0 252 
0 0 254 
0 0 252 
0 0 248 
0 0 255 
0 0 253 
0 0 249 
0 0 249 
0 0 248 
0 0 249 
0 0 252 
0 0 253 
0 0 252 
0 0 248 
0 0 252 
0 0 252 
0 0 249 
0 0 252 
0 0 250 
0 0 250 
0 0 241 
0 0 250 
0 0 245 
0 0 253 
0 0 249 
0 0 248 
0 0 249 
0 0 252 
0 0 254 
0 0 250 
0 0 248 
0 0 252 
0 0 245 
0 0 250 
0 0 248 
0 0 246 
0 0 250 
0 0 244 
0 0 246 
0 0 246 
0 0 250 
0 0 252 
0 0 252 
0 0 244 
0 0 242 
0 0 249 
0 0 250 
0 0 244 
0 0 246 
0 0 248 
0 0 248 
0 0 252 
0 0 241 
0 0 252 
0 0 248 
0 0 252 
0 0 246 
0 0 246 
132 135 249 
218 223 252 
241 247 255 
241 247 255 
241 247 255 
241 247 255 
241 247 255 
241 247 255 
241 247 255 
241 247 255 
241 247 255 
241 247 255 
241 247 255 
241 247 255 
241 247 255 
241 247 255 
241 247 255 
241 247 255 
241 247 255 
241 247 255 
241 247 255 
241 247 255 
241 247 255 
241 247 255 
241 247 255 
241 247 255 
241 247 255 
241 247 255 
241 247 255 
242 247 255 
242 247 255 
242 247 255 
242 247 255 
242 247 255 
242 247 255 
242 247 255 
242 247 255 
242 247 255 
242 247 255 
242 247 255 
242 247 255 
242 247 255 
242 247 255 
242 247 255 
242 247 255 
242 247 255 
242 247 255 
242 247 255 
242 247 255 
242 247 255 
242 247 255 
242 247 255 
242 247 255 
242 247 255 
242 247 255 
242 247 255 
242 247 255 
242 247 255 
242 247 255 
242 247 255 
242 247 255 
242 247 255 
242 247 255 
242 247 255 
242 247 255 
242 247 255 
241 247 255 
241 247 255 
241 247 255 
241 247 255 
241 247 255 
241 247 255 
241 247 255 
241 247 255 
241 247 255 
241 247 255 
241 247 255 
241 247 255 
241 247 255 
241 247 255 
241 247 255 
241 247 255 
241 247 255 
241 247 255 
241 247 255 
241 247 255 
241 247 255 
241 247 255 
241 247 255 
241 247 255 
241 247 255 
241 247 255 
241 247 255 
241 247 255 
241 238 246 
230 139 144 
233 0 0 
228 0 0 
231 0 0 
235 0 0 
223 0 0 
230 0 0 
225 0 0 
227 0 0 
233 0 0 
228 0 0 
228 0 0 
226 0 0 
228 0 0 
231 0 0 
227 0 0 
223 0 0 
228 0 0 
232 0 0 
227 0 0 
229 0 0 
230 0 0 
230 0 0 
226 0 0 
233 0 0 
232 0 0 
217 0 0 
235 0 0 
233 0 0 
226 0 0 
228 0 0 
232 0 0 
222 0 0 
230 0 0 
230 0 0 
230 0 0 
225 0 0 
228 0 0 
222 0 0 
233 0 0 
228 0 0 
229 0 0 
225 0 0 
227 0 0 
228 0 0 
231 0 0 
230 0 0 
228 0 0 
231 0 0 
224 0 0 
227 0 0 
225 0 0 
232 0 0 
224 0 0 
230 0 0 
226 0 0 
231 0 0 
231 0 0 
228 0 0 
227 0 0 
231 0 0 
228 0 0 
228 0 0 
228 0 0 
231 0 0 
229 0 0 
227 0 0 
230 0 0 
227 0 0 
226 0 0 
229 0 0 
228 0 0 
227 0 0 
229 0 0 
229 0 0 
229 0 0 
229 0 0 
227 0 0 
228 0 0 
228 0 0 
230 0 0 
232 0 0 
229 0 0 
230 0 0 
228 0 0 
231 0 0 
232 0 0 
229 0 0 
233 0 0 
230 0 0 
231 0 0 
232 0 0 
228 0 0 
232 0 0 
231 0 0 
230 0 0 
228 0 0 
232 0 0 
228 0 0 
232 0 0 
232 0 0 
231 0 0 
227 0 0 
228 0 0 
233 0 0 
231 0 0 
230 0 0 
228 0 0 
231 0 0 
230 0 0 
232 0 0 
231 0 0 
227 0 0 
229 0 0 
230 0 0 
231 0 0 
231 0 0 
228 0 0 
231 0 0 
230 0 0 
228 0 0 
233 0 0 
229 0 0 
230 0 0 
229 0 0 
233 0 0 
228 0 0 
230 0 0 
229 0 0 
230 0 0 
229 0 0 
227 0 0 
228 0 0 
233 0 0 
227 0 0 
230 0 0 
227 0 0 
231 0 0 
230 0 0 
231 0 0 
232 0 0 
228 0 0 
233 0 0 
228 0 0 
233 0 0 
230 0 0 
229 0 0 
231 0 0 
230 0 0 
231 0 0 
231 0 0 
231 0 0 
227 0 0 
0 0 255 
0 0 255 
0 0 254 
0 0 255 
0 0 255 
0 0 255 
0 0 255 
0 0 255 
0 0 255 
0 0 255 
0 0 255 
0 0 255 
0 0 255 
0 0 254 
0 0 254 
0 0 255 
0 0 255 
0 0 255 
0 0 254 
0 0 255 
0 0 255 
0 0 255 
0 0 255 
0 0 254 
0 0 255 
0 0 255 
0 0 255 
0 0 254 
0 0 254 
0 0 255 
0 0 254 
0 0 255 
0 0 255 
0 0 255 
0 0 255 
0 0 253 
0 0 253 
0 0 255 
0 0 254 
0 0 255 
0 0 254 
0 0 255 
0 0 254 
0 0 255 
0 0 255 
0 0 254 
0 0 254 
0 0 254 
0 0 255 
0 0 254 
0 0 254 
0 0 254 
0 0 254 
0 0 254 
0 0 254 
0 0 254 
0 0 255 
0 0 255 
0 0 253 
0 0 254 
0 0 255 
0 0 254 
0 0 255 
0 0 255 
0 0 254 
0 0 255 
0 0 255 
0 0 253 
0 0 252 
0 0 254 
0 0 254 
0 0 254 
0 0 253 
0 0 255 
0 0 254 
0 0 254 
0 0 253 
0 0 255 
0 0 254 
0 0 250 
0 0 250 
0 0 253 
0 0 253 
0 0 254 
0 0 254 
0 0 254 
0 0 253 
0 0 253 
0 0 253 
0 0 250 
0 0 253 
0 0 248 
0 0 252 
0 0 248 
0 0 252 
0 0 250 
0 0 250 
0 0 249 
0 0 253 
0 0 253 
0 0 254 
0 0 252 
0 0 250 
0 0 250 
0 0 252 
0 0 250 
0 0 253 
0 0 253 
0 0 249 
0 0 250 
0 0 248 
0 0 249 
0 0 246 
0 0 254 
0 0 252 
0 0 253 
0 0 249 
0 0 249 
0 0 248 
0 0 252 
0 0 241 
0 0 250 
0 0 241 
0 0 252 
0 0 245 
0 0 253 
0 0 250 
0 0 248 
0 0 253 
0 0 252 
0 0 252 
0 0 250 
0 0 250 
0 0 245 
0 0 246 
0 0 249 
0 0 248 
0 0 252 
0 0 248 
0 0 248 
0 0 244 
0 0 252 
0 0 246 
0 0 246 
0 0 241 
0 0 246 
0 0 249 
0 0 242 
0 0 246 
0 0 246 
34 34 245 
195 200 252 
241 247 255 
241 247 255 
241 247 255 
241 247 255 
241 247 255 
241 247 255 
241 247 255 
241 247 255 
241 247 255 
241 247 255 
241 247 255 
241 247 255 
241 247 255 
241 247 255 
241 247 255 
241 247 255 
241 247 255 
241 247 255 
241 247 255 
241 247 255 
241 247 255 
241 247 255 
242 247 255 
242 247 255 
242 247 255 
242 247 255 
242 247 255 
242 247 255 
242 247 255 
242 247 255 
242 247 255 
242 247 255 
242 247 255 
242 247 255 
242 247 255 
242 247 255 
242 247 255 
242 247 255 
242 247 255 
242 247 255 
242 247 255 
242 247 255 
242 247 255 
242 247 255 
242 247 255 
242 247 255 
242 247 255 
242 247 255 
242 247 255 
242 247 255 
242 247 255 
242 247 255 
242 247 255 
242 247 255 
242 247 255 
242 247 255 
242 247 255 
242 247 255 
242 247 255 
242 247 255 
242 247 255 
242 247 255 
242 247 255 
242 247 255 
242 247 255 
242 247 255 
242 247 255 
242 247 255 
242 247 255 
242 247 255 
242 247 255 
242 247 255 
242 247 255 
242 247 255 
241 247 255 
241 247 255 
241 247 255 
241 247 255 
241 247 255 
241 247 255 
241 247 255 
241 247 255 
241 247 255 
241 247 255 
241 247 255 
241 247 255 
241 247 255 
241 247 255 
241 247 255 
241 247 255 
241 247 255 
241 247 255 
241 247 255 
241 247 255 
241 247 255 
241 247 255 
240 193 199 
229 42 44 
232 0 0 
233 0 0 
238 0 0 
226 0 0 
236 0 0 
233 0 0 
225 0 0 
225 0 0 
226 0 0 
230 0 0 
233 0 0 
235 0 0 
235 0 0 
227 0 0 
223 0 0 
231 0 0 
231 0 0 
227 0 0 
225 0 0 
228 0 0 
226 0 0 
233 0 0 
229 0 0 
231 0 0 
228 0 0 
235 0 0 
232 0 0 
228 0 0 
230 0 0 
228 0 0 
229 0 0 
232 0 0 
227 0 0 
229 0 0 
233 0 0 
227 0 0 
228 0 0 
230 0 0 
230 0 0 
224 0 0 
232 0 0 
230 0 0 
225 0 0 
232 0 0 
232 0 0 
231 0 0 
231 0 0 
225 0 0 
231 0 0 
230 0 0 
229 0 0 
232 0 0 
227 0 0 
234 0 0 
229 0 0 
229 0 0 
227 0 0 
233 0 0 
228 0 0 
228 0 0 
229 0 0 
228 0 0 
230 0 0 
226 0 0 
230 0 0 
228 0 0 
232 0 0 
230 0 0 
226 0 0 
230 0 0 
225 0 0 
233 0 0 
229 0 0 
231 0 0 
229 0 0 
229 0 0 
227 0 0 
232 0 0 
230 0 0 
229 0 0 
229 0 0 
230 0 0 
231 0 0 
231 0 0 
230 0 0 
228 0 0 
229 0 0 
231 0 0 
230 0 0 
228 0 0 
230 0 0 
232 0 0 
232 0 0 
229 0 0 
227 0 0 
225 0 0 
229 0 0 
234 0 0 
231 0 0 
228 0 0 
232 0 0 
230 0 0 
230 0 0 
228 0 0 
227 0 0 
229 0 0 
231 0 0 
226 0 0 
230 0 0 
228 0 0 
231 0 0 
232 0 0 
226 0 0 
232 0 0 
229 0 0 
229 0 0 
231 0 0 
225 0 0 
232 0 0 
228 0 0 
230 0 0 
230 0 0 
233 0 0 
231 0 0 
233 0 0 
230 0 0 
231 0 0 
230 0 0 
232 0 0 
232 0 0 
229 0 0 
231 0 0 
231 0 0 
229 0 0 
230 0 0 
228 0 0 
228 0 0 
230 0 0 
231 0 0 
229 0 0 
233 0 0 
231 0 0 
230 0 0 
229 0 0 
227 0 0 
226 0 0 
231 0 0 
228 0 0 
228 0 0 
230 0 0 
0 0 255 
0 0 255 
0 0 254 
0 0 254 
0 0 255 
0 0 255 
0 0 255 
0 0 255 
0 0 255 
0 0 255 
0 0 254 
0 0 255 
0 0 255 
0 0 254 
0 0 255 
0 0 254 
0 0 254 
0 0 255 
0 0 255 
0 0 254 
0 0 255 
0 0 254 
0 0 253 
0 0 255 
0 0 255 
0 0 255 
0 0 255 
0 0 253 
0 0 255 
0 0 254 
0 0 255 
0 0 255 
0 0 255 
0 0 254 
0 0 255 
0 0 254 
0 0 252 
0 0 255 
0 0 254 
0 0 255 
0 0 255 
0 0 255 
0 0 255 
0 0 255 
0 0 254 
0 0 254 
0 0 254 
0 0 252 
0 0 254 
0 0 252 
0 0 254 
0 0 255 
0 0 255 
0 0 250 
0 0 253 
0 0 254 
0 0 255 
0 0 255 
0 0 254 
0 0 254 
0 0 254 
0 0 252 
0 0 253 
0 0 250 
0 0 253 
0 0 253 
0 0 249 
0 0 253 
0 0 254 
0 0 255 
0 0 255 
0 0 253 
0 0 253 
0 0 250 
0 0 250 
0 0 249 
0 0 254 
0 0 250 
0 0 249 
0 0 252 
0 0 254 
0 0 253 
0 0 253 
0 0 252 
0 0 253 
0 0 253 
0 0 255 
0 0 254 
0 0 253 
0 0 249 
0 0 254 
0 0 253 
0 0 252 
0 0 252 
0 0 254 
0 0 250 
0 0 253 
0 0 248 
0 0 252 
0 0 253 
0 0 252 
0 0 254 
0 0 248 
0 0 253 
0 0 249 
0 0 250 
0 0 254 
0 0 249 
0 0 248 
0 0 253 
0 0 254 
0 0 248 
0 0 252 
0 0 252 
0 0 246 
0 0 248 
0 0 248 
0 0 248 
0 0 240 
0 0 254 
0 0 249 
0 0 255 
0 0 246 
0 0 248 
0 0 252 
0 0 252 
0 0 246 
0 0 248 
0 0 249 
0 0 244 
0 0 249 
0 0 249 
0 0 241 
0 0 248 
0 0 250 
0 0 245 
0 0 242 
0 0 252 
0 0 249 
0 0 245 
0 0 248 
0 0 252 
0 0 252 
0 0 252 
0 0 244 
0 0 248 
0 0 245 
0 0 249 
0 0 245 
132 135 246 
222 228 253 
241 247 255 
241 247 255 
241 247 255 
241 247 255 
241 247 255 
241 247 255 
241 247 255 
241 247 255 
241 247 255 
241 247 255 
241 247 255 
241 247 255 
241 247 255 
241 247 255 
241 247 255 
241 247 255 
241 247 255 
242 247 255 
242 247 255 
242 247 255 
242 247 255 
242 247 255 
242 247 255 
242 247 255 
242 247 255 
242 247 255 
242 247 255 
242 247 255 
242 247 255 
242 247 255 
242 247 255 
242 247 255 
242 247 255 
242 247 255 
242 247 255 
242 247 255 
242 247 255 
242 247 255 
242 247 255 
242 247 255 
242 247 255 
242 247 255 
242 247 255 
242 247 255 
242 247 255 
242 247 255 
242 247 255 
242 247 255 
242 247 255 
242 247 255 
242 247 255 
242 247 255 
242 247 255 
242 247 255 
242 247 255 
242 247 255 
242 247 255 
242 247 255 
242 247 255 
242 247 255 
242 247 255 
242 247 255 
242 247 255 
242 247 255 
242 247 255 
242 247 255 
242 247 255 
242 247 255 
242 247 255 
242 247 255 
242 247 255 
242 247 255 
242 247 255 
242 247 255 
242 247 255 
242 247 255 
242 247 255 
242 247 255 
242 247 255 
242 247 255 
241 247 255 
241 247 255 
241 247 255 
241 247 255 
241 247 255 
241 247 255 
241 247 255 
241 247 255 
241 247 255 
241 247 255 
241 247 255 
241 247 255 
241 247 255 
241 247 255 
241 247 255 
241 247 255 
241 247 255 
241 247 255 
240 230 238 
233 137 142 
235 0 0 
234 0 0 
237 0 0 
230 0 0 
225 0 0 
235 0 0 
233 0 0 
233 0 0 
226 0 0 
232 0 0 
228 0 0 
228 0 0 
228 0 0 
230 0 0 
228 0 0 
230 0 0 
226 0 0 
229 0 0 
223 0 0 
217 0 0 
237 0 0 
227 0 0 
231 0 0 
225 0 0 
223 0 0 
223 0 0 
230 0 0 
233 0 0 
226 0 0 
233 0 0 
233 0 0 
230 0 0 
232 0 0 
231 0 0 
230 0 0 
231 0 0 
228 0 0 
233 0 0 
227 0 0 
233 0 0 
231 0 0 
224 0 0 
227 0 0 
231 0 0 
232 0 0 
230 0 0 
228 0 0 
229 0 0 
226 0 0 
229 0 0 
225 0 0 
228 0 0 
228 0 0 
226 0 0 
231 0 0 
229 0 0 
229 0 0 
233 0 0 
236 0 0 
231 0 0 
226 0 0 
233 0 0 
228 0 0 
232 0 0 
231 0 0 
230 0 0 
233 0 0 
229 0 0 
232 0 0 
225 0 0 
229 0 0 
226 0 0 
231 0 0 
230 0 0 
228 0 0 
229 0 0 
227 0 0 
225 0 0 
232 0 0 
227 0 0 
232 0 0 
228 0 0 
231 0 0 
226 0 0 
231 0 0 
229 0 0 
228 0 0 
232 0 0 
228 0 0 
231 0 0 
233 0 0 
228 0 0 
227 0 0 
231 0 0 
232 0 0 
227 0 0 
230 0 0 
231 0 0 
232 0 0 
231 0 0 
226 0 0 
232 0 0 
227 0 0 
231 0 0 
232 0 0 
231 0 0 
230 0 0 
230 0 0 
226 0 0 
229 0 0 
229 0 0 
230 0 0 
229 0 0 
227 0 0 
230 0 0 
229 0 0 
228 0 0 
232 0 0 
230 0 0 
230 0 0 
230 0 0 
228 0 0 
229 0 0 
230 0 0 
228 0 0 
230 0 0 
228 0 0 
231 0 0 
229 0 0 
231 0 0 
231 0 0 
231 0 0 
230 0 0 
229 0 0 
230 0 0 
229 0 0 
233 0 0 
228 0 0 
225 0 0 
229 0 0 
229 0 0 
232 0 0 
231 0 0 
226 0 0 
230 0 0 
231 0 0 
230 0 0 
230 0 0 
230 0 0 
0 0 255 
0 0 255 
0 0 255 
0 0 255 
0 0 255 
0 0 255 
0 0 255 
0 0 254 
0 0 255 
0 0 255 
0 0 255 
0 0 255 
0 0 255 
0 0 255 
0 0 254 
0 0 254 
0 0 255 
0 0 255 
0 0 255 
0 0 255 
0 0 255 
0 0 255 
0 0 255 
0 0 255 
0 0 254 
0 0 255 
0 0 255 
0 0 255 
0 0 255 
0 0 255 
0 0 255 
0 0 255 
0 0 253 
0 0 255 
0 0 254 
0 0 255 
0 0 254 
0 0 255 
0 0 255 
0 0 255 
0 0 255 
0 0 255 
0 0 255 
0 0 255 
0 0 254 
0 0 252 
0 0 255 
0 0 254 
0 0 254 
0 0 254 
0 0 254 
0 0 254 
0 0 255 
0 0 255 
0 0 255 
0 0 254 
0 0 254 
0 0 253 
0 0 255 
0 0 255 
0 0 254 
0 0 253 
0 0 253 
0 0 254 
0 0 255 
0 0 254 
0 0 254 
0 0 252 
0 0 253 
0 0 255 
0 0 254 
0 0 254 
0 0 254 
0 0 253 
0 0 255 
0 0 253 
0 0 254 
0 0 254 
0 0 253 
0 0 253 
0 0 254 
0 0 254 
0 0 253 
0 0 252 
0 0 253 
0 0 253 
0 0 253 
0 0 252 
0 0 252 
0 0 253 
0 0 253 
0 0 249 
0 0 254 
0 0 253 
0 0 253 
0 0 253 
0 0 255 
0 0 253 
0 0 252 
0 0 253 
0 0 252 
0 0 253 
0 0 250 
0 0 254 
0 0 252 
0 0 250 
0 0 252 
0 0 253 
0 0 250 
0 0 250 
0 0 250 
0 0 252 
0 0 245 
0 0 252 
0 0 249 
0 0 250 
0 0 250 
0 0 254 
0 0 252 
0 0 253 
0 0 252 
0 0 248 
0 0 252 
0 0 254 
0 0 254 
0 0 254 
0 0 252 
0 0 248 
0 0 245 
0 0 249 
0 0 250 
0 0 249 
0 0 248 
0 0 249 
0 0 248 
0 0 249 
0 0 248 
0 0 249 
0 0 242 
0 0 250 
0 0 250 
0 0 249 
0 0 245 
0 0 248 
0 0 249 
0 0 245 
0 0 245 
68 69 254 
196 200 255 
240 246 255 
241 247 255 
241 247 255 
241 247 255 
241 247 255 
241 247 255 
241 247 255 
241 247 255 
241 247 255 
241 247 255 
241 247 255 
241 247 255 
241 247 255 
241 247 255 
241 247 255 
242 247 255 
242 247 255 
242 247 255 
242 247 255 
242 247 255 
242 247 255 
242 247 255 
242 247 255 
242 247 255 
242 247 255 
242 247 255 
242 247 255 
242 247 255 
242 247 255 
242 247 255 
242 247 255 
242 247 255 
242 247 255 
242 247 255 
242 247 255 
242 248 255 
242 248 255 
242 248 255 
242 248 255 
242 248 255 
242 248 255 
242 248 255 
242 248 255 
242 248 255 
242 248 255 
242 248 255 
242 248 255 
242 248 255 
242 248 255 
242 248 255 
242 248 255 
242 248 255 
242 248 255 
242 248 255 
242 248 255 
242 248 255 
242 248 255 
242 248 255 
242 248 255 
242 248 255 
242 248 255 
242 248 255 
242 248 255 
242 248 255 
242 248 255 
242 248 255 
242 248 255 
242 247 255 
242 247 255 
242 247 255 
242 247 255 
242 247 255 
242 247 255 
242 247 255 
242 247 255 
242 247 255 
242 247 255 
242 247 255 
242 247 255 
242 247 255 
242 247 255 
242 247 255 
242 247 255 
242 247 255 
242 247 255 
242 247 255 
242 247 255 
241 247 255 
241 247 255 
241 247 255 
241 247 255 
241 247 255 
241 247 255 
241 247 255 
241 247 255 
241 247 255 
241 247 255 
241 247 255 
241 247 255 
241 247 255 
241 247 255 
241 247 255 
238 190 196 
230 69 72 
235 0 0 
235 0 0 
235 0 0 
229 0 0 
229 0 0 
233 0 0 
231 0 0 
230 0 0 
229 0 0 
231 0 0 
227 0 0 
232 0 0 
232 0 0 
230 0 0 
235 0 0 
232 0 0 
225 0 0 
229 0 0 
234 0 0 
234 0 0 
229 0 0 
228 0 0 
230 0 0 
224 0 0 
232 0 0 
228 0 0 
229 0 0 
225 0 0 
229 0 0 
231 0 0 
235 0 0 
228 0 0 
226 0 0 
230 0 0 
232 0 0 
234 0 0 
229 0 0 
234 0 0 
230 0 0 
231 0 0 
230 0 0 
231 0 0 
225 0 0 
231 0 0 
228 0 0 
233 0 0 
233 0 0 
231 0 0 
229 0 0 
230 0 0 
235 0 0 
229 0 0 
230 0 0 
226 0 0 
233 0 0 
234 0 0 
230 0 0 
231 0 0 
231 0 0 
225 0 0 
232 0 0 
231 0 0 
229 0 0 
230 0 0 
230 0 0 
233 0 0 
227 0 0 
232 0 0 
230 0 0 
229 0 0 
227 0 0 
227 0 0 
228 0 0 
232 0 0 
232 0 0 
230 0 0 
233 0 0 
232 0 0 
228 0 0 
232 0 0 
228 0 0 
228 0 0 
233 0 0 
226 0 0 
232 0 0 
230 0 0 
229 0 0 
227 0 0 
230 0 0 
233 0 0 
229 0 0 
229 0 0 
228 0 0 
233 0 0 
232 0 0 
232 0 0 
230 0 0 
230 0 0 
231 0 0 
232 0 0 
228 0 0 
232 0 0 
228 0 0 
232 0 0 
228 0 0 
225 0 0 
232 0 0 
230 0 0 
232 0 0 
232 0 0 
235 0 0 
226 0 0 
227 0 0 
234 0 0 
228 0 0 
232 0 0 
228 0 0 
231 0 0 
230 0 0 
228 0 0 
232 0 0 
228 0 0 
229 0 0 
229 0 0 
232 0 0 
231 0 0 
229 0 0 
230 0 0 
229 0 0 
229 0 0 
231 0 0 
231 0 0 
230 0 0 
230 0 0 
227 0 0 
228 0 0 
229 0 0 
230 0 0 
232 0 0 
230 0 0 
230 0 0 
231 0 0 
232 0 0 
227 0 0 
230 0 0 
230 0 0 
229 0 0 
0 0 254 
0 0 255 
0 0 255 
0 0 255 
0 0 255 
0 0 255 
0 0 255 
0 0 255 
0 0 255 
0 0 255 
0 0 255 
0 0 254 
0 0 255 
0 0 255 
0 0 255 
0 0 255 
0 0 255 
0 0 255 
0 0 253 
0 0 255 
0 0 255 
0 0 255 
0 0 255 
0 0 255 
0 0 253 
0 0 255 
0 0 254 
0 0 254 
0 0 255 
0 0 255 
0 0 254 
0 0 254 
0 0 254 
0 0 254 
0 0 255 
0 0 253 
0 0 255 
0 0 255 
0 0 255 
0 0 254 
0 0 255 
0 0 255 
0 0 254 
0 0 255 
0 0 254 
0 0 255 
0 0 254 
0 0 252 
0 0 254 
0 0 254 
0 0 253 
0 0 255 
0 0 252 
0 0 254 
0 0 255 
0 0 254 
0 0 254 
0 0 255 
0 0 253 
0 0 255 
0 0 254 
0 0 254 
0 0 252 
0 0 254 
0 0 254 
0 0 254 
0 0 252 
0 0 254 
0 0 255 
0 0 254 
0 0 254 
0 0 253 
0 0 255 
0 0 255 
0 0 249 
0 0 254 
0 0 254 
0 0 254 
0 0 253 
0 0 254 
0 0 254 
0 0 252 
0 0 255 
0 0 252 
0 0 252 
0 0 254 
0 0 253 
0 0 250 
0 0 253 
0 0 253 
0 0 254 
0 0 254 
0 0 253 
0 0 250 
0 0 255 
0 0 252 
0 0 252 
0 0 253 
0 0 253 
0 0 254 
0 0 255 
0 0 255 
0 0 252 
0 0 253 
0 0 255 
0 0 255 
0 0 253 
0 0 250 
0 0 254 
0 0 254 
0 0 245 
0 0 253 
0 0 246 
0 0 252 
0 0 253 
0 0 245 
0 0 250 
0 0 249 
0 0 249 
0 0 254 
0 0 250 
0 0 245 
0 0 244 
0 0 250 
0 0 244 
0 0 249 
0 0 250 
0 0 250 
0 0 249 
0 0 249 
0 0 241 
0 0 244 
0 0 248 
0 0 244 
0 0 244 
0 0 249 
0 0 248 
0 0 253 
0 0 245 
0 0 250 
0 0 249 
0 0 250 
0 0 253 
0 0 249 
0 0 252 
24 24 244 
142 146 252 
235 241 255 
241 247 255 
241 247 255 
241 247 255 
241 247 255 
241 247 255 
241 247 255 
241 247 255 
241 247 255 
241 247 255 
241 247 255 
241 247 255 
242 247 255 
242 247 255 
242 247 255 
242 247 255 
242 247 255 
242 247 255 
242 247 255 
242 247 255 
242 247 255 
242 247 255 
242 247 255 
242 247 255 
242 247 255 
242 247 255 
242 247 255 
242 247 255 
242 247 255 
242 248 255 
242 248 255 
242 248 255 
242 248 255 
242 248 255 
242 248 255 
242 248 255 
242 248 255 
242 248 255 
242 248 255 
242 248 255 
242 248 255 
242 248 255 
242 248 255 
242 248 255 
242 248 255 
242 248 255 
242 248 255 
242 248 255 
242 248 255 
242 248 255 
242 248 255 
242 248 255 
242 248 255 
242 248 255 
242 248 255 
242 248 255 
242 248 255 
242 248 255 
242 248 255 
242 248 255 
242 248 255 
242 248 255 
242 248 255 
242 248 255 
242 248 255 
242 248 255 
242 248 255 
242 248 255 
242 248 255 
242 248 255 
242 248 255 
242 248 255 
242 248 255 
242 248 255 
242 248 255 
242 248 255 
242 248 255 
242 247 255 
242 247 255 
242 247 255 
242 247 255 
242 247 255 
242 247 255 
242 247 255 
242 247 255 
242 247 255 
242 247 255 
242 247 255 
242 247 255 
242 247 255 
242 247 255 
242 247 255 
242 247 255 
242 247 255 
241 247 255 
241 247 255 
241 247 255 
241 247 255 
241 247 255 
241 247 255 
241 247 255 
241 247 255 
241 247 255 
241 247 255 
241 247 255 
241 233 241 
232 144 149 
237 0 0 
233 0 0 
231 0 0 
227 0 0 
236 0 0 
225 0 0 
226 0 0 
235 0 0 
234 0 0 
226 0 0 
232 0 0 
230 0 0 
229 0 0 
230 0 0 
236 0 0 
230 0 0 
228 0 0 
226 0 0 
234 0 0 
225 0 0 
231 0 0 
227 0 0 
231 0 0 
230 0 0 
231 0 0 
230 0 0 
230 0 0 
227 0 0 
233 0 0 
230 0 0 
232 0 0 
225 0 0 
229 0 0 
227 0 0 
233 0 0 
229 0 0 
226 0 0 
234 0 0 
232 0 0 
233 0 0 
228 0 0 
226 0 0 
233 0 0 
234 0 0 
225 0 0 
232 0 0 
230 0 0 
229 0 0 
227 0 0 
232 0 0 
231 0 0 
234 0 0 
228 0 0 
226 0 0 
233 0 0 
229 0 0 
229 0 0 
228 0 0 
229 0 0 
232 0 0 
234 0 0 
231 0 0 
228 0 0 
228 0 0 
226 0 0 
232 0 0 
231 0 0 
232 0 0 
228 0 0 
230 0 0 
229 0 0 
231 0 0 
231 0 0 
232 0 0 
228 0 0 
234 0 0 
231 0 0 
230 0 0 
227 0 0 
228 0 0 
232 0 0 
231 0 0 
228 0 0 
234 0 0 
230 0 0 
230 0 0 
228 0 0 
229 0 0 
232 0 0 
227 0 0 
227 0 0 
232 0 0 
228 0 0 
230 0 0 
231 0 0 
233 0 0 
229 0 0 
229 0 0 
230 0 0 
229 0 0 
231 0 0 
232 0 0 
228 0 0 
231 0 0 
228 0 0 
232 0 0 
231 0 0 
231 0 0 
229 0 0 
232 0 0 
228 0 0 
228 0 0 
230 0 0 
232 0 0 
231 0 0 
231 0 0 
231 0 0 
228 0 0 
230 0 0 
233 0 0 
230 0 0 
229 0 0 
228 0 0 
231 0 0 
233 0 0 
229 0 0 
229 0 0 
233 0 0 
234 0 0 
231 0 0 
230 0 0 
231 0 0 
228 0 0 
229 0 0 
224 0 0 
232 0 0 
229 0 0 
228 0 0 
228 0 0 
231 0 0 
227 0 0 
232 0 0 
230 0 0 
231 0 0 
227 0 0 
230 0 0 
0 0 255 
0 0 255 
0 0 255 
0 0 255 
0 0 255 
0 0 255 
0 0 255 
0 0 255 
0 0 255 
0 0 255 
0 0 255 
0 0 255 
0 0 255 
0 0 255 
0 0 253 
0 0 254 
0 0 255 
0 0 255 
0 0 255 
0 0 255 
0 0 255 
0 0 255 
0 0 255 
0 0 255 
0 0 255 
0 0 255 
0 0 254 
0 0 255 
0 0 254 
0 0 253 
0 0 255 
0 0 254 
0 0 254 
0 0 255 
0 0 255 
0 0 255 
0 0 255 
0 0 255 
0 0 255 
0 0 253 
0 0 254 
0 0 255 
0 0 255 
0 0 255 
0 0 254 
0 0 255 
0 0 254 
0 0 255 
0 0 252 
0 0 255 
0 0 255 
0 0 254 
0 0 254 
0 0 252 
0 0 255 
0 0 255 
0 0 254 
0 0 254 
0 0 255 
0 0 255 
0 0 255 
0 0 255 
0 0 252 
0 0 253 
0 0 255 
0 0 254 
0 0 254 
0 0 253 
0 0 255 
0 0 252 
0 0 252 
0 0 254 
0 0 254 
0 0 254 
0 0 254 
0 0 255 
0 0 254 
0 0 253 
0 0 254 
0 0 252 
0 0 253 
0 0 254 
0 0 253 
0 0 254 
0 0 253 
0 0 254 
0 0 252 
0 0 255 
0 0 255 
0 0 255 
0 0 253 
0 0 253 
0 0 254 
0 0 253 
0 0 252 
0 0 252 
0 0 253 
0 0 245 
0 0 253 
0 0 253 
0 0 255 
0 0 253 
0 0 250 
0 0 248 
0 0 253 
0 0 248 
0 0 254 
0 0 253 
0 0 254 
0 0 250 
0 0 249 
0 0 250 
0 0 250 
0 0 253 
0 0 246 
0 0 248 
0 0 252 
0 0 254 
0 0 254 
0 0 252 
0 0 252 
0 0 253 
0 0 252 
0 0 252 
0 0 249 
0 0 250 
0 0 245 
0 0 249 
0 0 252 
0 0 249 
0 0 249 
0 0 244 
0 0 252 
0 0 242 
0 0 246 
0 0 250 
0 0 246 
0 0 250 
0 0 249 
0 0 254 
0 0 253 
0 0 249 
0 0 252 
0 0 252 
96 98 253 
206 211 254 
241 247 255 
241 247 255 
241 247 255 
241 247 255 
241 247 255 
241 247 255 
241 247 255 
241 247 255 
241 247 255 
242 247 255 
242 247 255 
242 247 255 
242 247 255 
242 247 255 
242 247 255 
242 247 255 
242 247 255 
242 247 255 
242 247 255 
242 247 255 
242 247 255 
242 247 255 
242 247 255 
242 247 255 
242 248 255 
242 248 255 
242 248 255 
242 248 255 
242 248 255 
242 248 255 
242 248 255 
242 248 255 
242 248 255 
242 248 255 
242 248 255 
242 248 255 
242 248 255 
242 248 255 
242 248 255 
242 248 255 
242 248 255 
242 248 255 
242 248 255 
242 248 255 
242 248 255 
242 248 255 
242 248 255 
242 248 255 
242 248 255 
242 248 255 
242 248 255 
242 248 255 
242 248 255 
242 248 255 
242 248 255 
242 248 255 
242 248 255 
242 248 255 
242 248 255 
242 248 255 
242 248 255 
242 248 255 
242 248 255 
242 248 255 
242 248 255 
242 248 255 
242 248 255 
242 248 255 
242 248 255 
242 248 255 
242 248 255 
242 248 255 
242 248 255 
242 248 255 
242 248 255 
242 248 255 
242 248 255 
242 248 255 
242 248 255 
242 248 255 
242 248 255 
242 248 255 
242 248 255 
242 248 255 
242 247 255 
242 247 255 
242 247 255 
242 247 255 
242 247 255 
242 247 255 
242 247 255 
242 247 255 
242 247 255 
242 247 255 
242 247 255 
242 247 255 
242 247 255 
242 247 255 
242 247 255 
241 247 255 
241 247 255 
241 247 255 
241 247 255 
241 247 255 
241 247 255 
241 247 255 
241 247 255 
241 247 255 
238 217 224 
236 95 99 
234 0 0 
232 0 0 
230 0 0 
232 0 0 
236 0 0 
236 0 0 
225 0 0 
232 0 0 
232 0 0 
234 0 0 
232 0 0 
223 0 0 
232 0 0 
229 0 0 
229 0 0 
232 0 0 
230 0 0 
233 0 0 
231 0 0 
230 0 0 
235 0 0 
235 0 0 
231 0 0 
232 0 0 
232 0 0 
226 0 0 
229 0 0 
229 0 0 
228 0 0 
229 0 0 
233 0 0 
232 0 0 
229 0 0 
232 0 0 
230 0 0 
233 0 0 
229 0 0 
232 0 0 
231 0 0 
226 0 0 
232 0 0 
231 0 0 
231 0 0 
233 0 0 
226 0 0 
232 0 0 
233 0 0 
233 0 0 
230 0 0 
232 0 0 
235 0 0 
232 0 0 
235 0 0 
232 0 0 
229 0 0 
231 0 0 
231 0 0 
227 0 0 
232 0 0 
229 0 0 
229 0 0 
231 0 0 
230 0 0 
231 0 0 
231 0 0 
229 0 0 
229 0 0 
229 0 0 
229 0 0 
231 0 0 
233 0 0 
229 0 0 
229 0 0 
229 0 0 
228 0 0 
230 0 0 
228 0 0 
233 0 0 
231 0 0 
232 0 0 
230 0 0 
230 0 0 
230 0 0 
233 0 0 
233 0 0 
229 0 0 
235 0 0 
232 0 0 
231 0 0 
233 0 0 
230 0 0 
226 0 0 
231 0 0 
231 0 0 
231 0 0 
233 0 0 
232 0 0 
234 0 0 
231 0 0 
228 0 0 
231 0 0 
227 0 0 
233 0 0 
233 0 0 
231 0 0 
226 0 0 
230 0 0 
231 0 0 
229 0 0 
228 0 0 
234 0 0 
229 0 0 
232 0 0 
230 0 0 
232 0 0 
229 0 0 
229 0 0 
232 0 0 
230 0 0 
231 0 0 
230 0 0 
233 0 0 
231 0 0 
232 0 0 
230 0 0 
228 0 0 
225 0 0 
231 0 0 
229 0 0 
228 0 0 
233 0 0 
229 0 0 
228 0 0 
236 0 0 
230 0 0 
231 0 0 
231 0 0 
227 0 0 
231 0 0 
229 0 0 
231 0 0 
230 0 0 
232 0 0 
232 0 0 
0 0 254 
0 0 255 
0 0 255 
0 0 255 
0 0 254 
0 0 255 
0 0 255 
0 0 254 
0 0 255 
0 0 254 
0 0 255 
0 0 255 
0 0 255 
0 0 255 
0 0 255 
0 0 255 
0 0 255 
0 0 255 
0 0 255 
0 0 255 
0 0 254 
0 0 255 
0 0 255 
0 0 253 
0 0 255 
0 0 255 
0 0 255 
0 0 255 
0 0 255 
0 0 252 
0 0 254 
0 0 255 
0 0 255 
0 0 255 
0 0 255 
0 0 254 
0 0 255 
0 0 255 
0 0 255 
0 0 253 
0 0 254 
0 0 255 
0 0 254 
0 0 255 
0 0 254 
0 0 255 
0 0 255 
0 0 254 
0 0 255 
0 0 254 
0 0 254 
0 0 255 
0 0 255 
0 0 252 
0 0 255 
0 0 255 
0 0 254 
0 0 253 
0 0 254 
0 0 254 
0 0 254 
0 0 254 
0 0 255 
0 0 253 
0 0 253 
0 0 254 
0 0 255 
0 0 255 
0 0 252 
0 0 252 
0 0 253 
0 0 253 
0 0 254 
0 0 253 
0 0 253 
0 0 255 
0 0 252 
0 0 254 
0 0 252 
0 0 254 
0 0 252 
0 0 254 
0 0 253 
0 0 254 
0 0 252 
0 0 253 
0 0 253 
0 0 252 
0 0 253 
0 0 253 
0 0 252 
0 0 253 
0 0 249 
0 0 253 
0 0 253 
0 0 255 
0 0 254 
0 0 255 
0 0 253 
0 0 253 
0 0 253 
0 0 252 
0 0 250 
0 0 253 
0 0 250 
0 0 248 
0 0 254 
0 0 252 
0 0 252 
0 0 252 
0 0 253 
0 0 252 
0 0 253 
0 0 249 
0 0 252 
0 0 249 
0 0 253 
0 0 252 
0 0 253 
0 0 254 
0 0 254 
0 0 252 
0 0 246 
0 0 250 
0 0 250 
0 0 254 
0 0 250 
0 0 252 
0 0 253 
0 0 250 
0 0 246 
0 0 248 
0 0 249 
0 0 250 
0 0 249 
0 0 244 
0 0 252 
0 0 253 
0 0 253 
0 0 248 
0 0 249 
0 0 249 
68 70 248 
191 196 253 
239 245 255 
241 247 255 
241 247 255 
241 247 255 
241 247 255 
241 247 255 
241 247 255 
242 247 255 
242 247 255 
242 247 255 
242 247 255 
242 247 255 
242 247 255 
242 247 255 
242 247 255 
242 247 255 
242 247 255 
242 247 255 
242 247 255 
242 247 255 
242 247 255 
242 248 255 
242 248 255 
242 248 255 
242 248 255 
242 248 255 
242 248 255 
242 248 255 
242 248 255 
242 248 255 
242 248 255 
242 248 255 
242 248 255 
242 248 255 
242 248 255 
242 248 255 
242 248 255 
242 248 255 
242 248 255 
242 248 255 
242 248 255 
243 248 255 
243 248 255 
243 248 255 
243 248 255 
243 248 255 
243 248 255 
243 248 255 
243 248 255 
243 248 255 
243 248 255 
243 248 255 
243 248 255 
243 248 255 
243 248 255 
243 248 255 
243 248 255 
243 248 255 
243 248 255 
243 248 255 
243 248 255 
243 248 255 
243 248 255 
243 248 255 
243 248 255 
243 248 255 
243 248 255 
243 248 255 
243 248 255 
243 248 255 
243 248 255 
242 248 255 
242 248 255 
242 248 255 
242 248 255 
242 248 255 
242 248 255 
242 248 255 
242 248 255 
242 248 255 
242 248 255 
242 248 255 
242 248 255 
242 248 255 
242 248 255 
242 248 255 
242 248 255 
242 248 255 
242 248 255 
242 248 255 
242 248 255 
242 247 255 
242 247 255 
242 247 255 
242 247 255 
242 247 255 
242 247 255 
242 247 255 
242 247 255 
242 247 255 
242 247 255 
242 247 255 
242 247 255 
242 247 255 
242 247 255 
241 247 255 
241 247 255 
241 247 255 
241 247 255 
241 247 255 
241 247 255 
241 242 250 
239 171 177 
233 49 51 
235 0 0 
229 0 0 
230 0 0 
230 0 0 
231 0 0 
231 0 0 
235 0 0 
229 0 0 
230 0 0 
232 0 0 
233 0 0 
235 0 0 
235 0 0 
231 0 0 
231 0 0 
229 0 0 
232 0 0 
234 0 0 
233 0 0 
228 0 0 
233 0 0 
232 0 0 
228 0 0 
231 0 0 
227 0 0 
228 0 0 
229 0 0 
229 0 0 
234 0 0 
232 0 0 
231 0 0 
229 0 0 
230 0 0 
232 0 0 
235 0 0 
229 0 0 
229 0 0 
228 0 0 
231 0 0 
229 0 0 
233 0 0 
229 0 0 
233 0 0 
227 0 0 
230 0 0 
231 0 0 
236 0 0 
230 0 0 
231 0 0 
232 0 0 
226 0 0 
233 0 0 
228 0 0 
233 0 0 
228 0 0 
230 0 0 
232 0 0 
230 0 0 
225 0 0 
235 0 0 
230 0 0 
228 0 0 
230 0 0 
230 0 0 
229 0 0 
229 0 0 
233 0 0 
229 0 0 
231 0 0 
231 0 0 
230 0 0 
226 0 0 
230 0 0 
232 0 0 
234 0 0 
232 0 0 
227 0 0 
231 0 0 
231 0 0 
231 0 0 
230 0 0 
228 0 0 
230 0 0 
231 0 0 
231 0 0 
234 0 0 
230 0 0 
230 0 0 
232 0 0 
232 0 0 
233 0 0 
232 0 0 
229 0 0 
229 0 0 
230 0 0 
232 0 0 
232 0 0 
231 0 0 
232 0 0 
232 0 0 
231 0 0 
230 0 0 
233 0 0 
230 0 0 
230 0 0 
231 0 0 
230 0 0 
230 0 0 
231 0 0 
230 0 0 
228 0 0 
231 0 0 
228 0 0 
231 0 0 
228 0 0 
229 0 0 
227 0 0 
234 0 0 
227 0 0 
232 0 0 
231 0 0 
229 0 0 
230 0 0 
231 0 0 
228 0 0 
233 0 0 
231 0 0 
230 0 0 
229 0 0 
234 0 0 
232 0 0 
233 0 0 
228 0 0 
234 0 0 
233 0 0 
230 0 0 
231 0 0 
231 0 0 
230 0 0 
228 0 0 
231 0 0 
228 0 0 
0 0 255 
0 0 255 
0 0 254 
0 0 255 
0 0 254 
0 0 255 
0 0 255 
0 0 255 
0 0 255 
0 0 255 
0 0 255 
0 0 255 
0 0 255 
0 0 255 
0 0 255 
0 0 255 
0 0 255 
0 0 254 
0 0 255 
0 0 255 
0 0 254 
0 0 254 
0 0 255 
0 0 255 
0 0 255 
0 0 255 
0 0 255 
0 0 255 
0 0 255 
0 0 255 
0 0 255 
0 0 253 
0 0 254 
0 0 255 
0 0 255 
0 0 255 
0 0 255 
0 0 254 
0 0 255 
0 0 254 
0 0 255 
0 0 255 
0 0 255 
0 0 255 
0 0 255 
0 0 255 
0 0 255 
0 0 255 
0 0 255 
0 0 255 
0 0 255 
0 0 255 
0 0 253 
0 0 255 
0 0 254 
0 0 253 
0 0 255 
0 0 255 
0 0 253 
0 0 254 
0 0 255 
0 0 254 
0 0 253 
0 0 255 
0 0 253 
0 0 254 
0 0 253 
0 0 252 
0 0 252 
0 0 254 
0 0 252 
0 0 255 
0 0 253 
0 0 253 
0 0 254 
0 0 253 
0 0 252 
0 0 253 
0 0 253 
0 0 253 
0 0 255 
0 0 254 
0 0 253 
0 0 254 
0 0 255 
0 0 253 
0 0 253 
0 0 255 
0 0 254 
0 0 254 
0 0 253 
0 0 252 
0 0 254 
0 0 250 
0 0 254 
0 0 255 
0 0 249 
0 0 255 
0 0 250 
0 0 249 
0 0 255 
0 0 253 
0 0 253 
0 0 253 
0 0 254 
0 0 253 
0 0 253 
0 0 250 
0 0 255 
0 0 249 
0 0 249 
0 0 250 
0 0 252 
0 0 249 
0 0 250 
0 0 252 
0 0 253 
0 0 254 
0 0 250 
0 0 250 
0 0 253 
0 0 248 
0 0 252 
0 0 249 
0 0 244 
0 0 250 
0 0 252 
0 0 250 
0 0 254 
0 0 250 
0 0 249 
0 0 252 
0 0 249 
0 0 245 
0 0 246 
0 0 250 
0 0 252 
0 0 246 
0 0 242 
0 0 249 
24 24 249 
149 152 253 
230 236 255 
241 247 255 
241 247 255 
241 247 255 
241 247 255 
241 247 255 
242 247 255 
242 247 255 
242 247 255 
242 247 255 
242 247 255 
242 247 255 
242 247 255 
242 247 255 
242 247 255 
242 247 255 
242 247 255 
242 247 255 
242 247 255 
242 248 255 
242 248 255 
242 248 255 
242 248 255 
242 248 255 
242 248 255 
242 248 255 
242 248 255 
242 248 255 
242 248 255 
242 248 255 
242 248 255 
242 248 255 
242 248 255 
242 248 255 
242 248 255 
243 248 255 
243 248 255 
243 248 255 
243 248 255 
243 248 255 
243 248 255 
243 248 255 
243 248 255 
243 248 255 
243 248 255 
243 248 255 
243 248 255 
243 248 255 
243 248 255 
243 248 255 
243 248 255 
243 248 255 
243 248 255 
243 248 255 
243 248 255 
243 248 255 
243 248 255 
243 248 255 
243 248 255 
243 248 255 
243 248 255 
243 248 255 
243 248 255 
243 248 255 
243 248 255 
243 248 255 
243 248 255 
243 248 255 
243 248 255 
243 248 255 
243 248 255 
243 248 255 
243 248 255 
243 248 255 
243 248 255 
243 248 255 
243 248 255 
243 248 255 
243 248 255 
243 248 255 
243 248 255 
242 248 255 
242 248 255 
242 248 255 
242 248 255 
242 248 255 
242 248 255 
242 248 255 
242 248 255 
242 248 255 
242 248 255 
242 248 255 
242 248 255 
242 248 255 
242 248 255 
242 248 255 
242 248 255 
242 247 255 
242 247 255 
242 247 255 
242 247 255 
242 247 255 
242 247 255 
242 247 255 
242 247 255 
242 247 255 
242 247 255 
242 247 255 
242 247 255 
242 247 255 
241 247 255 
241 247 255 
241 247 255 
241 247 255 
241 247 255 
241 236 244 
239 140 144 
233 0 0 
232 0 0 
233 0 0 
234 0 0 
230 0 0 
235 0 0 
235 0 0 
231 0 0 
232 0 0 
233 0 0 
232 0 0 
236 0 0 
231 0 0 
235 0 0 
233 0 0 
234 0 0 
233 0 0 
229 0 0 
232 0 0 
235 0 0 
232 0 0 
227 0 0 
228 0 0 
229 0 0 
231 0 0 
232 0 0 
229 0 0 
233 0 0 
230 0 0 
228 0 0 
230 0 0 
231 0 0 
232 0 0 
227 0 0 
228 0 0 
229 0 0 
228 0 0 
233 0 0 
232 0 0 
233 0 0 
232 0 0 
230 0 0 
233 0 0 
231 0 0 
229 0 0 
234 0 0 
232 0 0 
230 0 0 
232 0 0 
226 0 0 
229 0 0 
232 0 0 
229 0 0 
234 0 0 
231 0 0 
237 0 0 
229 0 0 
231 0 0 
228 0 0 
234 0 0 
227 0 0 
233 0 0 
231 0 0 
231 0 0 
225 0 0 
233 0 0 
235 0 0 
231 0 0 
230 0 0 
230 0 0 
234 0 0 
231 0 0 
228 0 0 
233 0 0 
229 0 0 
235 0 0 
232 0 0 
230 0 0 
231 0 0 
232 0 0 
231 0 0 
232 0 0 
231 0 0 
230 0 0 
230 0 0 
230 0 0 
231 0 0 
230 0 0 
231 0 0 
232 0 0 
233 0 0 
233 0 0 
234 0 0 
230 0 0 
232 0 0 
232 0 0 
230 0 0 
232 0 0 
228 0 0 
225 0 0 
229 0 0 
226 0 0 
232 0 0 
231 0 0 
228 0 0 
229 0 0 
228 0 0 
230 0 0 
232 0 0 
228 0 0 
232 0 0 
233 0 0 
230 0 0 
234 0 0 
231 0 0 
229 0 0 
231 0 0 
229 0 0 
230 0 0 
230 0 0 
232 0 0 
234 0 0 
231 0 0 
230 0 0 
230 0 0 
229 0 0 
230 0 0 
231 0 0 
231 0 0 
230 0 0 
230 0 0 
229 0 0 
229 0 0 
231 0 0 
232 0 0 
227 0 0 
230 0 0 
231 0 0 
229 0 0 
226 0 0 
229 0 0 
0 0 255 
0 0 255 
0 0 255 
0 0 255 
0 0 255 
0 0 255 
0 0 255 
0 0 255 
0 0 255 
0 0 255 
0 0 254 
0 0 255 
0 0 255 
0 0 255 
0 0 254 
0 0 255 
0 0 255 
0 0 255 
0 0 255 
0 0 255 
0 0 255 
0 0 255 
0 0 255 
0 0 255 
0 0 255 
0 0 255 
0 0 254 
0 0 254 
0 0 254 
0 0 254 
0 0 255 
0 0 254 
0 0 255 
0 0 255 
0 0 255 
0 0 254 
0 0 253 
0 0 255 
0 0 255 
0 0 255 
0 0 255 
0 0 255 
0 0 254 
0 0 253 
0 0 254 
0 0 255 
0 0 255 
0 0 254 
0 0 255 
0 0 255 
0 0 254 
0 0 253 
0 0 254 
0 0 255 
0 0 255 
0 0 255 
0 0 254 
0 0 255 
0 0 254 
0 0 254 
0 0 252 
0 0 252 
0 0 253 
0 0 254 
0 0 252 
0 0 254 
0 0 255 
0 0 255 
0 0 253 
0 0 253 
0 0 254 
0 0 255 
0 0 254 
0 0 255 
0 0 252 
0 0 252 
0 0 254 
0 0 254 
0 0 252 
0 0 255 
0 0 253 
0 0 254 
0 0 253 
0 0 254 
0 0 252 
0 0 249 
0 0 255 
0 0 254 
0 0 253 
0 0 252 
0 0 254 
0 0 253 
0 0 252 
0 0 250 
0 0 254 
0 0 252 
0 0 254 
0 0 250 
0 0 250 
0 0 253 
0 0 252 
0 0 255 
0 0 250 
0 0 250 
0 0 252 
0 0 253 
0 0 254 
0 0 252 
0 0 253 
0 0 248 
0 0 248 
0 0 248 
0 0 253 
0 0 249 
0 0 254 
0 0 252 
0 0 252 
0 0 250 
0 0 252 
0 0 252 
0 0 252 
0 0 248 
0 0 252 
0 0 249 
0 0 252 
0 0 250 
0 0 254 
0 0 248 
0 0 254 
0 0 248 
0 0 242 
0 0 254 
0 0 250 
0 0 252 
0 0 250 
0 0 248 
0 0 244 
0 0 248 
0 0 255 
110 113 255 
217 222 254 
241 247 255 
241 247 255 
241 247 255 
241 247 255 
242 247 255 
242 247 255 
242 247 255 
242 247 255 
242 247 255 
242 247 255 
242 247 255 
242 247 255 
242 247 255 
242 247 255 
242 247 255 
242 247 255 
242 248 255 
242 248 255 
242 248 255 
242 248 255 
242 248 255 
242 248 255 
242 248 255 
242 248 255 
242 248 255 
242 248 255 
242 248 255 
242 248 255 
242 248 255 
242 248 255 
243 248 255 
243 248 255 
243 248 255 
243 248 255 
243 248 255 
243 248 255 
243 248 255 
243 248 255 
243 248 255 
243 248 255 
243 248 255 
243 248 255 
243 248 255 
243 248 255 
243 248 255 
243 248 255 
243 248 255 
243 248 255 
243 248 255 
243 248 255 
243 248 255 
243 248 255 
243 248 255 
243 248 255 
243 248 255 
243 248 255 
243 248 255 
243 248 255 
243 248 255 
243 248 255 
243 248 255 
243 248 255 
243 248 255 
243 248 255 
243 248 255 
243 248 255 
243 248 255 
243 248 255 
243 248 255 
243 248 255 
243 248 255 
243 248 255 
243 248 255 
243 248 255 
243 248 255 
243 248 255 
243 248 255 
243 248 255 
243 248 255 
243 248 255 
243 248 255 
243 248 255 
243 248 255 
243 248 255 
243 248 255 
243 248 255 
243 248 255 
243 248 255 
242 248 255 
242 248 255 
242 248 255 
242 248 255 
242 248 255 
242 248 255 
242 248 255 
242 248 255 
242 248 255 
242 248 255 
242 248 255 
242 248 255 
242 248 255 
242 248 255 
242 247 255 
242 247 255 
242 247 255 
242 247 255 
242 247 255 
242 247 255 
242 247 255 
242 247 255 
242 247 255 
242 247 255 
242 247 255 
242 247 255 
241 247 255 
241 247 255 
241 247 255 
241 247 255 
241 237 245 
239 140 144 
232 0 0 
239 0 0 
230 0 0 
234 0 0 
225 0 0 
234 0 0 
236 0 0 
235 0 0 
238 0 0 
230 0 0 
226 0 0 
226 0 0 
235 0 0 
233 0 0 
231 0 0 
237 0 0 
232 0 0 
231 0 0 
225 0 0 
233 0 0 
236 0 0 
229 0 0 
233 0 0 
232 0 0 
230 0 0 
230 0 0 
233 0 0 
229 0 0 
230 0 0 
234 0 0 
227 0 0 
235 0 0 
233 0 0 
234 0 0 
231 0 0 
234 0 0 
232 0 0 
230 0 0 
230 0 0 
231 0 0 
232 0 0 
234 0 0 
231 0 0 
233 0 0 
231 0 0 
228 0 0 
229 0 0 
234 0 0 
231 0 0 
233 0 0 
230 0 0 
232 0 0 
233 0 0 
233 0 0 
231 0 0 
230 0 0 
231 0 0 
233 0 0 
231 0 0 
234 0 0 
231 0 0 
232 0 0 
234 0 0 
231 0 0 
232 0 0 
228 0 0 
229 0 0 
235 0 0 
230 0 0 
233 0 0 
231 0 0 
231 0 0 
233 0 0 
233 0 0 
231 0 0 
231 0 0 
228 0 0 
230 0 0 
231 0 0 
231 0 0 
233 0 0 
234 0 0 
235 0 0 
229 0 0 
230 0 0 
230 0 0 
229 0 0 
232 0 0 
234 0 0 
231 0 0 
229 0 0 
227 0 0 
231 0 0 
229 0 0 
229 0 0 
231 0 0 
230 0 0 
234 0 0 
228 0 0 
231 0 0 
230 0 0 
232 0 0 
236 0 0 
233 0 0 
228 0 0 
234 0 0 
229 0 0 
231 0 0 
229 0 0 
230 0 0 
232 0 0 
230 0 0 
229 0 0 
232 0 0 
232 0 0 
229 0 0 
224 0 0 
230 0 0 
230 0 0 
228 0 0 
230 0 0 
232 0 0 
229 0 0 
234 0 0 
231 0 0 
232 0 0 
232 0 0 
234 0 0 
230 0 0 
232 0 0 
231 0 0 
230 0 0 
234 0 0 
231 0 0 
231 0 0 
230 0 0 
231 0 0 
229 0 0 
230 0 0 
0 0 255 
0 0 255 
0 0 255 
0 0 255 
0 0 255 
0 0 255 
0 0 255 
0 0 255 
0 0 255 
0 0 255 
0 0 255 
0 0 255 
0 0 255 
0 0 255 
0 0 254 
0 0 255 
0 0 255 
0 0 255 
0 0 254 
0 0 255 
0 0 255 
0 0 255 
0 0 255 
0 0 255 
0 0 255 
0 0 255 
0 0 255 
0 0 255 
0 0 255 
0 0 254 
0 0 255 
0 0 253 
0 0 255 
0 0 255 
0 0 255 
0 0 254 
0 0 255 
0 0 255 
0 0 255 
0 0 255 
0 0 255 
0 0 255 
0 0 255 
0 0 254 
0 0 255 
0 0 255 
0 0 254 
0 0 255 
0 0 255 
0 0 254 
0 0 255 
0 0 255 
0 0 254 
0 0 254 
0 0 255 
0 0 254 
0 0 254 
0 0 255 
0 0 255 
0 0 254 
0 0 254 
0 0 254 
0 0 254 
0 0 253 
0 0 253 
0 0 254 
0 0 254 
0 0 255 
0 0 254 
0 0 254 
0 0 255 
0 0 254 
0 0 254 
0 0 255 
0 0 254 
0 0 255 
0 0 249 
0 0 250 
0 0 255 
0 0 254 
0 0 255 
0 0 253 
0 0 252 
0 0 254 
0 0 254 
0 0 254 
0 0 254 
0 0 254 
0 0 253 
0 0 254 
0 0 255 
0 0 253 
0 0 254 
0 0 252 
0 0 255 
0 0 252 
0 0 250 
0 0 248 
0 0 254 
0 0 250 
0 0 253 
0 0 250 
0 0 249 
0 0 250 
0 0 255 
0 0 254 
0 0 252 
0 0 253 
0 0 252 
0 0 253 
0 0 245 
0 0 250 
0 0 249 
0 0 248 
0 0 253 
0 0 248 
0 0 250 
0 0 253 
0 0 252 
0 0 255 
0 0 250 
0 0 250 
0 0 253 
0 0 252 
0 0 250 
0 0 252 
0 0 253 
0 0 250 
0 0 250 
0 0 252 
0 0 249 
0 0 249 
0 0 254 
0 0 252 
0 0 249 
0 0 255 
0 0 248 
76 78 250 
197 202 255 
240 246 255 
241 247 255 
241 247 255 
242 247 255 
242 247 255 
242 247 255 
242 247 255 
242 247 255 
242 247 255 
242 247 255 
242 247 255 
242 247 255 
242 247 255 
242 247 255 
242 248 255 
242 248 255 
242 248 255 
242 248 255 
242 248 255 
242 248 255 
242 248 255 
242 248 255 
242 248 255 
242 248 255 
242 248 255 
242 248 255 
242 248 255 
243 248 255 
243 248 255 
243 248 255 
243 248 255 
243 248 255 
243 248 255 
243 248 255 
243 248 255 
243 248 255 
243 248 255 
243 248 255 
243 248 255 
243 248 255 
243 248 255 
243 248 255 
243 248 255 
243 248 255 
243 248 255 
243 248 255 
243 248 255 
243 248 255 
243 248 255 
243 248 255 
243 248 255 
243 248 255 
243 248 255 
243 248 255 
243 248 255 
243 248 255 
243 248 255 
243 248 255 
243 248 255 
243 248 255 
243 248 255 
243 248 255 
243 248 255 
243 248 255 
243 248 255 
243 248 255 
243 248 255 
243 248 255 
243 248 255 
243 248 255 
243 248 255 
243 248 255 
243 248 255 
243 248 255 
243 248 255 
243 248 255 
243 248 255 
243 248 255 
243 248 255 
243 248 255 
243 248 255 
243 248 255 
243 248 255 
243 248 255 
243 248 255 
243 248 255 
243 248 255 
243 248 255 
243 248 255 
243 248 255 
243 248 255 
243 248 255 
243 248 255 
243 248 255 
243 248 255 
242 248 255 
242 248 255 
242 248 255 
242 248 255 
242 248 255 
242 248 255 
242 248 255 
242 248 255 
242 248 255 
242 248 255 
242 248 255 
242 248 255 
242 248 255 
242 247 255 
242 247 255 
242 247 255 
242 247 255 
242 247 255 
242 247 255 
242 247 255 
242 247 255 
242 247 255 
242 247 255 
242 247 255 
242 247 255 
241 247 255 
242 246 254 
240 202 209 
235 107 111 
235 0 0 
233 0 0 
235 0 0 
230 0 0 
236 0 0 
238 0 0 
233 0 0 
232 0 0 
233 0 0 
230 0 0 
233 0 0 
235 0 0 
236 0 0 
237 0 0 
234 0 0 
234 0 0 
235 0 0 
231 0 0 
233 0 0 
235 0 0 
229 0 0 
234 0 0 
232 0 0 
229 0 0 
234 0 0 
234 0 0 
233 0 0 
230 0 0 
233 0 0 
233 0 0 
226 0 0 
230 0 0 
233 0 0 
232 0 0 
231 0 0 
230 0 0 
234 0 0 
230 0 0 
234 0 0 
231 0 0 
233 0 0 
232 0 0 
227 0 0 
235 0 0 
231 0 0 
230 0 0 
232 0 0 
234 0 0 
233 0 0 
229 0 0 
234 0 0 
231 0 0 
231 0 0 
234 0 0 
232 0 0 
226 0 0 
234 0 0 
230 0 0 
230 0 0 
234 0 0 
230 0 0 
231 0 0 
233 0 0 
230 0 0 
230 0 0 
229 0 0 
234 0 0 
230 0 0 
232 0 0 
228 0 0 
231 0 0 
232 0 0 
227 0 0 
230 0 0 
229 0 0 
233 0 0 
231 0 0 
231 0 0 
226 0 0 
230 0 0 
231 0 0 
231 0 0 
232 0 0 
229 0 0 
234 0 0 
230 0 0 
233 0 0 
232 0 0 
233 0 0 
234 0 0 
230 0 0 
232 0 0 
228 0 0 
232 0 0 
232 0 0 
231 0 0 
233 0 0 
231 0 0 
230 0 0 
225 0 0 
231 0 0 
231 0 0 
232 0 0 
229 0 0 
228 0 0 
231 0 0 
232 0 0 
233 0 0 
234 0 0 
232 0 0 
230 0 0 
232 0 0 
230 0 0 
229 0 0 
232 0 0 
232 0 0 
228 0 0 
234 0 0 
229 0 0 
234 0 0 
232 0 0 
229 0 0 
228 0 0 
226 0 0 
228 0 0 
230 0 0 
233 0 0 
230 0 0 
231 0 0 
230 0 0 
230 0 0 
229 0 0 
231 0 0 
234 0 0 
230 0 0 
232 0 0 
231 0 0 
0 0 255 
0 0 255 
0 0 255 
0 0 255 
0 0 255 
0 0 255 
0 0 255 
0 0 254 
0 0 255 
0 0 255 
0 0 255 
0 0 255 
0 0 255 
0 0 255 
0 0 255 
0 0 255 
0 0 255 
0 0 255 
0 0 255 
0 0 255 
0 0 255 
0 0 255 
0 0 255 
0 0 255 
0 0 255 
0 0 255 
0 0 255 
0 0 255 
0 0 254 
0 0 254 
0 0 255 
0 0 254 
0 0 255 
0 0 254 
0 0 255 
0 0 255 
0 0 255 
0 0 255 
0 0 255 
0 0 255 
0 0 254 
0 0 255 
0 0 255 
0 0 255 
0 0 255 
0 0 255 
0 0 255 
0 0 255 
0 0 254 
0 0 254 
0 0 254 
0 0 254 
0 0 253 
0 0 254 
0 0 254 
0 0 254 
0 0 253 
0 0 255 
0 0 254 
0 0 253 
0 0 254 
0 0 255 
0 0 253 
0 0 253 
0 0 255 
0 0 255 
0 0 253 
0 0 254 
0 0 254 
0 0 255 
0 0 253 
0 0 255 
0 0 250 
0 0 253 
0 0 253 
0 0 254 
0 0 254 
0 0 250 
0 0 255 
0 0 255 
0 0 255 
0 0 255 
0 0 254 
0 0 252 
0 0 254 
0 0 252 
0 0 253 
0 0 253 
0 0 254 
0 0 254 
0 0 249 
0 0 250 
0 0 250 
0 0 254 
0 0 255 
0 0 255 
0 0 254 
0 0 249 
0 0 252 
0 0 252 
0 0 250 
0 0 250 
0 0 254 
0 0 249 
0 0 252 
0 0 253 
0 0 254 
0 0 249 
0 0 252 
0 0 250 
0 0 250 
0 0 250 
0 0 252 
0 0 253 
0 0 254 
0 0 250 
0 0 253 
0 0 249 
0 0 248 
0 0 246 
0 0 245 
0 0 252 
0 0 245 
0 0 253 
0 0 250 
0 0 252 
0 0 250 
0 0 249 
0 0 248 
0 0 242 
0 0 249 
0 0 252 
0 0 248 
0 0 252 
0 0 248 
68 70 253 
179 183 252 
240 246 255 
242 247 255 
242 247 255 
242 247 255 
242 247 255 
242 247 255 
242 247 255 
242 247 255 
242 247 255 
242 247 255 
242 247 255 
242 247 255 
242 247 255 
242 248 255 
242 248 255 
242 248 255 
242 248 255 
242 248 255 
242 248 255 
242 248 255 
242 248 255 
242 248 255 
242 248 255 
242 248 255 
242 248 255 
243 248 255 
243 248 255 
243 248 255 
243 248 255 
243 248 255 
243 248 255 
243 248 255 
243 248 255 
243 248 255 
243 248 255 
243 248 255 
243 248 255 
243 248 255 
243 248 255 
243 248 255 
243 248 255 
243 248 255 
243 248 255 
243 248 255 
243 248 255 
243 248 255 
243 248 255 
243 248 255 
243 248 255 
243 248 255 
243 248 255 
243 248 255 
243 248 255 
243 248 255 
243 248 255 
243 248 255 
243 248 255 
243 248 255 
243 248 255 
243 248 255 
243 248 255 
243 248 255 
243 248 255 
243 248 255 
243 248 255 
243 248 255 
243 248 255 
243 248 255 
243 248 255 
243 248 255 
243 248 255 
243 248 255 
243 248 255 
243 248 255 
243 248 255 
243 248 255 
243 248 255 
243 248 255 
243 248 255 
243 248 255 
243 248 255 
243 248 255 
243 248 255 
243 248 255 
243 248 255 
243 248 255 
243 248 255 
243 248 255 
243 248 255 
243 248 255 
243 248 255 
243 248 255 
243 248 255 
243 248 255 
243 248 255 
243 248 255 
243 248 255 
243 248 255 
243 248 255 
243 248 255 
243 248 255 
242 248 255 
242 248 255 
242 248 255 
242 248 255 
242 248 255 
242 248 255 
242 248 255 
242 248 255 
242 248 255 
242 248 255 
242 248 255 
242 248 255 
242 247 255 
242 247 255 
242 247 255 
242 247 255 
242 247 255 
242 247 255 
242 247 255 
242 247 255 
242 247 255 
242 247 255 
242 247 255 
241 247 255 
242 245 253 
241 190 196 
238 74 76 
236 0 0 
234 0 0 
231 0 0 
236 0 0 
235 0 0 
236 0 0 
234 0 0 
231 0 0 
225 0 0 
232 0 0 
234 0 0 
231 0 0 
230 0 0 
231 0 0 
231 0 0 
233 0 0 
234 0 0 
233 0 0 
233 0 0 
231 0 0 
230 0 0 
226 0 0 
229 0 0 
232 0 0 
232 0 0 
233 0 0 
232 0 0 
233 0 0 
232 0 0 
234 0 0 
229 0 0 
235 0 0 
229 0 0 
231 0 0 
233 0 0 
233 0 0 
230 0 0 
236 0 0 
233 0 0 
231 0 0 
233 0 0 
234 0 0 
228 0 0 
235 0 0 
233 0 0 
230 0 0 
232 0 0 
231 0 0 
228 0 0 
230 0 0 
233 0 0 
234 0 0 
233 0 0 
231 0 0 
232 0 0 
233 0 0 
231 0 0 
233 0 0 
231 0 0 
233 0 0 
230 0 0 
231 0 0 
231 0 0 
232 0 0 
232 0 0 
231 0 0 
233 0 0 
233 0 0 
229 0 0 
235 0 0 
231 0 0 
227 0 0 
232 0 0 
233 0 0 
232 0 0 
227 0 0 
230 0 0 
230 0 0 
234 0 0 
233 0 0 
233 0 0 
232 0 0 
231 0 0 
232 0 0 
232 0 0 
233 0 0 
230 0 0 
233 0 0 
234 0 0 
228 0 0 
235 0 0 
230 0 0 
232 0 0 
229 0 0 
230 0 0 
232 0 0 
231 0 0 
230 0 0 
226 0 0 
231 0 0 
234 0 0 
231 0 0 
234 0 0 
232 0 0 
231 0 0 
229 0 0 
230 0 0 
230 0 0 
233 0 0 
230 0 0 
236 0 0 
231 0 0 
232 0 0 
232 0 0 
231 0 0 
229 0 0 
227 0 0 
227 0 0 
232 0 0 
231 0 0 
230 0 0 
231 0 0 
235 0 0 
232 0 0 
230 0 0 
233 0 0 
229 0 0 
233 0 0 
231 0 0 
233 0 0 
232 0 0 
233 0 0 
233 0 0 
230 0 0 
234 0 0 
0 0 255 
0 0 254 
0 0 255 
0 0 255 
0 0 255 
0 0 255 
0 0 255 
0 0 255 
0 0 255 
0 0 255 
0 0 255 
0 0 255 
0 0 255 
0 0 255 
0 0 255 
0 0 255 
0 0 255 
0 0 255 
0 0 255 
0 0 255 
0 0 255 
0 0 255 
0 0 254 
0 0 254 
0 0 255 
0 0 254 
0 0 254 
0 0 254 
0 0 255 
0 0 255 
0 0 255 
0 0 255 
0 0 255 
0 0 253 
0 0 255 
0 0 255 
0 0 255 
0 0 254 
0 0 254 
0 0 254 
0 0 254 
0 0 254 
0 0 255 
0 0 254 
0 0 255 
0 0 255 
0 0 255 
0 0 253 
0 0 254 
0 0 255 
0 0 255 
0 0 255 
0 0 255 
0 0 254 
0 0 254 
0 0 253 
0 0 254 
0 0 255 
0 0 255 
0 0 254 
0 0 254 
0 0 254 
0 0 254 
0 0 255 
0 0 254 
0 0 253 
0 0 252 
0 0 254 
0 0 254 
0 0 254 
0 0 255 
0 0 255 
0 0 254 
0 0 252 
0 0 252 
0 0 249 
0 0 254 
0 0 254 
0 0 253 
0 0 253 
0 0 254 
0 0 252 
0 0 254 
0 0 253 
0 0 254 
0 0 252 
0 0 254 
0 0 252 
0 0 252 
0 0 254 
0 0 255 
0 0 253 
0 0 255 
0 0 254 
0 0 254 
0 0 252 
0 0 254 
0 0 250 
0 0 254 
0 0 252 
0 0 252 
0 0 250 
0 0 252 
0 0 255 
0 0 254 
0 0 250 
0 0 254 
0 0 254 
0 0 255 
0 0 252 
0 0 253 
0 0 252 
0 0 252 
0 0 254 
0 0 252 
0 0 252 
0 0 253 
0 0 254 
0 0 245 
0 0 248 
0 0 254 
0 0 248 
0 0 255 
0 0 249 
0 0 252 
0 0 241 
0 0 252 
0 0 246 
0 0 253 
0 0 253 
0 0 249 
0 0 250 
0 0 250 
80 82 255 
172 176 254 
235 241 255 
242 247 255 
242 247 255 
242 247 255 
242 247 255 
242 247 255 
242 247 255 
242 247 255 
242 247 255 
242 247 255 
242 247 255 
242 247 255 
242 248 255 
242 248 255 
242 248 255 
242 248 255 
242 248 255 
242 248 255 
242 248 255 
242 248 255 
242 248 255 
242 248 255 
242 248 255 
243 248 255 
243 248 255 
243 248 255 
243 248 255 
243 248 255 
243 248 255 
243 248 255 
243 248 255 
243 248 255 
243 248 255 
243 248 255 
243 248 255 
243 248 255 
243 248 255 
243 248 255 
243 248 255 
243 248 255 
243 248 255 
243 248 255 
243 248 255 
243 248 255 
243 248 255 
243 248 255 
243 248 255 
243 248 255 
243 248 255 
243 248 255 
243 248 255 
243 248 255 
243 248 255 
243 248 255 
243 248 255 
243 248 255 
243 248 255 
243 248 255 
243 248 255 
243 248 255 
243 248 255 
243 248 255 
243 248 255 
243 248 255 
243 248 255 
243 248 255 
243 248 255 
243 248 255 
243 248 255 
243 248 255 
243 248 255 
243 248 255 
243 248 255 
243 248 255 
243 248 255 
243 248 255 
243 248 255 
243 248 255 
243 248 255 
243 248 255 
243 248 255 
243 248 255 
243 248 255 
243 248 255 
243 248 255 
243 248 255 
243 248 255 
243 248 255 
243 248 255 
243 248 255 
243 248 255 
243 248 255 
243 248 255 
243 248 255 
243 248 255 
243 248 255 
243 248 255 
243 248 255 
243 248 255 
243 248 255 
243 248 255 
243 248 255 
243 248 255 
243 248 255 
243 248 255 
243 248 255 
243 248 255 
242 248 255 
242 248 255 
242 248 255 
242 248 255 
242 248 255 
242 248 255 
242 248 255 
242 248 255 
242 248 255 
242 248 255 
242 248 255 
242 248 255 
242 247 255 
242 247 255 
242 247 255 
242 247 255 
242 247 255 
242 247 255 
242 247 255 
242 247 255 
242 247 255 
242 247 255 
240 241 249 
240 190 196 
237 70 72 
231 0 0 
232 0 0 
236 0 0 
235 0 0 
237 0 0 
236 0 0 
231 0 0 
232 0 0 
235 0 0 
236 0 0 
235 0 0 
235 0 0 
230 0 0 
232 0 0 
236 0 0 
230 0 0 
232 0 0 
234 0 0 
231 0 0 
234 0 0 
232 0 0 
233 0 0 
225 0 0 
234 0 0 
231 0 0 
229 0 0 
228 0 0 
229 0 0 
233 0 0 
232 0 0 
231 0 0 
232 0 0 
232 0 0 
232 0 0 
233 0 0 
233 0 0 
230 0 0 
232 0 0 
233 0 0 
231 0 0 
229 0 0 
232 0 0 
231 0 0 
231 0 0 
229 0 0 
235 0 0 
233 0 0 
232 0 0 
233 0 0 
229 0 0 
230 0 0 
232 0 0 
232 0 0 
234 0 0 
233 0 0 
232 0 0 
232 0 0 
233 0 0 
230 0 0 
231 0 0 
233 0 0 
227 0 0 
233 0 0 
232 0 0 
231 0 0 
232 0 0 
234 0 0 
231 0 0 
234 0 0 
233 0 0 
232 0 0 
234 0 0 
232 0 0 
232 0 0 
237 0 0 
233 0 0 
232 0 0 
232 0 0 
232 0 0 
232 0 0 
231 0 0 
231 0 0 
233 0 0 
231 0 0 
232 0 0 
233 0 0 
231 0 0 
230 0 0 
230 0 0 
230 0 0 
230 0 0 
233 0 0 
232 0 0 
230 0 0 
231 0 0 
234 0 0 
232 0 0 
233 0 0 
232 0 0 
230 0 0 
230 0 0 
233 0 0 
232 0 0 
231 0 0 
230 0 0 
232 0 0 
234 0 0 
234 0 0 
236 0 0 
230 0 0 
233 0 0 
234 0 0 
228 0 0 
230 0 0 
231 0 0 
233 0 0 
230 0 0 
231 0 0 
232 0 0 
229 0 0 
231 0 0 
234 0 0 
229 0 0 
231 0 0 
233 0 0 
233 0 0 
231 0 0 
234 0 0 
230 0 0 
232 0 0 
231 0 0 
231 0 0 
234 0 0 
0 0 254 
0 0 255 
0 0 255 
0 0 255 
0 0 255 
0 0 255 
0 0 255 
0 0 255 
0 0 255 
0 0 255 
0 0 254 
0 0 255 
0 0 255 
0 0 255 
0 0 254 
0 0 254 
0 0 255 
0 0 255 
0 0 255 
0 0 255 
0 0 255 
0 0 255 
0 0 255 
0 0 255 
0 0 255 
0 0 255 
0 0 255 
0 0 255 
0 0 255 
0 0 255 
0 0 255 
0 0 254 
0 0 254 
0 0 255 
0 0 255 
0 0 255 
0 0 254 
0 0 255 
0 0 255 
0 0 255 
0 0 255 
0 0 254 
0 0 255 
0 0 255 
0 0 253 
0 0 255 
0 0 253 
0 0 255 
0 0 255 
0 0 255 
0 0 254 
0 0 254 
0 0 255 
0 0 255 
0 0 255 
0 0 253 
0 0 255 
0 0 255 
0 0 253 
0 0 254 
0 0 254 
0 0 254 
0 0 255 
0 0 254 
0 0 254 
0 0 254 
0 0 255 
0 0 255 
0 0 255 
0 0 255 
0 0 255 
0 0 254 
0 0 254 
0 0 254 
0 0 255 
0 0 255 
0 0 254 
0 0 255 
0 0 254 
0 0 254 
0 0 254 
0 0 254 
0 0 255 
0 0 255 
0 0 253 
0 0 253 
0 0 255 
0 0 252 
0 0 253 
0 0 255 
0 0 253 
0 0 255 
0 0 249 
0 0 250 
0 0 255 
0 0 252 
0 0 253 
0 0 250 
0 0 253 
0 0 253 
0 0 252 
0 0 252 
0 0 254 
0 0 253 
0 0 252 
0 0 254 
0 0 253 
0 0 250 
0 0 255 
0 0 250 
0 0 253 
0 0 252 
0 0 250 
0 0 252 
0 0 249 
0 0 255 
0 0 252 
0 0 253 
0 0 253 
0 0 252 
0 0 250 
0 0 250 
0 0 249 
0 0 249 
0 0 252 
0 0 246 
0 0 253 
0 0 252 
0 0 254 
0 0 248 
0 0 254 
72 74 253 
176 180 254 
232 237 255 
242 247 255 
242 247 255 
242 247 255 
242 247 255 
242 247 255 
242 247 255 
242 247 255 
242 247 255 
242 247 255 
242 248 255 
242 248 255 
242 248 255 
242 248 255 
242 248 255 
242 248 255 
242 248 255 
242 248 255 
242 248 255 
242 248 255 
242 248 255 
242 248 255 
243 248 255 
243 248 255 
243 248 255 
243 248 255 
243 248 255 
243 248 255 
243 248 255 
243 248 255 
243 248 255 
243 248 255 
243 248 255 
243 248 255 
243 248 255 
243 248 255 
243 248 255 
243 248 255 
243 248 255 
243 248 255 
243 248 255 
243 248 255 
243 248 255 
243 248 255 
243 248 255 
243 248 255 
243 248 255 
243 248 255 
243 248 255 
243 248 255 
243 248 255 
243 248 255 
243 248 255 
243 248 255 
243 248 255 
243 248 255 
243 248 255 
243 248 255 
243 248 255 
243 248 255 
243 248 255 
243 248 255 
243 248 255 
243 248 255 
243 248 255 
243 248 255 
243 248 255 
243 248 255 
243 248 255 
243 248 255 
243 248 255 
243 248 255 
243 248 255 
243 248 255 
243 248 255 
243 248 255 
243 248 255 
243 248 255 
243 248 255 
243 248 255 
243 248 255 
243 248 255 
243 248 255 
243 248 255 
243 248 255 
243 248 255 
243 248 255 
243 248 255 
243 248 255 
243 248 255 
243 248 255 
243 248 255 
243 248 255 
243 248 255 
243 248 255 
243 248 255 
243 248 255 
243 248 255 
243 248 255 
243 248 255 
243 248 255 
243 248 255 
243 248 255 
243 248 255 
243 248 255 
243 248 255 
243 248 255 
243 248 255 
243 248 255 
243 248 255 
243 248 255 
243 248 255 
243 248 255 
242 248 255 
242 248 255 
242 248 255 
242 248 255 
242 248 255 
242 248 255 
242 248 255 
242 248 255 
242 248 255 
242 248 255 
242 248 255 
242 247 255 
242 247 255 
242 247 255 
242 247 255 
242 247 255 
242 247 255 
242 247 255 
242 247 255 
242 247 255 
241 240 248 
239 175 181 
235 74 76 
237 0 0 
235 0 0 
235 0 0 
231 0 0 
232 0 0 
236 0 0 
235 0 0 
236 0 0 
234 0 0 
234 0 0 
235 0 0 
231 0 0 
234 0 0 
231 0 0 
231 0 0 
233 0 0 
234 0 0 
230 0 0 
234 0 0 
233 0 0 
236 0 0 
231 0 0 
236 0 0 
233 0 0 
233 0 0 
236 0 0 
231 0 0 
236 0 0 
232 0 0 
227 0 0 
233 0 0 
236 0 0 
233 0 0 
235 0 0 
235 0 0 
231 0 0 
235 0 0 
230 0 0 
227 0 0 
231 0 0 
230 0 0 
233 0 0 
231 0 0 
229 0 0 
234 0 0 
231 0 0 
231 0 0 
234 0 0 
232 0 0 
233 0 0 
233 0 0 
230 0 0 
232 0 0 
231 0 0 
231 0 0 
233 0 0 
233 0 0 
234 0 0 
233 0 0 
230 0 0 
231 0 0 
231 0 0 
234 0 0 
232 0 0 
233 0 0 
230 0 0 
230 0 0 
234 0 0 
235 0 0 
229 0 0 
233 0 0 
232 0 0 
231 0 0 
230 0 0 
229 0 0 
230 0 0 
235 0 0 
228 0 0 
232 0 0 
228 0 0 
235 0 0 
232 0 0 
232 0 0 
232 0 0 
232 0 0 
233 0 0 
231 0 0 
232 0 0 
231 0 0 
234 0 0 
231 0 0 
233 0 0 
233 0 0 
233 0 0 
230 0 0 
232 0 0 
232 0 0 
230 0 0 
228 0 0 
235 0 0 
232 0 0 
232 0 0 
233 0 0 
231 0 0 
233 0 0 
228 0 0 
232 0 0 
232 0 0 
237 0 0 
231 0 0 
231 0 0 
232 0 0 
231 0 0 
232 0 0 
230 0 0 
234 0 0 
231 0 0 
232 0 0 
234 0 0 
230 0 0 
232 0 0 
229 0 0 
231 0 0 
233 0 0 
230 0 0 
232 0 0 
233 0 0 
231 0 0 
234 0 0 
226 0 0 
229 0 0 
0 0 255 
0 0 255 
0 0 255 
0 0 255 
0 0 255 
0 0 255 
0 0 255 
0 0 255 
0 0 255 
0 0 255 
0 0 255 
0 0 255 
0 0 255 
0 0 255 
0 0 255 
0 0 254 
0 0 255 
0 0 255 
0 0 254 
0 0 253 
0 0 255 
0 0 255 
0 0 255 
0 0 254 
0 0 255 
0 0 254 
0 0 255 
0 0 255 
0 0 255 
0 0 255 
0 0 254 
0 0 255 
0 0 255 
0 0 255 
0 0 255 
0 0 254 
0 0 255 
0 0 254 
0 0 255 
0 0 255 
0 0 250 
0 0 255 
0 0 255 
0 0 254 
0 0 255 
0 0 255 
0 0 255 
0 0 254 
0 0 254 
0 0 255 
0 0 255 
0 0 254 
0 0 255 
0 0 255 
0 0 255 
0 0 255 
0 0 255 
0 0 253 
0 0 255 
0 0 255 
0 0 255 
0 0 254 
0 0 254 
0 0 254 
0 0 254 
0 0 255 
0 0 254 
0 0 254 
0 0 253 
0 0 253 
0 0 252 
0 0 255 
0 0 254 
0 0 254 
0 0 254 
0 0 253 
0 0 255 
0 0 252 
0 0 254 
0 0 255 
0 0 254 
0 0 253 
0 0 254 
0 0 255 
0 0 255 
0 0 252 
0 0 254 
0 0 253 
0 0 250 
0 0 254 
0 0 253 
0 0 252 
0 0 253 
0 0 253 
0 0 254 
0 0 255 
0 0 250 
0 0 249 
0 0 252 
0 0 252 
0 0 252 
0 0 250 
0 0 252 
0 0 255 
0 0 255 
0 0 255 
0 0 253 
0 0 252 
0 0 254 
0 0 254 
0 0 253 
0 0 253 
0 0 249 
0 0 253 
0 0 253 
0 0 252 
0 0 253 
0 0 255 
0 0 253 
0 0 249 
0 0 253 
0 0 250 
0 0 249 
0 0 254 
0 0 254 
0 0 248 
0 0 254 
0 0 250 
0 0 249 
59 60 252 
187 191 254 
238 243 255 
242 247 255 
242 247 255 
242 247 255 
242 247 255 
242 247 255 
242 247 255 
242 247 255 
242 247 255 
242 248 255 
242 248 255 
242 248 255 
242 248 255 
242 248 255 
242 248 255 
242 248 255 
242 248 255 
242 248 255 
242 248 255 
242 248 255 
243 248 255 
243 248 255 
243 248 255 
243 248 255 
243 248 255 
243 248 255 
243 248 255 
243 248 255 
243 248 255 
243 248 255 
243 248 255 
243 248 255 
243 248 255 
243 248 255 
243 248 255 
243 248 255 
243 248 255 
243 248 255 
243 248 255 
243 248 255 
243 248 255 
243 248 255 
243 248 255 
243 248 255 
243 248 255 
243 248 255 
243 248 255 
243 248 255 
243 248 255 
243 248 255 
243 248 255 
243 248 255 
243 248 255 
243 248 255 
244 248 255 
244 248 255 
244 248 255 
244 248 255 
244 248 255 
244 248 255 
244 248 255 
244 248 255 
244 248 255 
244 248 255 
244 248 255 
244 248 255 
244 248 255 
244 248 255 
244 248 255 
244 248 255 
244 248 255 
244 248 255 
244 248 255 
244 248 255 
244 248 255 
244 248 255 
244 248 255 
244 248 255 
244 248 255 
244 248 255 
244 248 255 
244 248 255 
244 248 255 
244 248 255 
243 248 255 
243 248 255 
243 248 255 
243 248 255 
243 248 255 
243 248 255 
243 248 255 
243 248 255 
243 248 255 
243 248 255 
243 248 255 
243 248 255 
243 248 255 
243 248 255 
243 248 255 
243 248 255 
243 248 255 
243 248 255 
243 248 255 
243 248 255 
243 248 255 
243 248 255 
243 248 255 
243 248 255 
243 248 255 
243 248 255 
243 248 255 
243 248 255 
243 248 255 
243 248 255 
243 248 255 
243 248 255 
243 248 255 
243 248 255 
242 248 255 
242 248 255 
242 248 255 
242 248 255 
242 248 255 
242 248 255 
242 248 255 
242 248 255 
242 248 255 
242 248 255 
242 248 255 
242 247 255 
242 247 255 
242 247 255 
242 247 255 
242 247 255 
242 247 255 
242 247 255 
242 247 255 
242 241 249 
240 180 186 
240 89 92 
238 0 0 
234 0 0 
237 0 0 
235 0 0 
232 0 0 
235 0 0 
230 0 0 
234 0 0 
237 0 0 
237 0 0 
235 0 0 
237 0 0 
229 0 0 
235 0 0 
235 0 0 
234 0 0 
237 0 0 
235 0 0 
231 0 0 
235 0 0 
234 0 0 
231 0 0 
229 0 0 
232 0 0 
232 0 0 
234 0 0 
231 0 0 
230 0 0 
232 0 0 
233 0 0 
229 0 0 
229 0 0 
234 0 0 
234 0 0 
233 0 0 
234 0 0 
233 0 0 
230 0 0 
232 0 0 
229 0 0 
235 0 0 
231 0 0 
233 0 0 
230 0 0 
232 0 0 
234 0 0 
229 0 0 
233 0 0 
232 0 0 
233 0 0 
232 0 0 
230 0 0 
232 0 0 
236 0 0 
230 0 0 
233 0 0 
232 0 0 
231 0 0 
233 0 0 
228 0 0 
233 0 0 
233 0 0 
233 0 0 
233 0 0 
225 0 0 
234 0 0 
227 0 0 
233 0 0 
231 0 0 
234 0 0 
234 0 0 
232 0 0 
234 0 0 
235 0 0 
238 0 0 
230 0 0 
233 0 0 
233 0 0 
226 0 0 
231 0 0 
232 0 0 
233 0 0 
233 0 0 
230 0 0 
232 0 0 
231 0 0 
234 0 0 
232 0 0 
231 0 0 
229 0 0 
231 0 0 
229 0 0 
230 0 0 
233 0 0 
232 0 0 
235 0 0 
229 0 0 
234 0 0 
232 0 0 
228 0 0 
229 0 0 
231 0 0 
233 0 0 
234 0 0 
233 0 0 
231 0 0 
234 0 0 
235 0 0 
234 0 0 
233 0 0 
230 0 0 
228 0 0 
232 0 0 
231 0 0 
232 0 0 
230 0 0 
231 0 0 
231 0 0 
233 0 0 
233 0 0 
231 0 0 
229 0 0 
232 0 0 
229 0 0 
231 0 0 
230 0 0 
230 0 0 
232 0 0 
231 0 0 
0 0 255 
0 0 255 
0 0 255 
0 0 255 
0 0 255 
0 0 255 
0 0 255 
0 0 255 
0 0 255 
0 0 255 
0 0 255 
0 0 255 
0 0 255 
0 0 255 
0 0 255 
0 0 255 
0 0 255 
0 0 254 
0 0 255 
0 0 255 
0 0 255 
0 0 255 
0 0 254 
0 0 254 
0 0 255 
0 0 255 
0 0 255 
0 0 254 
0 0 255 
0 0 255 
0 0 254 
0 0 255 
0 0 255 
0 0 255 
0 0 254 
0 0 255 
0 0 255 
0 0 255 
0 0 255 
0 0 255 
0 0 255 
0 0 254 
0 0 252 
0 0 255 
0 0 253 
0 0 255 
0 0 255 
0 0 255 
0 0 254 
0 0 253 
0 0 255 
0 0 254 
0 0 254 
0 0 255 
0 0 255 
0 0 255 
0 0 254 
0 0 255 
0 0 255 
0 0 253 
0 0 254 
0 0 255 
0 0 254 
0 0 253 
0 0 255 
0 0 255 
0 0 255 
0 0 254 
0 0 254 
0 0 254 
0 0 253 
0 0 255 
0 0 250 
0 0 254 
0 0 254 
0 0 255 
0 0 254 
0 0 254 
0 0 252 
0 0 254 
0 0 254 
0 0 254 
0 0 255 
0 0 249 
0 0 253 
0 0 253 
0 0 255 
0 0 252 
0 0 254 
0 0 254 
0 0 254 
0 0 252 
0 0 253 
0 0 255 
0 0 253 
0 0 253 
0 0 254 
0 0 255 
0 0 252 
0 0 255 
0 0 249 
0 0 254 
0 0 254 
0 0 253 
0 0 250 
0 0 252 
0 0 250 
0 0 252 
0 0 254 
0 0 254 
0 0 248 
0 0 254 
0 0 254 
0 0 250 
0 0 252 
0 0 249 
0 0 255 
0 0 253 
0 0 254 
0 0 253 
0 0 252 
0 0 254 
0 0 253 
0 0 252 
0 0 250 
0 0 249 
0 0 254 
110 113 255 
189 193 255 
240 246 255 
242 247 255 
242 247 255 
242 247 255 
242 247 255 
242 247 255 
242 247 255 
242 247 255 
242 248 255 
242 248 255 
242 248 255 
242 248 255 
242 248 255 
242 248 255 
242 248 255 
242 248 255 
242 248 255 
242 248 255 
242 248 255 
243 248 255 
243 248 255 
243 248 255 
243 248 255 
243 248 255 
243 248 255 
243 248 255 
243 248 255 
243 248 255 
243 248 255 
243 248 255 
243 248 255 
243 248 255 
243 248 255 
243 248 255 
243 248 255 
243 248 255 
243 248 255 
243 248 255 
243 248 255 
243 248 255 
243 248 255 
243 248 255 
243 248 255 
243 248 255 
243 248 255 
243 248 255 
243 248 255 
243 248 255 
244 248 255 
244 248 255 
244 248 255 
244 248 255 
244 248 255 
244 248 255 
244 248 255 
244 248 255 
244 248 255 
244 248 255 
244 248 255 
244 248 255 
244 248 255 
244 248 255 
244 248 255 
244 248 255 
244 249 255 
244 249 255 
244 249 255 
244 249 255 
244 249 255 
244 249 255 
244 249 255 
244 249 255 
244 249 255 
244 249 255 
244 249 255 
244 249 255 
244 249 255 
244 249 255 
244 248 255 
244 248 255 
244 248 255 
244 248 255 
244 248 255 
244 248 255 
244 248 255 
244 248 255 
244 248 255 
244 248 255 
244 248 255 
244 248 255 
244 248 255 
244 248 255 
244 248 255 
243 248 255 
243 248 255 
243 248 255 
243 248 255 
243 248 255 
243 248 255 
243 248 255 
243 248 255 
243 248 255 
243 248 255 
243 248 255 
243 248 255 
243 248 255 
243 248 255 
243 248 255 
243 248 255 
243 248 255 
243 248 255 
243 248 255 
243 248 255 
243 248 255 
243 248 255 
243 248 255 
243 248 255 
243 248 255 
243 248 255 
243 248 255 
243 248 255 
243 248 255 
243 248 255 
242 248 255 
242 248 255 
242 248 255 
242 248 255 
242 248 255 
242 248 255 
242 248 255 
242 248 255 
242 248 255 
242 248 255 
242 248 255 
242 247 255 
242 247 255 
242 247 255 
242 247 255 
242 247 255 
242 247 255 
242 247 255 
242 244 252 
240 196 203 
238 105 108 
237 0 0 
234 0 0 
237 0 0 
237 0 0 
234 0 0 
235 0 0 
232 0 0 
236 0 0 
238 0 0 
237 0 0 
229 0 0 
237 0 0 
234 0 0 
231 0 0 
236 0 0 
235 0 0 
236 0 0 
231 0 0 
232 0 0 
234 0 0 
232 0 0 
235 0 0 
231 0 0 
235 0 0 
236 0 0 
233 0 0 
228 0 0 
233 0 0 
234 0 0 
235 0 0 
232 0 0 
233 0 0 
236 0 0 
228 0 0 
238 0 0 
237 0 0 
235 0 0 
232 0 0 
229 0 0 
234 0 0 
233 0 0 
231 0 0 
231 0 0 
230 0 0 
234 0 0 
235 0 0 
231 0 0 
234 0 0 
231 0 0 
230 0 0 
233 0 0 
231 0 0 
233 0 0 
232 0 0 
231 0 0 
230 0 0 
232 0 0 
230 0 0 
234 0 0 
235 0 0 
232 0 0 
232 0 0 
231 0 0 
231 0 0 
230 0 0 
233 0 0 
231 0 0 
232 0 0 
230 0 0 
235 0 0 
232 0 0 
231 0 0 
228 0 0 
233 0 0 
235 0 0 
229 0 0 
230 0 0 
232 0 0 
229 0 0 
232 0 0 
234 0 0 
232 0 0 
232 0 0 
234 0 0 
231 0 0 
230 0 0 
232 0 0 
233 0 0 
231 0 0 
232 0 0 
232 0 0 
231 0 0 
233 0 0 
233 0 0 
233 0 0 
232 0 0 
230 0 0 
233 0 0 
232 0 0 
230 0 0 
229 0 0 
232 0 0 
231 0 0 
231 0 0 
232 0 0 
233 0 0 
233 0 0 
232 0 0 
230 0 0 
233 0 0 
232 0 0 
231 0 0 
236 0 0 
233 0 0 
230 0 0 
230 0 0 
228 0 0 
232 0 0 
233 0 0 
230 0 0 
232 0 0 
231 0 0 
230 0 0 
235 0 0 
233 0 0 
231 0 0 
232 0 0 
0 0 255 
0 0 255 
0 0 255 
0 0 255 
0 0 255 
0 0 255 
0 0 255 
0 0 255 
0 0 255 
0 0 255 
0 0 255 
0 0 255 
0 0 255 
0 0 255 
0 0 255 
0 0 255 
0 0 255 
0 0 255 
0 0 255 
0 0 255 
0 0 255 
0 0 254 
0 0 255 
0 0 255 
0 0 255 
0 0 255 
0 0 255 
0 0 255 
0 0 254 
0 0 255 
0 0 255 
0 0 254 
0 0 254 
0 0 254 
0 0 254 
0 0 255 
0 0 255 
0 0 255 
0 0 255 
0 0 255 
0 0 255 
0 0 255 
0 0 254 
0 0 250 
0 0 254 
0 0 255 
0 0 255 
0 0 255 
0 0 255 
0 0 255 
0 0 255 
0 0 255 
0 0 255 
0 0 255 
0 0 254 
0 0 255 
0 0 255 
0 0 255 
0 0 255 
0 0 254 
0 0 254 
0 0 253 
0 0 255 
0 0 253 
0 0 253 
0 0 255 
0 0 254 
0 0 253 
0 0 254 
0 0 253 
0 0 254 
0 0 255 
0 0 254 
0 0 255 
0 0 255 
0 0 255 
0 0 254 
0 0 254 
0 0 253 
0 0 255 
0 0 253 
0 0 254 
0 0 253 
0 0 255 
0 0 252 
0 0 253 
0 0 254 
0 0 253 
0 0 253 
0 0 255 
0 0 254 
0 0 254 
0 0 253 
0 0 252 
0 0 253 
0 0 254 
0 0 253 
0 0 252 
0 0 255 
0 0 252 
0 0 253 
0 0 252 
0 0 253 
0 0 254 
0 0 254 
0 0 253 
0 0 254 
0 0 254 
0 0 253 
0 0 254 
0 0 252 
0 0 254 
0 0 249 
0 0 253 
0 0 252 
0 0 254 
0 0 254 
0 0 255 
0 0 254 
0 0 254 
0 0 250 
0 0 254 
0 0 250 
0 0 252 
0 0 252 
99 102 252 
202 207 255 
242 247 255 
242 247 255 
242 247 255 
242 247 255 
242 247 255 
242 247 255 
242 247 255 
242 247 255 
242 248 255 
242 248 255 
242 248 255 
242 248 255 
242 248 255 
242 248 255 
242 248 255 
242 248 255 
242 248 255 
242 248 255 
243 248 255 
243 248 255 
243 248 255 
243 248 255 
243 248 255 
243 248 255 
243 248 255 
243 248 255 
243 248 255 
243 248 255 
243 248 255 
243 248 255 
243 248 255 
243 248 255 
243 248 255 
243 248 255 
243 248 255 
243 248 255 
243 248 255 
243 248 255 
243 248 255 
243 248 255 
243 248 255 
243 248 255 
243 248 255 
243 248 255 
243 248 255 
244 248 255 
244 248 255 
244 248 255 
244 248 255 
244 248 255 
244 248 255 
244 248 255 
244 248 255 
244 248 255 
244 248 255 
244 249 255 
244 249 255 
244 249 255 
244 249 255 
244 249 255 
244 249 255 
244 249 255 
244 249 255 
244 249 255 
244 249 255 
244 249 255 
244 249 255 
244 249 255 
244 249 255 
244 249 255 
244 249 255 
244 249 255 
244 249 255 
244 249 255 
244 249 255 
244 249 255 
244 249 255 
244 249 255 
244 249 255 
244 249 255 
244 249 255 
244 249 255 
244 249 255 
244 249 255 
244 249 255 
244 249 255 
244 249 255 
244 249 255 
244 249 255 
244 249 255 
244 249 255 
244 248 255 
244 248 255 
244 248 255 
244 248 255 
244 248 255 
244 248 255 
244 248 255 
244 248 255 
244 248 255 
244 248 255 
243 248 255 
243 248 255 
243 248 255 
243 248 255 
243 248 255 
243 248 255 
243 248 255 
243 248 255 
243 248 255 
243 248 255 
243 248 255 
243 248 255 
243 248 255 
243 248 255 
243 248 255 
243 248 255 
243 248 255 
243 248 255 
243 248 255 
243 248 255 
243 248 255 
243 248 255 
243 248 255 
243 248 255 
243 248 255 
243 248 255 
243 248 255 
242 248 255 
242 248 255 
242 248 255 
242 248 255 
242 248 255 
242 248 255 
242 248 255 
242 248 255 
242 248 255 
242 248 255 
242 247 255 
242 247 255 
242 247 255 
242 247 255 
242 247 255 
242 247 255 
242 247 255 
242 245 253 
242 185 191 
239 110 114 
237 0 0 
237 0 0 
232 0 0 
235 0 0 
233 0 0 
235 0 0 
235 0 0 
226 0 0 
235 0 0 
237 0 0 
237 0 0 
235 0 0 
235 0 0 
232 0 0 
231 0 0 
234 0 0 
232 0 0 
230 0 0 
229 0 0 
235 0 0 
234 0 0 
232 0 0 
229 0 0 
232 0 0 
236 0 0 
233 0 0 
239 0 0 
235 0 0 
234 0 0 
234 0 0 
229 0 0 
231 0 0 
231 0 0 
235 0 0 
232 0 0 
230 0 0 
234 0 0 
233 0 0 
233 0 0 
233 0 0 
235 0 0 
231 0 0 
232 0 0 
233 0 0 
234 0 0 
232 0 0 
235 0 0 
234 0 0 
232 0 0 
233 0 0 
228 0 0 
235 0 0 
235 0 0 
231 0 0 
231 0 0 
231 0 0 
234 0 0 
232 0 0 
235 0 0 
231 0 0 
233 0 0 
236 0 0 
232 0 0 
236 0 0 
233 0 0 
233 0 0 
233 0 0 
234 0 0 
231 0 0 
231 0 0 
230 0 0 
228 0 0 
233 0 0 
230 0 0 
235 0 0 
233 0 0 
235 0 0 
234 0 0 
232 0 0 
230 0 0 
232 0 0 
233 0 0 
229 0 0 
233 0 0 
234 0 0 
228 0 0 
232 0 0 
235 0 0 
233 0 0 
235 0 0 
233 0 0 
234 0 0 
231 0 0 
231 0 0 
232 0 0 
230 0 0 
234 0 0 
231 0 0 
230 0 0 
229 0 0 
233 0 0 
233 0 0 
231 0 0 
231 0 0 
230 0 0 
235 0 0 
229 0 0 
233 0 0 
232 0 0 
231 0 0 
231 0 0 
233 0 0 
231 0 0 
231 0 0 
231 0 0 
232 0 0 
233 0 0 
231 0 0 
230 0 0 
231 0 0 
231 0 0 
231 0 0 
232 0 0 
234 0 0 
233 0 0 
0 0 255 
0 0 255 
0 0 255 
0 0 255 
0 0 255 
0 0 255 
0 0 255 
0 0 255 
0 0 255 
0 0 255 
0 0 255 
0 0 255 
0 0 255 
0 0 255 
0 0 255 
0 0 255 
0 0 255 
0 0 254 
0 0 255 
0 0 255 
0 0 255 
0 0 255 
0 0 255 
0 0 255 
0 0 255 
0 0 255 
0 0 255 
0 0 255 
0 0 255 
0 0 255 
0 0 255 
0 0 255 
0 0 255 
0 0 255 
0 0 255 
0 0 254 
0 0 254 
0 0 255 
0 0 255 
0 0 255 
0 0 255 
0 0 255 
0 0 254 
0 0 254 
0 0 255 
0 0 254 
0 0 255 
0 0 255 
0 0 255 
0 0 253 
0 0 255 
0 0 255 
0 0 254 
0 0 254 
0 0 255 
0 0 255 
0 0 255 
0 0 255 
0 0 255 
0 0 255 
0 0 255 
0 0 255 
0 0 255 
0 0 250 
0 0 254 
0 0 255 
0 0 254 
0 0 255 
0 0 255 
0 0 254 
0 0 253 
0 0 252 
0 0 255 
0 0 254 
0 0 255 
0 0 254 
0 0 253 
0 0 255 
0 0 254 
0 0 255 
0 0 255 
0 0 254 
0 0 254 
0 0 254 
0 0 254 
0 0 255 
0 0 254 
0 0 254 
0 0 250 
0 0 254 
0 0 255 
0 0 250 
0 0 252 
0 0 253 
0 0 253 
0 0 248 
0 0 255 
0 0 254 
0 0 254 
0 0 254 
0 0 254 
0 0 253 
0 0 254 
0 0 255 
0 0 250 
0 0 253 
0 0 254 
0 0 252 
0 0 255 
0 0 253 
0 0 252 
0 0 252 
0 0 255 
0 0 254 
0 0 254 
0 0 252 
0 0 250 
0 0 252 
0 0 250 
0 0 254 
0 0 250 
0 0 255 
41 42 254 
147 150 254 
213 218 254 
242 247 255 
242 247 255 
242 247 255 
242 247 255 
242 247 255 
242 247 255 
242 247 255 
242 248 255 
242 248 255 
242 248 255 
242 248 255 
242 248 255 
242 248 255 
242 248 255 
242 248 255 
242 248 255 
242 248 255 
243 248 255 
243 248 255 
243 248 255 
243 248 255 
243 248 255 
243 248 255 
243 248 255 
243 248 255 
243 248 255 
243 248 255 
243 248 255 
243 248 255 
243 248 255 
243 248 255 
243 248 255 
243 248 255 
243 248 255 
243 248 255 
243 248 255 
243 248 255 
243 248 255 
243 248 255 
243 248 255 
243 248 255 
243 248 255 
244 248 255 
244 248 255 
244 248 255 
244 248 255 
244 248 255 
244 248 255 
244 248 255 
244 248 255 
244 248 255 
244 249 255 
244 249 255 
244 249 255 
244 249 255 
244 249 255 
244 249 255 
244 249 255 
244 249 255 
244 249 255 
244 249 255 
244 249 255 
244 249 255 
244 249 255 
244 249 255 
244 249 255 
244 249 255 
244 249 255 
244 249 255 
244 249 255 
244 249 255 
244 249 255 
244 249 255 
244 249 255 
244 249 255 
244 249 255 
244 249 255 
244 249 255 
244 249 255 
244 249 255 
244 249 255 
244 249 255 
244 249 255 
244 249 255 
244 249 255 
244 249 255 
244 249 255 
244 249 255 
244 249 255 
244 249 255 
244 249 255 
244 249 255 
244 249 255 
244 249 255 
244 249 255 
244 249 255 
244 249 255 
244 249 255 
244 249 255 
244 248 255 
244 248 255 
244 248 255 
244 248 255 
244 248 255 
244 248 255 
244 248 255 
244 248 255 
244 248 255 
243 248 255 
243 248 255 
243 248 255 
243 248 255 
243 248 255 
243 248 255 
243 248 255 
243 248 255 
243 248 255 
243 248 255 
243 248 255 
243 248 255 
243 248 255 
243 248 255 
243 248 255 
243 248 255 
243 248 255 
243 248 255 
243 248 255 
243 248 255 
243 248 255 
243 248 255 
243 248 255 
243 248 255 
243 248 255 
242 248 255 
242 248 255 
242 248 255 
242 248 255 
242 248 255 
242 248 255 
242 248 255 
242 248 255 
242 248 255 
242 248 255 
242 247 255 
242 247 255 
242 247 255 
242 247 255 
242 247 255 
242 247 255 
242 247 255 
241 228 236 
240 135 140 
236 0 0 
236 0 0 
236 0 0 
241 0 0 
233 0 0 
234 0 0 
239 0 0 
239 0 0 
234 0 0 
232 0 0 
237 0 0 
237 0 0 
238 0 0 
234 0 0 
235 0 0 
235 0 0 
234 0 0 
232 0 0 
231 0 0 
238 0 0 
234 0 0 
235 0 0 
232 0 0 
234 0 0 
231 0 0 
234 0 0 
235 0 0 
235 0 0 
234 0 0 
233 0 0 
237 0 0 
233 0 0 
233 0 0 
233 0 0 
230 0 0 
231 0 0 
232 0 0 
232 0 0 
234 0 0 
235 0 0 
232 0 0 
238 0 0 
235 0 0 
236 0 0 
233 0 0 
236 0 0 
235 0 0 
234 0 0 
232 0 0 
234 0 0 
232 0 0 
228 0 0 
232 0 0 
232 0 0 
234 0 0 
232 0 0 
234 0 0 
235 0 0 
235 0 0 
236 0 0 
235 0 0 
230 0 0 
236 0 0 
232 0 0 
231 0 0 
229 0 0 
234 0 0 
232 0 0 
228 0 0 
228 0 0 
236 0 0 
233 0 0 
232 0 0 
235 0 0 
232 0 0 
233 0 0 
233 0 0 
231 0 0 
233 0 0 
234 0 0 
232 0 0 
233 0 0 
232 0 0 
232 0 0 
230 0 0 
233 0 0 
231 0 0 
233 0 0 
233 0 0 
232 0 0 
231 0 0 
231 0 0 
234 0 0 
233 0 0 
231 0 0 
230 0 0 
233 0 0 
233 0 0 
232 0 0 
231 0 0 
233 0 0 
233 0 0 
231 0 0 
232 0 0 
230 0 0 
231 0 0 
232 0 0 
232 0 0 
233 0 0 
231 0 0 
231 0 0 
232 0 0 
232 0 0 
230 0 0 
233 0 0 
230 0 0 
235 0 0 
231 0 0 
232 0 0 
232 0 0 
229 0 0 
230 0 0 
236 0 0 
0 0 255 
0 0 255 
0 0 255 
0 0 255 
0 0 255 
0 0 255 
0 0 255 
0 0 255 
0 0 255 
0 0 255 
0 0 255 
0 0 255 
0 0 255 
0 0 255 
0 0 255 
0 0 255 
0 0 255 
0 0 254 
0 0 255 
0 0 255 
0 0 255 
0 0 255 
0 0 255 
0 0 255 
0 0 255 
0 0 255 
0 0 255 
0 0 255 
0 0 255 
0 0 255 
0 0 255 
0 0 254 
0 0 255 
0 0 255 
0 0 255 
0 0 254 
0 0 254 
0 0 255 
0 0 255 
0 0 255 
0 0 253 
0 0 254 
0 0 255 
0 0 255 
0 0 254 
0 0 255 
0 0 255 
0 0 254 
0 0 255 
0 0 254 
0 0 255 
0 0 255 
0 0 255 
0 0 255 
0 0 254 
0 0 255 
0 0 254 
0 0 255 
0 0 254 
0 0 254 
0 0 253 
0 0 255 
0 0 253 
0 0 255 
0 0 255 
0 0 255 
0 0 255 
0 0 253 
0 0 254 
0 0 255 
0 0 252 
0 0 254 
0 0 255 
0 0 253 
0 0 255 
0 0 254 
0 0 254 
0 0 254 
0 0 254 
0 0 254 
0 0 255 
0 0 254 
0 0 254 
0 0 254 
0 0 253 
0 0 253 
0 0 254 
0 0 253 
0 0 253 
0 0 254 
0 0 254 
0 0 249 
0 0 253 
0 0 252 
0 0 254 
0 0 255 
0 0 250 
0 0 254 
0 0 253 
0 0 254 
0 0 252 
0 0 253 
0 0 254 
0 0 253 
0 0 254 
0 0 254 
0 0 253 
0 0 253 
0 0 254 
0 0 252 
0 0 255 
0 0 249 
0 0 253 
0 0 249 
0 0 253 
0 0 253 
0 0 255 
0 0 254 
0 0 255 
0 0 254 
83 85 253 
177 182 255 
233 238 255 
242 247 255 
242 247 255 
242 247 255 
242 247 255 
242 247 255 
242 247 255 
242 248 255 
242 248 255 
242 248 255 
242 248 255 
242 248 255 
242 248 255 
242 248 255 
242 248 255 
242 248 255 
242 248 255 
243 248 255 
243 248 255 
243 248 255 
243 248 255 
243 248 255 
243 248 255 
243 248 255 
243 248 255 
243 248 255 
243 248 255 
243 248 255 
243 248 255 
243 248 255 
243 248 255 
243 248 255 
243 248 255 
243 248 255 
243 248 255 
243 248 255 
243 248 255 
243 248 255 
243 248 255 
243 248 255 
243 248 255 
244 248 255 
244 248 255 
244 248 255 
244 248 255 
244 248 255 
244 248 255 
244 248 255 
244 249 255 
244 249 255 
244 249 255 
244 249 255 
244 249 255 
244 249 255 
244 249 255 
244 249 255 
244 249 255 
244 249 255 
244 249 255 
244 249 255 
244 249 255 
244 249 255 
244 249 255 
244 249 255 
244 249 255 
244 249 255 
244 249 255 
244 249 255 
244 249 255 
244 249 255 
244 249 255 
244 249 255 
244 249 255 
244 249 255 
244 249 255 
244 249 255 
244 249 255 
244 249 255 
244 249 255 
244 249 255 
244 249 255 
244 249 255 
244 249 255 
244 249 255 
244 249 255 
244 249 255 
244 249 255 
244 249 255 
244 249 255 
244 249 255 
244 249 255 
244 249 255 
244 249 255 
244 249 255 
244 249 255 
244 249 255 
244 249 255 
244 249 255 
244 249 255 
244 249 255 
244 249 255 
244 249 255 
244 249 255 
244 249 255 
244 249 255 
244 249 255 
244 249 255 
244 248 255 
244 248 255 
244 248 255 
244 248 255 
244 248 255 
244 248 255 
244 248 255 
244 248 255 
243 248 255 
243 248 255 
243 248 255 
243 248 255 
243 248 255 
243 248 255 
243 248 255 
243 248 255 
243 248 255 
243 248 255 
243 248 255 
243 248 255 
243 248 255 
243 248 255 
243 248 255 
243 248 255 
243 248 255 
243 248 255 
243 248 255 
243 248 255 
243 248 255 
243 248 255 
243 248 255 
243 248 255 
242 248 255 
242 248 255 
242 248 255 
242 248 255 
242 248 255 
242 248 255 
242 248 255 
242 248 255 
242 248 255 
242 247 255 
242 247 255 
242 247 255 
242 247 255 
242 247 255 
242 247 255 
242 247 255 
242 244 252 
239 169 175 
239 82 84 
236 0 0 
236 0 0 
237 0 0 
235 0 0 
236 0 0 
238 0 0 
236 0 0 
230 0 0 
234 0 0 
237 0 0 
236 0 0 
235 0 0 
236 0 0 
227 0 0 
233 0 0 
236 0 0 
238 0 0 
235 0 0 
238 0 0 
234 0 0 
237 0 0 
232 0 0 
233 0 0 
234 0 0 
235 0 0 
233 0 0 
231 0 0 
234 0 0 
233 0 0 
232 0 0 
236 0 0 
234 0 0 
233 0 0 
235 0 0 
234 0 0 
233 0 0 
233 0 0 
234 0 0 
235 0 0 
232 0 0 
232 0 0 
235 0 0 
234 0 0 
233 0 0 
232 0 0 
235 0 0 
231 0 0 
228 0 0 
232 0 0 
231 0 0 
233 0 0 
234 0 0 
233 0 0 
235 0 0 
228 0 0 
233 0 0 
232 0 0 
231 0 0 
236 0 0 
237 0 0 
229 0 0 
230 0 0 
233 0 0 
234 0 0 
234 0 0 
232 0 0 
235 0 0 
232 0 0 
232 0 0 
233 0 0 
234 0 0 
231 0 0 
232 0 0 
233 0 0 
233 0 0 
235 0 0 
229 0 0 
231 0 0 
230 0 0 
233 0 0 
231 0 0 
234 0 0 
233 0 0 
233 0 0 
232 0 0 
231 0 0 
232 0 0 
234 0 0 
231 0 0 
234 0 0 
232 0 0 
231 0 0 
231 0 0 
233 0 0 
235 0 0 
233 0 0 
233 0 0 
232 0 0 
234 0 0 
233 0 0 
230 0 0 
234 0 0 
233 0 0 
231 0 0 
231 0 0 
230 0 0 
233 0 0 
232 0 0 
231 0 0 
234 0 0 
232 0 0 
232 0 0 
230 0 0 
232 0 0 
234 0 0 
233 0 0 
231 0 0 
233 0 0 
233 0 0 
229 0 0 
0 0 255 
0 0 255 
0 0 255 
0 0 255 
0 0 255 
0 0 255 
0 0 255 
0 0 255 
0 0 255 
0 0 255 
0 0 255 
0 0 255 
0 0 255 
0 0 255 
0 0 255 
0 0 255 
0 0 255 
0 0 255 
0 0 254 
0 0 255 
0 0 255 
0 0 255 
0 0 255 
0 0 255 
0 0 254 
0 0 255 
0 0 255 
0 0 255 
0 0 255 
0 0 255 
0 0 255 
0 0 255 
0 0 255 
0 0 255 
0 0 255 
0 0 255 
0 0 255 
0 0 255 
0 0 255 
0 0 255 
0 0 254 
0 0 250 
0 0 255 
0 0 255 
0 0 254 
0 0 255 
0 0 255 
0 0 254 
0 0 255 
0 0 254 
0 0 254 
0 0 254 
0 0 252 
0 0 255 
0 0 255 
0 0 255 
0 0 255 
0 0 253 
0 0 255 
0 0 254 
0 0 254 
0 0 254 
0 0 253 
0 0 255 
0 0 254 
0 0 254 
0 0 255 
0 0 253 
0 0 255 
0 0 253 
0 0 254 
0 0 254 
0 0 254 
0 0 254 
0 0 255 
0 0 255 
0 0 255 
0 0 254 
0 0 253 
0 0 253 
0 0 255 
0 0 254 
0 0 255 
0 0 253 
0 0 254 
0 0 252 
0 0 254 
0 0 253 
0 0 254 
0 0 254 
0 0 253 
0 0 254 
0 0 254 
0 0 255 
0 0 253 
0 0 254 
0 0 254 
0 0 252 
0 0 255 
0 0 253 
0 0 254 
0 0 253 
0 0 253 
0 0 254 
0 0 253 
0 0 254 
0 0 253 
0 0 250 
0 0 254 
0 0 252 
0 0 254 
0 0 250 
0 0 254 
0 0 254 
0 0 253 
0 0 250 
0 0 250 
24 24 254 
136 140 255 
209 214 255 
240 246 255 
242 247 255 
242 247 255 
242 247 255 
242 247 255 
242 247 255 
242 247 255 
242 248 255 
242 248 255 
242 248 255 
242 248 255 
242 248 255 
242 248 255 
242 248 255 
242 248 255 
242 248 255 
243 248 255 
243 248 255 
243 248 255 
243 248 255 
243 248 255 
243 248 255 
243 248 255 
243 248 255 
243 248 255 
243 248 255 
243 248 255 
243 248 255 
243 248 255 
243 248 255 
243 248 255 
243 248 255 
243 248 255 
243 248 255 
243 248 255 
243 248 255 
243 248 255 
243 248 255 
243 248 255 
244 248 255 
244 248 255 
244 248 255 
244 248 255 
244 248 255 
244 248 255 
244 248 255 
244 249 255 
244 249 255 
244 249 255 
244 249 255 
244 249 255 
244 249 255 
244 249 255 
244 249 255 
244 249 255 
244 249 255 
244 249 255 
244 249 255 
244 249 255 
244 249 255 
244 249 255 
244 249 255 
244 249 255 
244 249 255 
244 249 255 
244 249 255 
244 249 255 
244 249 255 
244 249 255 
244 249 255 
244 249 255 
244 249 255 
244 249 255 
244 249 255 
244 249 255 
244 249 255 
244 249 255 
244 249 255 
244 249 255 
244 249 255 
244 249 255 
244 249 255 
244 249 255 
244 249 255 
244 249 255 
244 249 255 
244 249 255 
244 249 255 
244 249 255 
244 249 255 
244 249 255 
244 249 255 
244 249 255 
244 249 255 
244 249 255 
244 249 255 
244 249 255 
244 249 255 
244 249 255 
244 249 255 
244 249 255 
244 249 255 
244 249 255 
244 249 255 
244 249 255 
244 249 255 
244 249 255 
244 249 255 
244 249 255 
244 249 255 
244 249 255 
244 249 255 
244 249 255 
244 249 255 
244 248 255 
244 248 255 
244 248 255 
244 248 255 
244 248 255 
244 248 255 
244 248 255 
243 248 255 
243 248 255 
243 248 255 
243 248 255 
243 248 255 
243 248 255 
243 248 255 
243 248 255 
243 248 255 
243 248 255 
243 248 255 
243 248 255 
243 248 255 
243 248 255 
243 248 255 
243 248 255 
243 248 255 
243 248 255 
243 248 255 
243 248 255 
243 248 255 
243 248 255 
243 248 255 
242 248 255 
242 248 255 
242 248 255 
242 248 255 
242 248 255 
242 248 255 
242 248 255 
242 248 255 
242 248 255 
242 247 255 
242 247 255 
242 247 255 
242 247 255 
242 247 255 
242 247 255 
242 241 249 
241 199 206 
239 137 142 
239 0 0 
239 0 0 
237 0 0 
236 0 0 
237 0 0 
238 0 0 
237 0 0 
234 0 0 
235 0 0 
237 0 0 
239 0 0 
238 0 0 
234 0 0 
234 0 0 
234 0 0 
233 0 0 
235 0 0 
236 0 0 
237 0 0 
236 0 0 
234 0 0 
236 0 0 
232 0 0 
234 0 0 
231 0 0 
236 0 0 
235 0 0 
233 0 0 
232 0 0 
235 0 0 
237 0 0 
236 0 0 
237 0 0 
234 0 0 
236 0 0 
234 0 0 
234 0 0 
233 0 0 
234 0 0 
234 0 0 
232 0 0 
236 0 0 
231 0 0 
235 0 0 
233 0 0 
233 0 0 
233 0 0 
232 0 0 
235 0 0 
231 0 0 
233 0 0 
234 0 0 
234 0 0 
234 0 0 
233 0 0 
234 0 0 
235 0 0 
231 0 0 
234 0 0 
234 0 0 
234 0 0 
235 0 0 
236 0 0 
234 0 0 
233 0 0 
232 0 0 
232 0 0 
231 0 0 
230 0 0 
230 0 0 
234 0 0 
234 0 0 
232 0 0 
234 0 0 
234 0 0 
231 0 0 
232 0 0 
232 0 0 
232 0 0 
229 0 0 
232 0 0 
234 0 0 
232 0 0 
232 0 0 
232 0 0 
232 0 0 
235 0 0 
232 0 0 
231 0 0 
234 0 0 
234 0 0 
232 0 0 
235 0 0 
233 0 0 
234 0 0 
237 0 0 
234 0 0 
233 0 0 
234 0 0 
233 0 0 
235 0 0 
231 0 0 
230 0 0 
232 0 0 
232 0 0 
234 0 0 
233 0 0 
234 0 0 
233 0 0 
229 0 0 
233 0 0 
231 0 0 
233 0 0 
233 0 0 
231 0 0 
231 0 0 
231 0 0 
232 0 0 
0 0 255 
0 0 255 
0 0 255 
0 0 255 
0 0 255 
0 0 255 
0 0 255 
0 0 255 
0 0 255 
0 0 255 
0 0 255 
0 0 255 
0 0 255 
0 0 255 
0 0 255 
0 0 255 
0 0 255 
0 0 255 
0 0 255 
0 0 255 
0 0 255 
0 0 255 
0 0 255 
0 0 254 
0 0 254 
0 0 255 
0 0 255 
0 0 255 
0 0 255 
0 0 255 
0 0 255 
0 0 255 
0 0 255 
0 0 255 
0 0 255 
0 0 255 
0 0 255 
0 0 255 
0 0 255 
0 0 255 
0 0 255 
0 0 254 
0 0 255 
0 0 255 
0 0 255 
0 0 254 
0 0 255 
0 0 255 
0 0 254 
0 0 255 
0 0 254 
0 0 254 
0 0 254 
0 0 253 
0 0 255 
0 0 255 
0 0 255 
0 0 254 
0 0 255 
0 0 255 
0 0 255 
0 0 254 
0 0 255 
0 0 253 
0 0 255 
0 0 255 
0 0 255 
0 0 254 
0 0 254 
0 0 254 
0 0 252 
0 0 253 
0 0 255 
0 0 255 
0 0 255 
0 0 255 
0 0 254 
0 0 255 
0 0 255 
0 0 254 
0 0 255 
0 0 254 
0 0 253 
0 0 253 
0 0 255 
0 0 253 
0 0 254 
0 0 252 
0 0 255 
0 0 254 
0 0 250 
0 0 253 
0 0 255 
0 0 253 
0 0 252 
0 0 254 
0 0 253 
0 0 253 
0 0 253 
0 0 254 
0 0 252 
0 0 255 
0 0 253 
0 0 255 
0 0 254 
0 0 254 
0 0 252 
0 0 253 
0 0 254 
0 0 253 
0 0 255 
0 0 254 
0 0 254 
0 0 252 
0 0 253 
83 85 254 
167 171 255 
229 235 255 
242 247 255 
242 247 255 
242 247 255 
242 247 255 
242 247 255 
242 247 255 
242 248 255 
242 248 255 
242 248 255 
242 248 255 
242 248 255 
242 248 255 
242 248 255 
242 248 255 
242 248 255 
242 248 255 
243 248 255 
243 248 255 
243 248 255 
243 248 255 
243 248 255 
243 248 255 
243 248 255 
243 248 255 
243 248 255 
243 248 255 
243 248 255 
243 248 255 
243 248 255 
243 248 255 
243 248 255 
243 248 255 
243 248 255 
243 248 255 
243 248 255 
243 248 255 
243 248 255 
243 248 255 
244 248 255 
244 248 255 
244 248 255 
244 248 255 
244 248 255 
244 248 255 
244 249 255 
244 249 255 
244 249 255 
244 249 255 
244 249 255 
244 249 255 
244 249 255 
244 249 255 
244 249 255 
244 249 255 
244 249 255 
244 249 255 
244 249 255 
244 249 255 
244 249 255 
244 249 255 
244 249 255 
244 249 255 
244 249 255 
244 249 255 
244 249 255 
244 249 255 
244 249 255 
244 249 255 
244 249 255 
244 249 255 
244 249 255 
244 249 255 
244 249 255 
244 249 255 
244 249 255 
244 249 255 
244 249 255 
244 249 255 
244 249 255 
244 249 255 
244 249 255 
244 249 255 
244 249 255 
244 249 255 
244 249 255 
244 249 255 
244 249 255 
244 249 255 
244 249 255 
244 249 255 
244 249 255 
244 249 255 
244 249 255 
244 249 255 
244 249 255 
244 249 255 
244 249 255 
244 249 255 
244 249 255 
244 249 255 
244 249 255 
244 249 255 
244 249 255 
244 249 255 
244 249 255 
244 249 255 
244 249 255 
244 249 255 
244 249 255 
244 249 255 
244 249 255 
244 249 255 
244 249 255 
244 249 255 
244 249 255 
244 249 255 
244 249 255 
244 249 255 
244 249 255 
244 249 255 
244 248 255 
244 248 255 
244 248 255 
244 248 255 
244 248 255 
244 248 255 
243 248 255 
243 248 255 
243 248 255 
243 248 255 
243 248 255 
243 248 255 
243 248 255 
243 248 255 
243 248 255 
243 248 255 
243 248 255 
243 248 255 
243 248 255 
243 248 255 
243 248 255 
243 248 255 
243 248 255 
243 248 255 
243 248 255 
243 248 255 
243 248 255 
243 248 255 
242 248 255 
242 248 255 
242 248 255 
242 248 255 
242 248 255 
242 248 255 
242 248 255 
242 248 255 
242 248 255 
242 247 255 
242 247 255 
242 247 255 
242 247 255 
242 247 255 
242 247 255 
242 247 255 
240 229 237 
241 173 179 
234 89 92 
234 0 0 
235 0 0 
239 0 0 
234 0 0 
239 0 0 
234 0 0 
233 0 0 
237 0 0 
230 0 0 
234 0 0 
234 0 0 
236 0 0 
235 0 0 
232 0 0 
239 0 0 
238 0 0 
232 0 0 
235 0 0 
234 0 0 
232 0 0 
231 0 0 
235 0 0 
235 0 0 
234 0 0 
234 0 0 
238 0 0 
235 0 0 
233 0 0 
233 0 0 
233 0 0 
233 0 0 
233 0 0 
235 0 0 
234 0 0 
235 0 0 
233 0 0 
233 0 0 
237 0 0 
237 0 0 
234 0 0 
236 0 0 
236 0 0 
233 0 0 
236 0 0 
231 0 0 
236 0 0 
234 0 0 
237 0 0 
235 0 0 
228 0 0 
235 0 0 
234 0 0 
234 0 0 
235 0 0 
231 0 0 
231 0 0 
231 0 0 
234 0 0 
235 0 0 
234 0 0 
236 0 0 
235 0 0 
235 0 0 
235 0 0 
232 0 0 
233 0 0 
234 0 0 
232 0 0 
233 0 0 
234 0 0 
233 0 0 
230 0 0 
231 0 0 
235 0 0 
237 0 0 
233 0 0 
227 0 0 
235 0 0 
232 0 0 
231 0 0 
231 0 0 
234 0 0 
233 0 0 
232 0 0 
232 0 0 
233 0 0 
233 0 0 
232 0 0 
234 0 0 
234 0 0 
231 0 0 
231 0 0 
232 0 0 
235 0 0 
235 0 0 
234 0 0 
231 0 0 
234 0 0 
233 0 0 
231 0 0 
234 0 0 
236 0 0 
229 0 0 
232 0 0 
233 0 0 
234 0 0 
233 0 0 
233 0 0 
231 0 0 
233 0 0 
235 0 0 
231 0 0 
230 0 0 
233 0 0 
231 0 0 
0 0 255 
0 0 255 
0 0 255 
0 0 255 
0 0 255 
0 0 255 
0 0 254 
0 0 255 
0 0 255 
0 0 255 
0 0 255 
0 0 255 
0 0 255 
0 0 255 
0 0 255 
0 0 255 
0 0 255 
0 0 255 
0 0 255 
0 0 255 
0 0 255 
0 0 255 
0 0 255 
0 0 255 
0 0 254 
0 0 255 
0 0 255 
0 0 255 
0 0 255 
0 0 254 
0 0 255 
0 0 255 
0 0 255 
0 0 255 
0 0 254 
0 0 255 
0 0 255 
0 0 255 
0 0 255 
0 0 255 
0 0 255 
0 0 254 
0 0 254 
0 0 255 
0 0 255 
0 0 255 
0 0 254 
0 0 255 
0 0 255 
0 0 255 
0 0 254 
0 0 255 
0 0 255 
0 0 255 
0 0 253 
0 0 255 
0 0 255 
0 0 252 
0 0 255 
0 0 255 
0 0 255 
0 0 255 
0 0 254 
0 0 254 
0 0 255 
0 0 255 
0 0 255 
0 0 253 
0 0 254 
0 0 255 
0 0 255 
0 0 255 
0 0 254 
0 0 255 
0 0 254 
0 0 253 
0 0 254 
0 0 255 
0 0 253 
0 0 255 
0 0 255 
0 0 253 
0 0 254 
0 0 255 
0 0 255 
0 0 253 
0 0 254 
0 0 255 
0 0 254 
0 0 253 
0 0 254 
0 0 253 
0 0 253 
0 0 253 
0 0 253 
0 0 254 
0 0 254 
0 0 254 
0 0 255 
0 0 254 
0 0 255 
0 0 254 
0 0 254 
0 0 252 
0 0 252 
0 0 254 
0 0 255 
0 0 252 
0 0 254 
0 0 253 
0 0 254 
0 0 255 
48 49 255 
164 168 254 
213 218 254 
240 246 255 
242 247 255 
242 247 255 
242 247 255 
242 247 255 
242 247 255 
242 247 255 
242 248 255 
242 248 255 
242 248 255 
242 248 255 
242 248 255 
242 248 255 
242 248 255 
242 248 255 
242 248 255 
243 248 255 
243 248 255 
243 248 255 
243 248 255 
243 248 255 
243 248 255 
243 248 255 
243 248 255 
243 248 255 
243 248 255 
243 248 255 
243 248 255 
243 248 255 
243 248 255 
243 248 255 
243 248 255 
243 248 255 
243 248 255 
243 248 255 
243 248 255 
243 248 255 
243 248 255 
244 248 255 
244 248 255 
244 248 255 
244 248 255 
244 248 255 
244 249 255 
244 249 255 
244 249 255 
244 249 255 
244 249 255 
244 249 255 
244 249 255 
244 249 255 
244 249 255 
244 249 255 
244 249 255 
244 249 255 
244 249 255 
244 249 255 
244 249 255 
244 249 255 
244 249 255 
244 249 255 
244 249 255 
244 249 255 
244 249 255 
244 249 255 
244 249 255 
244 249 255 
244 249 255 
244 249 255 
244 249 255 
244 249 255 
244 249 255 
244 249 255 
244 249 255 
244 249 255 
244 249 255 
244 249 255 
244 249 255 
245 249 255 
245 249 255 
245 249 255 
245 249 255 
245 249 255 
245 249 255 
245 249 255 
245 249 255 
245 249 255 
245 249 255 
245 249 255 
245 249 255 
245 249 255 
245 249 255 
244 249 255 
244 249 255 
244 249 255 
244 249 255 
244 249 255 
244 249 255 
244 249 255 
244 249 255 
244 249 255 
244 249 255 
244 249 255 
244 249 255 
244 249 255 
244 249 255 
244 249 255 
244 249 255 
244 249 255 
244 249 255 
244 249 255 
244 249 255 
244 249 255 
244 249 255 
244 249 255 
244 249 255 
244 249 255 
244 249 255 
244 249 255 
244 249 255 
244 249 255 
244 249 255 
244 249 255 
244 249 255 
244 249 255 
244 249 255 
244 249 255 
244 248 255 
244 248 255 
244 248 255 
244 248 255 
244 248 255 
244 248 255 
243 248 255 
243 248 255 
243 248 255 
243 248 255 
243 248 255 
243 248 255 
243 248 255 
243 248 255 
243 248 255 
243 248 255 
243 248 255 
243 248 255 
243 248 255 
243 248 255 
243 248 255 
243 248 255 
243 248 255 
243 248 255 
243 248 255 
243 248 255 
243 248 255 
242 248 255 
242 248 255 
242 248 255 
242 248 255 
242 248 255 
242 248 255 
242 248 255 
242 248 255 
242 248 255 
242 247 255 
242 247 255 
242 247 255 
242 247 255 
242 247 255 
242 247 255 
242 247 255 
240 217 224 
240 148 153 
236 65 67 
238 0 0 
234 0 0 
237 0 0 
236 0 0 
237 0 0 
237 0 0 
241 0 0 
236 0 0 
234 0 0 
235 0 0 
233 0 0 
235 0 0 
237 0 0 
232 0 0 
234 0 0 
236 0 0 
236 0 0 
235 0 0 
236 0 0 
234 0 0 
234 0 0 
235 0 0 
237 0 0 
233 0 0 
236 0 0 
235 0 0 
235 0 0 
235 0 0 
232 0 0 
236 0 0 
231 0 0 
232 0 0 
235 0 0 
234 0 0 
232 0 0 
237 0 0 
233 0 0 
236 0 0 
235 0 0 
230 0 0 
233 0 0 
233 0 0 
233 0 0 
235 0 0 
231 0 0 
235 0 0 
230 0 0 
236 0 0 
232 0 0 
236 0 0 
232 0 0 
235 0 0 
235 0 0 
233 0 0 
233 0 0 
233 0 0 
233 0 0 
231 0 0 
235 0 0 
232 0 0 
234 0 0 
234 0 0 
232 0 0 
233 0 0 
232 0 0 
231 0 0 
230 0 0 
232 0 0 
235 0 0 
232 0 0 
232 0 0 
233 0 0 
235 0 0 
233 0 0 
230 0 0 
232 0 0 
235 0 0 
233 0 0 
233 0 0 
231 0 0 
232 0 0 
234 0 0 
233 0 0 
235 0 0 
233 0 0 
234 0 0 
234 0 0 
233 0 0 
234 0 0 
234 0 0 
235 0 0 
233 0 0 
235 0 0 
233 0 0 
231 0 0 
232 0 0 
230 0 0 
234 0 0 
235 0 0 
235 0 0 
231 0 0 
233 0 0 
231 0 0 
231 0 0 
235 0 0 
233 0 0 
231 0 0 
231 0 0 
234 0 0 
232 0 0 
233 0 0 
233 0 0 
0 0 255 
0 0 255 
0 0 255 
0 0 255 
0 0 255 
0 0 255 
0 0 255 
0 0 255 
0 0 255 
0 0 255 
0 0 255 
0 0 255 
0 0 255 
0 0 255 
0 0 255 
0 0 254 
0 0 255 
0 0 255 
0 0 255 
0 0 255 
0 0 255 
0 0 254 
0 0 255 
0 0 254 
0 0 255 
0 0 255 
0 0 255 
0 0 255 
0 0 255 
0 0 255 
0 0 255 
0 0 255 
0 0 255 
0 0 255 
0 0 255 
0 0 255 
0 0 255 
0 0 255 
0 0 254 
0 0 254 
0 0 255 
0 0 255 
0 0 255 
0 0 254 
0 0 255 
0 0 255 
0 0 255 
0 0 254 
0 0 255 
0 0 255 
0 0 255 
0 0 255 
0 0 254 
0 0 255 
0 0 255 
0 0 254 
0 0 255 
0 0 254 
0 0 253 
0 0 253 
0 0 255 
0 0 254 
0 0 255 
0 0 253 
0 0 254 
0 0 255 
0 0 255 
0 0 254 
0 0 254 
0 0 255 
0 0 253 
0 0 252 
0 0 254 
0 0 255 
0 0 253 
0 0 254 
0 0 255 
0 0 255 
0 0 253 
0 0 253 
0 0 255 
0 0 254 
0 0 254 
0 0 254 
0 0 253 
0 0 254 
0 0 255 
0 0 255 
0 0 253 
0 0 255 
0 0 254 
0 0 254 
0 0 255 
0 0 255 
0 0 254 
0 0 254 
0 0 255 
0 0 252 
0 0 254 
0 0 253 
0 0 255 
0 0 255 
0 0 252 
0 0 254 
0 0 250 
0 0 250 
0 0 253 
0 0 253 
0 0 254 
59 60 253 
132 135 254 
202 207 255 
236 241 255 
242 247 255 
242 247 255 
242 247 255 
242 247 255 
242 247 255 
242 247 255 
242 247 255 
242 248 255 
242 248 255 
242 248 255 
242 248 255 
242 248 255 
242 248 255 
242 248 255 
242 248 255 
243 248 255 
243 248 255 
243 248 255 
243 248 255 
243 248 255 
243 248 255 
243 248 255 
243 248 255 
243 248 255 
243 248 255 
243 248 255 
243 248 255 
243 248 255 
243 248 255 
243 248 255 
243 248 255 
243 248 255 
243 248 255 
243 248 255 
243 248 255 
243 248 255 
243 248 255 
244 248 255 
244 248 255 
244 248 255 
244 248 255 
244 248 255 
244 249 255 
244 249 255 
244 249 255 
244 249 255 
244 249 255 
244 249 255 
244 249 255 
244 249 255 
244 249 255 
244 249 255 
244 249 255 
244 249 255 
244 249 255 
244 249 255 
244 249 255 
244 249 255 
244 249 255 
244 249 255 
244 249 255 
244 249 255 
244 249 255 
244 249 255 
244 249 255 
244 249 255 
244 249 255 
244 249 255 
244 249 255 
245 249 255 
245 249 255 
245 249 255 
245 249 255 
245 249 255 
245 249 255 
245 249 255 
245 249 255 
245 249 255 
245 249 255 
245 249 255 
245 249 255 
245 249 255 
245 249 255 
245 249 255 
245 249 255 
245 249 255 
245 249 255 
245 249 255 
245 249 255 
245 249 255 
245 249 255 
245 249 255 
245 249 255 
245 249 255 
245 249 255 
245 249 255 
245 249 255 
245 249 255 
245 249 255 
245 249 255 
245 249 255 
245 249 255 
245 249 255 
245 249 255 
245 249 255 
244 249 255 
244 249 255 
244 249 255 
244 249 255 
244 249 255 
244 249 255 
244 249 255 
244 249 255 
244 249 255 
244 249 255 
244 249 255 
244 249 255 
244 249 255 
244 249 255 
244 249 255 
244 249 255 
244 249 255 
244 249 255 
244 249 255 
244 249 255 
244 249 255 
244 249 255 
244 249 255 
244 249 255 
244 249 255 
244 249 255 
244 249 255 
244 248 255 
244 248 255 
244 248 255 
244 248 255 
244 248 255 
243 248 255 
243 248 255 
243 248 255 
243 248 255 
243 248 255 
243 248 255 
243 248 255 
243 248 255 
243 248 255 
243 248 255 
243 248 255 
243 248 255 
243 248 255 
243 248 255 
243 248 255 
243 248 255 
243 248 255 
243 248 255 
243 248 255 
243 248 255 
243 248 255 
242 248 255 
242 248 255 
242 248 255 
242 248 255 
242 248 255 
242 248 255 
242 248 255 
242 248 255 
242 248 255 
242 247 255 
242 247 255 
242 247 255 
242 247 255 
242 247 255 
242 247 255 
242 247 255 
241 245 253 
241 191 198 
238 126 130 
237 60 62 
236 0 0 
240 0 0 
234 0 0 
239 0 0 
236 0 0 
237 0 0 
237 0 0 
237 0 0 
234 0 0 
237 0 0 
235 0 0 
237 0 0 
236 0 0 
238 0 0 
235 0 0 
235 0 0 
234 0 0 
234 0 0 
237 0 0 
234 0 0 
236 0 0 
235 0 0 
234 0 0 
236 0 0 
236 0 0 
234 0 0 
236 0 0 
236 0 0 
235 0 0 
234 0 0 
237 0 0 
233 0 0 
234 0 0 
232 0 0 
236 0 0 
235 0 0 
233 0 0 
237 0 0 
235 0 0 
237 0 0 
231 0 0 
236 0 0 
239 0 0 
233 0 0 
233 0 0 
234 0 0 
237 0 0 
234 0 0 
235 0 0 
234 0 0 
233 0 0 
234 0 0 
234 0 0 
233 0 0 
232 0 0 
236 0 0 
233 0 0 
230 0 0 
235 0 0 
233 0 0 
236 0 0 
232 0 0 
232 0 0 
233 0 0 
235 0 0 
234 0 0 
235 0 0 
230 0 0 
234 0 0 
234 0 0 
234 0 0 
234 0 0 
233 0 0 
234 0 0 
232 0 0 
233 0 0 
235 0 0 
233 0 0 
235 0 0 
234 0 0 
232 0 0 
236 0 0 
232 0 0 
231 0 0 
236 0 0 
233 0 0 
234 0 0 
232 0 0 
233 0 0 
234 0 0 
236 0 0 
232 0 0 
233 0 0 
234 0 0 
235 0 0 
235 0 0 
232 0 0 
233 0 0 
233 0 0 
230 0 0 
232 0 0 
232 0 0 
235 0 0 
233 0 0 
232 0 0 
230 0 0 
234 0 0 
231 0 0 
235 0 0 
0 0 255 
0 0 255 
0 0 255 
0 0 255 
0 0 255 
0 0 255 
0 0 255 
0 0 255 
0 0 255 
0 0 255 
0 0 255 
0 0 255 
0 0 255 
0 0 255 
0 0 255 
0 0 255 
0 0 255 
0 0 254 
0 0 255 
0 0 255 
0 0 255 
0 0 255 
0 0 255 
0 0 255 
0 0 255 
0 0 255 
0 0 255 
0 0 255 
0 0 255 
0 0 255 
0 0 255 
0 0 255 
0 0 255 
0 0 255 
0 0 255 
0 0 255 
0 0 255 
0 0 255 
0 0 255 
0 0 253 
0 0 254 
0 0 255 
0 0 255 
0 0 255 
0 0 255 
0 0 253 
0 0 255 
0 0 255 
0 0 254 
0 0 254 
0 0 254 
0 0 255 
0 0 254 
0 0 249 
0 0 254 
0 0 255 
0 0 255 
0 0 255 
0 0 254 
0 0 255 
0 0 255 
0 0 254 
0 0 255 
0 0 255 
0 0 255 
0 0 255 
0 0 255 
0 0 253 
0 0 254 
0 0 253 
0 0 254 
0 0 254 
0 0 255 
0 0 254 
0 0 254 
0 0 255 
0 0 255 
0 0 254 
0 0 254 
0 0 255 
0 0 255 
0 0 255 
0 0 255 
0 0 254 
0 0 254 
0 0 254 
0 0 255 
0 0 254 
0 0 253 
0 0 254 
0 0 254 
0 0 254 
0 0 254 
0 0 252 
0 0 255 
0 0 255 
0 0 252 
0 0 252 
0 0 253 
0 0 252 
0 0 252 
0 0 255 
0 0 252 
0 0 254 
0 0 254 
0 0 254 
54 55 254 
136 140 255 
198 202 254 
234 240 255 
242 247 255 
242 247 255 
242 247 255 
242 247 255 
242 247 255 
242 247 255 
242 247 255 
242 248 255 
242 248 255 
242 248 255 
242 248 255 
242 248 255 
242 248 255 
242 248 255 
242 248 255 
242 248 255 
243 248 255 
243 248 255 
243 248 255 
243 248 255 
243 248 255 
243 248 255 
243 248 255 
243 248 255 
243 248 255 
243 248 255 
243 248 255 
243 248 255 
243 248 255 
243 248 255 
243 248 255 
243 248 255 
243 248 255 
243 248 255 
243 248 255 
243 248 255 
243 248 255 
244 248 255 
244 248 255 
244 248 255 
244 248 255 
244 248 255 
244 249 255 
244 249 255 
244 249 255 
244 249 255 
244 249 255 
244 249 255 
244 249 255 
244 249 255 
244 249 255 
244 249 255 
244 249 255 
244 249 255 
244 249 255 
244 249 255 
244 249 255 
244 249 255 
244 249 255 
244 249 255 
244 249 255 
244 249 255 
244 249 255 
244 249 255 
244 249 255 
244 249 255 
245 249 255 
245 249 255 
245 249 255 
245 249 255 
245 249 255 
245 249 255 
245 249 255 
245 249 255 
245 249 255 
245 249 255 
245 249 255 
245 249 255 
245 249 255 
245 249 255 
245 249 255 
245 249 255 
245 249 255 
245 249 255 
245 249 255 
245 249 255 
245 249 255 
245 249 255 
245 249 255 
245 249 255 
245 249 255 
245 249 255 
245 249 255 
245 249 255 
245 249 255 
245 249 255 
245 249 255 
245 249 255 
245 249 255 
245 249 255 
245 249 255 
245 249 255 
245 249 255 
245 249 255 
245 249 255 
245 249 255 
245 249 255 
245 249 255 
245 249 255 
245 249 255 
245 249 255 
245 249 255 
245 249 255 
245 249 255 
244 249 255 
244 249 255 
244 249 255 
244 249 255 
244 249 255 
244 249 255 
244 249 255 
244 249 255 
244 249 255 
244 249 255 
244 249 255 
244 249 255 
244 249 255 
244 249 255 
244 249 255 
244 249 255 
244 249 255 
244 249 255 
244 249 255 
244 249 255 
244 249 255 
244 249 255 
244 249 255 
244 249 255 
244 248 255 
244 248 255 
244 248 255 
244 248 255 
244 248 255 
243 248 255 
243 248 255 
243 248 255 
243 248 255 
243 248 255 
243 248 255 
243 248 255 
243 248 255 
243 248 255 
243 248 255 
243 248 255 
243 248 255 
243 248 255 
243 248 255 
243 248 255 
243 248 255 
243 248 255 
243 248 255 
243 248 255 
243 248 255 
243 248 255 
242 248 255 
242 248 255 
242 248 255 
242 248 255 
242 248 255 
242 248 255 
242 248 255 
242 248 255 
242 248 255 
242 247 255 
242 247 255 
242 247 255 
242 247 255 
242 247 255 
242 247 255 
242 247 255 
242 242 250 
241 204 211 
237 137 142 
239 60 62 
238 0 0 
239 0 0 
238 0 0 
239 0 0 
238 0 0 
236 0 0 
234 0 0 
234 0 0 
238 0 0 
234 0 0 
235 0 0 
238 0 0 
236 0 0 
234 0 0 
236 0 0 
234 0 0 
235 0 0 
234 0 0 
238 0 0 
233 0 0 
238 0 0 
238 0 0 
236 0 0 
233 0 0 
235 0 0 
233 0 0 
233 0 0 
236 0 0 
235 0 0 
233 0 0 
236 0 0 
236 0 0 
233 0 0 
236 0 0 
234 0 0 
235 0 0 
233 0 0 
237 0 0 
237 0 0 
234 0 0 
233 0 0 
236 0 0 
233 0 0 
235 0 0 
236 0 0 
233 0 0 
231 0 0 
232 0 0 
236 0 0 
233 0 0 
236 0 0 
232 0 0 
234 0 0 
237 0 0 
236 0 0 
234 0 0 
233 0 0 
231 0 0 
234 0 0 
233 0 0 
234 0 0 
233 0 0 
234 0 0 
232 0 0 
230 0 0 
234 0 0 
231 0 0 
236 0 0 
234 0 0 
232 0 0 
236 0 0 
234 0 0 
233 0 0 
231 0 0 
233 0 0 
233 0 0 
235 0 0 
234 0 0 
236 0 0 
232 0 0 
232 0 0 
232 0 0 
235 0 0 
234 0 0 
232 0 0 
233 0 0 
235 0 0 
234 0 0 
231 0 0 
233 0 0 
232 0 0 
234 0 0 
235 0 0 
232 0 0 
236 0 0 
233 0 0 
232 0 0 
233 0 0 
234 0 0 
233 0 0 
232 0 0 
233 0 0 
235 0 0 
232 0 0 
237 0 0 
232 0 0 
0 0 255 
0 0 255 
0 0 255 
0 0 255 
0 0 255 
0 0 255 
0 0 255 
0 0 255 
0 0 255 
0 0 255 
0 0 255 
0 0 255 
0 0 255 
0 0 255 
0 0 255 
0 0 255 
0 0 255 
0 0 255 
0 0 255 
0 0 255 
0 0 255 
0 0 255 
0 0 255 
0 0 255 
0 0 255 
0 0 255 
0 0 255 
0 0 255 
0 0 255 
0 0 255 
0 0 255 
0 0 255 
0 0 255 
0 0 255 
0 0 255 
0 0 255 
0 0 255 
0 0 254 
0 0 255 
0 0 255 
0 0 255 
0 0 255 
0 0 255 
0 0 255 
0 0 254 
0 0 254 
0 0 255 
0 0 255 
0 0 255 
0 0 254 
0 0 254 
0 0 254 
0 0 255 
0 0 255 
0 0 255 
0 0 255 
0 0 255 
0 0 254 
0 0 253 
0 0 253 
0 0 255 
0 0 252 
0 0 255 
0 0 254 
0 0 253 
0 0 254 
0 0 255 
0 0 255 
0 0 255 
0 0 255 
0 0 254 
0 0 255 
0 0 255 
0 0 255 
0 0 253 
0 0 254 
0 0 254 
0 0 253 
0 0 255 
0 0 255 
0 0 254 
0 0 255 
0 0 254 
0 0 255 
0 0 255 
0 0 255 
0 0 253 
0 0 255 
0 0 255 
0 0 254 
0 0 255 
0 0 255 
0 0 255 
0 0 254 
0 0 255 
0 0 255 
0 0 254 
0 0 254 
0 0 254 
0 0 254 
0 0 255 
0 0 252 
0 0 255 
64 65 254 
151 154 255 
196 201 255 
237 242 255 
242 247 255 
242 247 255 
242 247 255 
242 247 255 
242 247 255 
242 247 255 
242 247 255 
242 247 255 
242 248 255 
242 248 255 
242 248 255 
242 248 255 
242 248 255 
242 248 255 
242 248 255 
242 248 255 
242 248 255 
243 248 255 
243 248 255 
243 248 255 
243 248 255 
243 248 255 
243 248 255 
243 248 255 
243 248 255 
243 248 255 
243 248 255 
243 248 255 
243 248 255 
243 248 255 
243 248 255 
243 248 255 
243 248 255 
243 248 255 
243 248 255 
243 248 255 
243 248 255 
244 248 255 
244 248 255 
244 248 255 
244 248 255 
244 248 255 
244 249 255 
244 249 255 
244 249 255 
244 249 255 
244 249 255 
244 249 255 
244 249 255 
244 249 255 
244 249 255 
244 249 255 
244 249 255 
244 249 255 
244 249 255 
244 249 255 
244 249 255 
244 249 255 
244 249 255 
244 249 255 
244 249 255 
244 249 255 
244 249 255 
244 249 255 
245 249 255 
245 249 255 
245 249 255 
245 249 255 
245 249 255 
245 249 255 
245 249 255 
245 249 255 
245 249 255 
245 249 255 
245 249 255 
245 249 255 
245 249 255 
245 249 255 
245 249 255 
245 249 255 
245 249 255 
245 249 255 
245 249 255 
245 249 255 
245 249 255 
245 249 255 
245 249 255 
245 249 255 
245 249 255 
245 249 255 
245 249 255 
245 249 255 
245 249 255 
245 249 255 
245 249 255 
245 249 255 
245 249 255 
245 249 255 
245 249 255 
245 249 255 
245 249 255 
245 249 255 
245 249 255 
245 249 255 
245 249 255 
245 249 255 
245 249 255 
245 249 255 
245 249 255 
245 249 255 
245 249 255 
245 249 255 
245 249 255 
245 249 255 
245 249 255 
245 249 255 
245 249 255 
245 249 255 
245 249 255 
245 249 255 
245 249 255 
244 249 255 
244 249 255 
244 249 255 
244 249 255 
244 249 255 
244 249 255 
244 249 255 
244 249 255 
244 249 255 
244 249 255 
244 249 255 
244 249 255 
244 249 255 
244 249 255 
244 249 255 
244 249 255 
244 249 255 
244 249 255 
244 249 255 
244 249 255 
244 249 255 
244 249 255 
244 249 255 
244 248 255 
244 248 255 
244 248 255 
244 248 255 
244 248 255 
243 248 255 
243 248 255 
243 248 255 
243 248 255 
243 248 255 
243 248 255 
243 248 255 
243 248 255 
243 248 255 
243 248 255 
243 248 255 
243 248 255 
243 248 255 
243 248 255 
243 248 255 
243 248 255 
243 248 255 
243 248 255 
243 248 255 
243 248 255 
242 248 255 
242 248 255 
242 248 255 
242 248 255 
242 248 255 
242 248 255 
242 248 255 
242 248 255 
242 248 255 
242 247 255 
242 247 255 
242 247 255 
242 247 255 
242 247 255 
242 247 255 
242 247 255 
242 247 255 
241 241 249 
240 217 224 
241 158 163 
241 89 92 
239 0 0 
236 0 0 
240 0 0 
240 0 0 
240 0 0 
237 0 0 
238 0 0 
236 0 0 
238 0 0 
240 0 0 
237 0 0 
234 0 0 
237 0 0 
237 0 0 
236 0 0 
237 0 0 
235 0 0 
237 0 0 
236 0 0 
237 0 0 
230 0 0 
234 0 0 
233 0 0 
237 0 0 
237 0 0 
235 0 0 
234 0 0 
235 0 0 
235 0 0 
236 0 0 
235 0 0 
234 0 0 
237 0 0 
235 0 0 
233 0 0 
237 0 0 
235 0 0 
235 0 0 
235 0 0 
238 0 0 
235 0 0 
233 0 0 
232 0 0 
237 0 0 
232 0 0 
233 0 0 
232 0 0 
235 0 0 
232 0 0 
232 0 0 
234 0 0 
235 0 0 
235 0 0 
237 0 0 
234 0 0 
236 0 0 
234 0 0 
234 0 0 
234 0 0 
234 0 0 
235 0 0 
235 0 0 
234 0 0 
236 0 0 
234 0 0 
234 0 0 
234 0 0 
233 0 0 
234 0 0 
237 0 0 
235 0 0 
235 0 0 
235 0 0 
234 0 0 
236 0 0 
232 0 0 
234 0 0 
233 0 0 
233 0 0 
235 0 0 
235 0 0 
231 0 0 
231 0 0 
232 0 0 
232 0 0 
233 0 0 
235 0 0 
234 0 0 
235 0 0 
232 0 0 
235 0 0 
235 0 0 
235 0 0 
235 0 0 
235 0 0 
235 0 0 
231 0 0 
234 0 0 
232 0 0 
236 0 0 
235 0 0 
232 0 0 
235 0 0 
0 0 255 
0 0 255 
0 0 255 
0 0 255 
0 0 255 
0 0 255 
0 0 255 
0 0 255 
0 0 255 
0 0 255 
0 0 255 
0 0 255 
0 0 255 
0 0 255 
0 0 255 
0 0 255 
0 0 255 
0 0 255 
0 0 255 
0 0 255 
0 0 255 
0 0 255 
0 0 255 
0 0 255 
0 0 255 
0 0 255 
0 0 255 
0 0 255 
0 0 255 
0 0 254 
0 0 255 
0 0 254 
0 0 255 
0 0 255 
0 0 255 
0 0 255 
0 0 254 
0 0 255 
0 0 255 
0 0 255 
0 0 255 
0 0 255 
0 0 255 
0 0 255 
0 0 255 
0 0 255 
0 0 255 
0 0 255 
0 0 255 
0 0 252 
0 0 255 
0 0 255 
0 0 255 
0 0 255 
0 0 253 
0 0 255 
0 0 255 
0 0 255 
0 0 254 
0 0 255 
0 0 255 
0 0 255 
0 0 255 
0 0 255 
0 0 255 
0 0 255 
0 0 255 
0 0 254 
0 0 255 
0 0 254 
0 0 255 
0 0 254 
0 0 253 
0 0 254 
0 0 255 
0 0 255 
0 0 253 
0 0 254 
0 0 255 
0 0 253 
0 0 254 
0 0 255 
0 0 254 
0 0 254 
0 0 253 
0 0 253 
0 0 255 
0 0 253 
0 0 255 
0 0 255 
0 0 255 
0 0 254 
0 0 253 
0 0 255 
0 0 255 
0 0 255 
0 0 250 
0 0 254 
0 0 254 
24 24 254 
76 78 253 
169 173 255 
209 214 255 
242 247 255 
242 247 255 
242 247 255 
242 247 255 
242 247 255 
242 247 255 
242 247 255 
242 247 255 
242 247 255 
242 247 255 
242 248 255 
242 248 255 
242 248 255 
242 248 255 
242 248 255 
242 248 255 
242 248 255 
242 248 255 
243 248 255 
243 248 255 
243 248 255 
243 248 255 
243 248 255 
243 248 255 
243 248 255 
243 248 255 
243 248 255 
243 248 255 
243 248 255 
243 248 255 
243 248 255 
243 248 255 
243 248 255 
243 248 255 
243 248 255 
243 248 255 
243 248 255 
243 248 255 
244 248 255 
244 248 255 
244 248 255 
244 248 255 
244 248 255 
244 249 255 
244 249 255 
244 249 255 
244 249 255 
244 249 255 
244 249 255 
244 249 255 
244 249 255 
244 249 255 
244 249 255 
244 249 255 
244 249 255 
244 249 255 
244 249 255 
244 249 255 
244 249 255 
244 249 255 
244 249 255 
244 249 255 
244 249 255 
244 249 255 
245 249 255 
245 249 255 
245 249 255 
245 249 255 
245 249 255 
245 249 255 
245 249 255 
245 249 255 
245 249 255 
245 249 255 
245 249 255 
245 249 255 
245 249 255 
245 249 255 
245 249 255 
245 249 255 
245 249 255 
245 249 255 
245 249 255 
245 249 255 
245 249 255 
245 249 255 
245 249 255 
245 249 255 
245 249 255 
245 249 255 
245 249 255 
245 249 255 
245 249 255 
245 249 255 
245 249 255 
245 249 255 
245 249 255 
245 249 255 
245 249 255 
245 249 255 
245 249 255 
245 249 255 
245 249 255 
245 249 255 
245 249 255 
245 249 255 
245 249 255 
245 249 255 
245 249 255 
245 249 255 
245 249 255 
245 249 255 
245 249 255 
245 249 255 
245 249 255 
245 249 255 
245 249 255 
245 249 255 
245 249 255 
245 249 255 
245 249 255 
245 249 255 
245 249 255 
245 249 255 
245 249 255 
245 249 255 
245 249 255 
245 249 255 
245 249 255 
245 249 255 
244 249 255 
244 249 255 
244 249 255 
244 249 255 
244 249 255 
244 249 255 
244 249 255 
244 249 255 
244 249 255 
244 249 255 
244 249 255 
244 249 255 
244 249 255 
244 249 255 
244 249 255 
244 249 255 
244 249 255 
244 249 255 
244 249 255 
244 249 255 
244 249 255 
244 248 255 
244 248 255 
244 248 255 
244 248 255 
244 248 255 
243 248 255 
243 248 255 
243 248 255 
243 248 255 
243 248 255 
243 248 255 
243 248 255 
243 248 255 
243 248 255 
243 248 255 
243 248 255 
243 248 255 
243 248 255 
243 248 255 
243 248 255 
243 248 255 
243 248 255 
243 248 255 
243 248 255 
242 248 255 
242 248 255 
242 248 255 
242 248 255 
242 248 255 
242 248 255 
242 248 255 
242 248 255 
242 248 255 
242 247 255 
242 247 255 
242 247 255 
242 247 255 
242 247 255 
242 247 255 
242 247 255 
242 247 255 
242 247 255 
241 246 254 
241 221 228 
241 185 191 
239 107 111 
239 0 0 
236 0 0 
239 0 0 
237 0 0 
234 0 0 
239 0 0 
236 0 0 
239 0 0 
236 0 0 
238 0 0 
237 0 0 
238 0 0 
236 0 0 
235 0 0 
238 0 0 
237 0 0 
241 0 0 
233 0 0 
235 0 0 
237 0 0 
232 0 0 
235 0 0 
235 0 0 
236 0 0 
236 0 0 
234 0 0 
236 0 0 
234 0 0 
237 0 0 
236 0 0 
238 0 0 
233 0 0 
236 0 0 
236 0 0 
235 0 0 
235 0 0 
237 0 0 
233 0 0 
236 0 0 
233 0 0 
235 0 0 
235 0 0 
237 0 0 
231 0 0 
235 0 0 
236 0 0 
236 0 0 
234 0 0 
232 0 0 
236 0 0 
234 0 0 
235 0 0 
234 0 0 
236 0 0 
232 0 0 
234 0 0 
232 0 0 
233 0 0 
233 0 0 
235 0 0 
235 0 0 
232 0 0 
237 0 0 
232 0 0 
233 0 0 
234 0 0 
236 0 0 
232 0 0 
232 0 0 
234 0 0 
232 0 0 
236 0 0 
231 0 0 
233 0 0 
233 0 0 
235 0 0 
234 0 0 
234 0 0 
233 0 0 
234 0 0 
232 0 0 
233 0 0 
234 0 0 
233 0 0 
231 0 0 
231 0 0 
235 0 0 
235 0 0 
234 0 0 
235 0 0 
235 0 0 
233 0 0 
234 0 0 
234 0 0 
232 0 0 
234 0 0 
231 0 0 
233 0 0 
233 0 0 
233 0 0 
0 0 255 
0 0 255 
0 0 255 
0 0 255 
0 0 255 
0 0 255 
0 0 255 
0 0 255 
0 0 255 
0 0 255 
0 0 255 
0 0 255 
0 0 255 
0 0 255 
0 0 255 
0 0 255 
0 0 255 
0 0 255 
0 0 255 
0 0 255 
0 0 255 
0 0 255 
0 0 255 
0 0 255 
0 0 255 
0 0 255 
0 0 255 
0 0 255 
0 0 255 
0 0 255 
0 0 255 
0 0 255 
0 0 255 
0 0 255 
0 0 255 
0 0 255 
0 0 255 
0 0 255 
0 0 255 
0 0 255 
0 0 255 
0 0 254 
0 0 255 
0 0 255 
0 0 255 
0 0 255 
0 0 255 
0 0 255 
0 0 255 
0 0 255 
0 0 255 
0 0 255 
0 0 254 
0 0 255 
0 0 255 
0 0 255 
0 0 255 
0 0 253 
0 0 255 
0 0 254 
0 0 255 
0 0 255 
0 0 255 
0 0 254 
0 0 255 
0 0 255 
0 0 253 
0 0 253 
0 0 255 
0 0 254 
0 0 254 
0 0 255 
0 0 255 
0 0 255 
0 0 255 
0 0 253 
0 0 255 
0 0 255 
0 0 255 
0 0 255 
0 0 254 
0 0 254 
0 0 253 
0 0 254 
0 0 254 
0 0 255 
0 0 255 
0 0 254 
0 0 254 
0 0 255 
0 0 254 
0 0 255 
0 0 254 
0 0 254 
0 0 254 
0 0 255 
48 49 255 
138 142 255 
193 198 255 
230 236 255 
241 247 255 
242 247 255 
242 247 255 
242 247 255 
242 247 255 
242 247 255 
242 247 255 
242 247 255 
242 247 255 
242 247 255 
242 247 255 
242 248 255 
242 248 255 
242 248 255 
242 248 255 
242 248 255 
242 248 255 
242 248 255 
242 248 255 
243 248 255 
243 248 255 
243 248 255 
243 248 255 
243 248 255 
243 248 255 
243 248 255 
243 248 255 
243 248 255 
243 248 255 
243 248 255 
243 248 255 
243 248 255 
243 248 255 
243 248 255 
243 248 255 
243 248 255 
243 248 255 
243 248 255 
243 248 255 
244 248 255 
244 248 255 
244 248 255 
244 248 255 
244 249 255 
244 249 255 
244 249 255 
244 249 255 
244 249 255 
244 249 255 
244 249 255 
244 249 255 
244 249 255 
244 249 255 
244 249 255 
244 249 255 
244 249 255 
244 249 255 
244 249 255 
244 249 255 
244 249 255 
244 249 255 
244 249 255 
244 249 255 
245 249 255 
245 249 255 
245 249 255 
245 249 255 
245 249 255 
245 249 255 
245 249 255 
245 249 255 
245 249 255 
245 249 255 
245 249 255 
245 249 255 
245 249 255 
245 249 255 
245 249 255 
245 249 255 
245 249 255 
245 249 255 
245 249 255 
245 249 255 
245 249 255 
245 249 255 
245 249 255 
245 249 255 
245 249 255 
245 249 255 
245 249 255 
245 249 255 
245 249 255 
245 249 255 
245 249 255 
245 249 255 
245 249 255 
245 249 255 
245 249 255 
245 249 255 
245 249 255 
245 249 255 
245 249 255 
245 249 255 
245 249 255 
245 249 255 
245 249 255 
245 249 255 
245 249 255 
245 249 255 
245 249 255 
245 249 255 
245 249 255 
245 249 255 
245 249 255 
245 249 255 
245 249 255 
245 249 255 
245 249 255 
245 249 255 
245 249 255 
245 249 255 
245 249 255 
245 249 255 
245 249 255 
245 249 255 
245 249 255 
245 249 255 
245 249 255 
245 249 255 
245 249 255 
245 249 255 
245 249 255 
245 249 255 
245 249 255 
245 249 255 
245 249 255 
245 249 255 
244 249 255 
244 249 255 
244 249 255 
244 249 255 
244 249 255 
244 249 255 
244 249 255 
244 249 255 
244 249 255 
244 249 255 
244 249 255 
244 249 255 
244 249 255 
244 249 255 
244 249 255 
244 249 255 
244 249 255 
244 249 255 
244 249 255 
244 249 255 
244 248 255 
244 248 255 
244 248 255 
244 248 255 
243 248 255 
243 248 255 
243 248 255 
243 248 255 
243 248 255 
243 248 255 
243 248 255 
243 248 255 
243 248 255 
243 248 255 
243 248 255 
243 248 255 
243 248 255 
243 248 255 
243 248 255 
243 248 255 
243 248 255 
243 248 255 
243 248 255 
243 248 255 
242 248 255 
242 248 255 
242 248 255 
242 248 255 
242 248 255 
242 248 255 
242 248 255 
242 248 255 
242 248 255 
242 247 255 
242 247 255 
242 247 255 
242 247 255 
242 247 255 
242 247 255 
242 247 255 
242 247 255 
242 247 255 
241 247 255 
241 237 245 
242 186 193 
239 162 167 
239 60 62 
233 0 0 
239 0 0 
238 0 0 
237 0 0 
237 0 0 
236 0 0 
235 0 0 
238 0 0 
236 0 0 
235 0 0 
237 0 0 
236 0 0 
238 0 0 
238 0 0 
238 0 0 
238 0 0 
235 0 0 
237 0 0 
237 0 0 
235 0 0 
236 0 0 
236 0 0 
235 0 0 
238 0 0 
237 0 0 
235 0 0 
234 0 0 
237 0 0 
236 0 0 
234 0 0 
236 0 0 
235 0 0 
236 0 0 
234 0 0 
236 0 0 
236 0 0 
232 0 0 
234 0 0 
235 0 0 
237 0 0 
234 0 0 
237 0 0 
234 0 0 
235 0 0 
238 0 0 
231 0 0 
234 0 0 
236 0 0 
235 0 0 
237 0 0 
234 0 0 
235 0 0 
236 0 0 
232 0 0 
234 0 0 
237 0 0 
236 0 0 
235 0 0 
234 0 0 
236 0 0 
237 0 0 
233 0 0 
235 0 0 
235 0 0 
232 0 0 
237 0 0 
237 0 0 
232 0 0 
234 0 0 
234 0 0 
232 0 0 
233 0 0 
234 0 0 
235 0 0 
235 0 0 
235 0 0 
235 0 0 
235 0 0 
236 0 0 
232 0 0 
233 0 0 
234 0 0 
234 0 0 
234 0 0 
235 0 0 
233 0 0 
234 0 0 
233 0 0 
234 0 0 
234 0 0 
233 0 0 
233 0 0 
237 0 0 
235 0 0 
235 0 0 
236 0 0 
0 0 255 
0 0 255 
0 0 255 
0 0 255 
0 0 255 
0 0 255 
0 0 255 
0 0 255 
0 0 255 
0 0 255 
0 0 255 
0 0 255 
0 0 255 
0 0 255 
0 0 255 
0 0 255 
0 0 255 
0 0 255 
0 0 255 
0 0 255 
0 0 254 
0 0 255 
0 0 254 
0 0 255 
0 0 255 
0 0 255 
0 0 255 
0 0 255 
0 0 255 
0 0 255 
0 0 255 
0 0 255 
0 0 255 
0 0 255 
0 0 255 
0 0 255 
0 0 255 
0 0 254 
0 0 254 
0 0 255 
0 0 255 
0 0 255 
0 0 255 
0 0 255 
0 0 255 
0 0 255 
0 0 255 
0 0 253 
0 0 255 
0 0 254 
0 0 255 
0 0 255 
0 0 255 
0 0 255 
0 0 255 
0 0 255 
0 0 255 
0 0 254 
0 0 255 
0 0 253 
0 0 255 
0 0 255 
0 0 253 
0 0 255 
0 0 255 
0 0 255 
0 0 255 
0 0 255 
0 0 255 
0 0 254 
0 0 255 
0 0 253 
0 0 254 
0 0 255 
0 0 254 
0 0 254 
0 0 254 
0 0 253 
0 0 255 
0 0 255 
0 0 255 
0 0 255 
0 0 254 
0 0 254 
0 0 255 
0 0 254 
0 0 255 
0 0 254 
0 0 255 
0 0 255 
0 0 254 
0 0 255 
72 74 255 
136 140 255 
169 173 255 
228 233 255 
241 247 255 
241 247 255 
241 247 255 
242 247 255 
242 247 255 
242 247 255 
242 247 255 
242 247 255 
242 247 255 
242 247 255 
242 247 255 
242 247 255 
242 248 255 
242 248 255 
242 248 255 
242 248 255 
242 248 255 
242 248 255 
242 248 255 
242 248 255 
242 248 255 
243 248 255 
243 248 255 
243 248 255 
243 248 255 
243 248 255 
243 248 255 
243 248 255 
243 248 255 
243 248 255 
243 248 255 
243 248 255 
243 248 255 
243 248 255 
243 248 255 
243 248 255 
243 248 255 
243 248 255 
243 248 255 
243 248 255 
244 248 255 
244 248 255 
244 248 255 
244 248 255 
244 248 255 
244 249 255 
244 249 255 
244 249 255 
244 249 255 
244 249 255 
244 249 255 
244 249 255 
244 249 255 
244 249 255 
244 249 255 
244 249 255 
244 249 255 
244 249 255 
244 249 255 
244 249 255 
244 249 255 
244 249 255 
244 249 255 
244 249 255 
245 249 255 
245 249 255 
245 249 255 
245 249 255 
245 249 255 
245 249 255 
245 249 255 
245 249 255 
245 249 255 
245 249 255 
245 249 255 
245 249 255 
245 249 255 
245 249 255 
245 249 255 
245 249 255 
245 249 255 
245 249 255 
245 249 255 
245 249 255 
245 249 255 
245 249 255 
245 249 255 
245 249 255 
245 249 255 
245 249 255 
245 249 255 
245 249 255 
245 249 255 
245 249 255 
245 249 255 
245 249 255 
245 249 255 
245 249 255 
245 249 255 
245 249 255 
245 249 255 
245 249 255 
245 249 255 
245 249 255 
245 249 255 
245 249 255 
245 249 255 
245 249 255 
245 249 255 
245 249 255 
245 249 255 
245 249 255 
245 249 255 
245 249 255 
245 249 255 
245 249 255 
245 249 255 
245 249 255 
245 249 255 
245 249 255 
245 249 255 
245 249 255 
245 249 255 
245 249 255 
245 249 255 
245 249 255 
245 249 255 
245 249 255 
245 249 255 
245 249 255 
245 249 255 
245 249 255 
245 249 255 
245 249 255 
245 249 255 
245 249 255 
245 249 255 
245 249 255 
245 249 255 
245 249 255 
245 249 255 
245 249 255 
245 249 255 
245 249 255 
244 249 255 
244 249 255 
244 249 255 
244 249 255 
244 249 255 
244 249 255 
244 249 255 
244 249 255 
244 249 255 
244 249 255 
244 249 255 
244 249 255 
244 249 255 
244 249 255 
244 249 255 
244 249 255 
244 249 255 
244 249 255 
244 249 255 
244 248 255 
244 248 255 
244 248 255 
244 248 255 
244 248 255 
243 248 255 
243 248 255 
243 248 255 
243 248 255 
243 248 255 
243 248 255 
243 248 255 
243 248 255 
243 248 255 
243 248 255 
243 248 255 
243 248 255 
243 248 255 
243 248 255 
243 248 255 
243 248 255 
243 248 255 
243 248 255 
243 248 255 
242 248 255 
242 248 255 
242 248 255 
242 248 255 
242 248 255 
242 248 255 
242 248 255 
242 248 255 
242 248 255 
242 247 255 
242 247 255 
242 247 255 
242 247 255 
242 247 255 
242 247 255 
242 247 255 
242 247 255 
242 247 255 
241 247 255 
241 247 255 
241 247 255 
241 221 228 
241 188 194 
243 162 167 
239 60 62 
237 0 0 
237 0 0 
241 0 0 
237 0 0 
238 0 0 
239 0 0 
238 0 0 
235 0 0 
238 0 0 
237 0 0 
236 0 0 
238 0 0 
236 0 0 
237 0 0 
238 0 0 
235 0 0 
233 0 0 
237 0 0 
236 0 0 
236 0 0 
238 0 0 
238 0 0 
238 0 0 
234 0 0 
239 0 0 
233 0 0 
235 0 0 
237 0 0 
238 0 0 
237 0 0 
237 0 0 
237 0 0 
234 0 0 
236 0 0 
235 0 0 
237 0 0 
234 0 0 
236 0 0 
231 0 0 
236 0 0 
234 0 0 
237 0 0 
236 0 0 
235 0 0 
234 0 0 
234 0 0 
233 0 0 
238 0 0 
235 0 0 
236 0 0 
237 0 0 
235 0 0 
233 0 0 
236 0 0 
234 0 0 
237 0 0 
237 0 0 
235 0 0 
234 0 0 
235 0 0 
235 0 0 
234 0 0 
232 0 0 
234 0 0 
234 0 0 
233 0 0 
233 0 0 
233 0 0 
237 0 0 
234 0 0 
234 0 0 
234 0 0 
237 0 0 
234 0 0 
235 0 0 
233 0 0 
234 0 0 
235 0 0 
234 0 0 
235 0 0 
233 0 0 
233 0 0 
236 0 0 
237 0 0 
234 0 0 
236 0 0 
232 0 0 
234 0 0 
233 0 0 
234 0 0 
235 0 0 
237 0 0 
0 0 255 
0 0 255 
0 0 255 
0 0 255 
0 0 255 
0 0 255 
0 0 255 
0 0 255 
0 0 255 
0 0 255 
0 0 255 
0 0 255 
0 0 255 
0 0 255 
0 0 255 
0 0 255 
0 0 255 
0 0 255 
0 0 254 
0 0 255 
0 0 255 
0 0 255 
0 0 255 
0 0 255 
0 0 255 
0 0 255 
0 0 255 
0 0 255 
0 0 255 
0 0 255 
0 0 255 
0 0 255 
0 0 254 
0 0 255 
0 0 255 
0 0 255 
0 0 255 
0 0 255 
0 0 255 
0 0 255 
0 0 255 
0 0 255 
0 0 255 
0 0 254 
0 0 255 
0 0 255 
0 0 255 
0 0 255 
0 0 255 
0 0 255 
0 0 255 
0 0 255 
0 0 255 
0 0 255 
0 0 255 
0 0 255 
0 0 255 
0 0 255 
0 0 254 
0 0 255 
0 0 254 
0 0 255 
0 0 255 
0 0 255 
0 0 255 
0 0 255 
0 0 255 
0 0 255 
0 0 255 
0 0 255 
0 0 254 
0 0 255 
0 0 255 
0 0 255 
0 0 254 
0 0 255 
0 0 254 
0 0 254 
0 0 255 
0 0 255 
0 0 254 
0 0 254 
0 0 254 
0 0 255 
0 0 255 
0 0 255 
0 0 255 
34 34 255 
87 89 254 
152 156 254 
193 197 255 
229 234 255 
240 246 255 
241 247 255 
241 247 255 
241 247 255 
241 247 255 
242 247 255 
242 247 255 
242 247 255 
242 247 255 
242 247 255 
242 247 255 
242 247 255 
242 247 255 
242 247 255 
242 248 255 
242 248 255 
242 248 255 
242 248 255 
242 248 255 
242 248 255 
242 248 255 
242 248 255 
242 248 255 
243 248 255 
243 248 255 
243 248 255 
243 248 255 
243 248 255 
243 248 255 
243 248 255 
243 248 255 
243 248 255 
243 248 255 
243 248 255 
243 248 255 
243 248 255 
243 248 255 
243 248 255 
243 248 255 
243 248 255 
243 248 255 
243 248 255 
244 248 255 
244 248 255 
244 248 255 
244 248 255 
244 249 255 
244 249 255 
244 249 255 
244 249 255 
244 249 255 
244 249 255 
244 249 255 
244 249 255 
244 249 255 
244 249 255 
244 249 255 
244 249 255 
244 249 255 
244 249 255 
244 249 255 
244 249 255 
244 249 255 
244 249 255 
245 249 255 
245 249 255 
245 249 255 
245 249 255 
245 249 255 
245 249 255 
245 249 255 
245 249 255 
245 249 255 
245 249 255 
245 249 255 
245 249 255 
245 249 255 
245 249 255 
245 249 255 
245 249 255 
245 249 255 
245 249 255 
245 249 255 
245 249 255 
245 249 255 
245 249 255 
245 249 255 
245 249 255 
245 249 255 
245 249 255 
245 249 255 
245 249 255 
245 249 255 
245 249 255 
245 249 255 
245 249 255 
245 249 255 
245 249 255 
245 249 255 
245 249 255 
245 249 255 
245 249 255 
245 249 255 
245 249 255 
245 249 255 
245 249 255 
245 249 255 
245 249 255 
245 249 255 
245 249 255 
245 249 255 
245 249 255 
245 249 255 
245 249 255 
245 249 255 
245 249 255 
245 249 255 
245 249 255 
245 249 255 
245 249 255 
245 249 255 
245 249 255 
245 249 255 
245 249 255 
245 249 255 
245 249 255 
245 249 255 
245 249 255 
245 249 255 
245 249 255 
245 249 255 
245 249 255 
245 249 255 
245 249 255 
245 249 255 
245 249 255 
245 249 255 
245 249 255 
245 249 255 
245 249 255 
245 249 255 
245 249 255 
245 249 255 
245 249 255 
245 249 255 
245 249 255 
245 249 255 
245 249 255 
245 249 255 
245 249 255 
245 249 255 
245 249 255 
244 249 255 
244 249 255 
244 249 255 
244 249 255 
244 249 255 
244 249 255 
244 249 255 
244 249 255 
244 249 255 
244 249 255 
244 249 255 
244 249 255 
244 249 255 
244 249 255 
244 249 255 
244 249 255 
244 249 255 
244 249 255 
244 248 255 
244 248 255 
244 248 255 
244 248 255 
243 248 255 
243 248 255 
243 248 255 
243 248 255 
243 248 255 
243 248 255 
243 248 255 
243 248 255 
243 248 255 
243 248 255 
243 248 255 
243 248 255 
243 248 255 
243 248 255 
243 248 255 
243 248 255 
243 248 255 
243 248 255 
243 248 255 
242 248 255 
242 248 255 
242 248 255 
242 248 255 
242 248 255 
242 248 255 
242 248 255 
242 248 255 
242 248 255 
242 247 255 
242 247 255 
242 247 255 
242 247 255 
242 247 255 
242 247 255 
242 247 255 
242 247 255 
242 247 255 
241 247 255 
241 247 255 
241 247 255 
241 247 255 
241 247 255 
242 226 234 
242 188 194 
237 142 147 
241 118 122 
239 0 0 
238 0 0 
238 0 0 
238 0 0 
239 0 0 
237 0 0 
235 0 0 
237 0 0 
235 0 0 
236 0 0 
234 0 0 
236 0 0 
236 0 0 
235 0 0 
238 0 0 
235 0 0 
237 0 0 
236 0 0 
236 0 0 
238 0 0 
236 0 0 
236 0 0 
235 0 0 
234 0 0 
237 0 0 
238 0 0 
237 0 0 
235 0 0 
235 0 0 
234 0 0 
236 0 0 
237 0 0 
237 0 0 
236 0 0 
235 0 0 
236 0 0 
236 0 0 
234 0 0 
237 0 0 
234 0 0 
237 0 0 
234 0 0 
236 0 0 
232 0 0 
236 0 0 
235 0 0 
238 0 0 
235 0 0 
235 0 0 
235 0 0 
236 0 0 
236 0 0 
238 0 0 
235 0 0 
236 0 0 
236 0 0 
233 0 0 
237 0 0 
237 0 0 
233 0 0 
231 0 0 
236 0 0 
233 0 0 
233 0 0 
237 0 0 
237 0 0 
237 0 0 
235 0 0 
234 0 0 
237 0 0 
236 0 0 
235 0 0 
236 0 0 
236 0 0 
233 0 0 
233 0 0 
235 0 0 
235 0 0 
233 0 0 
235 0 0 
234 0 0 
234 0 0 
234 0 0 
233 0 0 
235 0 0 
234 0 0 
235 0 0 
233 0 0 
0 0 255 
0 0 255 
0 0 255 
0 0 255 
0 0 255 
0 0 255 
0 0 255 
0 0 255 
0 0 255 
0 0 255 
0 0 255 
0 0 255 
0 0 255 
0 0 255 
0 0 255 
0 0 255 
0 0 255 
0 0 255 
0 0 255 
0 0 255 
0 0 255 
0 0 255 
0 0 255 
0 0 255 
0 0 255 
0 0 254 
0 0 255 
0 0 255 
0 0 254 
0 0 255 
0 0 255 
0 0 255 
0 0 255 
0 0 255 
0 0 255 
0 0 255 
0 0 255 
0 0 254 
0 0 255 
0 0 255 
0 0 255 
0 0 255 
0 0 255 
0 0 255 
0 0 255 
0 0 255 
0 0 255 
0 0 255 
0 0 255 
0 0 255 
0 0 255 
0 0 255 
0 0 255 
0 0 255 
0 0 255 
0 0 255 
0 0 255 
0 0 255 
0 0 255 
0 0 255 
0 0 255 
0 0 255 
0 0 255 
0 0 255 
0 0 255 
0 0 255 
0 0 255 
0 0 254 
0 0 255 
0 0 255 
0 0 254 
0 0 255 
0 0 255 
0 0 255 
0 0 254 
0 0 255 
0 0 255 
0 0 254 
0 0 255 
0 0 254 
0 0 254 
0 0 255 
0 0 254 
80 82 255 
127 130 255 
167 171 253 
210 215 255 
237 243 255 
241 247 255 
241 247 255 
241 247 255 
241 247 255 
241 247 255 
241 247 255 
241 247 255 
242 247 255 
242 247 255 
242 247 255 
242 247 255 
242 247 255 
242 247 255 
242 247 255 
242 247 255 
242 247 255 
242 248 255 
242 248 255 
242 248 255 
242 248 255 
242 248 255 
242 248 255 
242 248 255 
242 248 255 
243 248 255 
243 248 255 
243 248 255 
243 248 255 
243 248 255 
243 248 255 
243 248 255 
243 248 255 
243 248 255 
243 248 255 
243 248 255 
243 248 255 
243 248 255 
243 248 255 
243 248 255 
243 248 255 
243 248 255 
243 248 255 
243 248 255 
244 248 255 
244 248 255 
244 248 255 
244 248 255 
244 248 255 
244 249 255 
244 249 255 
244 249 255 
244 249 255 
244 249 255 
244 249 255 
244 249 255 
244 249 255 
244 249 255 
244 249 255 
244 249 255 
244 249 255 
244 249 255 
244 249 255 
244 249 255 
244 249 255 
244 249 255 
245 249 255 
245 249 255 
245 249 255 
245 249 255 
245 249 255 
245 249 255 
245 249 255 
245 249 255 
245 249 255 
245 249 255 
245 249 255 
245 249 255 
245 249 255 
245 249 255 
245 249 255 
245 249 255 
245 249 255 
245 249 255 
245 249 255 
245 249 255 
245 249 255 
245 249 255 
245 249 255 
245 249 255 
245 249 255 
245 249 255 
245 249 255 
245 249 255 
245 249 255 
245 249 255 
245 249 255 
245 249 255 
245 249 255 
245 249 255 
245 249 255 
245 249 255 
245 249 255 
245 250 255 
245 250 255 
245 250 255 
245 250 255 
245 250 255 
245 250 255 
245 250 255 
245 250 255 
245 250 255 
245 250 255 
245 250 255 
245 250 255 
245 250 255 
245 250 255 
245 250 255 
245 250 255 
245 250 255 
245 250 255 
245 250 255 
245 250 255 
245 249 255 
245 249 255 
245 249 255 
245 249 255 
245 249 255 
245 249 255 
245 249 255 
245 249 255 
245 249 255 
245 249 255 
245 249 255 
245 249 255 
245 249 255 
245 249 255 
245 249 255 
245 249 255 
245 249 255 
245 249 255 
245 249 255 
245 249 255 
245 249 255 
245 249 255 
245 249 255 
245 249 255 
245 249 255 
245 249 255 
245 249 255 
245 249 255 
245 249 255 
245 249 255 
245 249 255 
245 249 255 
245 249 255 
245 249 255 
245 249 255 
245 249 255 
245 249 255 
244 249 255 
244 249 255 
244 249 255 
244 249 255 
244 249 255 
244 249 255 
244 249 255 
244 249 255 
244 249 255 
244 249 255 
244 249 255 
244 249 255 
244 249 255 
244 249 255 
244 249 255 
244 249 255 
244 249 255 
244 248 255 
244 248 255 
244 248 255 
244 248 255 
244 248 255 
243 248 255 
243 248 255 
243 248 255 
243 248 255 
243 248 255 
243 248 255 
243 248 255 
243 248 255 
243 248 255 
243 248 255 
243 248 255 
243 248 255 
243 248 255 
243 248 255 
243 248 255 
243 248 255 
243 248 255 
243 248 255 
242 248 255 
242 248 255 
242 248 255 
242 248 255 
242 248 255 
242 248 255 
242 248 255 
242 248 255 
242 248 255 
242 247 255 
242 247 255 
242 247 255 
242 247 255 
242 247 255 
242 247 255 
242 247 255 
242 247 255 
242 247 255 
241 247 255 
241 247 255 
241 247 255 
241 247 255 
241 247 255 
241 247 255 
241 247 255 
241 238 246 
240 199 206 
240 181 188 
240 150 155 
241 78 80 
242 0 0 
238 0 0 
238 0 0 
239 0 0 
236 0 0 
240 0 0 
236 0 0 
239 0 0 
237 0 0 
237 0 0 
242 0 0 
238 0 0 
238 0 0 
237 0 0 
237 0 0 
236 0 0 
236 0 0 
235 0 0 
240 0 0 
238 0 0 
238 0 0 
237 0 0 
232 0 0 
236 0 0 
235 0 0 
237 0 0 
236 0 0 
235 0 0 
233 0 0 
237 0 0 
235 0 0 
234 0 0 
236 0 0 
234 0 0 
236 0 0 
239 0 0 
237 0 0 
236 0 0 
236 0 0 
233 0 0 
236 0 0 
235 0 0 
235 0 0 
236 0 0 
236 0 0 
233 0 0 
234 0 0 
234 0 0 
234 0 0 
236 0 0 
235 0 0 
238 0 0 
236 0 0 
236 0 0 
234 0 0 
236 0 0 
234 0 0 
235 0 0 
235 0 0 
236 0 0 
236 0 0 
238 0 0 
236 0 0 
235 0 0 
234 0 0 
233 0 0 
237 0 0 
235 0 0 
235 0 0 
237 0 0 
238 0 0 
236 0 0 
236 0 0 
235 0 0 
234 0 0 
234 0 0 
233 0 0 
237 0 0 
237 0 0 
235 0 0 
235 0 0 
237 0 0 
234 0 0 
185 191 255 
172 178 255 
125 129 255 
85 88 255 
0 0 255 
0 0 255 
0 0 255 
0 0 255 
0 0 255 
0 0 255 
0 0 255 
0 0 255 
0 0 255 
0 0 255 
0 0 255 
0 0 255 
0 0 255 
0 0 255 
0 0 255 
0 0 255 
0 0 255 
0 0 255 
0 0 255 
0 0 255 
0 0 255 
0 0 255 
0 0 255 
0 0 255 
0 0 255 
0 0 255 
0 0 255 
0 0 255 
0 0 255 
0 0 255 
0 0 255 
0 0 255 
0 0 255 
0 0 255 
0 0 255 
0 0 255 
0 0 255 
0 0 255 
0 0 255 
0 0 255 
0 0 255 
0 0 255 
0 0 255 
0 0 255 
0 0 254 
0 0 255 
0 0 255 
0 0 255 
0 0 255 
0 0 254 
0 0 255 
0 0 255 
0 0 255 
0 0 255 
0 0 255 
0 0 255 
0 0 255 
0 0 255 
0 0 255 
0 0 255 
0 0 255 
0 0 255 
0 0 254 
0 0 255 
0 0 255 
0 0 255 
0 0 255 
0 0 255 
0 0 255 
0 0 255 
0 0 255 
0 0 255 
0 0 255 
34 34 255 
110 113 255 
161 165 254 
180 185 255 
194 199 255 
230 235 255 
241 247 255 
241 247 255 
241 247 255 
241 247 255 
241 247 255 
241 247 255 
241 247 255 
241 247 255 
241 247 255 
241 247 255 
242 247 255 
242 247 255 
242 247 255 
242 247 255 
242 247 255 
242 247 255 
242 247 255 
242 247 255 
242 247 255 
242 248 255 
242 248 255 
242 248 255 
242 248 255 
242 248 255 
242 248 255 
242 248 255 
242 248 255 
243 248 255 
243 248 255 
243 248 255 
243 248 255 
243 248 255 
243 248 255 
243 248 255 
243 248 255 
243 248 255 
243 248 255 
243 248 255 
243 248 255 
243 248 255 
243 248 255 
243 248 255 
243 248 255 
243 248 255 
243 248 255 
243 248 255 
244 248 255 
244 248 255 
244 248 255 
244 248 255 
244 249 255 
244 249 255 
244 249 255 
244 249 255 
244 249 255 
244 249 255 
244 249 255 
244 249 255 
244 249 255 
244 249 255 
244 249 255 
244 249 255 
244 249 255 
244 249 255 
244 249 255 
244 249 255 
244 249 255 
244 249 255 
245 249 255 
245 249 255 
245 249 255 
245 249 255 
245 249 255 
245 249 255 
245 249 255 
245 249 255 
245 249 255 
245 249 255 
245 249 255 
245 249 255 
245 249 255 
245 249 255 
245 249 255 
245 249 255 
245 249 255 
245 249 255 
245 249 255 
245 249 255 
245 249 255 
245 249 255 
245 249 255 
245 249 255 
245 249 255 
245 249 255 
245 249 255 
245 249 255 
245 249 255 
245 249 255 
245 249 255 
245 250 255 
245 250 255 
245 250 255 
245 250 255 
245 250 255 
246 250 255 
246 250 255 
246 250 255 
246 250 255 
246 250 255 
246 250 255 
246 250 255 
246 250 255 
246 250 255 
246 250 255 
246 250 255 
246 250 255 
246 250 255 
246 250 255 
246 250 255 
246 250 255 
246 250 255 
246 250 255 
246 250 255 
246 250 255 
246 250 255 
246 250 255 
246 250 255 
246 250 255 
246 250 255 
246 250 255 
245 250 255 
245 250 255 
245 250 255 
245 250 255 
245 250 255 
245 249 255 
245 249 255 
245 249 255 
245 249 255 
245 249 255 
245 249 255 
245 249 255 
245 249 255 
245 249 255 
245 249 255 
245 249 255 
245 249 255 
245 249 255 
245 249 255 
245 249 255 
245 249 255 
245 249 255 
245 249 255 
245 249 255 
245 249 255 
245 249 255 
245 249 255 
245 249 255 
245 249 255 
245 249 255 
245 249 255 
245 249 255 
245 249 255 
245 249 255 
245 249 255 
245 249 255 
244 249 255 
244 249 255 
244 249 255 
244 249 255 
244 249 255 
244 249 255 
244 249 255 
244 249 255 
244 249 255 
244 249 255 
244 249 255 
244 249 255 
244 249 255 
244 249 255 
244 249 255 
244 249 255 
244 249 255 
244 248 255 
244 248 255 
244 248 255 
244 248 255 
244 248 255 
243 248 255 
243 248 255 
243 248 255 
243 248 255 
243 248 255 
243 248 255 
243 248 255 
243 248 255 
243 248 255 
243 248 255 
243 248 255 
243 248 255 
243 248 255 
243 248 255 
243 248 255 
243 248 255 
243 248 255 
243 248 255 
243 248 255 
242 248 255 
242 248 255 
242 248 255 
242 248 255 
242 248 255 
242 248 255 
242 248 255 
242 248 255 
242 247 255 
242 247 255 
242 247 255 
242 247 255 
242 247 255 
242 247 255 
242 247 255 
242 247 255 
242 247 255 
241 247 255 
241 247 255 
241 247 255 
241 247 255 
241 247 255 
241 247 255 
241 247 255 
241 247 255 
241 247 255 
241 247 255 
241 238 246 
240 209 217 
241 181 188 
241 150 155 
240 95 99 
238 0 0 
238 0 0 
239 0 0 
237 0 0 
234 0 0 
237 0 0 
238 0 0 
241 0 0 
236 0 0 
237 0 0 
237 0 0 
237 0 0 
237 0 0 
235 0 0 
239 0 0 
234 0 0 
235 0 0 
235 0 0 
235 0 0 
238 0 0 
239 0 0 
237 0 0 
237 0 0 
234 0 0 
236 0 0 
234 0 0 
240 0 0 
238 0 0 
236 0 0 
237 0 0 
235 0 0 
235 0 0 
238 0 0 
235 0 0 
238 0 0 
233 0 0 
233 0 0 
233 0 0 
236 0 0 
236 0 0 
233 0 0 
236 0 0 
234 0 0 
235 0 0 
236 0 0 
233 0 0 
235 0 0 
234 0 0 
234 0 0 
236 0 0 
237 0 0 
234 0 0 
235 0 0 
235 0 0 
236 0 0 
236 0 0 
235 0 0 
236 0 0 
234 0 0 
234 0 0 
233 0 0 
234 0 0 
236 0 0 
238 0 0 
236 0 0 
236 0 0 
236 0 0 
235 0 0 
233 0 0 
234 0 0 
234 0 0 
235 0 0 
236 0 0 
235 42 44 
236 91 95 
236 122 128 
237 179 188 
236 197 206 
237 244 255 
237 244 255 
237 244 255 
237 244 255 
234 242 255 
216 223 255 
195 202 255 
169 175 255 
142 147 255 
92 94 255 
53 54 255 
0 0 255 
0 0 255 
0 0 255 
0 0 255 
0 0 255 
0 0 255 
0 0 255 
0 0 255 
0 0 255 
0 0 255 
0 0 255 
0 0 255 
0 0 255 
0 0 255 
0 0 255 
0 0 255 
0 0 255 
0 0 255 
0 0 255 
0 0 255 
0 0 255 
0 0 255 
0 0 255 
0 0 255 
0 0 255 
0 0 255 
0 0 255 
0 0 255 
0 0 255 
0 0 254 
0 0 255 
0 0 255 
0 0 255 
0 0 255 
0 0 255 
0 0 255 
0 0 255 
0 0 255 
0 0 254 
0 0 255 
0 0 255 
0 0 255 
0 0 254 
0 0 255 
0 0 255 
0 0 255 
0 0 255 
0 0 255 
0 0 255 
0 0 255 
0 0 255 
0 0 255 
0 0 254 
0 0 255 
0 0 255 
0 0 255 
0 0 255 
0 0 255 
0 0 255 
0 0 255 
76 78 255 
113 115 255 
138 141 255 
175 179 255 
207 212 255 
226 231 255 
241 247 255 
241 247 255 
241 247 255 
241 247 255 
241 247 255 
241 247 255 
241 247 255 
241 247 255 
241 247 255 
241 247 255 
241 247 255 
241 247 255 
241 247 255 
241 247 255 
242 247 255 
242 247 255 
242 247 255 
242 247 255 
242 247 255 
242 247 255 
242 247 255 
242 247 255 
242 247 255 
242 248 255 
242 248 255 
242 248 255 
242 248 255 
242 248 255 
242 248 255 
242 248 255 
242 248 255 
243 248 255 
243 248 255 
243 248 255 
243 248 255 
243 248 255 
243 248 255 
243 248 255 
243 248 255 
243 248 255 
243 248 255 
243 248 255 
243 248 255 
243 248 255 
243 248 255 
243 248 255 
243 248 255 
243 248 255 
243 248 255 
243 248 255 
244 248 255 
244 248 255 
244 248 255 
244 248 255 
244 249 255 
244 249 255 
244 249 255 
244 249 255 
244 249 255 
244 249 255 
244 249 255 
244 249 255 
244 249 255 
244 249 255 
244 249 255 
244 249 255 
244 249 255 
244 249 255 
244 249 255 
244 249 255 
244 249 255 
245 249 255 
245 249 255 
245 249 255 
245 249 255 
245 249 255 
245 249 255 
245 249 255 
245 249 255 
245 249 255 
245 249 255 
245 249 255 
245 249 255 
245 249 255 
245 249 255 
245 249 255 
245 249 255 
245 249 255 
245 249 255 
245 249 255 
245 249 255 
245 249 255 
245 249 255 
245 249 255 
245 249 255 
245 249 255 
245 249 255 
245 249 255 
245 249 255 
245 250 255 
245 250 255 
245 250 255 
245 250 255 
245 250 255 
246 250 255 
246 250 255 
246 250 255 
246 250 255 
246 250 255 
246 250 255 
246 250 255 
246 250 255 
246 250 255 
246 250 255 
246 250 255 
246 250 255 
246 250 255 
246 250 255 
246 250 255 
246 250 255 
246 250 255 
246 250 255 
246 250 255 
246 250 255 
246 250 255 
246 250 255 
246 250 255 
246 250 255 
246 250 255 
246 250 255 
246 250 255 
246 250 255 
246 250 255 
246 250 255 
246 250 255 
246 250 255 
246 250 255 
246 250 255 
246 250 255 
246 250 255 
246 250 255 
246 250 255 
246 250 255 
245 250 255 
245 250 255 
245 250 255 
245 250 255 
245 249 255 
245 249 255 
245 249 255 
245 249 255 
245 249 255 
245 249 255 
245 249 255 
245 249 255 
245 249 255 
245 249 255 
245 249 255 
245 249 255 
245 249 255 
245 249 255 
245 249 255 
245 249 255 
245 249 255 
245 249 255 
245 249 255 
245 249 255 
245 249 255 
245 249 255 
245 249 255 
245 249 255 
245 249 255 
245 249 255 
245 249 255 
245 249 255 
244 249 255 
244 249 255 
244 249 255 
244 249 255 
244 249 255 
244 249 255 
244 249 255 
244 249 255 
244 249 255 
244 249 255 
244 249 255 
244 249 255 
244 249 255 
244 249 255 
244 249 255 
244 249 255 
244 249 255 
244 248 255 
244 248 255 
244 248 255 
244 248 255 
243 248 255 
243 248 255 
243 248 255 
243 248 255 
243 248 255 
243 248 255 
243 248 255 
243 248 255 
243 248 255 
243 248 255 
243 248 255 
243 248 255 
243 248 255 
243 248 255 
243 248 255 
243 248 255 
243 248 255 
243 248 255 
243 248 255 
242 248 255 
242 248 255 
242 248 255 
242 248 255 
242 248 255 
242 248 255 
242 248 255 
242 248 255 
242 247 255 
242 247 255 
242 247 255 
242 247 255 
242 247 255 
242 247 255 
242 247 255 
242 247 255 
242 247 255 
241 247 255 
241 247 255 
241 247 255 
241 247 255 
241 247 255 
241 247 255 
241 247 255 
241 247 255 
241 247 255 
241 247 255 
241 247 255 
241 247 255 
241 247 255 
241 247 255 
241 226 234 
242 219 227 
238 181 188 
239 150 155 
240 123 128 
241 89 92 
240 24 25 
236 0 0 
237 0 0 
238 0 0 
238 0 0 
237 0 0 
236 0 0 
238 0 0 
241 0 0 
237 0 0 
237 0 0 
239 0 0 
235 0 0 
237 0 0 
236 0 0 
239 0 0 
237 0 0 
235 0 0 
236 0 0 
237 0 0 
237 0 0 
235 0 0 
236 0 0 
236 0 0 
236 0 0 
237 0 0 
234 0 0 
235 0 0 
236 0 0 
236 0 0 
236 0 0 
239 0 0 
238 0 0 
237 0 0 
235 0 0 
238 0 0 
233 0 0 
236 0 0 
237 0 0 
233 0 0 
235 0 0 
236 0 0 
234 0 0 
234 0 0 
235 0 0 
237 0 0 
237 0 0 
235 0 0 
237 0 0 
236 0 0 
237 0 0 
236 0 0 
238 0 0 
235 0 0 
235 0 0 
237 0 0 
237 0 0 
234 0 0 
234 0 0 
236 0 0 
237 54 57 
236 112 117 
237 134 140 
238 181 189 
237 192 201 
238 232 242 
237 242 253 
237 244 255 
237 244 255 
237 244 255 
237 244 255 
237 244 255 
237 244 255 
237 244 255 
237 245 255 
237 245 255 
237 245 255 
237 245 255 
237 245 255 
237 245 255 
237 245 255 
237 245 255 
229 236 255 
215 222 255 
194 200 255 
174 180 255 
176 181 255 
146 151 255 
109 112 255 
63 64 255 
23 24 255 
0 0 255 
0 0 255 
0 0 255 
0 0 255 
0 0 255 
0 0 255 
0 0 255 
0 0 255 
0 0 255 
0 0 255 
0 0 255 
0 0 255 
0 0 255 
0 0 255 
0 0 255 
0 0 255 
0 0 255 
0 0 255 
0 0 255 
0 0 255 
0 0 255 
0 0 255 
0 0 255 
0 0 255 
0 0 255 
0 0 255 
0 0 255 
0 0 255 
0 0 255 
0 0 255 
0 0 255 
0 0 255 
0 0 255 
0 0 255 
0 0 255 
0 0 255 
0 0 255 
0 0 255 
0 0 255 
0 0 255 
0 0 255 
0 0 255 
24 24 255 
72 74 255 
104 107 255 
122 125 254 
156 160 255 
171 176 255 
195 200 255 
214 219 255 
236 242 255 
241 247 255 
241 247 255 
241 247 255 
241 247 255 
241 247 255 
241 247 255 
241 247 255 
241 247 255 
241 247 255 
241 247 255 
241 247 255 
241 247 255 
241 247 255 
241 247 255 
241 247 255 
241 247 255 
241 247 255 
241 247 255 
242 247 255 
242 247 255 
242 247 255 
242 247 255 
242 247 255 
242 247 255 
242 247 255 
242 247 255 
242 247 255 
242 248 255 
242 248 255 
242 248 255 
242 248 255 
242 248 255 
242 248 255 
242 248 255 
242 248 255 
243 248 255 
243 248 255 
243 248 255 
243 248 255 
243 248 255 
243 248 255 
243 248 255 
243 248 255 
243 248 255 
243 248 255 
243 248 255 
243 248 255 
243 248 255 
243 248 255 
243 248 255 
243 248 255 
243 248 255 
243 248 255 
243 248 255 
244 248 255 
244 248 255 
244 248 255 
244 248 255 
244 249 255 
244 249 255 
244 249 255 
244 249 255 
244 249 255 
244 249 255 
244 249 255 
244 249 255 
244 249 255 
244 249 255 
244 249 255 
244 249 255 
244 249 255 
244 249 255 
244 249 255 
244 249 255 
245 249 255 
245 249 255 
245 249 255 
245 249 255 
245 249 255 
245 249 255 
245 249 255 
245 249 255 
245 249 255 
245 249 255 
245 249 255 
245 249 255 
245 249 255 
245 249 255 
245 249 255 
245 249 255 
245 249 255 
245 249 255 
245 249 255 
245 249 255 
245 249 255 
245 249 255 
245 249 255 
245 249 255 
245 249 255 
245 249 255 
245 249 255 
245 250 255 
245 250 255 
245 250 255 
246 250 255 
246 250 255 
246 250 255 
246 250 255 
246 250 255 
246 250 255 
246 250 255 
246 250 255 
246 250 255 
246 250 255 
246 250 255 
246 250 255 
246 250 255 
246 250 255 
246 250 255 
246 250 255 
246 250 255 
246 250 255 
246 250 255 
246 250 255 
246 250 255 
246 250 255 
246 250 255 
246 250 255 
246 250 255 
246 250 255 
246 250 255 
246 250 255 
246 250 255 
246 250 255 
246 250 255 
246 250 255 
246 250 255 
246 250 255 
246 250 255 
246 250 255 
246 250 255 
246 250 255 
246 250 255 
246 250 255 
246 250 255 
246 250 255 
246 250 255 
246 250 255 
246 250 255 
246 250 255 
246 250 255 
246 250 255 
246 250 255 
246 250 255 
245 250 255 
245 250 255 
245 250 255 
245 249 255 
245 249 255 
245 249 255 
245 249 255 
245 249 255 
245 249 255 
245 249 255 
245 249 255 
245 249 255 
245 249 255 
245 249 255 
245 249 255 
245 249 255 
245 249 255 
245 249 255 
245 249 255 
245 249 255 
245 249 255 
245 249 255 
245 249 255 
245 249 255 
245 249 255 
245 249 255 
245 249 255 
245 249 255 
245 249 255 
245 249 255 
244 249 255 
244 249 255 
244 249 255 
244 249 255 
244 249 255 
244 249 255 
244 249 255 
244 249 255 
244 249 255 
244 249 255 
244 249 255 
244 249 255 
244 249 255 
244 249 255 
244 249 255 
244 249 255 
244 248 255 
244 248 255 
244 248 255 
244 248 255 
243 248 255 
243 248 255 
243 248 255 
243 248 255 
243 248 255 
243 248 255 
243 248 255 
243 248 255 
243 248 255 
243 248 255 
243 248 255 
243 248 255 
243 248 255 
243 248 255 
243 248 255 
243 248 255 
243 248 255 
243 248 255 
243 248 255 
242 248 255 
242 248 255 
242 248 255 
242 248 255 
242 248 255 
242 248 255 
242 248 255 
242 248 255 
242 247 255 
242 247 255 
242 247 255 
242 247 255 
242 247 255 
242 247 255 
242 247 255 
242 247 255 
242 247 255 
241 247 255 
241 247 255 
241 247 255 
241 247 255 
241 247 255 
241 247 255 
241 247 255 
241 247 255 
241 247 255 
241 247 255 
241 247 255 
241 247 255 
241 247 255 
241 247 255 
241 247 255 
241 247 255 
241 247 255 
241 247 255 
240 236 245 
241 222 230 
240 215 223 
241 192 199 
239 154 159 
240 143 149 
241 110 114 
237 95 99 
241 42 44 
238 0 0 
239 0 0 
237 0 0 
237 0 0 
239 0 0 
236 0 0 
241 0 0 
235 0 0 
238 0 0 
237 0 0 
238 0 0 
235 0 0 
237 0 0 
235 0 0 
235 0 0 
235 0 0 
237 0 0 
237 0 0 
240 0 0 
237 0 0 
237 0 0 
239 0 0 
237 0 0 
237 0 0 
238 0 0 
234 0 0 
234 0 0 
236 0 0 
237 0 0 
234 0 0 
238 0 0 
236 0 0 
237 0 0 
236 0 0 
235 0 0 
236 0 0 
238 0 0 
235 0 0 
237 0 0 
238 0 0 
237 0 0 
235 0 0 
235 24 25 
237 91 95 
236 104 108 
238 138 144 
235 155 161 
238 194 203 
236 205 214 
238 218 227 
237 235 245 
237 245 255 
237 245 255 
237 245 255 
237 245 255 
237 245 255 
237 245 255 
237 245 255 
237 245 255 
237 244 255 
237 244 255 
237 244 255 
237 244 255 
237 245 255 
237 245 255 
237 245 255 
237 245 255 
237 245 255 
237 245 255 
237 245 255 
237 245 255 
237 245 255 
237 245 255 
237 245 255 
237 245 255 
238 245 255 
238 245 255 
238 245 255 
238 245 255 
238 245 255 
238 245 255 
237 244 255 
221 227 255 
218 225 255 
214 221 255 
195 201 255 
192 198 255 
180 185 255 
163 168 255 
161 166 255 
143 147 255 
124 127 255 
112 115 255 
117 120 255 
98 101 255 
92 95 255 
82 85 255 
71 73 255 
58 60 255 
0 0 255 
23 24 255 
33 34 255 
0 0 255 
0 0 255 
0 0 255 
23 24 255 
33 34 255 
33 34 255 
53 55 255 
79 81 255 
89 92 255 
89 92 255 
79 81 255 
135 139 255 
127 130 255 
131 135 255 
157 161 255 
153 157 255 
173 177 255 
181 186 255 
199 204 255 
209 215 255 
220 226 255 
234 240 255 
240 246 255 
240 246 255 
240 246 255 
240 246 255 
240 247 255 
240 247 255 
240 247 255 
241 247 255 
241 247 255 
241 247 255 
241 247 255 
241 247 255 
241 247 255 
241 247 255 
241 247 255 
241 247 255 
241 247 255 
241 247 255 
241 247 255 
241 247 255 
241 247 255 
241 247 255 
241 247 255 
241 247 255 
241 247 255 
242 247 255 
242 247 255 
242 247 255 
242 247 255 
242 247 255 
242 247 255 
242 247 255 
242 247 255 
242 247 255 
242 248 255 
242 248 255 
242 248 255 
242 248 255 
242 248 255 
242 248 255 
242 248 255 
242 248 255 
243 248 255 
243 248 255 
243 248 255 
243 248 255 
243 248 255 
243 248 255 
243 248 255 
243 248 255 
243 248 255 
243 248 255 
243 248 255 
243 248 255 
243 248 255 
243 248 255 
243 248 255 
243 248 255 
243 248 255 
243 248 255 
244 248 255 
244 248 255 
244 248 255 
244 248 255 
244 248 255 
244 249 255 
244 249 255 
244 249 255 
244 249 255 
244 249 255 
244 249 255 
244 249 255 
244 249 255 
244 249 255 
244 249 255 
244 249 255 
244 249 255 
244 249 255 
244 249 255 
244 249 255 
244 249 255 
245 249 255 
245 249 255 
245 249 255 
245 249 255 
245 249 255 
245 249 255 
245 249 255 
245 249 255 
245 249 255 
245 249 255 
245 249 255 
245 249 255 
245 249 255 
245 249 255 
245 249 255 
245 249 255 
245 249 255 
245 249 255 
245 249 255 
245 249 255 
245 249 255 
245 249 255 
245 249 255 
245 249 255 
245 250 255 
245 250 255 
245 250 255 
246 250 255 
246 250 255 
246 250 255 
246 250 255 
246 250 255 
246 250 255 
246 250 255 
246 250 255 
246 250 255 
246 250 255 
246 250 255 
246 250 255 
246 250 255 
246 250 255 
246 250 255 
246 250 255 
246 250 255 
246 250 255 
246 250 255 
246 250 255 
246 250 255 
246 250 255 
246 250 255 
246 250 255 
246 250 255 
246 250 255 
246 250 255 
246 250 255 
246 250 255 
246 250 255 
246 250 255 
246 250 255 
246 250 255 
246 250 255 
246 250 255 
246 250 255 
246 250 255 
246 250 255 
246 250 255 
246 250 255 
246 250 255 
246 250 255 
246 250 255 
246 250 255 
246 250 255 
246 250 255 
246 250 255 
246 250 255 
246 250 255 
246 250 255 
246 250 255 
246 250 255 
246 250 255 
246 250 255 
246 250 255 
246 250 255 
246 250 255 
246 250 255 
246 250 255 
246 250 255 
245 250 255 
245 250 255 
245 250 255 
245 249 255 
245 249 255 
245 249 255 
245 249 255 
245 249 255 
245 249 255 
245 249 255 
245 249 255 
245 249 255 
245 249 255 
245 249 255 
245 249 255 
245 249 255 
245 249 255 
245 249 255 
245 249 255 
245 249 255 
245 249 255 
245 249 255 
245 249 255 
245 249 255 
245 249 255 
245 249 255 
245 249 255 
244 249 255 
244 249 255 
244 249 255 
244 249 255 
244 249 255 
244 249 255 
244 249 255 
244 249 255 
244 249 255 
244 249 255 
244 249 255 
244 249 255 
244 249 255 
244 249 255 
244 249 255 
244 249 255 
244 248 255 
244 248 255 
244 248 255 
244 248 255 
244 248 255 
243 248 255 
243 248 255 
243 248 255 
243 248 255 
243 248 255 
243 248 255 
243 248 255 
243 248 255 
243 248 255 
243 248 255 
243 248 255 
243 248 255 
243 248 255 
243 248 255 
243 248 255 
243 248 255 
243 248 255 
243 248 255 
242 248 255 
242 248 255 
242 248 255 
242 248 255 
242 248 255 
242 248 255 
242 248 255 
242 248 255 
242 247 255 
242 247 255 
242 247 255 
242 247 255 
242 247 255 
242 247 255 
242 247 255 
242 247 255 
242 247 255 
241 247 255 
241 247 255 
241 247 255 
241 247 255 
241 247 255 
241 247 255 
241 247 255 
241 247 255 
241 247 255 
241 247 255 
241 247 255 
241 247 255 
241 247 255 
241 247 255 
241 247 255 
241 247 255 
241 247 255 
240 247 255 
240 247 255 
240 247 255 
240 247 255 
240 246 255 
240 246 255 
240 246 255 
240 246 255 
240 245 254 
240 234 242 
240 217 226 
239 216 224 
238 184 191 
238 184 191 
237 181 188 
239 163 169 
239 154 159 
237 115 120 
238 135 140 
237 110 114 
238 104 108 
237 85 88 
237 60 62 
236 73 76 
238 65 67 
236 49 51 
239 24 25 
239 24 25 
236 0 0 
237 0 0 
238 0 0 
237 24 25 
236 0 0 
236 65 67 
236 65 67 
236 92 95 
238 104 108 
237 95 99 
238 122 128 
236 132 137 
236 127 133 
238 157 163 
239 149 155 
238 161 167 
237 178 186 
237 182 189 
238 209 218 
237 209 218 
238 230 240 
237 231 241 
238 244 254 
238 245 255 
238 245 255 
238 245 255 
238 245 255 
238 245 255 
238 245 255 
237 245 255 
237 245 255 
237 245 255 
237 245 255 
237 245 255 
237 245 255 
237 245 255 
237 245 255 
237 245 255 
237 245 255 
237 245 255 
237 245 255 
237 244 255 
